; HEADER_BLOCK_START
; generated by OrcaSlicer 2.0.0 on 2024-06-02 at 09:37:52
; total layer number: 88
; filament_density: 1.24
; filament_diameter: 1.75
; max_z_height: 17.60
; HEADER_BLOCK_END

; THUMBNAIL_BLOCK_START

;
; THUMBNAIL_BLOCK_END

; THUMBNAIL_BLOCK_START

;
; THUMBNAIL_BLOCK_END

; external perimeters extrusion width = 0.40mm
; perimeters extrusion width = 0.42mm
; infill extrusion width = 0.45mm
; solid infill extrusion width = 0.42mm
; top infill extrusion width = 0.40mm
; first layer extrusion width = 0.50mm

; EXECUTABLE_BLOCK_START
EXCLUDE_OBJECT_DEFINE NAME=adxl345spritemount.stl_id_0_copy_0 CENTER=115,115 POLYGON=[[101.5,110],[128.5,110],[128.5,120],[124.5,120],[101.5,120],[101.5,110]]
M73 P0 R9
;TYPE:Custom
M220 S100
G90 ; use absolute coordinates
M83 ; extruder relative mode
M104 S150 ; set temporary nozzle temp to prevent oozing during homing
M140 S55 ; set final bed temp
G4 S30 ; allow partial nozzle warmup
G28 ; home all axis and restore leveling
BED_MESH_CALIBRATE PROFILE=adaptive ADAPTIVE=1 ADAPTIVE_MARGIN=0
G1 Z25 F240
G1 X10.0 Y30 F3000
M104 S210 ; set final nozzle temp
M190 S55 ; wait for bed temp to stabilize
M109 S210 ; wait for nozzle temp to stabilize
M73 P1 R9
G1 Z0.28 F240
G92 E0 ; Move Z Axis up
G1 Z2.0 F5000 ; Move to start position
M73 P2 R8
G1 X5 Y30 Z0.28 F300 ; Draw the first line
G1 X5 Y200 Z0.28 F1500 E15 ; Move to side a little
G1 X5.4 Y200 Z0.28 F5000.0 ; Draw the second line
M73 P3 R8
G1 X5.4 Y50 Z0.28 F1500.0 E30 ; Reset Extruder
G92 E0 ; Move Z Axis up
G1 Z2.0 F3000
M117 Start Printing..
G90
G21
M83 ; use relative distances for extrusion
; filament start gcode
M106 S0
;LAYER_CHANGE
;Z:0.2
;HEIGHT:0.2
;BEFORE_LAYER_CHANGE
;0.2
G92 E0

M73 P4 R8
G1 E-.5 F2400
;_SET_FAN_SPEED_CHANGING_LAYER
SET_VELOCITY_LIMIT ACCEL=500 ACCEL_TO_DECEL=250
SET_VELOCITY_LIMIT SQUARE_CORNER_VELOCITY=7
; printing object adxl345spritemount.stl id:0 copy 0
EXCLUDE_OBJECT_START NAME=adxl345spritemount.stl_id_0_copy_0
G1 Z.2 F18000
G1 X131.893 Y139.293
G1 Z.2
M73 P5 R8
G1 E.5 F2400
;TYPE:Inner wall
;WIDTH:0.499999
G1 F1800
G1 X110.207 Y139.293 E.80771
G1 X110.207 Y130.707 E.31979
G1 X131.893 Y130.707 E.80771
G1 X131.893 Y139.253 E.3183
G1 X132.35 Y139.75 F18000
;TYPE:Outer wall
G1 F1800
G1 X109.75 Y139.75 E.84176
G1 X109.75 Y130.25 E.35384
G1 X132.35 Y130.25 E.84176
G1 X132.35 Y139.71 E.35235
G1 E-.35 F2400
;WIPE_START
G1 F1800
G1 X131.35 Y139.712 E-.15
;WIPE_END
G1 Z.4 F18000
G1 X130.231 Y136.097 Z.4
M73 P6 R8
G1 Z.2
G1 E.5 F2400
;TYPE:Inner wall
G1 F1800
G1 X130.029 Y136.372 E.01269
G1 X129.694 Y136.67 E.0167
G1 X129.376 Y136.859 E.01377
G1 X128.991 Y136.996 E.01524
G1 X128.585 Y137.053 E.01524
G1 X128.177 Y137.029 E.01524
G1 X127.781 Y136.925 E.01524
G1 X127.414 Y136.744 E.01524
G1 X127.09 Y136.495 E.01524
G1 X126.904 Y136.294 E.01017
G1 X126.62 Y135.83 E.02029
G1 X126.493 Y135.441 E.01524
G1 X126.448 Y135.001 E.01646
G1 X126.527 Y134.427 E.02157
G1 X126.679 Y134.047 E.01524
G1 X126.904 Y133.705 E.01524
G1 X127.192 Y133.415 E.01524
G1 X127.532 Y133.187 E.01524
G1 X127.911 Y133.031 E.01524
G1 X128.312 Y132.954 E.01524
G1 X128.722 Y132.957 E.01524
G1 X129.122 Y133.041 E.01524
G1 X129.498 Y133.204 E.01524
G1 X129.834 Y133.437 E.01524
G1 X130.117 Y133.732 E.01524
G1 X130.336 Y134.078 E.01524
G1 X130.483 Y134.46 E.01524
G1 X130.55 Y134.863 E.01524
G1 X130.537 Y135.272 E.01524
G1 X130.442 Y135.671 E.01524
G1 X130.271 Y136.042 E.01524
G1 X130.254 Y136.065 E.00106
G1 X129.863 Y135.828 F18000
;TYPE:Outer wall
G1 F1800
G1 X129.71 Y136.045 E.0099
G1 X129.446 Y136.286 E.01331
G1 X129.209 Y136.433 E.01039
G1 X128.911 Y136.545 E.01186
G1 X128.597 Y136.596 E.01186
G1 X128.279 Y136.584 E.01186
G1 X127.969 Y136.508 E.01186
G1 X127.681 Y136.373 E.01186
G1 X127.425 Y136.184 E.01186
G1 X127.239 Y135.984 E.01017
G1 X127.05 Y135.673 E.01355
G1 X126.945 Y135.373 E.01186
G1 X126.903 Y135.046 E.01225
G1 X126.956 Y134.583 E.01735
G1 X127.069 Y134.286 E.01186
G1 X127.239 Y134.016 E.01186
G1 X127.459 Y133.786 E.01186
G1 X127.72 Y133.604 E.01186
G1 X128.012 Y133.477 E.01186
G1 X128.324 Y133.411 E.01186
G1 X128.642 Y133.407 E.01186
G1 X128.955 Y133.467 E.01186
G1 X129.25 Y133.588 E.01186
G1 X129.515 Y133.764 E.01186
G1 X129.74 Y133.99 E.01186
G1 X129.915 Y134.255 E.01186
G1 X130.035 Y134.55 E.01186
G1 X130.093 Y134.863 E.01186
G1 X130.089 Y135.182 E.01186
G1 X130.021 Y135.493 E.01186
G1 X129.893 Y135.785 E.01186
G1 X129.886 Y135.795 E.00048
G1 E-.35 F2400
;WIPE_START
G1 F1800
G1 X129.71 Y136.045 E-.04585
G1 X129.446 Y136.286 E-.05362
G1 X129.209 Y136.433 E-.04182
G1 X129.155 Y136.454 E-.00871
;WIPE_END
G1 Z.4 F18000
G1 X112.288 Y136.647 Z.4
G1 Z.2
G1 E.5 F2400
;TYPE:Inner wall
G1 F1800
G1 X112.09 Y136.495 E.00932
G1 X111.822 Y136.186 E.01524
G1 X111.62 Y135.83 E.01524
G1 X111.493 Y135.441 E.01524
G1 X111.452 Y135.171 E.01017
G1 X111.479 Y134.626 E.02029
G1 X111.593 Y134.233 E.01524
G1 X111.804 Y133.845 E.01647
G1 X112.192 Y133.415 E.02157
G1 X112.532 Y133.187 E.01524
G1 X112.911 Y133.031 E.01524
G1 X113.312 Y132.954 E.01524
G1 X113.722 Y132.957 E.01524
G1 X114.122 Y133.041 E.01524
G1 X114.498 Y133.204 E.01524
G1 X114.834 Y133.437 E.01524
G1 X115.117 Y133.732 E.01524
G1 X115.336 Y134.078 E.01524
G1 X115.483 Y134.46 E.01524
G1 X115.55 Y135 E.02028
G1 X115.483 Y135.54 E.02028
G1 X115.271 Y136.042 E.02029
G1 X115.029 Y136.372 E.01524
G1 X114.727 Y136.648 E.01524
G1 X114.376 Y136.859 E.01524
G1 X113.991 Y136.996 E.01524
G1 X113.585 Y137.053 E.01524
G1 X113.177 Y137.029 E.01524
G1 X112.781 Y136.925 E.01524
G1 X112.414 Y136.744 E.01524
G1 X112.32 Y136.672 E.00443
G1 X112.566 Y136.288 F18000
;TYPE:Outer wall
G1 F1800
G1 X112.425 Y136.184 E.00652
G1 X112.212 Y135.947 E.01186
G1 X112.05 Y135.673 E.01186
G1 X111.945 Y135.373 E.01186
G1 X111.904 Y135.102 E.01017
G1 X111.922 Y134.739 E.01355
G1 X112.005 Y134.432 E.01186
G1 X112.154 Y134.138 E.01225
G1 X112.459 Y133.786 E.01735
G1 X112.72 Y133.604 E.01186
G1 X113.012 Y133.477 E.01186
G1 X113.324 Y133.411 E.01186
G1 X113.642 Y133.407 E.01186
G1 X113.955 Y133.467 E.01186
G1 X114.25 Y133.588 E.01186
G1 X114.515 Y133.764 E.01186
G1 X114.74 Y133.99 E.01186
G1 X114.915 Y134.255 E.01186
G1 X115.035 Y134.55 E.01186
G1 X115.093 Y135 E.01689
G1 X115.035 Y135.45 E.01689
G1 X114.893 Y135.785 E.01355
G1 X114.71 Y136.045 E.01186
G1 X114.479 Y136.264 E.01186
G1 X114.209 Y136.433 E.01186
G1 X113.911 Y136.545 E.01186
G1 X113.597 Y136.596 E.01186
G1 X113.279 Y136.584 E.01186
G1 X112.969 Y136.508 E.01186
G1 X112.681 Y136.373 E.01186
G1 X112.598 Y136.312 E.00385
G1 E-.35 F2400
;WIPE_START
G1 F1800
G1 X112.425 Y136.184 E-.03227
G1 X112.212 Y135.947 E-.04777
G1 X112.05 Y135.673 E-.04777
G1 X112.001 Y135.533 E-.0222
;WIPE_END
G1 Z.4 F18000
G1 X130.829 Y130.844
G1 Z.4
G1 Z.2
G1 E.5 F2400
;TYPE:Bottom surface
;WIDTH:0.501226
G1 F3600
G1 X131.55 Y131.565 E.03807
G1 X131.55 Y132.213 E.02421
G1 X130.387 Y131.05 E.06144
G1 X129.739 Y131.05 E.02421
G1 X131.55 Y132.861 E.09567
G1 X131.55 Y133.51 E.02421
G1 X129.09 Y131.05 E.12991
G1 X128.442 Y131.05 E.02421
G1 X131.55 Y134.158 E.16414
G1 X131.55 Y134.806 E.02421
G1 X127.794 Y131.05 E.19837
G1 X127.146 Y131.05 E.02421
G1 X128.718 Y132.622 E.08302
G1 X128.585 Y132.604 E.00503
G1 X128.09 Y132.642 E.01853
G1 X126.498 Y131.05 E.08409
G1 X125.85 Y131.05 E.02421
G1 X127.588 Y132.788 E.09182
G1 X127.166 Y133.014 E.01788
G1 X125.202 Y131.05 E.10376
G1 X124.553 Y131.05 E.02421
G1 X126.81 Y133.306 E.11915
G1 X126.515 Y133.66 E.01719
G1 X123.905 Y131.05 E.13785
G1 X123.257 Y131.05 E.02421
G1 X126.288 Y134.081 E.16007
G1 X126.202 Y134.317 E.00938
G1 X126.145 Y134.586 E.01028
G1 X122.609 Y131.05 E.18675
G1 X121.961 Y131.05 E.02421
G1 X126.368 Y135.457 E.23274
G1 E-.35 F2400
;WIPE_START
M73 P7 R8
G1 F3600
G1 X125.66 Y134.749 E-.15
;WIPE_END
G1 Z.4 F18000
G1 X130.631 Y134.534 Z.4
G1 Z.2
G1 E.5 F2400
G1 F3600
G1 X131.55 Y135.454 E.04856
G1 X131.55 Y136.102 E.02421
G1 X130.852 Y135.404 E.03689
G1 X130.818 Y135.615 E.00799
G1 X130.708 Y135.908 E.01169
G1 X131.55 Y136.75 E.04449
G1 X131.55 Y137.398 E.02421
G1 X130.482 Y136.33 E.05641
G1 X130.397 Y136.467 E.00601
G1 X130.189 Y136.686 E.01126
G1 X131.55 Y138.047 E.07186
G1 X131.55 Y138.695 E.02421
G1 X129.834 Y136.979 E.09063
G1 X129.678 Y137.088 E.00712
G1 X129.412 Y137.205 E.01084
G1 X131.157 Y138.95 E.09216
G1 X130.509 Y138.95 E.02421
G1 X128.911 Y137.352 E.08439
G1 X128.774 Y137.382 E.00527
G1 X128.3 Y137.389 E.01768
G1 X129.861 Y138.95 E.08244
G1 X129.213 Y138.95 E.02421
G1 X121.313 Y131.05 E.41725
G1 X120.665 Y131.05 E.02421
G1 X128.565 Y138.95 E.41725
G1 X127.917 Y138.95 E.02421
G1 X120.016 Y131.05 E.41725
G1 X119.368 Y131.05 E.02421
G1 X127.269 Y138.95 E.41725
G1 X126.62 Y138.95 E.02421
G1 X118.72 Y131.05 E.41725
G1 X118.072 Y131.05 E.02421
G1 X125.972 Y138.95 E.41725
G1 X125.324 Y138.95 E.02421
G1 X117.424 Y131.05 E.41725
G1 X116.776 Y131.05 E.02421
G1 X124.676 Y138.95 E.41725
G1 X124.028 Y138.95 E.02421
G1 X116.128 Y131.05 E.41725
G1 X115.479 Y131.05 E.02421
G1 X123.38 Y138.95 E.41725
G1 X122.732 Y138.95 E.02421
G1 X114.831 Y131.05 E.41725
G1 X114.183 Y131.05 E.02421
G1 X122.083 Y138.95 E.41725
G1 X121.435 Y138.95 E.02421
M73 P8 R8
G1 X113.535 Y131.05 E.41725
G1 X112.887 Y131.05 E.02421
G1 X120.787 Y138.95 E.41725
G1 X120.139 Y138.95 E.02421
G1 X115.875 Y134.686 E.22519
G1 X115.894 Y135.143 E.01708
G1 X115.865 Y135.324 E.00682
G1 X119.491 Y138.95 E.19153
G1 X118.843 Y138.95 E.02421
G1 X115.733 Y135.84 E.16424
G1 X115.65 Y136.062 E.00884
G1 X115.518 Y136.273 E.00931
G1 X118.195 Y138.95 E.14138
G1 X117.546 Y138.95 E.02421
G1 X115.235 Y136.638 E.1221
G1 X115.069 Y136.814 E.00902
G1 X114.889 Y136.94 E.00822
G1 X116.898 Y138.95 E.10615
G1 X116.25 Y138.95 E.02421
G1 X114.477 Y137.177 E.09366
G1 X114.241 Y137.28 E.00962
G1 X113.988 Y137.336 E.00968
G1 X115.602 Y138.95 E.08527
G1 X114.954 Y138.95 E.02421
G1 X113.158 Y137.154 E.09486
G1 E-.35 F2400
;WIPE_START
G1 F3600
G1 X113.865 Y137.861 E-.15
;WIPE_END
G1 Z.4 F18000
G1 X114.084 Y132.895 Z.4
G1 Z.2
G1 E.5 F2400
G1 F3600
G1 X112.239 Y131.05 E.09744
G1 X111.591 Y131.05 E.02421
G1 X113.165 Y132.625 E.08317
G1 X112.826 Y132.699 E.01299
G1 X112.659 Y132.766 E.00671
G1 X110.942 Y131.05 E.09066
G1 X110.55 Y131.05 E.01466
G1 X110.55 Y131.305 E.00954
G1 X112.226 Y132.982 E.08854
G1 X111.988 Y133.139 E.01067
G1 X111.857 Y133.261 E.00667
G1 X110.55 Y131.954 E.06904
G1 X110.55 Y132.602 E.02421
G1 X111.556 Y133.607 E.05312
G1 X111.405 Y133.835 E.01018
G1 X111.323 Y134.023 E.00767
G1 X110.55 Y133.25 E.04083
G1 X110.55 Y133.898 E.02421
G1 X111.164 Y134.513 E.03246
G1 X111.117 Y134.737 E.00859
G1 X111.113 Y135.109 E.01388
G1 X110.55 Y134.546 E.02973
G1 X110.55 Y135.194 E.02421
G1 X114.306 Y138.95 E.19837
G1 X113.658 Y138.95 E.02421
G1 X110.55 Y135.842 E.16413
G1 X110.55 Y136.491 E.02421
G1 X113.009 Y138.95 E.1299
G1 X112.361 Y138.95 E.02421
G1 X110.55 Y137.139 E.09567
G1 X110.55 Y137.787 E.02421
G1 X111.713 Y138.95 E.06144
G1 X111.065 Y138.95 E.02421
G1 X110.344 Y138.229 E.03807
G1 E-.35 F2400
;WIPE_START
G1 F3600
G1 X111.051 Y138.936 E-.15
;WIPE_END
G1 Z.4 F18000
G1 X128.069 Y137.35 Z.4
G1 Z.2
G1 E.5 F2400
;TYPE:Gap infill
;WIDTH:0.105583
G1 F1800
G1 X127.815 Y137.197 E.00151
G1 E-.35 F2400
;WIPE_START
G1 F1800
G1 X128.069 Y137.35 E-.15
;WIPE_END
G1 Z.4 F18000
M73 P9 R8
G1 X129.214 Y132.811 Z.4
G1 Z.2
G1 E.5 F2400
;WIDTH:0.171473
G1 F1800
G1 X128.95 Y132.669 E.00314
G1 E-.35 F2400
;WIPE_START
G1 F1800
G1 X129.214 Y132.811 E-.15
;WIPE_END
G1 Z.4 F18000
G1 X115.831 Y134.456 Z.4
G1 Z.2
G1 E.5 F2400
;WIDTH:0.118827
G1 F1800
G1 X115.64 Y134.159 E.00218
G1 E-.35 F2400
;WIPE_START
G1 F1800
G1 X115.831 Y134.456 E-.15
;WIPE_END
G1 Z.4 F18000
G1 X131.664 Y139.029 Z.4
G1 Z.2
G1 E.5 F2400
;WIDTH:0.149442
G1 F1800
G1 X131.455 Y139.006 E.00183
G1 X131.393 Y138.98 E.00058
; stop printing object adxl345spritemount.stl id:0 copy 0
M106 S255
;LAYER_CHANGE
;Z:0.4
;HEIGHT:0.2
;BEFORE_LAYER_CHANGE
;0.4
G92 E0

G1 E-.35 F2400
;WIPE_START
G1 F1800
G1 X131.455 Y139.006 E-.03638
G1 X131.664 Y139.029 E-.11362
;WIPE_END
EXCLUDE_OBJECT_END NAME=adxl345spritemount.stl_id_0_copy_0
;_SET_FAN_SPEED_CHANGING_LAYER
SET_VELOCITY_LIMIT ACCEL=5000 ACCEL_TO_DECEL=2500
M104 S205 ; set nozzle temperature
M140 S55 ; set bed temperature
; printing object adxl345spritemount.stl id:0 copy 0
SET_VELOCITY_LIMIT SQUARE_CORNER_VELOCITY=8
EXCLUDE_OBJECT_START NAME=adxl345spritemount.stl_id_0_copy_0
G1 Z.4 F18000
G1 X132.233 Y139.433 Z.4
G1 E.5 F2400
SET_VELOCITY_LIMIT SQUARE_CORNER_VELOCITY=7
;TYPE:Inner wall
;WIDTH:0.419999
G1 F3600
G1 X110.067 Y139.433 E.68109
G1 X110.067 Y130.567 E.27242
G1 X132.233 Y130.567 E.68109
G1 X132.233 Y139.393 E.27119
SET_VELOCITY_LIMIT SQUARE_CORNER_VELOCITY=8
G1 X132.6 Y139.8 F18000
SET_VELOCITY_LIMIT ACCEL=2000 ACCEL_TO_DECEL=1000
;TYPE:Outer wall
;WIDTH:0.399999
G1 F1199.997
G1 X131.8 Y139.8 E.02328
G1 F3600
G1 X110.3 Y139.8 E.62559
G1 X109.7 Y139.8 E.01746
G1 X109.7 Y139.2 E.01746
G1 X109.7 Y130.8 E.24442
G1 X109.7 Y130.2 E.01746
G1 X110.3 Y130.2 E.01746
G1 X131.8 Y130.2 E.62559
G1 F1199.997
G1 X132.6 Y130.2 E.02328
G1 X132.6 Y131 E.02328
G1 X132.6 Y138.96 E.23162
G1 X132.6 Y139.76 E.02328
SET_VELOCITY_LIMIT ACCEL=5000 ACCEL_TO_DECEL=2500
G1 E-.35 F2400
;WIPE_START
G1 F1199.997
G1 X131.6 Y139.762 E-.15
;WIPE_END
G1 Z.6 F18000
G1 X130.123 Y136.008 Z.6
G1 Z.4
G1 E.5 F2400
SET_VELOCITY_LIMIT SQUARE_CORNER_VELOCITY=7
;TYPE:Inner wall
;WIDTH:0.419999
G1 F3600
M106 S255
G1 X129.932 Y136.272 E.01001
G1 X129.651 Y136.531 E.01172
G1 X129.325 Y136.728 E.01172
G1 X128.966 Y136.858 E.01172
G1 X128.589 Y136.913 E.01172
G1 X128.208 Y136.893 E.01172
G1 X127.839 Y136.797 E.01172
G1 X127.496 Y136.631 E.01172
G1 X127.192 Y136.399 E.01172
G1 X126.941 Y136.113 E.01172
G1 X126.752 Y135.782 E.01172
G1 X126.631 Y135.42 E.01172
G1 X126.585 Y135.041 E.01172
G1 X126.615 Y134.661 E.01172
G1 X126.732 Y134.271 E.01252
G1 X127.007 Y133.801 E.01673
G1 X127.274 Y133.529 E.01172
G1 X127.59 Y133.315 E.01172
G1 X127.942 Y133.168 E.01172
G1 X128.316 Y133.094 E.01172
G1 X128.697 Y133.095 E.01172
G1 X129.071 Y133.172 E.01172
G1 X129.422 Y133.321 E.01172
G1 X129.736 Y133.537 E.01172
G1 X130.001 Y133.811 E.01172
G1 X130.207 Y134.132 E.01172
G1 X130.345 Y134.488 E.01172
G1 X130.41 Y134.863 E.01172
G1 X130.4 Y135.245 E.01172
G1 X130.313 Y135.616 E.01172
G1 X130.155 Y135.963 E.01172
G1 X130.146 Y135.976 E.00048
SET_VELOCITY_LIMIT SQUARE_CORNER_VELOCITY=8
G1 X129.826 Y135.794 F18000
SET_VELOCITY_LIMIT ACCEL=2000 ACCEL_TO_DECEL=1000
;TYPE:Outer wall
;WIDTH:0.399999
G1 F3600
G1 X129.675 Y136.009 E.00765
G1 X129.452 Y136.222 E.00898
G1 X129.191 Y136.387 E.00898
G1 X128.902 Y136.496 E.00898
G1 X128.598 Y136.546 E.00898
G1 X128.29 Y136.535 E.00898
G1 X127.99 Y136.463 E.00898
G1 X127.71 Y136.333 E.00898
G1 X127.462 Y136.15 E.00898
G1 X127.254 Y135.921 E.00898
G1 X127.096 Y135.656 E.00898
G1 X126.994 Y135.365 E.00898
G1 X126.952 Y135.059 E.00898
G1 X126.971 Y134.752 E.00898
G1 X127.054 Y134.446 E.00921
G1 X127.276 Y134.05 E.0132
G1 X127.488 Y133.827 E.00898
G1 X127.741 Y133.649 E.00898
G1 X128.023 Y133.526 E.00898
G1 X128.325 Y133.461 E.00898
G1 X128.634 Y133.456 E.00898
G1 X128.937 Y133.513 E.00898
G1 X129.223 Y133.63 E.00898
G1 X129.48 Y133.8 E.00898
G1 X129.698 Y134.018 E.00898
G1 X129.869 Y134.275 E.00898
G1 X129.986 Y134.56 E.00898
G1 X130.043 Y134.863 E.00898
G1 X130.04 Y135.172 E.00898
G1 X129.975 Y135.474 E.00898
G1 X129.852 Y135.757 E.00898
G1 X129.849 Y135.761 E.00016
SET_VELOCITY_LIMIT ACCEL=5000 ACCEL_TO_DECEL=2500
G1 E-.35 F2400
;WIPE_START
G1 F3600
G1 X129.675 Y136.009 E-.04545
G1 X129.452 Y136.222 E-.04628
G1 X129.191 Y136.387 E-.04628
G1 X129.116 Y136.415 E-.01199
;WIPE_END
G1 Z.6 F18000
G1 X112.389 Y136.551 Z.6
G1 Z.4
G1 E.5 F2400
SET_VELOCITY_LIMIT SQUARE_CORNER_VELOCITY=7
;TYPE:Inner wall
;WIDTH:0.419999
G1 F3600
G1 X112.338 Y136.523 E.00178
G1 X112.06 Y136.262 E.01172
G1 X111.838 Y135.952 E.01172
G1 X111.682 Y135.604 E.01172
G1 X111.599 Y135.232 E.01172
G1 X111.585 Y134.959 E.00839
G1 X111.658 Y134.475 E.01504
G1 X111.799 Y134.12 E.01172
G1 X112.007 Y133.801 E.01172
G1 X112.274 Y133.529 E.01172
