; HEADER_BLOCK_START
; generated by OrcaSlicer 2.0.0 on 2024-06-06 at 19:09:24
; total layer number: 325
; filament_density: 1.27
; filament_diameter: 1.75
; max_z_height: 65.00
; HEADER_BLOCK_END

; THUMBNAIL_BLOCK_START

;
; THUMBNAIL_BLOCK_END

; THUMBNAIL_BLOCK_START

;
; THUMBNAIL_BLOCK_END

; external perimeters extrusion width = 0.40mm
; perimeters extrusion width = 0.42mm
; infill extrusion width = 0.45mm
; solid infill extrusion width = 0.42mm
; top infill extrusion width = 0.40mm
; first layer extrusion width = 0.50mm

; EXECUTABLE_BLOCK_START
EXCLUDE_OBJECT_DEFINE NAME=Arriere.stl_id_0_copy_0 CENTER=115,115 POLYGON=[[15,65],[215,65],[215,165],[15,165],[15,65]]
M73 P0 R225
;TYPE:Custom
M220 S100
G90 ; use absolute coordinates
M83 ; extruder relative mode
M104 S150 ; set temporary nozzle temp to prevent oozing during homing
M140 S70 ; set final bed temp
G4 S30 ; allow partial nozzle warmup
G28 ; home all axis and restore leveling
BED_MESH_CALIBRATE PROFILE=adaptive ADAPTIVE=1 ADAPTIVE_MARGIN=0
G1 Z25 F240
G1 X10.0 Y30 F3000
M104 S245 ; set final nozzle temp
M190 S70 ; wait for bed temp to stabilize
M109 S245 ; wait for nozzle temp to stabilize
G1 Z0.28 F240
G92 E0 ; Move Z Axis up
G1 Z2.0 F5000 ; Move to start position
G1 X5 Y30 Z0.28 F300 ; Draw the first line
G1 X5 Y200 Z0.28 F1500 E15 ; Move to side a little
G1 X5.4 Y200 Z0.28 F5000.0 ; Draw the second line
G1 X5.4 Y50 Z0.28 F1500.0 E30 ; Reset Extruder
G92 E0 ; Move Z Axis up
G1 Z2.0 F3000
M117 Start Printing..
G90
G21
M83 ; use relative distances for extrusion
; filament start gcode
M106 S0
;LAYER_CHANGE
;Z:0.2
;HEIGHT:0.2
;BEFORE_LAYER_CHANGE
;0.2
G92 E0

G1 E-.5 F2400
;_SET_FAN_SPEED_CHANGING_LAYER
SET_VELOCITY_LIMIT ACCEL=500 ACCEL_TO_DECEL=250
SET_VELOCITY_LIMIT SQUARE_CORNER_VELOCITY=7
; printing object Arriere.stl id:0 copy 0
EXCLUDE_OBJECT_START NAME=Arriere.stl_id_0_copy_0
G1 Z.2 F18000
G1 X222.293 Y85.707
G1 Z.2
G1 E.5 F2400
;TYPE:Inner wall
;WIDTH:0.499999
G1 F1800
G1 X222.293 Y184.293 E3.74688
G1 X23.707 Y184.293 E7.54751
G1 X23.707 Y85.707 E3.74688
G1 X222.253 Y85.707 E7.54599
G1 X222.75 Y85.25 F18000
;TYPE:Outer wall
G1 F1800
G1 X222.75 Y184.75 E3.78162
G1 X23.25 Y184.75 E7.58225
M73 P0 R224
G1 X23.25 Y85.25 E3.78162
G1 X222.71 Y85.25 E7.58073
G1 E-.35 F2400
;WIPE_START
G1 F1800
G1 X222.71 Y86.25 E-.15
;WIPE_END
G1 Z.4 F18000
G1 X220.809 Y178.336 Z.4
G1 Z.2
G1 E.5 F2400
;TYPE:Inner wall
G1 F1800
G1 X220.844 Y178.517 E.00702
G1 X220.766 Y179.236 E.02748
G1 X220.479 Y179.916 E.02806
G1 X220.006 Y180.524 E.02927
G1 X219.41 Y181.014 E.02934
G1 X218.698 Y181.406 E.03089
G1 X217.905 Y181.69 E.03199
G1 X217.06 Y181.864 E.03281
G1 X216.201 Y181.925 E.03271
G1 X215.318 Y181.876 E.03362
G1 X214.475 Y181.715 E.03262
G1 X213.688 Y181.449 E.03157
G1 X212.981 Y181.081 E.03029
G1 X212.378 Y180.617 E.02894
G1 X211.901 Y180.062 E.02782
G1 X211.579 Y179.423 E.02717
G1 X211.445 Y178.723 E.02712
G1 X211.523 Y178.004 E.02748
G1 X211.809 Y177.323 E.02805
G1 X212.274 Y176.725 E.0288
G1 X212.878 Y176.226 E.02979
G1 X213.591 Y175.833 E.03091
G1 X214.383 Y175.549 E.03199
G1 X215.228 Y175.376 E.03281
G1 X216.087 Y175.315 E.03271
G1 X216.97 Y175.364 E.03362
G1 X217.813 Y175.524 E.03262
G1 X218.6 Y175.791 E.03157
G1 X219.307 Y176.158 E.03029
G1 X219.911 Y176.623 E.02894
G1 X220.387 Y177.178 E.02782
G1 X220.709 Y177.816 E.02718
G1 X220.801 Y178.297 E.01858
G1 X220.364 Y178.422 F18000
;TYPE:Outer wall
G1 F1800
G1 X220.392 Y178.586 E.00632
G1 X220.314 Y179.168 E.02231
G1 X220.065 Y179.723 E.02313
G1 X219.653 Y180.232 E.02489
G1 X219.126 Y180.656 E.0257
G1 X218.483 Y181.003 E.02779
G1 X217.755 Y181.259 E.02929
G1 X216.971 Y181.415 E.03039
G1 X216.172 Y181.469 E.03046
G1 X215.347 Y181.419 E.03142
G1 X214.564 Y181.267 E.03032
G1 X213.838 Y181.017 E.02915
G1 X213.196 Y180.678 E.02759
G1 X212.661 Y180.259 E.02583
G1 X212.254 Y179.772 E.02414
G1 X211.993 Y179.23 E.02284
G1 X211.897 Y178.654 E.02219
G1 X211.974 Y178.072 E.02232
G1 X212.223 Y177.517 E.02313
G1 X212.627 Y177.015 E.02447
G1 X213.162 Y176.584 E.02611
G1 X213.806 Y176.237 E.0278
G1 X214.533 Y175.981 E.02929
G1 X215.317 Y175.824 E.03039
G1 X216.116 Y175.771 E.03046
G1 X216.941 Y175.82 E.03142
G1 X217.725 Y175.973 E.03032
G1 X218.45 Y176.222 E.02915
G1 X219.092 Y176.562 E.02759
G1 X219.627 Y176.981 E.02583
G1 X220.034 Y177.468 E.02414
G1 X220.295 Y178.01 E.02284
G1 X220.357 Y178.382 E.01436
G1 E-.35 F2400
;WIPE_START
G1 F1800
G1 X220.392 Y178.586 E-.03093
G1 X220.314 Y179.168 E-.08807
G1 X220.229 Y179.356 E-.031
;WIPE_END
G1 Z.4 F18000
G1 X211.78 Y93.821 Z.4
G1 Z.2
G1 E.5 F2400
;TYPE:Inner wall
G1 F1800
G1 X211.579 Y93.423 E.01694
G1 X211.445 Y92.723 E.02712
G1 X211.523 Y92.004 E.02748
G1 X211.809 Y91.323 E.02805
G1 X212.274 Y90.725 E.0288
G1 X212.878 Y90.226 E.02978
G1 X213.591 Y89.833 E.03091
G1 X214.383 Y89.549 E.03199
G1 X215.228 Y89.376 E.03281
G1 X216.087 Y89.315 E.03271
G1 X216.97 Y89.364 E.03362
G1 X217.813 Y89.524 E.03262
G1 X218.6 Y89.791 E.03157
G1 X219.297 Y90.153 E.02984
G1 X219.909 Y90.622 E.02932
G1 X220.387 Y91.178 E.02788
G1 X220.709 Y91.816 E.02718
G1 X220.844 Y92.517 E.02712
G1 X220.766 Y93.236 E.02748
G1 X220.479 Y93.916 E.02806
G1 X220.015 Y94.515 E.02881
G1 X219.41 Y95.014 E.02978
G1 X218.698 Y95.406 E.03091
G1 X217.905 Y95.69 E.03199
G1 X217.06 Y95.864 E.03281
G1 X216.201 Y95.925 E.03271
G1 X215.318 Y95.876 E.03362
G1 X214.475 Y95.715 E.03262
G1 X213.688 Y95.449 E.03157
G1 X212.981 Y95.081 E.03029
G1 X212.378 Y94.617 E.02894
G1 X211.901 Y94.062 E.02782
G1 X211.798 Y93.857 E.00871
G1 X212.181 Y93.619 F18000
;TYPE:Outer wall
G1 F1800
G1 X211.993 Y93.23 E.01642
G1 X211.897 Y92.654 E.02219
G1 X211.974 Y92.072 E.02232
G1 X212.223 Y91.517 E.02313
G1 X212.627 Y91.015 E.02447
G1 X213.162 Y90.584 E.02611
G1 X213.806 Y90.237 E.0278
G1 X214.533 Y89.981 E.02929
G1 X215.317 Y89.824 E.03039
G1 X216.116 Y89.771 E.03046
G1 X216.942 Y89.82 E.03142
G1 X217.725 Y89.973 E.03032
G1 X218.45 Y90.222 E.02915
G1 X219.082 Y90.556 E.02716
G1 X219.626 Y90.981 E.02624
G1 X220.034 Y91.468 E.02416
G1 X220.295 Y92.01 E.02284
G1 X220.392 Y92.586 E.02219
G1 X220.314 Y93.168 E.02231
G1 X220.065 Y93.723 E.02313
G1 X219.662 Y94.225 E.02447
G1 X219.126 Y94.656 E.02611
G1 X218.483 Y95.003 E.0278
G1 X217.755 Y95.259 E.02929
G1 X216.971 Y95.415 E.03039
G1 X216.172 Y95.469 E.03046
G1 X215.347 Y95.419 E.03142
G1 X214.564 Y95.267 E.03032
G1 X213.838 Y95.017 E.02915
G1 X213.196 Y94.678 E.02759
G1 X212.661 Y94.259 E.02583
G1 X212.254 Y93.772 E.02414
G1 X212.198 Y93.655 E.0049
G1 E-.35 F2400
;WIPE_START
G1 F1800
G1 X211.993 Y93.23 E-.07079
G1 X211.906 Y92.709 E-.07921
;WIPE_END
G1 Z.4 F18000
G1 X207.689 Y99.903 Z.4
G1 Z.2
G1 E.5 F2400
;TYPE:Inner wall
G1 F1800
G1 X207.707 Y100.027 E.00476
G1 X207.664 Y100.621 E.02262
G1 X207.529 Y101.279 E.02552
G1 X207.301 Y101.91 E.02552
G1 X206.985 Y102.503 E.02552
G1 X206.588 Y103.044 E.02552
G1 X206.118 Y103.524 E.02552
G1 X205.585 Y103.932 E.02552
G1 X204.999 Y104.26 E.02552
G1 X204.39 Y104.494 E.02479
G1 X203.721 Y104.65 E.02611
G1 X203.029 Y104.707 E.02641
G1 X127.979 Y104.707 E2.85237
G1 X127.672 Y104.635 E.01197
G1 X127.452 Y104.46 E.01067
G1 X127.328 Y104.238 E.00966
G1 X127.293 Y104.021 E.00835
G1 X127.293 Y99.979 E.15366
G1 X127.366 Y99.671 E.01199
G1 X127.568 Y99.43 E.01198
G1 X127.915 Y99.293 E.01419
G1 X207.023 Y99.293 E3.0066
G1 X207.288 Y99.346 E.01028
G1 X207.544 Y99.533 E.01202
G1 X207.665 Y99.738 E.00908
G1 X207.683 Y99.864 E.00482
G1 X207.251 Y99.967 F18000
;TYPE:Outer wall
G1 F1800
G1 X207.209 Y100.589 E.0237
G1 X207.082 Y101.182 E.02304
G1 X206.872 Y101.75 E.02304
G1 X206.584 Y102.284 E.02304
G1 X206.222 Y102.771 E.02304
G1 X205.795 Y103.201 E.02304
G1 X205.311 Y103.566 E.02304
G1 X204.78 Y103.859 E.02304
G1 X204.231 Y104.066 E.02232
G1 X203.622 Y104.204 E.02372
G1 X203.009 Y104.25 E.02335
G1 X127.979 Y104.25 E2.85164
G1 X127.817 Y104.183 E.00665
G1 X127.75 Y104.021 E.00665
G1 X127.75 Y99.979 E.15366
G1 X127.817 Y99.817 E.00666
G1 X127.979 Y99.75 E.00664
G1 X207.023 Y99.75 E3.00419
G1 X207.183 Y99.815 E.00656
G1 X207.235 Y99.93 E.0048
G1 E-.35 F2400
;WIPE_START
G1 F1800
G1 X207.209 Y100.589 E-.09885
G1 X207.137 Y100.922 E-.05115
;WIPE_END
G1 Z.4 F18000
G1 X118.518 Y132.471 Z.4
G1 Z.2
G1 E.5 F2400
;TYPE:Inner wall
G1 F1800
G1 X118.433 Y132.57 E.00495
G1 X118.145 Y132.707 E.01213
G1 X42.638 Y132.707 E2.86974
G1 X42.017 Y132.664 E.02364
G1 X41.379 Y132.533 E.02479
G1 X40.731 Y132.302 E.02611
G1 X40.136 Y131.985 E.02564
G1 X39.594 Y131.588 E.02552
G1 X39.115 Y131.118 E.02552
G1 X38.783 Y130.688 E.02065
G1 X38.379 Y129.999 E.03035
G1 X38.138 Y129.373 E.02552
G1 X37.988 Y128.718 E.02552
G1 X37.932 Y128.027 E.02633
G1 X37.964 Y127.766 E.01001
G1 X38.121 Y127.504 E.01162
G1 X38.355 Y127.344 E.01076
G1 X38.616 Y127.293 E.0101
G1 X118.021 Y127.293 E3.01792
G1 X118.262 Y127.337 E.0093
G1 X118.504 Y127.492 E.01093
G1 X118.67 Y127.756 E.01186
G1 X118.707 Y127.979 E.00857
G1 X118.707 Y132.021 E.15366
G1 X118.626 Y132.344 E.01264
G1 X118.544 Y132.441 E.00483
G1 X118.182 Y132.184 F18000
;TYPE:Outer wall
G1 F1800
G1 X118.021 Y132.25 E.00661
G1 X42.638 Y132.25 E2.86505
G1 X42.05 Y132.209 E.0224
G1 X41.476 Y132.086 E.02232
G1 X40.889 Y131.873 E.02372
G1 X40.355 Y131.584 E.02308
G1 X39.868 Y131.222 E.02304
G1 X39.438 Y130.795 E.02304
G1 X39.073 Y130.311 E.02304
G1 X38.78 Y129.78 E.02304
G1 X38.566 Y129.213 E.02304
G1 X38.435 Y128.621 E.02304
G1 X38.388 Y127.995 E.02386
G1 X38.438 Y127.835 E.00637
G1 X38.58 Y127.753 E.00626
G1 X39.106 Y127.75 E.01997
G1 X118.021 Y127.75 E2.99928
G1 X118.102 Y127.765 E.0031
G1 X118.223 Y127.871 E.00614
G1 X118.25 Y127.979 E.00421
G1 X118.25 Y132.021 E.15366
G1 X118.198 Y132.147 E.00516
G1 E-.35 F2400
;WIPE_START
G1 F1800
G1 X118.021 Y132.25 E-.03064
G1 X117.226 Y132.25 E-.11936
;WIPE_END
G1 Z.4 F18000
G1 X127.317 Y113.876 Z.4
G1 Z.2
G1 E.5 F2400
;TYPE:Inner wall
G1 F1800
G1 X127.365 Y113.672 E.00798
G1 X127.54 Y113.452 E.01067
G1 X127.762 Y113.328 E.00966
G1 X127.979 Y113.293 E.00835
G1 X207.021 Y113.293 E3.00413
G1 X207.329 Y113.366 E.01201
G1 X207.562 Y113.556 E.01143
G1 X207.707 Y113.874 E.01327
G1 X207.707 Y170.021 E2.13397
G1 X207.648 Y170.3 E.01083
G1 X207.459 Y170.55 E.01189
G1 X207.173 Y170.69 E.0121
G1 X206.135 Y170.707 E.03947
G1 X127.979 Y170.707 E2.97043
G1 X127.671 Y170.634 E.01201
G1 X127.421 Y170.421 E.01248
G1 X127.302 Y170.131 E.01192
G1 X127.293 Y169.149 E.03733
G1 X127.293 Y113.979 E2.09682
G1 X127.308 Y113.915 E.00247
G1 X127.75 Y113.979 F18000
;TYPE:Outer wall
G1 F1800
G1 X127.817 Y113.817 E.00665
G1 X127.979 Y113.75 E.00665
G1 X207.021 Y113.75 E3.00413
G1 X207.178 Y113.812 E.00641
G1 X207.25 Y113.979 E.00689
G1 X207.25 Y170.021 E2.12998
G1 X207.19 Y170.176 E.00629
M73 P0 R223
G1 X207.045 Y170.249 E.00617
G1 X206.135 Y170.25 E.0346
G1 X127.979 Y170.25 E2.97043
G1 X127.814 Y170.18 E.00682
G1 X127.75 Y170.021 E.00648
G1 X127.75 Y114.019 E2.12846
G1 E-.35 F2400
;WIPE_START
G1 F1800
G1 X127.817 Y113.817 E-.03186
G1 X127.979 Y113.75 E-.02624
G1 X128.591 Y113.75 E-.0919
;WIPE_END
G1 Z.4 F18000
G1 X118.464 Y169.479 Z.4
G1 Z.2
G1 E.5 F2400
;TYPE:Inner wall
G1 F1800
G1 X118.57 Y169.567 E.00524
G1 X118.698 Y169.865 E.01232
G1 X118.707 Y174.021 E.15797
G1 X118.646 Y174.304 E.01099
G1 X118.457 Y174.551 E.01182
G1 X118.214 Y174.679 E.01044
G1 X118.021 Y174.707 E.00739
G1 X42.638 Y174.707 E2.86505
G1 X42.017 Y174.664 E.02364
G1 X41.379 Y174.533 E.02479
G1 X40.731 Y174.302 E.02611
G1 X40.136 Y173.985 E.02564
G1 X39.594 Y173.588 E.02552
G1 X39.2 Y173.204 E.02091
G1 X38.707 Y172.585 E.03009
G1 X38.393 Y172.026 E.02437
G1 X38.138 Y171.373 E.02665
G1 X37.992 Y170.737 E.02479
G1 X37.936 Y170.088 E.02474
G1 X37.967 Y169.757 E.01264
G1 X38.121 Y169.504 E.01127
G1 X38.355 Y169.344 E.01076
G1 X38.615 Y169.293 E.0101
G1 X118.021 Y169.293 E3.01793
G1 X118.328 Y169.365 E.01197
G1 X118.433 Y169.453 E.00521
G1 X118.182 Y169.816 F18000
;TYPE:Outer wall
G1 F1800
G1 X118.25 Y169.979 E.00668
G1 X118.25 Y174.021 E.15366
G1 X118.187 Y174.179 E.00643
G1 X118.021 Y174.25 E.00686
G1 X42.638 Y174.25 E2.86505
G1 X42.05 Y174.209 E.0224
G1 X41.476 Y174.086 E.02232
G1 X40.889 Y173.873 E.02372
G1 X40.355 Y173.584 E.02308
G1 X39.868 Y173.222 E.02304
G1 X39.438 Y172.795 E.02304
G1 X39.073 Y172.311 E.02304
G1 X38.794 Y171.807 E.0219
G1 X38.566 Y171.213 E.02418
G1 X38.439 Y170.64 E.02232
G1 X38.392 Y170.053 E.02235
G1 X38.416 Y169.867 E.00714
G1 X38.561 Y169.75 E.00708
G1 X118.021 Y169.75 E3.02
G1 X118.145 Y169.801 E.00509
G1 E-.35 F2400
;WIPE_START
G1 F1800
G1 X118.25 Y169.979 E-.03091
G1 X118.25 Y170.773 E-.11909
;WIPE_END
G1 Z.4 F18000
G1 X118.021 Y160.707 Z.4
G1 Z.2
G1 E.5 F2400
;TYPE:Inner wall
G1 F1800
G1 X42.638 Y160.707 E2.86505
G1 X42.017 Y160.664 E.02364
G1 X41.379 Y160.533 E.02479
G1 X40.731 Y160.302 E.02611
G1 X40.136 Y159.985 E.02564
G1 X39.594 Y159.588 E.02552
G1 X39.115 Y159.118 E.02552
G1 X38.783 Y158.688 E.02065
G1 X38.379 Y157.999 E.03035
G1 X38.138 Y157.373 E.02552
G1 X37.988 Y156.718 E.02552
G1 X37.932 Y156.027 E.02633
G1 X37.964 Y155.766 E.01001
G1 X38.121 Y155.504 E.01162
G1 X38.355 Y155.344 E.01076
G1 X38.616 Y155.293 E.0101
G1 X118.021 Y155.293 E3.01792
G1 X118.328 Y155.365 E.01197
M73 P1 R223
G1 X118.57 Y155.567 E.01197
G1 X118.707 Y155.887 E.01323
G1 X118.707 Y160.021 E.15713
G1 X118.626 Y160.344 E.01264
G1 X118.433 Y160.57 E.01131
G1 X118.145 Y160.707 E.01213
G1 X118.061 Y160.707 E.00317
G1 X118.021 Y160.25 F18000
;TYPE:Outer wall
G1 F1800
G1 X42.638 Y160.25 E2.86505
G1 X42.05 Y160.209 E.0224
G1 X41.476 Y160.086 E.02232
G1 X40.889 Y159.873 E.02372
G1 X40.355 Y159.584 E.02309
G1 X39.868 Y159.222 E.02304
G1 X39.438 Y158.795 E.02304
G1 X39.073 Y158.311 E.02304
G1 X38.78 Y157.78 E.02304
G1 X38.566 Y157.213 E.02304
G1 X38.435 Y156.621 E.02304
G1 X38.388 Y155.995 E.02386
G1 X38.438 Y155.835 E.00637
G1 X38.616 Y155.75 E.00749
G1 X118.021 Y155.75 E3.01792
G1 X118.182 Y155.816 E.00661
G1 X118.25 Y155.979 E.00668
G1 X118.25 Y160.021 E.15366
G1 X118.182 Y160.184 E.00668
G1 X118.058 Y160.235 E.00509
G1 E-.35 F2400
;WIPE_START
G1 F1800
G1 X117.058 Y160.235 E-.15
;WIPE_END
G1 Z.4 F18000
G1 X118.021 Y146.707 Z.4
G1 Z.2
G1 E.5 F2400
;TYPE:Inner wall
G1 F1800
G1 X42.638 Y146.707 E2.86505
G1 X42.017 Y146.664 E.02364
G1 X41.379 Y146.533 E.02479
G1 X40.731 Y146.302 E.02611
G1 X40.136 Y145.985 E.02564
G1 X39.594 Y145.588 E.02552
G1 X39.115 Y145.118 E.02552
G1 X38.783 Y144.688 E.02065
G1 X38.379 Y143.999 E.03035
G1 X38.138 Y143.373 E.02552
G1 X37.988 Y142.718 E.02552
G1 X37.932 Y142.027 E.02633
G1 X37.964 Y141.766 E.01001
G1 X38.121 Y141.504 E.01162
G1 X38.355 Y141.344 E.01076
G1 X38.616 Y141.293 E.0101
G1 X118.021 Y141.293 E3.01792
G1 X118.328 Y141.365 E.01197
G1 X118.57 Y141.567 E.01197
G1 X118.707 Y141.887 E.01323
G1 X118.707 Y146.021 E.15713
G1 X118.626 Y146.344 E.01264
G1 X118.433 Y146.57 E.01131
G1 X118.145 Y146.707 E.01213
G1 X118.061 Y146.707 E.00317
G1 X118.021 Y146.25 F18000
;TYPE:Outer wall
G1 F1800
G1 X42.638 Y146.25 E2.86505
G1 X42.05 Y146.209 E.0224
G1 X41.476 Y146.086 E.02232
G1 X40.889 Y145.873 E.02372
G1 X40.355 Y145.584 E.02308
G1 X39.868 Y145.222 E.02304
G1 X39.438 Y144.795 E.02304
G1 X39.073 Y144.311 E.02304
G1 X38.78 Y143.78 E.02304
G1 X38.566 Y143.213 E.02304
G1 X38.435 Y142.621 E.02304
G1 X38.388 Y141.995 E.02386
G1 X38.438 Y141.835 E.00637
G1 X38.58 Y141.753 E.00626
G1 X118.021 Y141.75 E3.01926
G1 X118.182 Y141.816 E.00661
G1 X118.25 Y141.979 E.00668
G1 X118.25 Y146.021 E.15366
G1 X118.182 Y146.184 E.00668
G1 X118.058 Y146.235 E.00509
G1 E-.35 F2400
;WIPE_START
G1 F1800
G1 X117.058 Y146.235 E-.15
;WIPE_END
G1 Z.4 F18000
G1 X118.68 Y118.129 Z.4
G1 Z.2
G1 E.5 F2400
;TYPE:Inner wall
G1 F1800
G1 X118.626 Y118.344 E.00843
G1 X118.433 Y118.57 E.01131
G1 X118.145 Y118.707 E.01213
G1 X42.638 Y118.707 E2.86974
G1 X42.017 Y118.664 E.02364
G1 X41.36 Y118.529 E.02552
G1 X40.728 Y118.3 E.02552
G1 X40.136 Y117.985 E.02552
G1 X39.594 Y117.588 E.02552
G1 X39.128 Y117.132 E.02479
G1 X38.761 Y116.656 E.02283
G1 X38.379 Y115.999 E.02889
G1 X38.138 Y115.373 E.02552
G1 X37.988 Y114.718 E.02552
G1 X37.932 Y114.027 E.02633
G1 X37.964 Y113.766 E.01001
