; HEADER_BLOCK_START
; generated by OrcaSlicer 2.0.0 on 2024-06-03 at 18:53:41
; total layer number: 325
; filament_density: 1.27
; filament_diameter: 1.75
; max_z_height: 65.00
; HEADER_BLOCK_END

; THUMBNAIL_BLOCK_START

;
; THUMBNAIL_BLOCK_END

; THUMBNAIL_BLOCK_START

;
; THUMBNAIL_BLOCK_END

; external perimeters extrusion width = 0.40mm
; perimeters extrusion width = 0.42mm
; infill extrusion width = 0.45mm
; solid infill extrusion width = 0.42mm
; top infill extrusion width = 0.40mm
; first layer extrusion width = 0.50mm

; EXECUTABLE_BLOCK_START
EXCLUDE_OBJECT_DEFINE NAME=Arriere.stl_id_0_copy_0 CENTER=115,115 POLYGON=[[15,65],[215,65],[215,165],[15,165],[15,65]]
M73 P0 R207
;TYPE:Custom
M220 S100
G90 ; use absolute coordinates
M83 ; extruder relative mode
M104 S150 ; set temporary nozzle temp to prevent oozing during homing
M140 S70 ; set final bed temp
G4 S30 ; allow partial nozzle warmup
G28 ; home all axis and restore leveling
BED_MESH_CALIBRATE PROFILE=adaptive ADAPTIVE=1 ADAPTIVE_MARGIN=0
G1 Z25 F240
G1 X10.0 Y30 F3000
M104 S245 ; set final nozzle temp
M190 S70 ; wait for bed temp to stabilize
M109 S245 ; wait for nozzle temp to stabilize
G1 Z0.28 F240
G92 E0 ; Move Z Axis up
G1 Z2.0 F5000 ; Move to start position
G1 X5 Y30 Z0.28 F300 ; Draw the first line
G1 X5 Y200 Z0.28 F1500 E15 ; Move to side a little
G1 X5.4 Y200 Z0.28 F5000.0 ; Draw the second line
G1 X5.4 Y50 Z0.28 F1500.0 E30 ; Reset Extruder
G92 E0 ; Move Z Axis up
G1 Z2.0 F3000
M117 Start Printing..
G90
G21
M83 ; use relative distances for extrusion
; filament start gcode
M106 S0
;LAYER_CHANGE
;Z:0.2
;HEIGHT:0.2
;BEFORE_LAYER_CHANGE
;0.2
G92 E0

G1 E-.5 F2400
;_SET_FAN_SPEED_CHANGING_LAYER
SET_VELOCITY_LIMIT ACCEL=500 ACCEL_TO_DECEL=250
SET_VELOCITY_LIMIT SQUARE_CORNER_VELOCITY=7
; printing object Arriere.stl id:0 copy 0
EXCLUDE_OBJECT_START NAME=Arriere.stl_id_0_copy_0
G1 Z.2 F18000
G1 X222.293 Y184.293
G1 Z.2
G1 E.5 F2400
;TYPE:Inner wall
;WIDTH:0.499999
G1 F1800
G1 X23.707 Y184.293 E7.54751
G1 X23.707 Y85.707 E3.74688
M73 P0 R206
G1 X222.293 Y85.707 E7.54751
G1 X222.293 Y184.253 E3.74536
G1 X222.75 Y184.75 F18000
;TYPE:Outer wall
G1 F1800
G1 X23.25 Y184.75 E7.58225
G1 X23.25 Y85.25 E3.78162
G1 X222.75 Y85.25 E7.58225
G1 X222.75 Y184.71 E3.7801
G1 E-.35 F2400
;WIPE_START
G1 F1800
G1 X221.75 Y184.71 E-.15
;WIPE_END
G1 Z.4 F18000
G1 X218.767 Y177.641 Z.4
G1 Z.2
G1 E.5 F2400
;TYPE:Inner wall
G1 F1800
G1 X218.791 Y177.695 E.00222
G1 X218.916 Y178.192 E.01948
G1 X218.949 Y178.68 E.01859
G1 X218.896 Y179.166 E.01858
G1 X218.759 Y179.635 E.01858
G1 X218.543 Y180.074 E.01858
G1 X218.254 Y180.468 E.01858
G1 X217.919 Y180.79 E.01767
G1 X217.495 Y181.079 E.01948
G1 X217.047 Y181.276 E.01859
G1 X216.572 Y181.392 E.01858
G1 X216.084 Y181.424 E.01859
G1 X215.598 Y181.371 E.01858
G1 X215.129 Y181.235 E.01859
G1 X214.69 Y181.019 E.01858
G1 X214.296 Y180.73 E.01858
G1 X213.957 Y180.377 E.01858
G1 X213.685 Y179.97 E.01858
G1 X213.488 Y179.523 E.01859
G1 X213.372 Y179.048 E.01858
G1 X213.34 Y178.56 E.01858
G1 X213.393 Y178.074 E.01859
G1 X213.529 Y177.605 E.01858
G1 X213.745 Y177.166 E.01858
G1 X214.034 Y176.771 E.01858
G1 X214.387 Y176.433 E.01858
G1 X214.794 Y176.161 E.01858
G1 X215.397 Y175.922 E.02467
G1 X215.716 Y175.848 E.01245
G1 X216.18 Y175.816 E.01767
G1 X216.69 Y175.868 E.01948
G1 X217.159 Y176.005 E.01859
G1 X217.598 Y176.221 E.01858
G1 X217.993 Y176.51 E.01858
G1 X218.331 Y176.863 E.01858
G1 X218.603 Y177.269 E.01858
G1 X218.751 Y177.605 E.01393
G1 X218.354 Y177.829 F18000
;TYPE:Outer wall
G1 F1800
G1 X218.461 Y178.231 E.01583
G1 X218.493 Y178.64 E.01557
G1 X218.454 Y179.047 E.01556
G1 X218.345 Y179.442 E.01556
G1 X218.169 Y179.812 E.01556
G1 X217.931 Y180.145 E.01556
G1 X217.653 Y180.418 E.01479
G1 X217.302 Y180.664 E.01632
G1 X216.929 Y180.834 E.01557
G1 X216.532 Y180.937 E.01556
G1 X216.124 Y180.969 E.01556
G1 X215.717 Y180.93 E.01556
G1 X215.322 Y180.821 E.01556
G1 X214.952 Y180.644 E.01556
G1 X214.619 Y180.407 E.01556
G1 X214.332 Y180.115 E.01556
G1 X214.1 Y179.777 E.01556
G1 X213.93 Y179.405 E.01557
G1 X213.827 Y179.008 E.01556
G1 X213.795 Y178.6 E.01556
G1 X213.834 Y178.192 E.01556
G1 X213.943 Y177.798 E.01556
G1 X214.12 Y177.428 E.01556
G1 X214.357 Y177.095 E.01556
G1 X214.649 Y176.807 E.01556
G1 X214.987 Y176.575 E.01556
G1 X215.515 Y176.364 E.02164
G1 X216.106 Y176.272 E.02271
G1 X216.572 Y176.31 E.01776
G1 X216.966 Y176.419 E.01557
G1 X217.336 Y176.595 E.01556
G1 X217.669 Y176.833 E.01556
G1 X217.957 Y177.125 E.01556
G1 X218.189 Y177.463 E.01556
G1 X218.339 Y177.792 E.01376
G1 E-.35 F2400
;WIPE_START
G1 F1800
G1 X218.461 Y178.231 E-.06844
G1 X218.493 Y178.64 E-.06144
G1 X218.481 Y178.773 E-.02012
;WIPE_END
G1 Z.4 F18000
G1 X127.875 Y104.682 Z.4
G1 Z.2
G1 E.5 F2400
;TYPE:Inner wall
G1 F1800
G1 X127.669 Y104.633 E.00807
G1 X127.423 Y104.423 E.01228
G1 X127.293 Y104.104 E.01309
G1 X127.293 Y95.979 E.30883
G1 X127.35 Y95.704 E.01065
G1 X127.524 Y95.465 E.01125
G1 X127.776 Y95.324 E.01095
G1 X127.979 Y95.293 E.0078
G1 X203.001 Y95.293 E2.85132
G1 X203.651 Y95.34 E.02476
G1 X204.338 Y95.489 E.02673
G1 X204.995 Y95.739 E.02673
G1 X205.608 Y96.084 E.02673
G1 X206.163 Y96.516 E.02673
G1 X206.566 Y96.939 E.0222
G1 X206.912 Y97.401 E.02195
G1 X207.203 Y97.905 E.02214
G1 X207.435 Y98.445 E.02231
G1 X207.589 Y98.954 E.02021
G1 X207.688 Y99.597 E.02474
G1 X207.696 Y100.301 E.02673
G1 X207.599 Y100.997 E.02673
G1 X207.399 Y101.671 E.02673
G1 X207.1 Y102.308 E.02673
G1 X206.728 Y102.869 E.02559
G1 X206.241 Y103.411 E.02767
G1 X205.693 Y103.859 E.02692
G1 X205.088 Y104.217 E.02673
G1 X204.436 Y104.481 E.02673
G1 X203.752 Y104.645 E.02673
G1 X203.03 Y104.707 E.02755
G1 X127.979 Y104.707 E2.85242
G1 X127.914 Y104.692 E.00251
G1 X127.979 Y104.25 F18000
;TYPE:Outer wall
G1 F1800
G1 X127.825 Y104.19 E.00627
G1 X127.75 Y104.04 E.00639
G1 X127.75 Y95.979 E.30637
G1 X127.806 Y95.828 E.0061
G1 X127.949 Y95.75 E.00618
G1 X203.001 Y95.75 E2.85244
G1 X203.616 Y95.795 E.02346
G1 X204.236 Y95.934 E.02414
G1 X204.828 Y96.164 E.02414
G1 X205.38 Y96.479 E.02414
G1 X205.878 Y96.873 E.02414
G1 X206.231 Y97.25 E.01961
G1 X206.534 Y97.659 E.01935
G1 X206.792 Y98.104 E.01954
G1 X206.998 Y98.58 E.01972
G1 X207.147 Y99.071 E.01951
G1 X207.236 Y99.665 E.02284
G1 X207.239 Y100.301 E.02414
G1 X207.147 Y100.929 E.02414
G1 X206.962 Y101.537 E.02414
G1 X206.689 Y102.11 E.02414
G1 X206.35 Y102.611 E.023
G1 X205.904 Y103.102 E.0252
G1 X205.408 Y103.501 E.0242
G1 X204.859 Y103.821 E.02414
G1 X204.269 Y104.056 E.02414
G1 X203.65 Y104.199 E.02414
G1 X203.01 Y104.25 E.02442
G1 X128.019 Y104.25 E2.85014
G1 E-.35 F2400
;WIPE_START
G1 F1800
G1 X127.825 Y104.19 E-.03043
G1 X127.75 Y104.04 E-.02523
G1 X127.75 Y103.411 E-.09434
;WIPE_END
G1 Z.4 F18000
G1 X215.637 Y89.867 Z.4
G1 Z.2
G1 E.5 F2400
;TYPE:Inner wall
G1 F1800
G1 X215.716 Y89.848 E.0031
G1 X216.18 Y89.816 E.01767
G1 X216.69 Y89.868 E.01948
G1 X217.159 Y90.005 E.01859
G1 X217.598 Y90.221 E.01858
G1 X217.993 Y90.51 E.01858
G1 X218.331 Y90.863 E.01858
G1 X218.603 Y91.269 E.01858
G1 X218.791 Y91.695 E.01767
G1 X218.916 Y92.192 E.01948
G1 X218.949 Y92.68 E.01859
G1 X218.896 Y93.166 E.01858
G1 X218.759 Y93.635 E.01859
G1 X218.543 Y94.074 E.01858
G1 X218.254 Y94.468 E.01858
G1 X217.919 Y94.79 E.01767
G1 X217.495 Y95.079 E.01948
G1 X217.047 Y95.276 E.01859
G1 X216.572 Y95.392 E.01858
G1 X216.084 Y95.424 E.01859
G1 X215.598 Y95.371 E.01858
G1 X215.129 Y95.235 E.01859
G1 X214.69 Y95.019 E.01858
G1 X214.296 Y94.73 E.01858
G1 X213.957 Y94.377 E.01858
G1 X213.632 Y93.857 E.02331
G1 X213.488 Y93.523 E.01381
G1 X213.372 Y93.048 E.01858
G1 X213.34 Y92.56 E.01858
G1 X213.393 Y92.074 E.01859
G1 X213.529 Y91.605 E.01858
G1 X213.745 Y91.166 E.01858
G1 X214.034 Y90.771 E.01858
G1 X214.387 Y90.433 E.01858
G1 X214.794 Y90.161 E.01858
G1 X215.241 Y89.964 E.01858
G1 X215.598 Y89.877 E.01397
G1 X215.744 Y90.306 F18000
;TYPE:Outer wall
G1 F1800
G1 X215.756 Y90.303 E.00046
G1 X216.144 Y90.272 E.01479
G1 X216.572 Y90.31 E.01632
G1 X216.966 Y90.419 E.01557
G1 X217.336 Y90.595 E.01556
G1 X217.669 Y90.833 E.01556
G1 X217.957 Y91.125 E.01556
G1 X218.189 Y91.463 E.01556
G1 X218.35 Y91.817 E.01479
G1 X218.461 Y92.231 E.01632
G1 X218.493 Y92.64 E.01557
G1 X218.454 Y93.047 E.01556
G1 X218.345 Y93.442 E.01556
G1 X218.169 Y93.812 E.01556
G1 X217.931 Y94.145 E.01556
G1 X217.653 Y94.418 E.01479
G1 X217.302 Y94.664 E.01632
G1 X216.929 Y94.834 E.01557
G1 X216.532 Y94.937 E.01556
G1 X216.124 Y94.969 E.01556
G1 X215.556 Y94.887 E.02181
G1 X215.077 Y94.706 E.01948
G1 X214.649 Y94.432 E.01929
G1 X214.332 Y94.115 E.01707
G1 X214.047 Y93.663 E.02029
G1 X213.865 Y93.163 E.02025
G1 X213.795 Y92.64 E.02005
G1 X213.834 Y92.192 E.01707
G1 X213.943 Y91.798 E.01556
G1 X214.12 Y91.428 E.01556
G1 X214.357 Y91.095 E.01556
G1 X214.649 Y90.807 E.01556
G1 X214.987 Y90.575 E.01556
G1 X215.359 Y90.406 E.01556
G1 X215.705 Y90.316 E.01358
G1 E-.35 F2400
;WIPE_START
G1 F1800
G1 X215.756 Y90.303 E-.00782
G1 X216.144 Y90.272 E-.05839
G1 X216.572 Y90.31 E-.06441
G1 X216.696 Y90.344 E-.01938
;WIPE_END
G1 Z.4 F18000
G1 X127.319 Y113.87 Z.4
G1 Z.2
G1 E.5 F2400
;TYPE:Inner wall
G1 F1800
G1 X127.368 Y113.666 E.00797
G1 X127.564 Y113.433 E.01158
G1 X127.927 Y113.293 E.01477
G1 X207.021 Y113.293 E3.0061
G1 X207.314 Y113.359 E.0114
G1 X207.562 Y113.556 E.01203
G1 X207.707 Y113.874 E.01327
G1 X207.707 Y170.021 E2.13397
G1 X207.643 Y170.311 E.01127
G1 X207.471 Y170.539 E.01084
G1 X207.188 Y170.686 E.01213
G1 X206.614 Y170.707 E.02184
G1 X127.979 Y170.707 E2.98865
G1 X127.671 Y170.634 E.01201
M73 P0 R205
G1 X127.421 Y170.421 E.01248
G1 X127.293 Y170.11 E.0128
G1 X127.293 Y113.979 E2.13333
G1 X127.31 Y113.909 E.00273
G1 X127.753 Y113.972 F18000
;TYPE:Outer wall
G1 F1800
G1 X127.814 Y113.82 E.0062
G1 X127.979 Y113.75 E.00682
G1 X207.021 Y113.75 E3.00413
G1 X207.178 Y113.812 E.00641
G1 X207.25 Y113.979 E.00688
G1 X207.25 Y170.021 E2.12998
G1 X207.189 Y170.177 E.00636
G1 X207.032 Y170.25 E.00655
G1 X127.979 Y170.25 E3.00454
G1 X127.814 Y170.18 E.00682
G1 X127.75 Y170.021 E.00648
G1 X127.75 Y114.011 E2.12874
G1 E-.35 F2400
;WIPE_START
G1 F1800
G1 X127.814 Y113.82 E-.03016
G1 X127.979 Y113.75 E-.02691
G1 X128.598 Y113.75 E-.09293
;WIPE_END
G1 Z.4 F18000
G1 X118.697 Y137.912 Z.4
G1 Z.2
G1 E.5 F2400
;TYPE:Inner wall
G1 F1800
G1 X118.707 Y137.979 E.00257
G1 X118.707 Y146.021 E.30568
G1 X118.594 Y146.398 E.01494
G1 X118.437 Y146.567 E.00879
G1 X118.146 Y146.707 E.01225
G1 X42.638 Y146.707 E2.8698
G1 X41.988 Y146.66 E.02476
G1 X41.301 Y146.511 E.02673
G1 X40.643 Y146.261 E.02673
G1 X40.03 Y145.917 E.02673
G1 X39.476 Y145.484 E.02673
G1 X38.992 Y144.974 E.02673
G1 X38.598 Y144.41 E.02612
G1 X38.277 Y143.767 E.02733
G1 X38.063 Y143.097 E.02673
G1 X37.955 Y142.432 E.02559
G1 X37.943 Y141.704 E.02767
G1 X38.04 Y141.003 E.02692
G1 X38.24 Y140.329 E.02673
G1 X38.525 Y139.719 E.02559
G1 X38.925 Y139.11 E.02767
G1 X39.401 Y138.586 E.02692
G1 X39.946 Y138.141 E.02673
G1 X40.551 Y137.783 E.02673
G1 X41.175 Y137.53 E.02559
G1 X41.882 Y137.356 E.02767
G1 X42.609 Y137.293 E.02773
G1 X118.021 Y137.293 E2.86616
G1 X118.332 Y137.367 E.01212
G1 X118.56 Y137.554 E.01121
G1 X118.677 Y137.778 E.00961
G1 X118.691 Y137.872 E.00362
G1 X118.25 Y137.979 F18000
;TYPE:Outer wall
G1 F1800
G1 X118.25 Y146.021 E.30568
G1 X118.16 Y146.203 E.00771
G1 X118.021 Y146.25 E.00555
G1 X42.638 Y146.25 E2.86505
G1 X42.022 Y146.205 E.02346
G1 X41.402 Y146.066 E.02414
G1 X40.81 Y145.836 E.02414
G1 X40.259 Y145.521 E.02414
G1 X39.761 Y145.127 E.02414
G1 X39.327 Y144.663 E.02414
G1 X38.976 Y144.153 E.02353
G1 X38.689 Y143.568 E.02474
G1 X38.5 Y142.962 E.02414
G1 X38.407 Y142.364 E.023
G1 X38.4 Y141.701 E.0252
G1 X38.492 Y141.071 E.0242
G1 X38.677 Y140.463 E.02414
G1 X38.937 Y139.917 E.023
G1 X39.305 Y139.365 E.0252
G1 X39.736 Y138.897 E.0242
G1 X40.231 Y138.499 E.02414
G1 X40.779 Y138.179 E.02414
G1 X41.342 Y137.955 E.023
G1 X41.987 Y137.801 E.0252
G1 X42.629 Y137.75 E.02448
G1 X118.021 Y137.75 E2.8654
G1 X118.184 Y137.818 E.00671
G1 X118.235 Y137.942 E.00507
G1 E-.35 F2400
;WIPE_START
G1 F1800
G1 X118.237 Y138.942 E-.15
;WIPE_END
G1 Z.4 F18000
G1 X118.525 Y132.458 Z.4
G1 Z.2
G1 E.5 F2400
;TYPE:Inner wall
G1 F1800
G1 X118.437 Y132.567 E.00534
G1 X118.146 Y132.707 E.01225
G1 X42.638 Y132.707 E2.8698
G1 X41.988 Y132.66 E.02476
G1 X41.301 Y132.511 E.02673
G1 X40.643 Y132.261 E.02673
G1 X40.03 Y131.917 E.02673
G1 X39.476 Y131.484 E.02673
G1 X38.992 Y130.974 E.02673
G1 X38.598 Y130.41 E.02612
G1 X38.277 Y129.767 E.02733
G1 X38.063 Y129.097 E.02673
G1 X37.955 Y128.432 E.02559
G1 X37.943 Y127.704 E.02767
G1 X38.04 Y127.003 E.02692
G1 X38.24 Y126.329 E.02673
G1 X38.525 Y125.719 E.02559
G1 X38.925 Y125.11 E.02767
G1 X39.401 Y124.586 E.02692
G1 X39.946 Y124.141 E.02673
G1 X40.551 Y123.783 E.02673
G1 X41.175 Y123.53 E.02559
G1 X41.882 Y123.356 E.02767
G1 X42.609 Y123.293 E.02773
G1 X118.021 Y123.293 E2.86616
G1 X118.332 Y123.367 E.01212
G1 X118.56 Y123.554 E.01121
G1 X118.677 Y123.778 E.00961
G1 X118.707 Y123.979 E.00771
G1 X118.707 Y132.021 E.30568
G1 X118.641 Y132.314 E.01141
G1 X118.55 Y132.427 E.0055
G1 X118.184 Y132.182 F18000
;TYPE:Outer wall
G1 F1800
G1 X118.021 Y132.25 E.00671
G1 X42.638 Y132.25 E2.86505
G1 X42.022 Y132.205 E.02346
M73 P1 R205
G1 X41.402 Y132.066 E.02414
G1 X40.81 Y131.836 E.02414
G1 X40.259 Y131.521 E.02414
G1 X39.761 Y131.127 E.02414
G1 X39.327 Y130.663 E.02414
G1 X38.976 Y130.153 E.02353
G1 X38.689 Y129.568 E.02474
G1 X38.5 Y128.962 E.02414
G1 X38.407 Y128.364 E.023
G1 X38.4 Y127.701 E.0252
G1 X38.492 Y127.071 E.0242
G1 X38.677 Y126.463 E.02414
G1 X38.937 Y125.917 E.023
G1 X39.305 Y125.365 E.0252
G1 X39.736 Y124.897 E.0242
G1 X40.231 Y124.499 E.02414
G1 X40.779 Y124.179 E.02414
G1 X41.342 Y123.955 E.023
G1 X41.987 Y123.801 E.0252
G1 X42.629 Y123.75 E.02448
G1 X118.021 Y123.75 E2.86539
G1 X118.184 Y123.818 E.00671
G1 X118.25 Y123.979 E.00659
G1 X118.25 Y132.021 E.30568
G1 X118.199 Y132.145 E.00507
G1 E-.35 F2400
;WIPE_START
G1 F1800
G1 X118.021 Y132.25 E-.031
G1 X117.228 Y132.25 E-.119
;WIPE_END
G1 Z.4 F18000
G1 X118.021 Y118.707 Z.4
G1 Z.2
G1 E.5 F2400
;TYPE:Inner wall
G1 F1800
G1 X42.638 Y118.707 E2.86505
G1 X41.988 Y118.66 E.02476
G1 X41.301 Y118.511 E.02673
G1 X40.643 Y118.261 E.02673
G1 X40.03 Y117.917 E.02673
G1 X39.476 Y117.484 E.02673
G1 X38.992 Y116.974 E.02673
G1 X38.598 Y116.41 E.02612
G1 X38.277 Y115.767 E.02733
G1 X38.063 Y115.097 E.02673
G1 X37.955 Y114.432 E.02559
G1 X37.943 Y113.704 E.02767
G1 X38.04 Y113.003 E.02692
G1 X38.24 Y112.329 E.02673
G1 X38.525 Y111.719 E.02559
G1 X38.925 Y111.11 E.02767
G1 X39.401 Y110.586 E.02691
G1 X39.946 Y110.141 E.02673
G1 X40.551 Y109.783 E.02673
G1 X41.175 Y109.53 E.02559
G1 X41.882 Y109.356 E.02767
G1 X42.609 Y109.293 E.02773
G1 X118.021 Y109.293 E2.86616
G1 X118.355 Y109.38 E.0131
G1 X118.578 Y109.579 E.01137
G1 X118.699 Y109.871 E.01202
G1 X118.707 Y118.021 E.30976
G1 X118.641 Y118.314 E.01141
G1 X118.437 Y118.567 E.01236
G1 X118.146 Y118.707 E.01225
G1 X118.061 Y118.707 E.00323
G1 X118.021 Y118.25 F18000
;TYPE:Outer wall
G1 F1800
G1 X42.638 Y118.25 E2.86505
G1 X42.022 Y118.205 E.02346
G1 X41.402 Y118.066 E.02414
G1 X40.81 Y117.836 E.02414
G1 X40.259 Y117.521 E.02414
G1 X39.761 Y117.127 E.02414
G1 X39.327 Y116.663 E.02414
G1 X38.976 Y116.153 E.02353
G1 X38.689 Y115.568 E.02474
G1 X38.5 Y114.962 E.02414
G1 X38.407 Y114.364 E.023
G1 X38.4 Y113.701 E.0252
G1 X38.492 Y113.071 E.0242
G1 X38.677 Y112.463 E.02414
G1 X38.937 Y111.917 E.023
G1 X39.305 Y111.365 E.0252
G1 X39.736 Y110.897 E.0242
G1 X40.231 Y110.499 E.02414
G1 X40.779 Y110.179 E.02414
G1 X41.342 Y109.955 E.023
G1 X41.987 Y109.801 E.0252
G1 X42.629 Y109.75 E.02448
G1 X118.021 Y109.75 E2.86539
G1 X118.192 Y109.826 E.00708
G1 X118.25 Y109.979 E.00621
G1 X118.25 Y118.021 E.30568
G1 X118.184 Y118.182 E.00659
G1 X118.058 Y118.235 E.00519
G1 E-.35 F2400
;WIPE_START
G1 F1800
G1 X117.058 Y118.235 E-.15
;WIPE_END
G1 Z.4 F18000
G1 X118.694 Y95.887 Z.4
G1 Z.2
G1 E.5 F2400
;TYPE:Inner wall
G1 F1800
G1 X118.707 Y95.979 E.00352
G1 X118.707 Y104.021 E.30568
G1 X118.647 Y104.302 E.01091
G1 X118.461 Y104.548 E.0117
