; HEADER_BLOCK_START
; generated by OrcaSlicer 2.0.0 on 2024-05-31 at 16:13:05
; total layer number: 325
; filament_density: 1.27
; filament_diameter: 1.75
; max_z_height: 65.00
; HEADER_BLOCK_END

; THUMBNAIL_BLOCK_START

;
; THUMBNAIL_BLOCK_END

; THUMBNAIL_BLOCK_START

;
; THUMBNAIL_BLOCK_END

; external perimeters extrusion width = 0.40mm
; perimeters extrusion width = 0.42mm
; infill extrusion width = 0.45mm
; solid infill extrusion width = 0.42mm
; top infill extrusion width = 0.40mm
; first layer extrusion width = 0.50mm

; EXECUTABLE_BLOCK_START
EXCLUDE_OBJECT_DEFINE NAME=Arriere.stl_id_0_copy_0 CENTER=115,115 POLYGON=[[15,65],[215,65],[215,165],[202,165],[117,165],[15,165],[15,65]]
M73 P0 R203
;TYPE:Custom
M220 S100
G90 ; use absolute coordinates
M83 ; extruder relative mode
M104 S150 ; set temporary nozzle temp to prevent oozing during homing
M140 S70 ; set final bed temp
G4 S30 ; allow partial nozzle warmup
G28 ; home all axis and restore leveling
BED_MESH_CALIBRATE PROFILE=adaptive ADAPTIVE=1 ADAPTIVE_MARGIN=0
G1 Z25 F240
G1 X10.0 Y30 F3000
M104 S245 ; set final nozzle temp
M190 S70 ; wait for bed temp to stabilize
M109 S245 ; wait for nozzle temp to stabilize
G1 Z0.28 F240
G92 E0 ; Move Z Axis up
G1 Z2.0 F5000 ; Move to start position
M73 P0 R202
G1 X5 Y30 Z0.28 F300 ; Draw the first line
G1 X5 Y200 Z0.28 F1500 E15 ; Move to side a little
G1 X5.4 Y200 Z0.28 F5000.0 ; Draw the second line
G1 X5.4 Y50 Z0.28 F1500.0 E30 ; Reset Extruder
G92 E0 ; Move Z Axis up
G1 Z2.0 F3000
M117 Start Printing..
G90
G21
M83 ; use relative distances for extrusion
; filament start gcode
M106 S0
;LAYER_CHANGE
;Z:0.2
;HEIGHT:0.2
;BEFORE_LAYER_CHANGE
;0.2
G92 E0

G1 E-.5 F2400
;_SET_FAN_SPEED_CHANGING_LAYER
SET_VELOCITY_LIMIT ACCEL=500 ACCEL_TO_DECEL=250
SET_VELOCITY_LIMIT SQUARE_CORNER_VELOCITY=7
; printing object Arriere.stl id:0 copy 0
EXCLUDE_OBJECT_START NAME=Arriere.stl_id_0_copy_0
G1 Z.2 F18000
G1 X222.293 Y184.293
G1 Z.2
G1 E.5 F2400
;TYPE:Inner wall
;WIDTH:0.499999
G1 F1800
G1 X23.707 Y184.293 E7.17013
G1 X23.707 Y85.707 E3.55954
G1 X222.293 Y85.707 E7.17013
G1 X222.293 Y184.253 E3.55809
G1 X222.75 Y184.75 F18000
;TYPE:Outer wall
G1 F1800
G1 X23.25 Y184.75 E7.20314
G1 X23.25 Y85.25 E3.59254
G1 X222.75 Y85.25 E7.20314
G1 X222.75 Y184.71 E3.5911
G1 E-.35 F2400
;WIPE_START
G1 F1800
G1 X221.75 Y184.71 E-.15
;WIPE_END
G1 Z.4 F18000
G1 X218.298 Y180.408 Z.4
G1 Z.2
G1 E.5 F2400
;TYPE:Inner wall
G1 F1800
G1 X218.254 Y180.468 E.00269
G1 X217.919 Y180.79 E.01679
G1 X217.495 Y181.079 E.01851
G1 X217.047 Y181.276 E.01766
G1 X216.572 Y181.392 E.01765
G1 X216.084 Y181.424 E.01766
G1 X215.598 Y181.371 E.01765
G1 X215.129 Y181.235 E.01766
G1 X214.69 Y181.019 E.01765
G1 X214.296 Y180.73 E.01766
G1 X213.957 Y180.377 E.01765
G1 X213.685 Y179.97 E.01765
G1 X213.488 Y179.523 E.01766
G1 X213.372 Y179.048 E.01766
G1 X213.337 Y178.621 E.01547
G1 X213.392 Y178.075 E.01982
G1 X213.529 Y177.605 E.01769
G1 X213.745 Y177.166 E.01766
G1 X214.034 Y176.771 E.01765
G1 X214.387 Y176.433 E.01766
G1 X214.794 Y176.161 E.01765
G1 X215.241 Y175.964 E.01766
G1 X215.716 Y175.848 E.01765
G1 X216.18 Y175.816 E.01679
G1 X216.69 Y175.868 E.01851
G1 X217.159 Y176.005 E.01766
G1 X217.598 Y176.221 E.01765
G1 X217.993 Y176.51 E.01766
G1 X218.331 Y176.863 E.01765
G1 X218.603 Y177.269 E.01765
G1 X218.791 Y177.695 E.01679
G1 X218.916 Y178.192 E.01851
G1 X218.949 Y178.68 E.01766
G1 X218.896 Y179.166 E.01765
G1 X218.759 Y179.635 E.01766
G1 X218.543 Y180.074 E.01766
G1 X218.322 Y180.376 E.01351
G1 X217.934 Y180.141 F18000
;TYPE:Outer wall
G1 F1800
G1 X217.931 Y180.145 E.00019
G1 X217.653 Y180.418 E.01405
G1 X217.302 Y180.664 E.0155
G1 X216.929 Y180.834 E.01479
G1 X216.532 Y180.937 E.01479
G1 X216.124 Y180.969 E.01479
G1 X215.717 Y180.93 E.01479
G1 X215.322 Y180.821 E.01479
G1 X214.952 Y180.644 E.01479
G1 X214.619 Y180.407 E.01479
G1 X214.332 Y180.115 E.01479
G1 X214.1 Y179.777 E.01478
G1 X213.93 Y179.405 E.01479
G1 X213.827 Y179.008 E.01479
G1 X213.794 Y178.62 E.01406
G1 X213.834 Y178.192 E.01552
G1 X213.943 Y177.798 E.01479
G1 X214.12 Y177.428 E.01479
G1 X214.357 Y177.095 E.01479
G1 X214.649 Y176.807 E.01479
G1 X214.987 Y176.575 E.01479
G1 X215.359 Y176.406 E.01479
G1 X215.756 Y176.303 E.01479
G1 X216.144 Y176.272 E.01405
G1 X216.572 Y176.31 E.0155
G1 X216.966 Y176.419 E.01479
G1 X217.336 Y176.595 E.01479
G1 X217.669 Y176.833 E.01479
M73 P0 R201
G1 X217.957 Y177.125 E.01479
G1 X218.189 Y177.463 E.01478
G1 X218.35 Y177.817 E.01406
G1 X218.461 Y178.231 E.0155
G1 X218.493 Y178.64 E.01479
G1 X218.454 Y179.047 E.01479
G1 X218.345 Y179.442 E.01479
G1 X218.169 Y179.812 E.01479
G1 X217.957 Y180.108 E.01315
G1 E-.35 F2400
;WIPE_START
G1 F1800
G1 X217.931 Y180.145 E-.00679
G1 X217.653 Y180.418 E-.05839
G1 X217.302 Y180.664 E-.06441
G1 X217.178 Y180.721 E-.02041
;WIPE_END
G1 Z.4 F18000
G1 X127.875 Y118.682 Z.4
G1 Z.2
G1 E.5 F2400
;TYPE:Inner wall
G1 F1800
G1 X127.669 Y118.633 E.00767
G1 X127.423 Y118.423 E.01166
G1 X127.293 Y118.104 E.01244
G1 X127.293 Y109.979 E.29339
G1 X127.353 Y109.698 E.01036
G1 X127.539 Y109.452 E.01112
G1 X127.795 Y109.318 E.01043
G1 X127.979 Y109.293 E.00671
G1 X203.001 Y109.293 E2.70875
G1 X203.651 Y109.34 E.02352
G1 X204.338 Y109.489 E.02539
G1 X204.995 Y109.738 E.02539
G1 X205.608 Y110.083 E.02539
G1 X206.163 Y110.516 E.02539
G1 X206.647 Y111.026 E.02539
G1 X207.049 Y111.603 E.02539
G1 X207.361 Y112.233 E.02539
G1 X207.576 Y112.903 E.02539
G1 X207.688 Y113.597 E.02539
G1 X207.696 Y114.301 E.02539
G1 X207.599 Y114.997 E.02539
G1 X207.399 Y115.671 E.02539
G1 X207.1 Y116.308 E.02539
G1 X206.728 Y116.869 E.02431
G1 X206.241 Y117.411 E.02629
G1 X205.693 Y117.859 E.02557
G1 X205.088 Y118.217 E.02539
G1 X204.436 Y118.481 E.02539
G1 X203.752 Y118.645 E.02539
G1 X203.03 Y118.707 E.02617
G1 X127.979 Y118.707 E2.7098
G1 X127.914 Y118.692 E.00239
G1 X127.979 Y118.25 F18000
;TYPE:Outer wall
G1 F1800
G1 X127.825 Y118.19 E.00596
G1 X127.75 Y118.04 E.00607
G1 X127.75 Y109.979 E.29105
G1 X127.808 Y109.826 E.0059
G1 X127.96 Y109.75 E.00613
G1 X203.001 Y109.75 E2.70941
G1 X203.616 Y109.795 E.02229
G1 X204.236 Y109.934 E.02293
G1 X204.828 Y110.164 E.02293
G1 X205.38 Y110.479 E.02293
G1 X205.878 Y110.873 E.02293
G1 X206.312 Y111.337 E.02293
G1 X206.673 Y111.863 E.02302
G1 X206.949 Y112.432 E.02284
G1 X207.139 Y113.038 E.02293
G1 X207.236 Y113.665 E.02293
G1 X207.239 Y114.301 E.02293
G1 X207.147 Y114.929 E.02293
G1 X206.962 Y115.537 E.02293
G1 X206.689 Y116.11 E.02293
G1 X206.35 Y116.611 E.02185
G1 X205.904 Y117.102 E.02394
G1 X205.408 Y117.501 E.02299
G1 X204.859 Y117.821 E.02293
G1 X204.269 Y118.056 E.02293
G1 X203.65 Y118.199 E.02293
G1 X203.01 Y118.25 E.0232
G1 X128.019 Y118.25 E2.70763
G1 E-.35 F2400
;WIPE_START
G1 F1800
G1 X127.825 Y118.19 E-.03043
G1 X127.75 Y118.04 E-.02523
G1 X127.75 Y117.411 E-.09434
;WIPE_END
G1 Z.4 F18000
G1 X218.767 Y91.641 Z.4
G1 Z.2
G1 E.5 F2400
;TYPE:Inner wall
G1 F1800
G1 X218.791 Y91.695 E.00211
G1 X218.916 Y92.192 E.01851
G1 X218.949 Y92.68 E.01766
G1 X218.896 Y93.166 E.01765
G1 X218.759 Y93.635 E.01766
G1 X218.543 Y94.074 E.01765
G1 X218.254 Y94.468 E.01765
G1 X217.919 Y94.79 E.01679
G1 X217.495 Y95.079 E.01851
G1 X217.047 Y95.276 E.01766
G1 X216.572 Y95.392 E.01765
G1 X216.084 Y95.424 E.01766
G1 X215.598 Y95.371 E.01765
G1 X215.129 Y95.235 E.01766
G1 X214.69 Y95.019 E.01765
G1 X214.296 Y94.73 E.01766
G1 X213.954 Y94.372 E.01787
G1 X213.632 Y93.857 E.02193
G1 X213.488 Y93.523 E.01312
G1 X213.372 Y93.048 E.01766
G1 X213.34 Y92.56 E.01765
G1 X213.393 Y92.074 E.01766
G1 X213.529 Y91.604 E.01766
G1 X213.745 Y91.166 E.01766
G1 X214.034 Y90.771 E.01765
G1 X214.387 Y90.433 E.01766
G1 X214.794 Y90.161 E.01765
G1 X215.241 Y89.964 E.01766
G1 X215.716 Y89.848 E.01765
G1 X216.066 Y89.817 E.01269
G1 X216.567 Y89.847 E.0181
G1 X217.159 Y90.005 E.02215
G1 X217.598 Y90.221 E.01765
G1 X217.993 Y90.51 E.01766
G1 X218.331 Y90.863 E.01765
G1 X218.603 Y91.269 E.01765
G1 X218.751 Y91.605 E.01323
G1 X218.354 Y91.829 F18000
;TYPE:Outer wall
G1 F1800
G1 X218.461 Y92.231 E.01504
G1 X218.493 Y92.64 E.01479
G1 X218.454 Y93.047 E.01479
G1 X218.345 Y93.442 E.01479
G1 X218.169 Y93.812 E.01479
G1 X217.931 Y94.145 E.01479
G1 X217.653 Y94.418 E.01405
G1 X217.302 Y94.664 E.0155
G1 X216.929 Y94.834 E.01479
G1 X216.532 Y94.937 E.01479
G1 X216.124 Y94.969 E.01479
G1 X215.556 Y94.887 E.02072
G1 X215.077 Y94.706 E.0185
G1 X214.649 Y94.432 E.01833
G1 X214.328 Y94.11 E.01643
G1 X214.047 Y93.663 E.01906
G1 X213.865 Y93.163 E.01924
G1 X213.795 Y92.64 E.01905
G1 X213.834 Y92.192 E.01622
G1 X213.943 Y91.798 E.01479
G1 X214.12 Y91.428 E.01479
G1 X214.357 Y91.095 E.01478
G1 X214.649 Y90.807 E.01479
G1 X214.987 Y90.575 E.01479
G1 X215.359 Y90.406 E.01479
G1 X215.756 Y90.303 E.01479
G1 X216.106 Y90.272 E.01269
G1 X216.572 Y90.31 E.01687
G1 X216.966 Y90.419 E.01479
G1 X217.336 Y90.595 E.01479
G1 X217.669 Y90.833 E.01479
G1 X217.957 Y91.125 E.01479
G1 X218.189 Y91.463 E.01479
G1 X218.339 Y91.792 E.01307
G1 E-.35 F2400
;WIPE_START
G1 F1800
G1 X218.461 Y92.231 E-.06844
G1 X218.493 Y92.64 E-.06144
G1 X218.481 Y92.773 E-.02012
;WIPE_END
G1 Z.4 F18000
G1 X127.539 Y104.526 Z.4
G1 Z.2
G1 E.5 F2400
;TYPE:Inner wall
G1 F1800
G1 X127.422 Y104.421 E.00566
G1 X127.293 Y104.073 E.0134
G1 X127.293 Y95.979 E.29226
G1 X127.35 Y95.704 E.01012
G1 X127.524 Y95.465 E.01069
G1 X127.776 Y95.324 E.0104
G1 X127.979 Y95.293 E.00741
G1 X203.001 Y95.293 E2.70875
G1 X203.651 Y95.34 E.02352
G1 X204.338 Y95.489 E.02539
G1 X204.995 Y95.738 E.02539
G1 X205.608 Y96.083 E.02539
G1 X206.163 Y96.516 E.02539
G1 X206.566 Y96.939 E.02109
G1 X206.912 Y97.401 E.02085
G1 X207.203 Y97.905 E.02103
G1 X207.435 Y98.445 E.0212
G1 X207.589 Y98.954 E.0192
G1 X207.688 Y99.597 E.0235
G1 X207.696 Y100.301 E.02539
G1 X207.599 Y100.997 E.02539
G1 X207.399 Y101.671 E.02539
G1 X207.1 Y102.308 E.02539
G1 X206.728 Y102.869 E.02431
G1 X206.241 Y103.411 E.02629
G1 X205.693 Y103.859 E.02557
G1 X205.088 Y104.217 E.02539
G1 X204.436 Y104.481 E.02539
G1 X203.752 Y104.645 E.02539
G1 X203.03 Y104.707 E.02617
G1 X127.979 Y104.707 E2.7098
G1 X127.645 Y104.62 E.01245
G1 X127.569 Y104.552 E.00369
G1 X127.832 Y104.197 F18000
;TYPE:Outer wall
G1 F1800
G1 X127.75 Y104.021 E.00699
G1 X127.75 Y95.979 E.2904
G1 X127.806 Y95.828 E.0058
G1 X127.949 Y95.75 E.00587
G1 X203.001 Y95.75 E2.70982
G1 X203.616 Y95.795 E.02229
G1 X204.236 Y95.934 E.02293
G1 X204.828 Y96.164 E.02293
G1 X205.38 Y96.479 E.02293
G1 X205.878 Y96.873 E.02293
G1 X206.231 Y97.25 E.01863
G1 X206.534 Y97.659 E.01839
G1 X206.792 Y98.104 E.01857
G1 X206.998 Y98.58 E.01873
G1 X207.147 Y99.071 E.01854
G1 X207.236 Y99.665 E.0217
G1 X207.239 Y100.301 E.02293
G1 X207.147 Y100.929 E.02293
G1 X206.962 Y101.537 E.02293
G1 X206.689 Y102.11 E.02293
G1 X206.35 Y102.611 E.02185
G1 X205.904 Y103.102 E.02394
G1 X205.408 Y103.501 E.02299
G1 X204.859 Y103.821 E.02293
G1 X204.269 Y104.056 E.02293
G1 X203.65 Y104.199 E.02293
G1 X203.01 Y104.25 E.0232
G1 X127.979 Y104.25 E2.70908
G1 X127.87 Y104.21 E.00418
G1 E-.35 F2400
;WIPE_START
G1 F1800
G1 X127.75 Y104.021 E-.03355
G1 X127.75 Y103.245 E-.11645
;WIPE_END
G1 Z.4 F18000
G1 X118.021 Y132.707 Z.4
G1 Z.2
G1 E.5 F2400
;TYPE:Inner wall
G1 F1800
G1 X42.638 Y132.707 E2.7218
G1 X41.988 Y132.66 E.02352
G1 X41.301 Y132.511 E.02539
G1 X40.643 Y132.261 E.02539
G1 X40.03 Y131.916 E.02539
G1 X39.476 Y131.484 E.02539
G1 X38.992 Y130.974 E.02539
G1 X38.598 Y130.41 E.02482
G1 X38.277 Y129.767 E.02596
G1 X38.063 Y129.097 E.02539
G1 X37.955 Y128.432 E.02431
G1 X37.943 Y127.704 E.02629
G1 X38.04 Y127.003 E.02557
G1 X38.24 Y126.329 E.02539
G1 X38.525 Y125.719 E.02431
G1 X38.925 Y125.11 E.02629
G1 X39.401 Y124.586 E.02557
G1 X39.946 Y124.141 E.02539
G1 X40.551 Y123.783 E.02539
G1 X41.175 Y123.53 E.02431
G1 X41.882 Y123.356 E.02629
G1 X42.609 Y123.293 E.02634
G1 X118.021 Y123.293 E2.72285
G1 X118.355 Y123.38 E.01245
G1 X118.578 Y123.579 E.0108
G1 X118.638 Y123.679 E.00422
G1 X118.707 Y123.979 E.01109
G1 X118.707 Y132.021 E.2904
G1 X118.641 Y132.314 E.01084
G1 X118.437 Y132.567 E.01174
G1 X118.146 Y132.707 E.01163
G1 X118.061 Y132.707 E.00307
G1 X118.021 Y132.25 F18000
;TYPE:Outer wall
G1 F1800
G1 X42.638 Y132.25 E2.7218
G1 X42.022 Y132.204 E.02229
G1 X41.402 Y132.066 E.02293
G1 X40.81 Y131.836 E.02293
G1 X40.259 Y131.521 E.02293
G1 X39.761 Y131.127 E.02293
G1 X39.327 Y130.663 E.02293
G1 X38.976 Y130.153 E.02236
G1 X38.689 Y129.568 E.0235
G1 X38.5 Y128.962 E.02293
G1 X38.407 Y128.364 E.02185
G1 X38.4 Y127.701 E.02394
G1 X38.492 Y127.071 E.02299
G1 X38.677 Y126.463 E.02293
G1 X38.937 Y125.917 E.02185
G1 X39.305 Y125.365 E.02394
G1 X39.736 Y124.897 E.02299
G1 X40.231 Y124.499 E.02293
G1 X40.779 Y124.179 E.02293
G1 X41.342 Y123.955 E.02185
G1 X41.987 Y123.801 E.02394
G1 X42.629 Y123.75 E.02326
G1 X118.021 Y123.75 E2.72213
G1 X118.192 Y123.826 E.00672
G1 X118.227 Y123.879 E.0023
G1 X118.25 Y124.779 E.0325
G1 X118.25 Y132.021 E.26151
G1 X118.184 Y132.182 E.00626
G1 X118.058 Y132.235 E.00493
G1 E-.35 F2400
;WIPE_START
G1 F1800
G1 X117.058 Y132.235 E-.15
;WIPE_END
G1 Z.4 F18000
G1 X127.979 Y127.293 Z.4
G1 Z.2
G1 E.5 F2400
;TYPE:Inner wall
G1 F1800
G1 X207.021 Y127.293 E2.85392
G1 X207.314 Y127.359 E.01083
G1 X207.562 Y127.556 E.01143
G1 X207.707 Y127.874 E.01261
G1 X207.707 Y177.021 E1.77453
G1 X207.639 Y177.32 E.01106
G1 X207.452 Y177.555 E.01084
G1 X207.256 Y177.666 E.00811
G1 X207.021 Y177.707 E.0086
G1 X127.979 Y177.707 E2.85392
G1 X127.698 Y177.647 E.01036
G1 X127.483 Y177.495 E.00952
G1 X127.321 Y177.215 E.01169
G1 X127.293 Y176.271 E.03407
G1 X127.293 Y127.979 E1.74366
G1 X127.368 Y127.666 E.0116
G1 X127.564 Y127.433 E.011
G1 X127.854 Y127.293 E.01162
G1 X127.939 Y127.293 E.00306
G1 X127.979 Y127.75 F18000
;TYPE:Outer wall
G1 F1800
G1 X207.021 Y127.75 E2.85392
G1 X207.178 Y127.812 E.00609
M73 P1 R201
G1 X207.25 Y127.979 E.00654
G1 X207.25 Y177.021 E1.77074
G1 X207.18 Y177.187 E.00648
G1 X207.021 Y177.25 E.00615
G1 X127.979 Y177.25 E2.85392
G1 X127.813 Y177.179 E.00649
G1 X127.75 Y177.021 E.00614
G1 X127.75 Y127.979 E1.77074
G1 X127.814 Y127.82 E.00615
G1 X127.942 Y127.766 E.00503
G1 E-.35 F2400
;WIPE_START
G1 F1800
G1 X128.942 Y127.765 E-.15
;WIPE_END
G1 Z.4 F18000
G1 X118.685 Y174.12 Z.4
G1 Z.2
G1 E.5 F2400
;TYPE:Inner wall
G1 F1800
G1 X118.64 Y174.316 E.00728
G1 X118.463 Y174.546 E.01047
G1 X118.218 Y174.678 E.01008
G1 X118.021 Y174.707 E.00715
G1 X42.638 Y174.707 E2.7218
G1 X41.988 Y174.66 E.02352
M73 P1 R200
G1 X41.301 Y174.511 E.02539
G1 X40.643 Y174.261 E.02539
G1 X40.139 Y173.979 E.02086
G1 X39.67 Y173.639 E.02093
G1 X39.242 Y173.243 E.02104
G1 X38.895 Y172.845 E.01906
G1 X38.589 Y172.397 E.0196
G1 X38.277 Y171.767 E.02539
G1 X38.063 Y171.097 E.02539
G1 X37.955 Y170.432 E.02431
G1 X37.943 Y169.704 E.02629
G1 X38.04 Y169.003 E.02557
G1 X38.24 Y168.329 E.02539
G1 X38.525 Y167.719 E.02431
G1 X38.925 Y167.11 E.02629
G1 X39.401 Y166.586 E.02557
G1 X39.946 Y166.141 E.02539
G1 X40.551 Y165.783 E.02539
G1 X41.175 Y165.53 E.02431
G1 X41.882 Y165.356 E.02629
G1 X42.609 Y165.293 E.02634
G1 X118.021 Y165.293 E2.72285
G1 X118.332 Y165.367 E.01152
G1 X118.56 Y165.554 E.01065
G1 X118.677 Y165.778 E.00913
G1 X118.707 Y165.979 E.00732
G1 X118.707 Y174.021 E.2904
G1 X118.694 Y174.081 E.00219
G1 X118.25 Y174.021 F18000
;TYPE:Outer wall
G1 F1800
G1 X118.191 Y174.175 E.00595
G1 X118.05 Y174.25 E.00575
G1 X42.638 Y174.25 E2.72283
G1 X42.022 Y174.204 E.02229
G1 X41.402 Y174.066 E.02293
G1 X40.81 Y173.836 E.02293
G1 X40.368 Y173.583 E.0184
G1 X39.955 Y173.281 E.01847
G1 X39.577 Y172.932 E.01857
G1 X39.241 Y172.541 E.01862
G1 X38.958 Y172.125 E.01818
G1 X38.689 Y171.568 E.02232
G1 X38.5 Y170.962 E.02293
G1 X38.407 Y170.364 E.02185
G1 X38.4 Y169.701 E.02394
G1 X38.492 Y169.071 E.02299
G1 X38.677 Y168.463 E.02293
G1 X38.937 Y167.917 E.02185
G1 X39.305 Y167.365 E.02394
G1 X39.736 Y166.897 E.02299
G1 X40.231 Y166.499 E.02293
G1 X40.779 Y166.179 E.02293
G1 X41.342 Y165.955 E.02185
G1 X41.987 Y165.801 E.02394
G1 X42.629 Y165.75 E.02325
G1 X118.021 Y165.75 E2.72213
G1 X118.184 Y165.818 E.00637
G1 X118.25 Y165.979 E.00626
G1 X118.25 Y173.981 E.28895
G1 E-.35 F2400
;WIPE_START
G1 F1800
