; HEADER_BLOCK_START
; generated by OrcaSlicer 2.1.1 on 2024-10-15 at 11:40:42
; total layer number: 60
; filament_density: 1.24
; filament_diameter: 1.75
; max_z_height: 12.00
; HEADER_BLOCK_END

; THUMBNAIL_BLOCK_START

;
; THUMBNAIL_BLOCK_END

; THUMBNAIL_BLOCK_START

;
; THUMBNAIL_BLOCK_END

; external perimeters extrusion width = 0.42mm
; perimeters extrusion width = 0.45mm
; infill extrusion width = 0.45mm
; solid infill extrusion width = 0.45mm
; top infill extrusion width = 0.42mm
; first layer extrusion width = 0.50mm

; EXECUTABLE_BLOCK_START
EXCLUDE_OBJECT_DEFINE NAME=Avant.stl_id_0_copy_0 CENTER=115,115 POLYGON=[[102,115],[102.008,114.551],[102.031,114.103],[102.07,113.656],[102.124,113.211],[102.193,112.767],[102.278,112.326],[102.378,111.889],[102.493,111.455],[102.622,111.025],[102.767,110.601],[102.926,110.181],[103.1,109.767],[103.287,109.36],[103.489,108.959],[103.704,108.565],[103.933,108.179],[104.175,107.801],[104.43,107.432],[104.698,107.071],[104.978,106.72],[105.269,106.379],[105.573,106.049],[105.887,105.729],[106.213,105.42],[106.549,105.122],[106.895,104.836],[107.25,104.562],[107.615,104.301],[107.989,104.053],[108.371,103.817],[108.761,103.595],[109.158,103.387],[109.563,103.192],[109.973,103.011],[110.39,102.845],[110.812,102.693],[111.24,102.556],[111.671,102.433],[112.107,102.326],[112.546,102.234],[112.989,102.157],[113.433,102.095],[113.879,102.048],[114.327,102.017],[114.776,102.002],[115.224,102.002],[115.673,102.017],[116.121,102.048],[116.567,102.095],[117.011,102.157],[117.454,102.234],[117.893,102.326],[118.329,102.433],[118.76,102.556],[119.188,102.693],[119.61,102.845],[120.027,103.011],[120.437,103.192],[120.842,103.387],[121.239,103.595],[121.629,103.817],[122.011,104.053],[122.385,104.301],[122.75,104.562],[123.105,104.836],[123.451,105.122],[123.787,105.42],[124.113,105.729],[124.427,106.049],[124.731,106.379],[125.022,106.72],[125.302,107.071],[125.57,107.432],[125.825,107.801],[126.067,108.179],[126.296,108.565],[126.511,108.959],[126.713,109.36],[126.9,109.767],[127.074,110.181],[127.233,110.601],[127.378,111.025],[127.507,111.455],[127.622,111.889],[127.722,112.326],[127.807,112.767],[127.876,113.211],[127.93,113.656],[127.969,114.103],[127.992,114.551],[128,115],[127.992,115.449],[127.969,115.897],[127.93,116.344],[127.876,116.789],[127.807,117.233],[127.722,117.674],[127.622,118.111],[127.507,118.545],[127.378,118.975],[127.233,119.399],[127.074,119.819],[126.9,120.233],[126.713,120.64],[126.511,121.041],[126.296,121.435],[126.067,121.821],[125.825,122.199],[125.57,122.568],[125.302,122.929],[125.022,123.28],[124.731,123.621],[124.427,123.951],[124.113,124.271],[123.787,124.58],[123.451,124.878],[123.105,125.164],[122.75,125.438],[122.385,125.699],[122.011,125.947],[121.629,126.183],[121.239,126.405],[120.842,126.613],[120.437,126.808],[120.027,126.989],[119.61,127.155],[119.188,127.307],[118.76,127.444],[118.329,127.567],[117.893,127.674],[117.454,127.766],[117.011,127.843],[116.567,127.905],[116.121,127.952],[115.673,127.983],[115.224,127.998],[114.776,127.998],[114.327,127.983],[113.879,127.952],[113.433,127.905],[112.989,127.843],[112.546,127.766],[112.107,127.674],[111.671,127.567],[111.24,127.444],[110.812,127.307],[110.39,127.155],[109.973,126.989],[109.563,126.808],[109.158,126.613],[108.761,126.405],[108.371,126.183],[107.989,125.947],[107.615,125.699],[107.25,125.438],[106.895,125.164],[106.549,124.878],[106.213,124.58],[105.887,124.271],[105.573,123.951],[105.269,123.621],[104.978,123.28],[104.698,122.929],[104.43,122.568],[104.175,122.199],[103.933,121.821],[103.704,121.435],[103.489,121.041],[103.287,120.64],[103.1,120.233],[102.926,119.819],[102.767,119.399],[102.622,118.975],[102.493,118.545],[102.378,118.111],[102.278,117.674],[102.193,117.233],[102.124,116.789],[102.07,116.344],[102.031,115.897],[102.008,115.449],[102,115]]
M73 P0 R14
;TYPE:Custom
M220 S100
G90 ; use absolute coordinates
M83 ; extruder relative mode
M104 S150 ; set temporary nozzle temp to prevent oozing during homing
M140 S75 ; set final bed temp
G4 S30 ; allow partial nozzle warmup
G28 ; home all axis and restore leveling
BED_MESH_CALIBRATE PROFILE=adaptive ADAPTIVE=1 ADAPTIVE_MARGIN=0
G1 Z25 F240
G1 X10.0 Y30 F3000
M104 S257 ; set final nozzle temp
M190 S75 ; wait for bed temp to stabilize
M109 S257 ; wait for nozzle temp to stabilize
G1 Z0.28 F240
G92 E0 ; Move Z Axis up
G1 Z2.0 F5000 ; Move to start position
M73 P1 R14
G1 X5 Y30 Z0.28 F300 ; Draw the first line
G1 X5 Y200 Z0.28 F1500 E15 ; Move to side a little
G1 X5.4 Y200 Z0.28 F5000.0 ; Draw the second line
M73 P2 R14
G1 X5.4 Y50 Z0.28 F1500.0 E30 ; Reset Extruder
G92 E0 ; Move Z Axis up
G1 Z2.0 F3000
M117 Start Printing..
G90
G21
M83 ; use relative distances for extrusion
; filament start gcode
M106 S0
;LAYER_CHANGE
;Z:0.2
;HEIGHT:0.2
;BEFORE_LAYER_CHANGE
;0.2
G92 E0

M73 P3 R14
G1 E-.5 F1800
;_SET_FAN_SPEED_CHANGING_LAYER
SET_VELOCITY_LIMIT ACCEL=1000
SET_VELOCITY_LIMIT SQUARE_CORNER_VELOCITY=7
; printing object Avant.stl id:0 copy 0
EXCLUDE_OBJECT_START NAME=Avant.stl_id_0_copy_0
G1 Z.2 F24000
G1 X115.186 Y142.397
G1 Z.2
G1 E.5 F1800
;TYPE:Inner wall
;WIDTH:0.499999
G1 X114.486 Y141.579 E.04009
G1 X113.841 Y140.645 E.04229
G1 X113.305 Y139.665 E.0416
G1 X112.912 Y138.737 E.03757
G1 X112.651 Y137.942 E.03115
G1 X112.398 Y136.834 E.04231
G1 X112.299 Y136.123 E.02675
G1 X112.247 Y135.184 E.03503
G1 X112.246 Y134.636 E.02041
G1 X112.297 Y133.887 E.02796
G1 X112.4 Y133.152 E.02765
G1 X112.552 Y132.425 E.02767
G1 X112.755 Y131.71 E.02767
G1 X113.006 Y131.011 E.02765
G1 X113.305 Y130.331 E.02767
G1 X113.644 Y129.686 E.02716
G1 X114.261 Y128.723 E.0426
G1 X114.932 Y127.881 E.04009
G1 X115.728 Y127.071 E.04229
G1 X116.589 Y126.36 E.0416
G1 X117.426 Y125.798 E.03757
G1 X118.172 Y125.384 E.03175
G1 X119.179 Y124.941 E.041
G1 X120.24 Y124.6 E.04149
G1 X121.327 Y124.37 E.0414
G1 X122.073 Y124.28 E.02796
G1 X122.816 Y124.241 E.02774
G1 X123.44 Y124.25 E.02324
G1 X124.289 Y124.318 E.03169
G1 X125.394 Y124.511 E.0418
G1 X126.479 Y124.818 E.04199
G1 X127.148 Y125.072 E.02664
G1 X128.164 Y125.561 E.042
G1 X129.112 Y126.146 E.04148
G1 X130.007 Y126.835 E.04208
G1 X130.8 Y127.587 E.04069
G1 X131.516 Y128.423 E.04101
G1 X132.104 Y129.268 E.03837
G1 X132.53 Y130.004 E.03166
G1 X132.85 Y130.669 E.02747
G1 X133.125 Y131.358 E.02765
G1 X133.301 Y131.905 E.02139
G1 X133.437 Y132.409 E.01944
G1 X133.578 Y133.059 E.02478
G1 X133.668 Y133.621 E.0212
G1 X133.738 Y134.361 E.02766
G1 X133.757 Y135.103 E.02767
G1 X133.735 Y135.742 E.02381
G1 X133.658 Y136.481 E.02767
G1 X133.53 Y137.213 E.02767
G1 X133.352 Y137.934 E.02765
G1 X133.125 Y138.641 E.02767
G1 X132.85 Y139.331 E.02768
G1 X132.528 Y140 E.02765
G1 X132.167 Y140.634 E.02716
G1 X131.518 Y141.573 E.04251
G1 X131.063 Y142.125 E.02664
G1 X130.261 Y142.94 E.0426
G1 X129.419 Y143.636 E.04069
G1 X128.505 Y144.245 E.0409
G1 X127.5 Y144.773 E.04229
G1 X126.453 Y145.191 E.04199
G1 X125.755 Y145.402 E.02716
G1 X125.029 Y145.567 E.02774
G1 X124.412 Y145.666 E.02324
G1 X123.565 Y145.745 E.03169
G1 X122.429 Y145.745 E.04231
G1 X121.714 Y145.683 E.02675
G1 X120.787 Y145.525 E.03503
G1 X120.252 Y145.404 E.0204
G1 X119.534 Y145.187 E.02795
G1 X118.852 Y144.928 E.02716
G1 X117.824 Y144.433 E.04252
G1 X117.195 Y144.06 E.02723
G1 X116.68 Y143.707 E.02324
G1 X116.012 Y143.181 E.03169
G1 X115.215 Y142.425 E.04091
G1 X114.858 Y142.715 F24000
G1 F1800
G1 X114.12 Y141.854 E.04226
G1 X113.451 Y140.885 E.04382
G1 X112.893 Y139.865 E.04333
G1 X112.483 Y138.897 E.03913
G1 X112.21 Y138.064 E.03266
G1 X111.948 Y136.917 E.04384
G1 X111.844 Y136.167 E.02819
G1 X111.79 Y135.209 E.03573
G1 X111.789 Y134.618 E.02202
G1 X111.843 Y133.84 E.02905
G1 X111.949 Y133.073 E.02883
G1 X112.108 Y132.315 E.02885
G1 X112.32 Y131.57 E.02885
G1 X112.582 Y130.842 E.02883
G1 X112.893 Y130.133 E.02885
G1 X113.249 Y129.456 E.02848
G1 X113.886 Y128.46 E.04404
G1 X114.593 Y127.573 E.04226
G1 X115.418 Y126.734 E.04382
G1 X116.315 Y125.993 E.04333
G1 X117.188 Y125.408 E.03913
G1 X117.964 Y124.976 E.03308
G1 X119.019 Y124.513 E.0429
G1 X120.124 Y124.157 E.04325
G1 X121.259 Y123.918 E.04319
G1 X122.033 Y123.824 E.02906
G1 X122.808 Y123.784 E.02889
G1 X123.462 Y123.793 E.02436
G1 X124.346 Y123.864 E.03304
G1 X125.496 Y124.065 E.04348
G1 X126.623 Y124.384 E.04361
G1 X127.328 Y124.652 E.02811
G1 X128.383 Y125.16 E.04362
G1 X129.372 Y125.769 E.04325
G1 X130.301 Y126.484 E.04368
G1 X131.132 Y127.273 E.04268
G1 X131.882 Y128.148 E.04291
G1 X132.49 Y129.023 E.0397
G1 X132.934 Y129.79 E.03302
G1 X133.269 Y130.485 E.02871
G1 X133.556 Y131.204 E.02883
G1 X133.792 Y131.941 E.02885
G1 X133.978 Y132.693 E.02885
G1 X134.111 Y133.456 E.02883
G1 X134.179 Y134.108 E.02442
G1 X134.213 Y135.119 E.03768
G1 X134.191 Y135.774 E.0244
G1 X134.111 Y136.544 E.02885
G1 X133.978 Y137.307 E.02885
G1 X133.793 Y138.059 E.02883
G1 X133.556 Y138.796 E.02885
G1 X133.269 Y139.516 E.02885
G1 X132.933 Y140.213 E.02883
G1 X132.554 Y140.877 E.02849
G1 X131.883 Y141.849 E.04398
G1 X131.403 Y142.431 E.02811
G1 X130.574 Y143.274 E.04404
G1 X129.69 Y144.004 E.04268
G1 X128.733 Y144.642 E.04283
G1 X127.691 Y145.188 E.04382
G1 X126.604 Y145.622 E.04361
G1 X125.872 Y145.844 E.02848
G1 X125.116 Y146.016 E.02889
G1 X124.47 Y146.119 E.02436
G1 X123.586 Y146.202 E.03304
G1 X122.41 Y146.202 E.04384
G1 X121.655 Y146.136 E.02819
G1 X120.71 Y145.975 E.03573
G1 X120.133 Y145.845 E.02202
G1 X119.387 Y145.62 E.02905
G1 X118.672 Y145.348 E.02848
G1 X117.608 Y144.836 E.04399
G1 X116.949 Y144.446 E.02852
G1 X116.409 Y144.076 E.02436
G1 X115.712 Y143.527 E.03304
G1 X114.887 Y142.743 E.04241
G1 X114.518 Y143.021 F24000
G1 F1800
G1 X114.073 Y142.523 E.02488
G1 X113.753 Y142.128 E.01893
G1 X113.062 Y141.125 E.04536
G1 X112.481 Y140.064 E.04506
G1 X112.055 Y139.058 E.04069
G1 X111.769 Y138.187 E.03416
G1 X111.498 Y136.999 E.04536
G1 X111.388 Y136.211 E.02963
G1 X111.327 Y135.108 E.04115
G1 X111.332 Y134.6 E.01892
G1 X111.388 Y133.793 E.03015
G1 X111.499 Y132.995 E.03
G1 X111.664 Y132.206 E.03003
G1 X111.884 Y131.43 E.03002
G1 X112.157 Y130.672 E.03001
G1 X112.481 Y129.934 E.03003
G1 X112.853 Y129.226 E.0298
G1 X113.512 Y128.197 E.04549
G1 X113.928 Y127.654 E.0255
G1 X114.255 Y127.265 E.01893
G1 X115.109 Y126.396 E.04536
G1 X116.042 Y125.626 E.04506
G1 X116.949 Y125.018 E.04069
G1 X117.757 Y124.569 E.03441
G1 X118.381 Y124.279 E.02563
G1 X118.858 Y124.084 E.01918
G1 X119.514 Y123.859 E.02585
G1 X120.009 Y123.715 E.01918
G1 X120.685 Y123.558 E.02584
G1 X121.19 Y123.466 E.01914
G1 X121.994 Y123.369 E.03015
G1 X122.799 Y123.327 E.03004
G1 X123.483 Y123.337 E.02548
G1 X124.404 Y123.41 E.03439
G1 X125.598 Y123.618 E.04515
G1 X126.766 Y123.949 E.04523
G1 X127.509 Y124.231 E.02958
G1 X128.603 Y124.758 E.04524
G1 X129.632 Y125.392 E.04501
G1 X130.595 Y126.134 E.04527
G1 X131.101 Y126.595 E.0255
G1 X131.465 Y126.959 E.01919
G1 X131.927 Y127.477 E.02584
G1 X132.247 Y127.873 E.01898
G1 X132.877 Y128.778 E.04103
G1 X133.339 Y129.577 E.03437
G1 X133.687 Y130.301 E.02994
G1 X133.986 Y131.049 E.03001
G1 X134.232 Y131.816 E.03002
G1 X134.425 Y132.599 E.03003
G1 X134.564 Y133.393 E.03
G1 X134.633 Y134.061 E.02501
G1 X134.67 Y135.135 E.04003
G1 X134.647 Y135.805 E.02499
G1 X134.564 Y136.607 E.03003
G1 X134.425 Y137.401 E.03003
G1 X134.233 Y138.183 E.03
G1 X133.986 Y138.951 E.03003
G1 X133.687 Y139.7 E.03003
G1 X133.338 Y140.425 E.03
G1 X132.941 Y141.121 E.02981
G1 X132.248 Y142.125 E.04545
G1 X131.742 Y142.737 E.02958
G1 X130.886 Y143.608 E.04549
G1 X130.367 Y144.055 E.0255
G1 X129.962 Y144.372 E.01919
G1 X129.392 Y144.768 E.02584
G1 X128.961 Y145.038 E.01893
G1 X127.883 Y145.604 E.04536
G1 X126.755 Y146.054 E.04523
G1 X125.989 Y146.286 E.0298
G1 X125.203 Y146.465 E.03004
G1 X124.527 Y146.573 E.02548
G1 X123.608 Y146.659 E.03439
G1 X122.39 Y146.659 E.04536
G1 X121.597 Y146.59 E.02963
G1 X120.508 Y146.404 E.04116
G1 X120.014 Y146.287 E.01892
G1 X119.239 Y146.053 E.03014
G1 X118.491 Y145.769 E.02981
G1 X117.391 Y145.239 E.04546
G1 X116.703 Y144.831 E.02982
G1 X116.139 Y144.444 E.02548
M73 P4 R14
G1 X115.413 Y143.873 E.03439
G1 X114.546 Y143.05 E.04453
G1 X114.177 Y143.325 F24000
;TYPE:Outer wall
G1 F1800
G1 X113.725 Y142.819 E.02528
G1 X113.387 Y142.402 E.01999
G1 X112.672 Y141.366 E.0469
G1 X112.069 Y140.263 E.0468
G1 X111.627 Y139.219 E.04225
G1 X111.328 Y138.309 E.03566
G1 X111.048 Y137.082 E.04689
G1 X110.933 Y136.256 E.03107
G1 X110.87 Y135.119 E.04241
G1 X110.875 Y134.582 E.01998
G1 X110.933 Y133.746 E.03124
G1 X111.048 Y132.916 E.03118
G1 X111.22 Y132.097 E.0312
G1 X111.449 Y131.291 E.0312
G1 X111.732 Y130.503 E.03118
G1 X112.069 Y129.736 E.0312
G1 X112.458 Y128.996 E.03113
G1 X113.137 Y127.935 E.04693
G1 X113.571 Y127.367 E.02661
G1 X113.917 Y126.957 E.01998
G1 X114.8 Y126.059 E.0469
G1 X115.768 Y125.259 E.0468
G1 X116.71 Y124.627 E.04225
G1 X117.549 Y124.161 E.03574
G1 X118.198 Y123.86 E.02665
G1 X118.697 Y123.656 E.02007
G1 X119.376 Y123.423 E.02673
G1 X119.893 Y123.272 E.02007
G1 X120.592 Y123.111 E.02673
G1 X121.122 Y123.014 E.02005
G1 X121.954 Y122.913 E.03125
G1 X122.791 Y122.87 E.03119
G1 X123.505 Y122.88 E.0266
G1 X124.461 Y122.956 E.03574
G1 X125.7 Y123.172 E.04682
G1 X126.91 Y123.515 E.04685
G1 X127.689 Y123.811 E.03105
G1 X128.823 Y124.357 E.04685
G1 X129.892 Y125.016 E.04678
G1 X130.889 Y125.783 E.04686
G1 X131.417 Y126.264 E.02661
G1 X131.798 Y126.646 E.02007
G1 X132.275 Y127.181 E.02673
G1 X132.613 Y127.599 E.02
G1 X133.263 Y128.532 E.04237
G1 X133.743 Y129.363 E.03573
G1 X134.106 Y130.117 E.03117
G1 X134.416 Y130.894 E.03118
G1 X134.672 Y131.692 E.0312
G1 X134.873 Y132.505 E.0312
G1 X135.017 Y133.33 E.03118
G1 X135.088 Y134.013 E.0256
G1 X135.127 Y135.15 E.04238
G1 X135.103 Y135.837 E.02558
G1 X135.017 Y136.67 E.0312
G1 X134.873 Y137.495 E.0312
G1 X134.673 Y138.308 E.03118
G1 X134.416 Y139.106 E.0312
G1 X134.106 Y139.884 E.0312
G1 X133.743 Y140.638 E.03118
G1 X133.329 Y141.364 E.03113
G1 X132.613 Y142.401 E.04692
G1 X132.082 Y143.044 E.03105
G1 X131.199 Y143.942 E.04694
G1 X130.658 Y144.408 E.02661
G1 X130.233 Y144.74 E.02007
G1 X129.644 Y145.15 E.02673
G1 X129.189 Y145.435 E.01999
G1 X128.074 Y146.02 E.0469
G1 X126.906 Y146.486 E.04685
G1 X126.106 Y146.728 E.03113
G1 X125.29 Y146.914 E.03119
G1 X124.584 Y147.027 E.0266
G1 X123.629 Y147.116 E.03574
G1 X122.37 Y147.116 E.04689
G1 X121.539 Y147.044 E.03107
G1 X120.417 Y146.852 E.04241
G1 X119.895 Y146.728 E.01998
G1 X119.092 Y146.486 E.03124
G1 X118.311 Y146.189 E.03113
G1 X117.175 Y145.643 E.04693
G1 X116.457 Y145.217 E.03112
G1 X115.868 Y144.812 E.0266
G1 X115.114 Y144.219 E.03574
G1 X114.204 Y143.355 E.04674
G1 E-.5
;WIPE_START
G1 F12000
G1 X113.725 Y142.819
G1 X113.387 Y142.402
G1 X112.964 Y141.789
;WIPE_END
G1 Z.4 F24000
G1 X118.23 Y135.319 Z.4
G1 Z.2
G1 E.5 F1800
;TYPE:Inner wall
G1 X118.213 Y135.169 E.00563
G1 X118.236 Y134.494 E.02517
G1 X118.366 Y133.773 E.02726
G1 X118.553 Y133.25 E.02071
G1 X118.766 Y132.747 E.02033
G1 X119.179 Y132.123 E.0279
G1 X119.466 Y131.766 E.01706
G1 X119.956 Y131.301 E.02517
G1 X120.542 Y130.902 E.02639
G1 X121.043 Y130.624 E.02134
G1 X121.535 Y130.433 E.01968
G1 X122.13 Y130.286 E.02282
G1 X122.466 Y130.244 E.01259
G1 X123.366 Y130.228 E.03352
G1 X123.758 Y130.27 E.01468
G1 X124.415 Y130.423 E.02515
G1 X124.735 Y130.535 E.01259
G1 X125.346 Y130.823 E.02518
G1 X125.957 Y131.227 E.02727
G1 X126.491 Y131.735 E.02747
G1 X126.855 Y132.157 E.02074
G1 X127.217 Y132.727 E.02517
G1 X127.505 Y133.405 E.02742
G1 X127.674 Y133.933 E.02064
G1 X127.778 Y134.662 E.02744
G1 X127.777 Y135.394 E.02728
G1 X127.679 Y135.969 E.02172
G1 X127.56 Y136.488 E.01982
G1 X127.218 Y137.272 E.03186
G1 X127.047 Y137.563 E.0126
G1 X126.645 Y138.108 E.02519
G1 X126.238 Y138.516 E.02149
G1 X125.837 Y138.866 E.01982
G1 X125.046 Y139.331 E.03418
G1 X124.484 Y139.554 E.0225
G1 X123.987 Y139.681 E.01912
G1 X123.423 Y139.772 E.02128
G1 X122.716 Y139.77 E.02632
G1 X122.076 Y139.7 E.02397
G1 X121.424 Y139.524 E.02518
G1 X120.751 Y139.233 E.02728
G1 X120.183 Y138.86 E.02531
G1 X119.782 Y138.556 E.01877
G1 X119.249 Y137.979 E.02924
