; HEADER_BLOCK_START
; generated by OrcaSlicer 2.1.1 on 2024-08-17 at 17:37:45
; total layer number: 33
; filament_density: 1.24
; filament_diameter: 1.75
; max_z_height: 6.60
; HEADER_BLOCK_END

; THUMBNAIL_BLOCK_START

;
; THUMBNAIL_BLOCK_END

; THUMBNAIL_BLOCK_START

;
; THUMBNAIL_BLOCK_END

; external perimeters extrusion width = 0.42mm
; perimeters extrusion width = 0.45mm
; infill extrusion width = 0.45mm
; solid infill extrusion width = 0.45mm
; top infill extrusion width = 0.42mm
; support material extrusion width = 0.42mm
; first layer extrusion width = 0.50mm

; EXECUTABLE_BLOCK_START
EXCLUDE_OBJECT_DEFINE NAME=Bague.stl_id_0_copy_0 CENTER=115,115 POLYGON=[[95.3,117.753],[95.3092,117.114],[95.3391,116.476],[95.3896,115.839],[95.4608,115.204],[95.5525,114.572],[95.6646,113.943],[95.7971,113.318],[95.9498,112.698],[96.1225,112.083],[96.315,111.474],[96.5272,110.872],[96.7588,110.276],[97.0096,109.689],[97.2793,109.11],[97.5676,108.54],[97.8742,107.98],[98.1989,107.429],[98.5412,106.89],[98.9009,106.362],[99.2774,105.846],[99.6705,105.343],[100.08,104.852],[100.505,104.375],[100.945,103.912],[101.4,103.464],[101.869,103.031],[102.352,102.613],[102.848,102.21],[103.357,101.825],[103.879,101.456],[104.412,101.104],[104.956,100.769],[105.51,100.452],[106.075,100.154],[106.649,99.8735],[107.232,99.6122],[107.823,99.3699],[108.422,99.1468],[109.027,98.9433],[109.639,98.7595],[110.256,98.5957],[110.879,98.4519],[111.505,98.3284],[112.136,98.2253],[112.769,98.1427],[113.405,98.0807],[114.042,98.0393],[114.681,98.0186],[115.319,98.0186],[115.958,98.0393],[116.595,98.0807],[117.231,98.1427],[117.864,98.2253],[118.495,98.3284],[119.121,98.4519],[119.744,98.5957],[120.361,98.7595],[120.973,98.9433],[121.578,99.1468],[122.177,99.3699],[122.768,99.6122],[123.351,99.8735],[123.925,100.154],[124.49,100.452],[125.044,100.769],[125.588,101.104],[126.121,101.456],[126.643,101.825],[127.152,102.21],[127.648,102.613],[128.131,103.031],[128.6,103.464],[129.055,103.912],[129.495,104.375],[129.92,104.852],[130.329,105.343],[130.723,105.846],[131.099,106.362],[131.459,106.89],[131.801,107.429],[132.126,107.98],[132.432,108.54],[132.721,109.11],[132.99,109.689],[133.241,110.276],[133.473,110.872],[133.685,111.474],[133.878,112.083],[134.05,112.698],[134.203,113.318],[134.335,113.943],[134.448,114.572],[134.539,115.204],[134.61,115.839],[134.661,116.476],[134.691,117.114],[134.7,117.753],[134.688,118.391],[134.656,119.029],[134.603,119.666],[134.53,120.3],[134.436,120.932],[134.321,121.56],[134.186,122.185],[134.031,122.805],[133.856,123.419],[133.662,124.027],[133.447,124.629],[133.213,125.223],[132.96,125.81],[132.689,126.388],[132.398,126.957],[132.089,127.516],[131.973,127.717],[131.854,127.916],[131.732,128.114],[131.455,128.519],[131.161,128.913],[130.852,129.294],[130.528,129.663],[130.189,130.018],[129.836,130.359],[129.469,130.686],[129.09,130.997],[128.698,131.293],[128.295,131.573],[127.88,131.836],[127.763,131.897],[127.638,131.942],[127.508,131.971],[127.376,131.981],[102.624,131.981],[102.492,131.971],[102.362,131.942],[102.237,131.897],[102.12,131.836],[101.705,131.573],[101.302,131.293],[100.91,130.997],[100.531,130.686],[100.164,130.359],[99.811,130.018],[99.4721,129.663],[99.1477,129.294],[98.8386,128.913],[98.5451,128.519],[98.2678,128.114],[98.1464,127.916],[98.0273,127.717],[97.9105,127.516],[97.6018,126.957],[97.3114,126.388],[97.0395,125.81],[96.7865,125.223],[96.5527,124.629],[96.3383,124.027],[96.1435,123.419],[95.9685,122.805],[95.8136,122.185],[95.6788,121.56],[95.5643,120.932],[95.4702,120.3],[95.3967,119.666],[95.3438,119.029],[95.3116,118.391],[95.3,117.753]]
M73 P0 R5
;TYPE:Custom
M220 S100
G90 ; use absolute coordinates
M83 ; extruder relative mode
M104 S150 ; set temporary nozzle temp to prevent oozing during homing
M140 S75 ; set final bed temp
G4 S30 ; allow partial nozzle warmup
G28 ; home all axis and restore leveling
BED_MESH_CALIBRATE PROFILE=adaptive ADAPTIVE=1 ADAPTIVE_MARGIN=0
G1 Z25 F240
G1 X10.0 Y30 F3000
M104 S257 ; set final nozzle temp
M190 S75 ; wait for bed temp to stabilize
M109 S257 ; wait for nozzle temp to stabilize
M73 P1 R5
G1 Z0.28 F240
G92 E0 ; Move Z Axis up
M73 P2 R5
G1 Z2.0 F5000 ; Move to start position
M73 P3 R5
G1 X5 Y30 Z0.28 F300 ; Draw the first line
G1 X5 Y200 Z0.28 F1500 E15 ; Move to side a little
M73 P4 R5
G1 X5.4 Y200 Z0.28 F5000.0 ; Draw the second line
M73 P6 R5
G1 X5.4 Y50 Z0.28 F1500.0 E30 ; Reset Extruder
G92 E0 ; Move Z Axis up
G1 Z2.0 F3000
M117 Start Printing..
G90
G21
M83 ; use relative distances for extrusion
; filament start gcode
M106 S0
;LAYER_CHANGE
;Z:0.2
;HEIGHT:0.2
;BEFORE_LAYER_CHANGE
;0.2
G92 E0

M73 P8 R5
G1 E-.5 F1800
;_SET_FAN_SPEED_CHANGING_LAYER
SET_VELOCITY_LIMIT ACCEL=1000
SET_VELOCITY_LIMIT SQUARE_CORNER_VELOCITY=7
; printing object Bague.stl id:0 copy 0
EXCLUDE_OBJECT_START NAME=Bague.stl_id_0_copy_0
G1 Z.2 F24000
G1 X107.92 Y145.895
G1 Z.2
G1 E.5 F1800
;TYPE:Support
;WIDTH:0.5
G1 X108.383 Y146.001 E.01771
G1 X109.181 Y146.463 E.03432
G1 X109.807 Y147.139 E.03433
G1 X110.121 Y147.796 E.0271
G1 X110.201 Y147.824 E.00317
G1 X111.032 Y148.41 E.03785
G1 X111.117 Y148.392 E.00323
G1 X112.015 Y148.454 E.03355
G1 X112.864 Y148.755 E.03355
G1 X113.6 Y149.275 E.03355
G1 X114.168 Y149.974 E.03355
G1 X114.527 Y150.8 E.03355
G1 X114.65 Y151.692 E.03355
G1 X114.527 Y152.585 E.03355
G1 X114.168 Y153.411 E.03355
G1 X113.6 Y154.11 E.03355
G1 X112.864 Y154.629 E.03355
G1 X112.015 Y154.931 E.03355
G1 X111.117 Y154.992 E.03355
G1 X110.235 Y154.809 E.03355
G1 X109.435 Y154.395 E.03355
G1 X109.035 Y154.021 E.02038
G1 X108.454 Y154.061 E.02169
G1 X107.572 Y153.878 E.03355
G1 X106.772 Y153.463 E.03355
G1 X106.114 Y152.848 E.03355
G1 X105.646 Y152.079 E.03355
G1 X105.439 Y151.341 E.02853
G1 X104.986 Y150.981 E.02156
G1 X104.467 Y150.222 E.03426
G1 X104.194 Y149.339 E.0344
G1 X104.193 Y148.419 E.03429
G1 X104.464 Y147.538 E.03434
G1 X104.899 Y146.9 E.02876
G1 X105.469 Y147.958 E.04476
G1 X105.772 Y148.125 E.0129
G1 X106.128 Y148.104 E.01328
G1 X106.386 Y148.051 E.00982
G1 X106.553 Y147.992 E.0066
G1 X106.749 Y147.894 E.00813
G1 X106.923 Y147.774 E.00788
G1 X107.088 Y147.626 E.00828
G1 X107.254 Y147.423 E.00974
G1 X107.435 Y147.075 E.01461
G1 X107.506 Y146.824 E.00974
G1 X107.53 Y146.648 E.0066
G1 X107.533 Y146.43 E.00813
G1 X107.498 Y146.173 E.00965
G1 X107.437 Y145.964 E.00813
G1 X107.368 Y145.804 E.0065
G1 X107.483 Y145.795 E.0043
G1 X107.853 Y145.879 E.01414
G1 X113.858 Y153.466 F24000
G1 F1800
G1 X113.858 Y150.293 E.1182
G1 X113.814 Y150.189 E.00419
G1 X113.351 Y149.62 E.02733
G1 X113.351 Y153.764 E.15436
G1 X113.317 Y153.806 E.00201
G1 X112.843 Y154.141 E.0216
G1 X112.843 Y149.244 E.18239
G1 X112.673 Y149.124 E.00774
G1 X112.335 Y149.004 E.01337
G1 X112.335 Y154.381 E.20026
G1 X111.931 Y154.524 E.01597
M73 P9 R5
G1 X111.827 Y154.531 E.00388
G1 X111.827 Y148.853 E.21149
G1 X111.319 Y148.819 E.01896
G1 X111.319 Y154.566 E.21408
G1 X111.145 Y154.578 E.0065
G1 X110.811 Y154.509 E.01269
G1 X110.811 Y148.758 E.21419
G1 X110.303 Y148.4 E.02315
G1 X110.303 Y154.381 E.2228
G1 X109.795 Y154.118 E.0213
G1 X109.795 Y148.068 E.22536
G1 X109.463 Y147.373 E.02868
G1 X109.288 Y147.184 E.0096
G1 X109.288 Y153.694 E.24248
G1 X109.185 Y153.599 E.00522
G1 X108.78 Y153.626 E.01513
G1 X108.78 Y146.706 E.25775
G1 X108.272 Y146.412 E.02186
G1 X108.272 Y153.603 E.26783
G1 X107.764 Y153.497 E.01932
G1 X107.764 Y147.347 E.22906
G1 X107.558 Y147.706 E.01539
G1 X107.427 Y147.866 E.0077
G1 X107.256 Y148.03 E.00884
G1 X107.256 Y153.251 E.19443
G1 X107.012 Y153.124 E.01026
G1 X106.748 Y152.878 E.01342
G1 X106.748 Y148.356 E.16843
G1 X106.511 Y148.444 E.00943
G1 X106.24 Y148.505 E.01032
G1 X106.24 Y152.265 E.14005
G1 X106.027 Y151.913 E.01532
G1 X105.799 Y151.102 E.03138
G1 X105.733 Y151.049 E.00318
G1 X105.733 Y148.539 E.09347
G1 X105.677 Y148.543 E.00206
G1 X105.225 Y148.293 E.01926
G1 X105.225 Y150.601 E.08597
G1 X104.842 Y150.04 E.02528
M73 P10 R5
G1 X104.717 Y149.639 E.01565
G1 X104.717 Y147.532 E.07848
G1 E-.5
;WIPE_START
G1 X104.717 Y149.532
;WIPE_END
G1 Z.4 F24000
G1 X138.47 Y146.389 Z.4
G1 Z.2
G1 E.5 F1800
G1 X138.467 Y146.607 E.00813
G1 X138.503 Y146.864 E.00965
G1 X138.564 Y147.073 E.00813
G1 X138.743 Y147.418 E.01446
G1 X138.88 Y147.592 E.00828
G1 X139.072 Y147.771 E.00974
G1 X139.251 Y147.894 E.00813
G1 X139.409 Y147.976 E.0066
G1 X139.614 Y148.051 E.00813
G1 X139.872 Y148.104 E.00982
G1 X140.228 Y148.125 E.01328
G1 X140.531 Y147.958 E.0129
G1 X141.222 Y146.662 E.0547
G1 X141.367 Y146.745 E.0062
G1 X141.99 Y147.417 E.03414
G1 X142.387 Y148.243 E.03414
G1 X142.523 Y149.149 E.03411
G1 X142.386 Y150.056 E.03417
G1 X141.988 Y150.88 E.0341
G1 X141.365 Y151.551 E.03411
G1 X140.642 Y151.968 E.03106
G1 X140.048 Y152.699 E.03508
G1 X139.312 Y153.218 E.03355
G1 X138.463 Y153.52 E.03355
G1 X137.565 Y153.581 E.03355
G1 X137.377 Y153.542 E.00714
G1 X136.915 Y154.11 E.02724
G1 X136.179 Y154.629 E.03355
G1 X135.331 Y154.931 E.03355
G1 X134.432 Y154.992 E.03355
G1 X133.55 Y154.809 E.03355
G1 X132.75 Y154.395 E.03355
G1 X132.092 Y153.78 E.03355
G1 X131.624 Y153.01 E.03355
G1 X131.381 Y152.143 E.03355
G1 X131.381 Y151.242 E.03355
G1 X131.624 Y150.375 E.03355
G1 X132.092 Y149.605 E.03355
G1 X132.75 Y148.99 E.03355
G1 X133.55 Y148.576 E.03355
G1 X134.432 Y148.392 E.03355
G1 X135.077 Y148.436 E.02408
G1 X135.225 Y148.194 E.01058
G1 X135.883 Y147.579 E.03355
G1 X136.683 Y147.165 E.03355
G1 X137.195 Y147.058 E.0195
G1 X137.912 Y146.486 E.03414
G1 X138.487 Y146.26 E.02302
G1 X138.479 Y146.321 E.00228
G1 E-.5
;WIPE_START
G1 X138.487 Y146.26
G1 X137.912 Y146.486
G1 X137.195 Y147.058
G1 X136.8 Y147.14
;WIPE_END
G1 Z.4 F24000
G1 X141.791 Y150.79 Z.4
G1 Z.2
G1 E.5 F1800
G1 X141.791 Y147.953 E.10568
G1 X141.646 Y147.651 E.01246
G1 X141.345 Y147.327 E.01649
G1 X141.283 Y147.446 E.00502
G1 X141.283 Y151.035 E.13366
G1 X141.106 Y151.226 E.00972
M73 P10 R4
G1 X140.775 Y151.416 E.0142
G1 X140.775 Y148.293 E.11635
G1 X140.323 Y148.543 E.01926
G1 X140.267 Y148.539 E.00206
G1 X140.267 Y151.777 E.1206
G1 X139.76 Y152.399 E.0299
G1 X139.76 Y148.505 E.14504
G1 X139.489 Y148.444 E.01032
G1 X139.252 Y148.356 E.00943
G1 X139.252 Y152.757 E.16394
G1 X139.121 Y152.849 E.00596
G1 X138.744 Y152.984 E.01491
G1 X138.744 Y148.031 E.18445
M73 P11 R4
G1 X138.569 Y147.862 E.00907
G1 X138.437 Y147.697 E.00786
G1 X138.236 Y147.349 E.01499
G1 X138.236 Y153.123 E.21507
G1 X137.728 Y153.158 E.01896
G1 X137.728 Y147.159 E.22343
G1 X137.375 Y147.441 E.01682
G1 X137.22 Y147.473 E.00589
G1 X137.22 Y153.09 E.20919
G1 X136.712 Y153.707 E.02979
G1 X136.712 Y147.613 E.22701
G1 X136.205 Y147.876 E.0213
G1 X136.205 Y154.108 E.23213
G1 X135.988 Y154.26 E.00985
G1 X135.697 Y154.364 E.01153
G1 X135.697 Y148.316 E.22528
G1 X135.547 Y148.456 E.00764
G1 X135.299 Y148.864 E.01779
G1 X135.189 Y148.856 E.0041
G1 X135.189 Y154.528 E.21125
G1 X134.681 Y154.563 E.01896
G1 X134.681 Y148.822 E.21384
G1 X134.46 Y148.807 E.00824
G1 X134.173 Y148.866 E.01093
G1 X134.173 Y154.518 E.21052
G1 X133.665 Y154.405 E.01938
G1 X133.665 Y148.979 E.2021
G1 X133.157 Y149.242 E.0213
G1 X133.157 Y154.142 E.1825
G1 X132.99 Y154.055 E.00703
G1 X132.649 Y153.738 E.01734
G1 X132.649 Y149.647 E.15236
G1 X132.414 Y149.867 E.012
G1 X132.142 Y150.315 E.01953
G1 X132.142 Y153.466 E.11735
G1 E-.5
;WIPE_START
G1 F12000
G1 X132.142 Y151.466
;WIPE_END
G1 Z.4 F24000
M73 P12 R4
G1 X139.61 Y147.028 Z.4
G1 Z.2
G1 E.5 F1800
;TYPE:Outer wall
;WIDTH:0.499999
G1 X139.452 Y146.819 E.00976
G1 X139.38 Y146.537 E.01084
G1 X139.397 Y146.33 E.00771
G1 X140.094 Y144.77 E.06365
G1 X140.516 Y143.649 E.04461
G1 X140.864 Y142.503 E.04462
G1 X141.111 Y141.49 E.03882
G1 X141.325 Y140.257 E.04662
G1 X141.455 Y139.012 E.04662
G1 X141.5 Y137.761 E.04662
G1 X141.461 Y136.512 E.04654
G1 X141.408 Y135.879 E.02368
G1 X141.339 Y135.361 E.01946
G1 X141.149 Y134.179 E.04461
G1 X140.882 Y133.011 E.04461
G1 X140.541 Y131.863 E.04461
G1 X140.126 Y130.739 E.04461
G1 X139.761 Y129.885 E.03459
G1 X139.48 Y129.311 E.02382
G1 X138.874 Y128.216 E.04661
G1 X138.195 Y127.164 E.04662
G1 X137.447 Y126.161 E.04662
G1 X136.633 Y125.21 E.04661
G1 X135.766 Y124.327 E.04612
G1 X135.295 Y123.893 E.02382
G1 X134.339 Y123.098 E.04632
G1 X133.325 Y122.365 E.04662
G1 X132.263 Y121.702 E.04662
G1 X131.159 Y121.112 E.04662
G1 X130.014 Y120.597 E.04675
G1 X129.184 Y120.287 E.03303
G1 X128.043 Y119.923 E.04462
G1 X127.036 Y119.661 E.03874
G1 X125.806 Y119.43 E.04662
G1 X124.563 Y119.282 E.04662
G1 X123.313 Y119.218 E.04662
G1 X122.062 Y119.24 E.04662
G1 X120.814 Y119.345 E.04662
G1 X119.577 Y119.535 E.04662
G1 X118.356 Y119.808 E.0466
G1 X117.399 Y120.093 E.03719
G1 X116.27 Y120.492 E.04461
G1 X115.169 Y120.963 E.04461
G1 X114.1 Y121.504 E.04462
G1 X113.2 Y122.024 E.0387
G1 X112.162 Y122.723 E.04662
G1 X111.173 Y123.49 E.04662
G1 X110.238 Y124.322 E.04662
G1 X109.362 Y125.216 E.04662
G1 X108.548 Y126.167 E.04662
G1 X107.8 Y127.17 E.04662
G1 X107.122 Y128.222 E.04662
G1 X106.516 Y129.318 E.04662
G1 X105.985 Y130.455 E.04675
G1 X105.662 Y131.283 E.0331
G1 X105.281 Y132.418 E.04462
G1 X105.006 Y133.419 E.03867
G1 X104.756 Y134.646 E.04662
G1 X104.591 Y135.885 E.04656
G1 X104.539 Y136.518 E.02366
G1 X104.5 Y137.769 E.04661
G1 X104.546 Y139.02 E.04662
G1 X104.759 Y140.741 E.06458
G1 X104.99 Y141.906 E.04425
G1 X105.299 Y143.063 E.04461
G1 X105.681 Y144.198 E.04461
G1 X106.025 Y145.07 E.03491
G1 X106.56 Y146.211 E.04692
G1 X106.629 Y146.563 E.01339
G1 X106.55 Y146.839 E.01069
G1 X106.328 Y147.086 E.01237
G1 X106.073 Y147.183 E.01016
G1 X105.58 Y146.254 E.03917
G1 X105.314 Y145.688 E.02328
G1 X104.834 Y144.524 E.04693
G1 X104.431 Y143.332 E.04685
G1 X104.106 Y142.117 E.04685
G1 X103.862 Y140.893 E.04649
G1 X103.695 Y139.636 E.04721
G1 X103.612 Y138.381 E.04685
G1 X103.609 Y137.123 E.04685
G1 X103.688 Y135.868 E.04685
G1 X103.849 Y134.62 E.04685
G1 X104.09 Y133.385 E.04685
M73 P13 R4
G1 X104.41 Y132.169 E.04685
G1 X104.809 Y130.976 E.04685
G1 X105.284 Y129.811 E.04685
G1 X105.833 Y128.68 E.04685
G1 X106.455 Y127.586 E.04685
G1 X107.146 Y126.535 E.04686
G1 X107.904 Y125.531 E.04685
G1 X108.725 Y124.579 E.04685
G1 X109.607 Y123.681 E.04685
G1 X110.545 Y122.843 E.04685
G1 X111.535 Y122.067 E.04685
G1 X112.573 Y121.357 E.04685
G1 X113.655 Y120.715 E.04685
G1 X114.776 Y120.145 E.04685
G1 X115.932 Y119.649 E.04685
G1 X117.118 Y119.229 E.04685
G1 X118.328 Y118.887 E.04685
G1 X119.559 Y118.624 E.04685
G1 X120.803 Y118.441 E.04685
G1 X122.057 Y118.339 E.04685
G1 X123.324 Y118.319 E.04721
G1 X124.571 Y118.38 E.04649
G1 X125.821 Y118.522 E.04685
G1 X127.059 Y118.745 E.04685
G1 X128.28 Y119.048 E.04685
G1 X129.478 Y119.43 E.04685
G1 X130.65 Y119.888 E.04685
G1 X131.789 Y120.421 E.04685
G1 X132.891 Y121.027 E.04685
G1 X133.952 Y121.703 E.04685
G1 X134.967 Y122.447 E.04685
G1 X135.931 Y123.254 E.04685
G1 X136.841 Y124.123 E.04685
G1 X137.693 Y125.048 E.04685
G1 X138.483 Y126.027 E.04685
G1 X139.208 Y127.055 E.04685
G1 X139.865 Y128.128 E.04685
G1 X140.451 Y129.241 E.04685
G1 X140.963 Y130.39 E.04685
G1 X141.4 Y131.569 E.04685
G1 X141.76 Y132.775 E.04685
G1 X142.041 Y134.001 E.04685
G1 X142.242 Y135.243 E.04685
G1 X142.362 Y136.509 E.0474
G1 X142.4 Y137.752 E.04631
G1 X142.357 Y139.009 E.04685
G1 X142.232 Y140.261 E.04685
G1 X142.027 Y141.502 E.04685
G1 X141.742 Y142.727 E.04685
G1 X141.377 Y143.931 E.04685
G1 X140.936 Y145.109 E.04685
G1 X140.419 Y146.256 E.04685
G1 X139.927 Y147.183 E.03909
G1 X139.818 Y147.16 E.00417
G1 X139.644 Y147.049 E.00768
G1 E-.5
;WIPE_START
G1 F12000
G1 X139.452 Y146.819
G1 X139.38 Y146.537
G1 X139.397 Y146.33
G1 X139.887 Y145.233
;WIPE_END
G1 Z.4 F24000
G1 X106.159 Y146.399 Z.4
G1 Z.2
G1 E.5 F1800
;TYPE:Inner wall
;WIDTH:0.491922
G1 X105.729 Y145.506 E.03628
;WIDTH:0.493456
G1 X105.259 Y144.364 E.04531
;WIDTH:0.494234
G1 X104.866 Y143.2 E.04518
;WIDTH:0.494868
G1 X104.549 Y142.014 E.04524
;WIDTH:0.49527
G1 X104.311 Y140.818 E.04493
G1 X104.234 Y140.314 E.01879
;WIDTH:0.49568
G1 X104.103 Y139.066 E.0463
;WIDTH:0.495864
G1 X104.055 Y137.785 E.04731
G1 X104.094 Y136.504 E.0473
;WIDTH:0.48307
