; HEADER_BLOCK_START
; generated by OrcaSlicer 2.1.1 on 2024-08-17 at 17:56:42
; total layer number: 33
; filament_density: 1.24
; filament_diameter: 1.75
; max_z_height: 6.60
; HEADER_BLOCK_END

; THUMBNAIL_BLOCK_START

;
; THUMBNAIL_BLOCK_END

; THUMBNAIL_BLOCK_START

;
; THUMBNAIL_BLOCK_END

; external perimeters extrusion width = 0.42mm
; perimeters extrusion width = 0.45mm
; infill extrusion width = 0.45mm
; solid infill extrusion width = 0.45mm
; top infill extrusion width = 0.42mm
; support material extrusion width = 0.42mm
; first layer extrusion width = 0.50mm

; EXECUTABLE_BLOCK_START
EXCLUDE_OBJECT_DEFINE NAME=Bague.stl_id_0_copy_0 CENTER=115,115 POLYGON=[[94.8017,117.607],[94.8207,116.951],[94.861,116.297],[94.9225,115.644],[95.0051,114.994],[95.1088,114.346],[95.2335,113.703],[95.379,113.063],[95.5452,112.429],[95.7318,111.801],[95.9388,111.179],[96.1658,110.563],[96.4127,109.956],[96.6792,109.357],[96.9649,108.767],[97.2697,108.186],[97.5931,107.616],[97.9349,107.057],[98.2946,106.509],[98.672,105.972],[99.0665,105.449],[99.4779,104.938],[99.9055,104.441],[100.349,103.959],[100.808,103.49],[101.282,103.037],[101.771,102.6],[102.273,102.179],[102.789,101.774],[103.317,101.386],[103.858,101.016],[104.411,100.663],[104.975,100.328],[105.549,100.012],[106.133,99.715],[106.727,99.4369],[107.33,99.1781],[107.94,98.939],[108.558,98.7199],[109.183,98.5209],[109.813,98.3423],[110.45,98.1843],[111.091,98.047],[111.736,97.9305],[112.385,97.8351],[113.036,97.7608],[113.69,97.7076],[114.344,97.6757],[115,97.6651],[115.656,97.6757],[116.31,97.7076],[116.964,97.7608],[117.615,97.8351],[118.264,97.9305],[118.909,98.047],[119.55,98.1843],[120.187,98.3423],[120.817,98.5209],[121.442,98.7199],[122.06,98.939],[122.67,99.1781],[123.273,99.4369],[123.867,99.715],[124.451,100.012],[125.025,100.328],[125.589,100.663],[126.142,101.016],[126.683,101.386],[127.211,101.774],[127.727,102.179],[128.229,102.6],[128.718,103.037],[129.192,103.49],[129.651,103.959],[130.094,104.441],[130.522,104.938],[130.933,105.449],[131.328,105.972],[131.705,106.509],[132.065,107.057],[132.407,107.616],[132.73,108.186],[133.035,108.767],[133.321,109.357],[133.587,109.956],[133.834,110.563],[134.061,111.179],[134.268,111.801],[134.455,112.429],[134.621,113.063],[134.766,113.703],[134.891,114.346],[134.995,114.994],[135.078,115.644],[135.139,116.297],[135.179,116.951],[135.198,117.607],[135.196,118.262],[135.173,118.917],[135.128,119.571],[135.062,120.224],[134.975,120.874],[134.867,121.52],[134.737,122.163],[134.588,122.801],[134.417,123.434],[134.226,124.062],[134.015,124.682],[133.784,125.296],[133.533,125.901],[133.262,126.499],[132.972,127.087],[132.664,127.665],[132.389,128.095],[132.108,128.513],[131.81,128.92],[131.496,129.314],[131.166,129.696],[130.821,130.063],[130.461,130.417],[130.087,130.755],[129.7,131.079],[129.3,131.386],[128.889,131.677],[128.465,131.951],[128.031,132.208],[127.901,132.269],[127.763,132.312],[127.62,132.334],[127.476,132.335],[102.524,132.335],[102.38,132.334],[102.237,132.312],[102.099,132.269],[101.969,132.208],[101.535,131.951],[101.111,131.677],[100.7,131.386],[100.3,131.079],[99.9127,130.755],[99.5391,130.417],[99.1794,130.063],[98.8344,129.696],[98.5044,129.314],[98.1902,128.92],[97.8922,128.513],[97.6108,128.095],[97.3365,127.665],[97.0277,127.087],[96.7379,126.499],[96.4674,125.901],[96.2163,125.296],[95.9851,124.682],[95.7739,124.062],[95.5829,123.434],[95.4124,122.801],[95.2625,122.163],[95.1334,121.52],[95.0253,120.874],[94.9382,120.224],[94.8722,119.571],[94.8274,118.917],[94.8039,118.262],[94.8017,117.607]]
M73 P0 R5
;TYPE:Custom
M220 S100
G90 ; use absolute coordinates
M83 ; extruder relative mode
M104 S150 ; set temporary nozzle temp to prevent oozing during homing
M140 S75 ; set final bed temp
G4 S30 ; allow partial nozzle warmup
G28 ; home all axis and restore leveling
BED_MESH_CALIBRATE PROFILE=adaptive ADAPTIVE=1 ADAPTIVE_MARGIN=0
G1 Z25 F240
G1 X10.0 Y30 F3000
M104 S257 ; set final nozzle temp
M190 S75 ; wait for bed temp to stabilize
M109 S257 ; wait for nozzle temp to stabilize
M73 P1 R5
G1 Z0.28 F240
G92 E0 ; Move Z Axis up
M73 P2 R5
G1 Z2.0 F5000 ; Move to start position
M73 P3 R5
G1 X5 Y30 Z0.28 F300 ; Draw the first line
G1 X5 Y200 Z0.28 F1500 E15 ; Move to side a little
M73 P4 R5
G1 X5.4 Y200 Z0.28 F5000.0 ; Draw the second line
M73 P6 R5
G1 X5.4 Y50 Z0.28 F1500.0 E30 ; Reset Extruder
G92 E0 ; Move Z Axis up
G1 Z2.0 F3000
M117 Start Printing..
G90
G21
M83 ; use relative distances for extrusion
; filament start gcode
M106 S0
;LAYER_CHANGE
;Z:0.2
;HEIGHT:0.2
;BEFORE_LAYER_CHANGE
;0.2
G92 E0

M73 P7 R5
G1 E-.5 F1800
;_SET_FAN_SPEED_CHANGING_LAYER
SET_VELOCITY_LIMIT ACCEL=1000
SET_VELOCITY_LIMIT SQUARE_CORNER_VELOCITY=7
; printing object Bague.stl id:0 copy 0
EXCLUDE_OBJECT_START NAME=Bague.stl_id_0_copy_0
M73 P8 R5
G1 Z.2 F24000
G1 X108.887 Y146.051
G1 Z.2
G1 E.5 F1800
;TYPE:Support
;WIDTH:0.5
G1 X109.339 Y146.082 E.01685
G1 X110.187 Y146.383 E.03355
G1 X110.923 Y146.903 E.03355
G1 X111.492 Y147.601 E.03355
G1 X111.873 Y148.48 E.03566
G1 X112.145 Y148.672 E.0124
G1 X112.714 Y149.37 E.03355
G1 X113.072 Y150.197 E.03355
G1 X113.195 Y151.089 E.03355
G1 X113.134 Y151.533 E.0167
G1 X113.072 Y151.981 E.01685
G1 X112.714 Y152.808 E.03355
G1 X112.145 Y153.506 E.03355
G1 X111.779 Y153.765 E.0167
G1 X111.409 Y154.026 E.01685
G1 X110.56 Y154.327 E.03355
G1 X109.662 Y154.389 E.03355
G1 X108.78 Y154.206 E.03355
G1 X107.98 Y153.791 E.03355
G1 X107.322 Y153.176 E.03355
G1 X106.806 Y152.328 E.03698
G1 X106.363 Y152.429 E.0169
G1 X105.45 Y152.36 E.03413
G1 X104.597 Y152.026 E.03413
G1 X103.881 Y151.454 E.03413
G1 X103.364 Y150.697 E.03413
G1 X103.094 Y149.822 E.03413
G1 X103.094 Y148.906 E.03413
G1 X103.364 Y148.03 E.03413
G1 X103.881 Y147.273 E.03413
G1 X104.29 Y146.947 E.0195
G1 X104.885 Y148.094 E.04815
G1 X105.17 Y148.265 E.01238
G1 X105.946 Y148.265 E.0289
G1 X106.19 Y148.245 E.00911
G1 X106.376 Y148.203 E.00708
G1 X106.589 Y148.125 E.00845
G1 X106.836 Y147.988 E.01056
G1 X107.02 Y147.842 E.00874
G1 X107.152 Y147.705 E.00708
G1 X107.29 Y147.516 E.00871
G1 X107.417 Y147.27 E.01034
G1 X107.489 Y147.047 E.00871
G1 X107.524 Y146.861 E.00708
G1 X107.533 Y146.583 E.01034
G1 X107.477 Y146.245 E.01276
G1 X107.558 Y146.203 E.00341
G1 X108.44 Y146.02 E.03355
G1 X108.819 Y146.046 E.01415
G1 X112.335 Y152.947 F24000
G1 F1800
G1 X112.335 Y149.557 E.12628
G1 X111.827 Y148.951 E.02945
G1 X111.827 Y153.227 E.15929
G1 X111.319 Y153.586 E.02315
G1 X111.319 Y148.237 E.19924
G1 X111.137 Y147.817 E.01703
G1 X110.811 Y147.417 E.01922
G1 X110.811 Y153.802 E.23781
G1 X110.476 Y153.921 E.01326
G1 X110.303 Y153.933 E.00644
G1 X110.303 Y146.969 E.25938
G1 X109.996 Y146.752 E.014
G1 X109.795 Y146.681 E.00794
G1 X109.795 Y153.967 E.27141
M73 P9 R5
G1 X109.69 Y153.975 E.00394
G1 X109.288 Y153.891 E.01531
G1 X109.288 Y146.5 E.27529
G1 X109.254 Y146.488 E.00133
G1 X108.78 Y146.456 E.01771
G1 X108.78 Y153.742 E.2714
G1 X108.272 Y153.479 E.0213
G1 X108.272 Y146.475 E.26087
G1 X107.943 Y146.543 E.01251
G1 X107.939 Y146.847 E.01129
G1 X107.891 Y147.137 E.01095
G1 X107.764 Y147.501 E.01439
G1 X107.764 Y153.027 E.2058
G1 X107.644 Y152.914 E.00613
G1 X107.256 Y152.277 E.02778
G1 X107.256 Y148.182 E.15251
G1 X107.011 Y148.365 E.01138
G1 X106.748 Y148.505 E.01109
G1 X106.748 Y151.919 E.12717
G1 X106.332 Y152.014 E.01589
G1 X106.24 Y152.007 E.00343
G1 X106.24 Y148.653 E.12492
G1 X105.733 Y148.676 E.01894
G1 X105.733 Y151.969 E.12264
G1 X105.542 Y151.955 E.00711
G1 X105.225 Y151.83 E.01271
G1 X105.225 Y148.676 E.11746
G1 X105.056 Y148.676 E.00627
G1 X104.717 Y148.473 E.01475
G1 X104.717 Y151.595 E.1163
G1 X104.209 Y151.19 E.02419
G1 X104.209 Y147.701 E.12998
G1 X104.155 Y147.6 E.00423
G1 X103.739 Y148.211 E.02752
G1 X103.701 Y148.334 E.00482
G1 X103.701 Y150.826 E.0928
G1 E-.5
;WIPE_START
G1 X103.701 Y148.826
;WIPE_END
G1 Z.4 F24000
G1 X138.672 Y145.872 Z.4
G1 Z.2
G1 E.5 F1800
G1 X138.558 Y146.126 E.01036
G1 X138.496 Y146.351 E.00871
G1 X138.465 Y146.627 E.01033
G1 X138.476 Y146.861 E.00871
G1 X138.511 Y147.047 E.00708
G1 X138.583 Y147.27 E.00871
G1 X138.687 Y147.479 E.00871
G1 X138.82 Y147.671 E.00871
G1 X139.013 Y147.871 E.01033
G1 X139.2 Y148.011 E.00871
G1 X139.405 Y148.123 E.00871
G1 X139.582 Y148.191 E.00708
G1 X139.81 Y148.245 E.00871
G1 X140.054 Y148.265 E.00911
G1 X140.83 Y148.265 E.0289
M73 P10 R5
G1 X141.115 Y148.094 E.01238
G1 X141.218 Y147.9 E.0082
G1 X141.274 Y148.016 E.00479
G1 X141.411 Y148.927 E.03432
G1 X141.274 Y149.838 E.03432
G1 X140.874 Y150.668 E.03432
G1 X140.248 Y151.344 E.03432
G1 X139.45 Y151.804 E.03432
G1 X139.19 Y151.864 E.00993
G1 X138.868 Y152.604 E.03005
G1 X138.3 Y153.302 E.03355
G1 X137.564 Y153.822 E.03355
G1 X136.715 Y154.124 E.03355
G1 X135.817 Y154.185 E.03355
G1 X134.935 Y154.002 E.03355
G1 X134.135 Y153.587 E.03355
G1 X133.477 Y152.973 E.03355
G1 X133.008 Y152.203 E.03355
G1 X132.765 Y151.336 E.03355
G1 X132.765 Y150.435 E.03355
G1 X133.008 Y149.567 E.03355
G1 X133.477 Y148.798 E.03355
G1 X134.135 Y148.183 E.03355
G1 X134.935 Y147.768 E.03355
G1 X135.49 Y147.653 E.02112
G1 X136.055 Y146.825 E.03734
G1 X136.775 Y146.25 E.03432
G1 X137.633 Y145.914 E.03432
G1 X138.551 Y145.845 E.03432
G1 X138.605 Y145.857 E.00205
G1 E-.5
;WIPE_START
G1 X138.551 Y145.845
G1 X137.633 Y145.914
G1 X136.775 Y146.25
G1 X136.695 Y146.314
;WIPE_END
G1 Z.4 F24000
G1 X140.775 Y150.4 Z.4
G1 Z.2
G1 E.5 F1800
G1 X140.775 Y148.676 E.06419
G1 X140.267 Y148.676 E.01892
G1 X140.267 Y150.718 E.07602
G1 X139.988 Y151.018 E.01529
G1 X139.76 Y151.15 E.00984
G1 X139.76 Y148.653 E.09301
G1 X139.52 Y148.602 E.00912
G1 X139.252 Y148.505 E.01063
G1 X139.252 Y151.428 E.10887
G1 X138.896 Y151.509 E.01361
G1 X138.744 Y151.858 E.01418
G1 X138.744 Y148.182 E.13691
G1 X138.494 Y147.922 E.01342
G1 X138.366 Y147.743 E.0082
G1 X138.236 Y147.501 E.01024
G1 X138.236 Y152.729 E.19472
G1 X138.017 Y152.999 E.01295
G1 X137.728 Y153.203 E.01315
G1 X137.728 Y146.319 E.25639
G1 X137.22 Y146.517 E.02031
G1 X137.22 Y153.508 E.26036
G1 X136.712 Y153.688 E.02008
G1 X136.712 Y146.826 E.25557
G1 X136.36 Y147.108 E.01681
G1 X136.205 Y147.335 E.01025
G1 X136.205 Y153.746 E.23879
G1 X135.845 Y153.771 E.01342
G1 X135.697 Y153.74 E.00564
G1 X135.697 Y148.03 E.21267
G1 X135.189 Y148.136 E.01932
M73 P11 R5
G1 X135.189 Y153.634 E.20481
G1 X135.074 Y153.611 E.00438
G1 X134.681 Y153.407 E.01648
G1 X134.681 Y148.363 E.18786
G1 X134.374 Y148.522 E.01286
G1 X134.173 Y148.71 E.01026
G1 X134.173 Y153.06 E.16203
G1 X133.799 Y152.711 E.01908
G1 X133.665 Y152.491 E.00957
G1 X133.665 Y148.903 E.13364
G1 E-.5
;WIPE_START
G1 F12000
G1 X133.665 Y150.903
;WIPE_END
G1 Z.4 F24000
G1 X106.153 Y146.737 Z.4
G1 Z.2
G1 E.5 F1800
;TYPE:Inner wall
;WIDTH:0.507311
G1 X106.025 Y146.868 E.00694
G1 X105.798 Y146.898 E.00869
G1 X105.708 Y146.723 E.00743
;WIDTH:0.5182
G1 X105.428 Y146.164 E.02422
G1 X105.154 Y145.543 E.0263
;WIDTH:0.519392
G1 X104.927 Y145.006 E.02262
G1 X104.672 Y144.309 E.02882
;WIDTH:0.519245
G1 X104.502 Y143.819 E.02014
G1 X104.292 Y143.106 E.02884
;WIDTH:0.518994
G1 X104.154 Y142.606 E.02011
G1 X103.886 Y141.374 E.04893
;WIDTH:0.518708
G1 X103.699 Y140.127 E.0489
;WIDTH:0.518113
G1 X103.612 Y139.149 E.03798
;WIDTH:0.510798
G1 X103.581 Y138.464 E.02616
;WIDTH:0.509935
G1 X103.585 Y137.14 E.0504
;WIDTH:0.519125
G1 X103.627 Y136.349 E.03073
G1 X103.68 Y135.819 E.02068
;WIDTH:0.519327
G1 X103.766 Y135.095 E.02828
G1 X103.862 Y134.523 E.02254
;WIDTH:0.514285
G1 X103.985 Y133.847 E.02637
;WIDTH:0.514468
G1 X104.283 Y132.629 E.0482
G1 X104.502 Y131.927 E.02824
;WIDTH:0.519253
G1 X104.663 Y131.432 E.02019
G1 X104.932 Y130.725 E.02939
;WIDTH:0.519078
G1 X105.122 Y130.249 E.01986
G1 X105.653 Y129.106 E.04894
;WIDTH:0.518751
G1 X106.08 Y128.315 E.03484
;WIDTH:0.510427
G1 X106.419 Y127.736 E.02555
;WIDTH:0.517721
G1 X106.933 Y126.933 E.03688
G1 X107.676 Y125.914 E.0488
;WIDTH:0.517143
G1 X108.447 Y124.983 E.0467
;WIDTH:0.512354
G1 X109.325 Y124.054 E.04889
;WIDTH:0.513207
G1 X110.262 Y123.185 E.04898
;WIDTH:0.514163
G1 X111.255 Y122.38 E.04908
;WIDTH:0.515164
G1 X112.298 Y121.641 E.04919
;WIDTH:0.516061
G1 X113.387 Y120.973 E.04928
;WIDTH:0.516848
G1 X114.517 Y120.378 E.04932
G1 X115.677 Y119.861 E.04904
;WIDTH:0.518008
G1 X116.81 Y119.444 E.04673
G1 X118.018 Y119.081 E.04883
;WIDTH:0.517278
G1 X119.19 Y118.806 E.04653
;WIDTH:0.512126
G1 X120.451 Y118.597 E.04887
;WIDTH:0.512945
G1 X121.723 Y118.471 E.04896
;WIDTH:0.519567
G1 X122.371 Y118.442 E.02519
G1 X123.325 Y118.436 E.03709
;WIDTH:0.516753
G1 X124.363 Y118.48 E.04011
;WIDTH:0.515806
G1 X125.549 Y118.597 E.04593
;WIDTH:0.516626
G1 X126.81 Y118.806 E.04934
;WIDTH:0.517345
G1 X128.091 Y119.107 E.05086
G1 X129.519 Y119.562 E.05792
;WIDTH:0.517534
G1 X130.387 Y119.89 E.03588
G1 X131.482 Y120.378 E.04636
;WIDTH:0.511902
G1 X132.613 Y120.973 E.04885
;WIDTH:0.512693
G1 X133.704 Y121.642 E.04901
G1 X134.228 Y122.011 E.02454
;WIDTH:0.519404
G1 X134.754 Y122.39 E.02515
G1 X135.275 Y122.807 E.02592
G1 X135.733 Y123.185 E.02306
G1 X136.273 Y123.678 E.02839
;WIDTH:0.519275
G1 X136.653 Y124.036 E.02028
G1 X137.183 Y124.587 E.02966
;WIDTH:0.519044
G1 X137.526 Y124.957 E.01959
G1 X138.333 Y125.926 E.04894
;WIDTH:0.518705
G1 X139.076 Y126.946 E.0489
;WIDTH:0.518261
M73 P12 R5
G1 X139.75 Y128.012 E.04885
;WIDTH:0.517715
G1 X140.248 Y128.917 E.03998
;WIDTH:0.51132
G1 X140.551 Y129.533 E.02619
;WIDTH:0.519076
G1 X140.884 Y130.264 E.03116
G1 X141.072 Y130.734 E.01964
;WIDTH:0.51536
G1 X141.342 Y131.439 E.02907
G1 X141.716 Y132.625 E.04789
;WIDTH:0.514286
G1 X142.019 Y133.864 E.04897
G1 X142.146 Y134.569 E.02753
;WIDTH:0.519327
G1 X142.236 Y135.11 E.0213
M73 P12 R4
G1 X142.323 Y135.844 E.02867
;WIDTH:0.519122
G1 X142.375 Y136.364 E.02028
G1 X142.431 Y137.624 E.04894
;WIDTH:0.518893
G1 X142.406 Y138.885 E.04892
;WIDTH:0.518347
G1 X142.33 Y139.833 E.03684
;WIDTH:0.510526
G1 X142.247 Y140.514 E.02614
;WIDTH:0.510111
G1 X142.022 Y141.819 E.05042
;WIDTH:0.518996
G1 X141.842 Y142.621 E.03189
G1 X141.708 Y143.106 E.01951
;WIDTH:0.519242
G1 X141.493 Y143.834 E.02944
G1 X141.307 Y144.368 E.02199
;WIDTH:0.519388
G1 X141.067 Y145.021 E.02698
G1 X140.823 Y145.597 E.02432
;WIDTH:0.518197
G1 X140.565 Y146.178 E.0246
G1 X140.203 Y146.898 E.03124
;WIDTH:0.506885
G1 X140.093 Y146.897 E.00415
G1 X139.918 Y146.841 E.00694
G1 X139.85 Y146.7 E.00593
G1 X139.865 Y146.54 E.00606
;WIDTH:0.518197
G1 X140.415 Y145.365 E.05027
;WIDTH:0.519388
G1 X140.886 Y144.16 E.05022
;WIDTH:0.519242
G1 X141.042 Y143.682 E.01954
G1 X141.382 Y142.5 E.04773
;WIDTH:0.518996
G1 X141.644 Y141.298 E.0477
;WIDTH:0.518634
G1 X141.791 Y140.405 E.0351
;WIDTH:0.510341
G1 X141.868 Y139.751 E.0251
G1 X141.952 Y138.47 E.0489
;WIDTH:0.510068
G1 X141.949 Y137.166 E.04961
;WIDTH:0.519122
G1 X141.857 Y135.876 E.05019
;WIDTH:0.519327
G1 X141.68 Y134.607 E.04975
;WIDTH:0.514286
G1 X141.557 Y133.959 E.02532
;WIDTH:0.514465
G1 X141.257 Y132.735 E.04845
;WIDTH:0.51536
G1 X140.872 Y131.523 E.04896
;WIDTH:0.519076
G1 X140.444 Y130.445 E.045
G1 X140.11 Y129.692 E.03193
;WIDTH:0.511035
G1 X139.816 Y129.103 E.02514
G1 X139.18 Y127.977 E.04933
;WIDTH:0.510484
G1 X138.468 Y126.897 E.04928
;WIDTH:0.510038
G1 X137.684 Y125.868 E.04924
;WIDTH:0.509701
G1 X136.832 Y124.895 E.0492
;WIDTH:0.519275
G1 X135.915 Y123.982 E.05021
;WIDTH:0.519384
G1 X134.939 Y123.134 E.05022
G1 X133.924 Y122.367 E.04938
;WIDTH:0.512693
G1 X133.372 Y121.99 E.0256
;WIDTH:0.51606
G1 X132.317 Y121.347 E.04762
;WIDTH:0.516849
G1 X131.183 Y120.757 E.04938
;WIDTH:0.517534
G1 X130.013 Y120.245 E.04937
;WIDTH:0.517954
G1 X129.05 Y119.898 E.03963
G1 X127.873 Y119.543 E.0476
;WIDTH:0.517345
G1 X126.81 Y119.287 E.04224
;WIDTH:0.512123
G1 X125.55 Y119.073 E.04889
;WIDTH:0.512944
G1 X124.276 Y118.944 E.04905
G1 X122.976 Y118.903 E.04979
;WIDTH:0.519567
G1 X121.684 Y118.948 E.05025
;WIDTH:0.515808
G1 X120.45 Y119.073 E.04778
;WIDTH:0.516629
G1 X119.19 Y119.287 E.04935
;WIDTH:0.517278
G1 X117.948 Y119.585 E.04934
G1 X116.645 Y120 E.05287
;WIDTH:0.516689
G1 X115.805 Y120.323 E.03474
G1 X114.816 Y120.757 E.0417
;WIDTH:0.511904
G1 X113.683 Y121.347 E.04881
