; HEADER_BLOCK_START
; generated by OrcaSlicer 2.1.1 on 2024-08-17 at 18:58:27
; total layer number: 33
; filament_density: 1.24
; filament_diameter: 1.75
; max_z_height: 6.60
; HEADER_BLOCK_END

; THUMBNAIL_BLOCK_START

;
; THUMBNAIL_BLOCK_END

; THUMBNAIL_BLOCK_START

;
; THUMBNAIL_BLOCK_END

; external perimeters extrusion width = 0.42mm
; perimeters extrusion width = 0.45mm
; infill extrusion width = 0.45mm
; solid infill extrusion width = 0.45mm
; top infill extrusion width = 0.42mm
; support material extrusion width = 0.42mm
; first layer extrusion width = 0.50mm

; external perimeters extrusion width = 0.42mm
; perimeters extrusion width = 0.45mm
; infill extrusion width = 0.45mm
; solid infill extrusion width = 0.45mm
; top infill extrusion width = 0.42mm
; support material extrusion width = 0.42mm
; first layer extrusion width = 0.50mm

; EXECUTABLE_BLOCK_START
EXCLUDE_OBJECT_DEFINE NAME=Bague__4mm.step_id_0_copy_0 CENTER=115,144.118 POLYGON=[[94.8001,141.112],[94.8043,140.621],[94.8204,140.131],[94.8483,139.641],[94.8882,139.152],[94.94,138.664],[95.0036,138.177],[95.079,137.692],[95.1661,137.209],[95.265,136.729],[95.3755,136.25],[95.4976,135.775],[95.6312,135.303],[95.7762,134.834],[95.9326,134.369],[96.1003,133.907],[96.2791,133.45],[96.4689,132.998],[96.6697,132.55],[96.8813,132.107],[97.1036,131.67],[97.3365,131.238],[97.5375,130.924],[97.7375,130.615],[97.9465,130.313],[98.1643,130.017],[98.3908,129.727],[98.6257,129.445],[98.8688,129.169],[99.12,128.901],[99.3789,128.64],[99.6455,128.387],[99.9193,128.142],[100.2,127.905],[100.367,127.776],[100.54,127.655],[100.719,127.545],[100.903,127.443],[101.093,127.352],[101.287,127.271],[101.486,127.2],[101.687,127.139],[101.892,127.09],[102.099,127.051],[102.308,127.023],[102.518,127.006],[102.728,127],[127.272,127],[127.482,127.006],[127.692,127.023],[127.901,127.051],[128.108,127.09],[128.313,127.139],[128.514,127.2],[128.713,127.271],[128.907,127.352],[129.097,127.443],[129.281,127.545],[129.46,127.655],[129.633,127.776],[129.8,127.905],[130.081,128.142],[130.355,128.387],[130.621,128.64],[130.88,128.901],[131.131,129.169],[131.374,129.445],[131.609,129.727],[131.836,130.017],[132.053,130.313],[132.263,130.615],[132.463,130.924],[132.664,131.238],[132.896,131.67],[133.119,132.107],[133.33,132.55],[133.531,132.998],[133.721,133.45],[133.9,133.907],[134.067,134.369],[134.224,134.834],[134.369,135.303],[134.502,135.775],[134.625,136.25],[134.735,136.729],[134.834,137.209],[134.921,137.692],[134.996,138.177],[135.06,138.664],[135.112,139.152],[135.152,139.641],[135.18,140.131],[135.196,140.621],[135.2,141.112],[135.192,141.603],[135.172,142.093],[135.141,142.583],[135.097,143.072],[135.042,143.56],[134.975,144.046],[134.896,144.53],[134.805,145.012],[134.703,145.492],[134.589,145.97],[134.463,146.444],[134.326,146.915],[134.177,147.383],[134.018,147.847],[133.847,148.307],[133.664,148.763],[133.471,149.214],[133.267,149.66],[133.052,150.102],[132.827,150.537],[132.591,150.968],[132.344,151.392],[132.088,151.81],[131.821,152.222],[131.544,152.628],[131.258,153.026],[130.962,153.418],[130.656,153.802],[130.342,154.178],[130.018,154.547],[129.685,154.908],[129.344,155.261],[128.994,155.605],[128.636,155.941],[128.27,156.268],[127.896,156.585],[127.515,156.894],[127.126,157.193],[126.73,157.483],[126.327,157.763],[125.917,158.034],[125.501,158.294],[125.078,158.544],[124.65,158.783],[124.216,159.013],[123.777,159.231],[123.332,159.439],[122.883,159.636],[122.429,159.822],[121.97,159.997],[121.507,160.161],[121.041,160.313],[120.571,160.454],[120.098,160.584],[119.621,160.702],[119.142,160.808],[118.661,160.903],[118.177,160.986],[117.691,161.058],[117.204,161.117],[116.716,161.165],[116.226,161.2],[115.736,161.224],[115.245,161.236],[114.755,161.236],[114.264,161.224],[113.774,161.2],[113.284,161.165],[112.796,161.117],[112.309,161.058],[111.823,160.986],[111.339,160.903],[110.858,160.808],[110.379,160.702],[109.902,160.584],[109.429,160.454],[108.959,160.313],[108.493,160.161],[108.03,159.997],[107.571,159.822],[107.117,159.636],[106.668,159.439],[106.223,159.231],[105.784,159.013],[105.35,158.783],[104.922,158.544],[104.499,158.294],[104.083,158.034],[103.673,157.763],[103.27,157.483],[102.874,157.193],[102.485,156.894],[102.104,156.585],[101.73,156.268],[101.364,155.941],[101.006,155.605],[100.656,155.261],[100.315,154.908],[99.9822,154.547],[99.6585,154.178],[99.3437,153.802],[99.0383,153.418],[98.7422,153.026],[98.4558,152.628],[98.1791,152.222],[97.9123,151.81],[97.6557,151.392],[97.4092,150.968],[97.1732,150.537],[96.9477,150.102],[96.7328,149.66],[96.5287,149.214],[96.3355,148.763],[96.1534,148.307],[95.9823,147.847],[95.8225,147.383],[95.674,146.915],[95.5369,146.444],[95.4113,145.97],[95.2973,145.492],[95.1949,145.012],[95.1042,144.53],[95.0252,144.046],[94.958,143.56],[94.9027,143.072],[94.8592,142.583],[94.8276,142.093],[94.8079,141.603],[94.8001,141.112]]
EXCLUDE_OBJECT_DEFINE NAME=Bague__4mm.step_id_1_copy_0 CENTER=115,85.8819 POLYGON=[[94.8001,82.876],[94.8043,82.3852],[94.8204,81.8947],[94.8483,81.4048],[94.8882,80.9156],[94.94,80.4276],[95.0036,79.9409],[95.079,79.456],[95.1661,78.973],[95.265,78.4923],[95.3755,78.0141],[95.4976,77.5388],[95.6312,77.0666],[95.7762,76.5977],[95.9326,76.1325],[96.1003,75.6713],[96.2791,75.2142],[96.4689,74.7617],[96.6697,74.3138],[96.8813,73.871],[97.1036,73.4335],[97.3365,73.0015],[97.5375,72.6874],[97.7375,72.379],[97.9465,72.0767],[98.1643,71.7807],[98.3908,71.4912],[98.6257,71.2085],[98.8688,70.9328],[99.12,70.6645],[99.3789,70.4036],[99.6455,70.1505],[99.9193,69.9054],[100.2,69.6684],[100.367,69.5394],[100.54,69.4193],[100.719,69.3084],[100.903,69.2072],[101.093,69.1158],[101.287,69.0345],[101.486,68.9635],[101.687,68.9031],[101.892,68.8534],[102.099,68.8145],[102.308,68.7866],[102.518,68.7696],[102.728,68.7638],[127.272,68.7638],[127.482,68.7696],[127.692,68.7866],[127.901,68.8145],[128.108,68.8534],[128.313,68.9031],[128.514,68.9635],[128.713,69.0345],[128.907,69.1158],[129.097,69.2072],[129.281,69.3084],[129.46,69.4193],[129.633,69.5394],[129.8,69.6684],[130.081,69.9054],[130.355,70.1505],[130.621,70.4036],[130.88,70.6645],[131.131,70.9328],[131.374,71.2085],[131.609,71.4912],[131.836,71.7807],[132.053,72.0767],[132.263,72.379],[132.463,72.6874],[132.664,73.0015],[132.896,73.4335],[133.119,73.871],[133.33,74.3138],[133.531,74.7617],[133.721,75.2142],[133.9,75.6713],[134.067,76.1325],[134.224,76.5977],[134.369,77.0666],[134.502,77.5388],[134.625,78.0141],[134.735,78.4923],[134.834,78.973],[134.921,79.456],[134.996,79.9409],[135.06,80.4276],[135.112,80.9156],[135.152,81.4048],[135.18,81.8947],[135.196,82.3852],[135.2,82.876],[135.192,83.3667],[135.172,83.8571],[135.141,84.3468],[135.097,84.8357],[135.042,85.3233],[134.975,85.8095],[134.896,86.2938],[134.805,86.7762],[134.703,87.2561],[134.589,87.7335],[134.463,88.2079],[134.326,88.6791],[134.177,89.1469],[134.018,89.6109],[133.847,90.0709],[133.664,90.5266],[133.471,90.9778],[133.267,91.4241],[133.052,91.8654],[132.827,92.3012],[132.591,92.7315],[132.344,93.1559],[132.088,93.5742],[131.821,93.9862],[131.544,94.3915],[131.258,94.79],[130.962,95.1815],[130.656,95.5656],[130.342,95.9422],[130.018,96.311],[129.685,96.6718],[129.344,97.0245],[128.994,97.3688],[128.636,97.7044],[128.27,98.0313],[127.896,98.3492],[127.515,98.6579],[127.126,98.9573],[126.73,99.2471],[126.327,99.5272],[125.917,99.7974],[125.501,100.058],[125.078,100.308],[124.65,100.547],[124.216,100.776],[123.777,100.995],[123.332,101.203],[122.883,101.4],[122.429,101.586],[121.97,101.761],[121.507,101.925],[121.041,102.077],[120.571,102.218],[120.098,102.348],[119.621,102.466],[119.142,102.572],[118.661,102.667],[118.177,102.75],[117.691,102.821],[117.204,102.881],[116.716,102.929],[116.226,102.964],[115.736,102.988],[115.245,103],[114.755,103],[114.264,102.988],[113.774,102.964],[113.284,102.929],[112.796,102.881],[112.309,102.821],[111.823,102.75],[111.339,102.667],[110.858,102.572],[110.379,102.466],[109.902,102.348],[109.429,102.218],[108.959,102.077],[108.493,101.925],[108.03,101.761],[107.571,101.586],[107.117,101.4],[106.668,101.203],[106.223,100.995],[105.784,100.776],[105.35,100.547],[104.922,100.308],[104.499,100.058],[104.083,99.7974],[103.673,99.5272],[103.27,99.2471],[102.874,98.9573],[102.485,98.6579],[102.104,98.3492],[101.73,98.0313],[101.364,97.7044],[101.006,97.3688],[100.656,97.0245],[100.315,96.6718],[99.9822,96.311],[99.6585,95.9422],[99.3437,95.5656],[99.0383,95.1815],[98.7422,94.79],[98.4558,94.3915],[98.1791,93.9862],[97.9123,93.5742],[97.6557,93.1559],[97.4092,92.7315],[97.1732,92.3012],[96.9477,91.8654],[96.7328,91.4241],[96.5287,90.9778],[96.3355,90.5266],[96.1534,90.0709],[95.9823,89.6109],[95.8225,89.1469],[95.674,88.6791],[95.5369,88.2079],[95.4113,87.7335],[95.2973,87.2561],[95.1949,86.7762],[95.1042,86.2938],[95.0252,85.8095],[94.958,85.3233],[94.9027,84.8357],[94.8592,84.3468],[94.8276,83.8571],[94.8079,83.3667],[94.8001,82.876]]
M73 P0 R10
;TYPE:Custom
M220 S100
G90 ; use absolute coordinates
M83 ; extruder relative mode
M104 S150 ; set temporary nozzle temp to prevent oozing during homing
M140 S75 ; set final bed temp
G4 S30 ; allow partial nozzle warmup
G28 ; home all axis and restore leveling
BED_MESH_CALIBRATE PROFILE=adaptive ADAPTIVE=1 ADAPTIVE_MARGIN=0
G1 Z25 F240
G1 X10.0 Y30 F3000
M104 S257 ; set final nozzle temp
M190 S75 ; wait for bed temp to stabilize
M109 S257 ; wait for nozzle temp to stabilize
M73 P1 R9
G1 Z0.28 F240
G92 E0 ; Move Z Axis up
G1 Z2.0 F5000 ; Move to start position
M73 P2 R9
G1 X5 Y30 Z0.28 F300 ; Draw the first line
G1 X5 Y200 Z0.28 F1500 E15 ; Move to side a little
G1 X5.4 Y200 Z0.28 F5000.0 ; Draw the second line
M73 P3 R9
G1 X5.4 Y50 Z0.28 F1500.0 E30 ; Reset Extruder
G92 E0 ; Move Z Axis up
G1 Z2.0 F3000
M117 Start Printing..
G90
G21
M83 ; use relative distances for extrusion
; filament start gcode
M106 S0
;LAYER_CHANGE
;Z:0.2
;HEIGHT:0.2
;BEFORE_LAYER_CHANGE
;0.2
G92 E0

M73 P4 R9
G1 E-.5 F1800
;_SET_FAN_SPEED_CHANGING_LAYER
SET_VELOCITY_LIMIT ACCEL=1000
SET_VELOCITY_LIMIT SQUARE_CORNER_VELOCITY=7
; printing object Bague_+4mm.step id:0 copy 0
EXCLUDE_OBJECT_START NAME=Bague__4mm.step_id_0_copy_0
G1 Z.2 F24000
G1 X109.447 Y144.464
G1 Z.2
G1 E.5 F1800
;TYPE:Support
;WIDTH:0.5
G1 X109.89 Y144.495 E.01656
G1 X110.739 Y144.797 E.03354
G1 X111.474 Y145.316 E.03352
G1 X112.042 Y146.015 E.03352
G1 X112.4 Y146.84 E.03352
G1 X112.523 Y147.732 E.03352
G1 X112.401 Y148.623 E.03353
G1 X112.043 Y149.45 E.03353
G1 X111.475 Y150.148 E.03354
G1 X110.926 Y150.537 E.02506
G1 X110.721 Y151.002 E.01891
G1 X110.151 Y151.697 E.0335
G1 X109.415 Y152.212 E.03347
G1 X108.568 Y152.51 E.03343
G1 X107.673 Y152.57 E.0334
G1 X107.506 Y152.535 E.00634
G1 X107.535 Y152.294 E.00901
G1 X107.51 Y151.951 E.01284
G1 X107.412 Y151.621 E.01282
G1 X107.246 Y151.319 E.01282
G1 X107.043 Y151.083 E.01162
G1 X106.77 Y150.873 E.01282
G1 X106.459 Y150.726 E.01282
G1 X106.124 Y150.649 E.01282
G1 X105.171 Y150.638 E.03547
G1 X104.887 Y150.807 E.01233
G1 X104.249 Y152.039 E.05168
G1 X103.983 Y151.826 E.01268
G1 X103.469 Y151.063 E.03428
G1 X103.203 Y150.184 E.03419
G1 X103.208 Y149.27 E.03407
G1 X103.482 Y148.395 E.03415
G1 X103.998 Y147.643 E.03396
G1 X104.712 Y147.074 E.03401
G1 X105.563 Y146.741 E.03402
G1 X105.831 Y146.721 E.01002
G1 X105.985 Y146.575 E.00789
G1 X106.13 Y146.5 E.00609
G1 X106.651 Y145.644 E.03733
G1 X107.31 Y145.029 E.03356
G1 X108.111 Y144.615 E.03355
G1 X108.993 Y144.433 E.03355
G1 X109.379 Y144.46 E.01441
G1 X111.827 Y149.389 F24000
G1 F1800
G1 X111.827 Y146.552 E.10566
G1 X111.687 Y146.23 E.01308
G1 X111.319 Y145.778 E.02172
G1 X111.319 Y149.688 E.14565
G1 X111.192 Y149.845 E.00753
G1 X110.811 Y150.114 E.01735
G1 X110.811 Y145.352 E.17738
G1 X110.548 Y145.166 E.01202
G1 X110.303 Y145.079 E.00965
G1 X110.303 Y150.862 E.21543
G1 X109.869 Y151.392 E.02552
M73 P5 R9
G1 X109.795 Y151.443 E.00332
G1 X109.795 Y144.901 E.24369
G1 X109.288 Y144.866 E.01896
G1 X109.288 Y151.799 E.25824
G1 X109.225 Y151.843 E.00285
G1 X108.78 Y151.999 E.01758
G1 X108.78 Y144.897 E.26454
G1 X108.272 Y145.002 E.01932
G1 X108.272 Y152.118 E.26502
G1 X107.945 Y152.139 E.01222
G1 X107.877 Y151.712 E.01612
G1 X107.764 Y151.403 E.01225
G1 X107.764 Y145.258 E.22889
G1 X107.55 Y145.369 E.00899
G1 X107.256 Y145.642 E.01494
G1 X107.256 Y150.722 E.18921
G1 X106.991 Y150.525 E.01232
G1 X106.748 Y150.398 E.0102
G1 X106.748 Y146.275 E.15355
G1 X106.422 Y146.811 E.02337
G1 X106.24 Y146.906 E.00762
G1 X106.24 Y150.251 E.12459
G1 X105.733 Y150.226 E.01894
G1 X105.733 Y147.14 E.11494
G1 X105.655 Y147.146 E.00289
G1 X105.225 Y147.315 E.01723
G1 X105.225 Y150.226 E.10843
G1 X105.058 Y150.226 E.00621
G1 X104.717 Y150.43 E.01479
G1 X104.717 Y147.596 E.10553
G1 X104.302 Y147.926 E.01974
G1 X104.209 Y148.062 E.00613
G1 X104.209 Y151.198 E.1168
G1 X104.143 Y151.327 E.00541
G1 X103.844 Y150.885 E.01989
G1 X103.701 Y150.41 E.01846
G1 X103.701 Y148.439 E.07341
G1 E-.5
;WIPE_START
G1 X103.701 Y150.41
G1 X103.709 Y150.438
;WIPE_END
G1 Z.4 F24000
G1 X135.694 Y144.517 Z.4
G1 Z.2
G1 E.5 F1800
G1 X136.141 Y144.547 E.0167
G1 X136.99 Y144.849 E.03358
G1 X137.727 Y145.369 E.03358
G1 X138.051 Y145.768 E.01913
G1 X138.406 Y145.792 E.01325
G1 X139.255 Y146.095 E.03356
G1 X139.99 Y146.615 E.03356
G1 X140.558 Y147.314 E.03355
G1 X140.917 Y148.14 E.03354
G1 X140.953 Y148.404 E.00994
G1 X141.148 Y148.574 E.00961
G1 X141.606 Y149.387 E.03479
G1 X141.766 Y150.307 E.03477
G1 X141.541 Y151.615 E.04942
G1 X141.113 Y150.807 E.03404
G1 X140.829 Y150.638 E.01233
G1 X139.909 Y150.645 E.03428
G1 X139.707 Y150.678 E.00762
G1 X139.387 Y150.788 E.01258
G1 X139.114 Y150.951 E.01186
G1 X138.861 Y151.184 E.01282
G1 X138.663 Y151.466 E.01282
G1 X138.53 Y151.783 E.01282
G1 X138.469 Y152.122 E.01282
G1 X138.481 Y152.465 E.01282
G1 X138.566 Y152.799 E.01282
G1 X138.677 Y153.039 E.00987
G1 X137.756 Y152.748 E.03596
G1 X137.094 Y152.245 E.03097
G1 X136.625 Y152.148 E.01784
G1 X135.825 Y151.734 E.03354
G1 X135.099 Y151.056 E.03702
G1 X134.361 Y150.903 E.02807
G1 X133.562 Y150.489 E.03353
G1 X132.904 Y149.874 E.03353
G1 X132.435 Y149.105 E.03353
G1 X132.192 Y148.239 E.03354
G1 X132.191 Y147.338 E.03354
G1 X132.434 Y146.471 E.03355
G1 X132.901 Y145.7 E.03356
G1 X133.559 Y145.085 E.03356
G1 X134.359 Y144.67 E.03357
G1 X135.242 Y144.486 E.03358
G1 X135.625 Y144.512 E.01432
G1 X141.283 Y150.689 F24000
G1 F1800
G1 X141.283 Y149.931 E.02823
G1 X141.213 Y149.527 E.01526
G1 X140.824 Y148.838 E.0295
G1 X140.775 Y148.795 E.00241
G1 X140.775 Y150.226 E.05331
G1 X140.267 Y150.226 E.01892
G1 X140.267 Y147.677 E.09497
G1 X140.204 Y147.529 E.00598
G1 X139.76 Y146.983 E.02622
G1 X139.76 Y150.251 E.12173
G1 X139.452 Y150.322 E.01177
G1 X139.252 Y150.398 E.00797
G1 X139.252 Y146.596 E.1416
G1 X139.064 Y146.463 E.00858
G1 X138.744 Y146.349 E.01264
G1 X138.744 Y150.722 E.16288
G1 X138.556 Y150.908 E.00984
G1 X138.421 Y151.078 E.00807
G1 X138.236 Y151.403 E.01395
G1 X138.236 Y146.193 E.19406
G1 X137.844 Y146.166 E.01462
G1 X137.728 Y146.023 E.00687
G1 X137.728 Y152.21 E.23044
G1 X137.269 Y151.861 E.02148
M73 P6 R9
G1 X137.22 Y151.851 E.00185
G1 X137.22 Y145.515 E.23599
G1 X136.799 Y145.218 E.01919
G1 X136.712 Y145.187 E.00344
G1 X136.712 Y151.73 E.24369
G1 X136.205 Y151.467 E.0213
G1 X136.205 Y145.006 E.24063
G1 X136.057 Y144.954 E.00585
G1 X135.697 Y144.929 E.01344
G1 X135.697 Y151.051 E.22802
G1 X135.295 Y150.677 E.02045
G1 X135.189 Y150.655 E.00404
G1 X135.189 Y144.917 E.21369
G1 X134.681 Y145.023 E.01932
G1 X134.681 Y150.549 E.20582
G1 X134.5 Y150.511 E.00689
G1 X134.173 Y150.342 E.01371
G1 X134.173 Y145.23 E.19041
G1 X133.799 Y145.424 E.0157
G1 X133.665 Y145.549 E.00682
G1 X133.665 Y150.023 E.16662
G1 X133.226 Y149.612 E.0224
G1 X133.157 Y149.5 E.00489
G1 X133.157 Y146.071 E.12772
G1 X132.815 Y146.636 E.0246
G1 X132.649 Y147.227 E.02286
G1 X132.649 Y149.061 E.06833
G1 E-.5
;WIPE_START
G1 F12000
G1 X132.649 Y147.227
G1 X132.694 Y147.068
;WIPE_END
G1 Z.4 F24000
G1 X106.143 Y152.217 Z.4
G1 Z.2
G1 E.5 F1800
;TYPE:Inner wall
;WIDTH:0.510801
