; HEADER_BLOCK_START
; generated by OrcaSlicer 2.0.0 on 2024-06-17 at 13:04:20
; total layer number: 75
; filament_density: 1.24
; filament_diameter: 1.75
; max_z_height: 15.00
; HEADER_BLOCK_END

; THUMBNAIL_BLOCK_START

;
; THUMBNAIL_BLOCK_END

; THUMBNAIL_BLOCK_START

;
; THUMBNAIL_BLOCK_END

; external perimeters extrusion width = 0.40mm
; perimeters extrusion width = 0.42mm
; infill extrusion width = 0.45mm
; solid infill extrusion width = 0.42mm
; top infill extrusion width = 0.40mm
; first layer extrusion width = 0.50mm

; EXECUTABLE_BLOCK_START
EXCLUDE_OBJECT_DEFINE NAME=Bouchon_repose_pied.stl_id_0_copy_0 CENTER=115,115 POLYGON=[[101.75,115],[101.758,114.538],[101.782,114.076],[101.823,113.615],[101.879,113.156],[101.951,112.699],[102.04,112.245],[102.144,111.795],[102.263,111.348],[102.399,110.906],[102.549,110.468],[102.715,110.036],[102.896,109.611],[103.091,109.192],[103.301,108.78],[103.525,108.375],[103.763,107.979],[104.015,107.591],[104.281,107.212],[104.559,106.842],[104.85,106.483],[105.153,106.134],[105.469,105.796],[105.796,105.469],[106.134,105.153],[106.483,104.85],[106.842,104.559],[107.212,104.281],[107.591,104.015],[107.979,103.763],[108.375,103.525],[108.78,103.301],[109.192,103.091],[109.611,102.896],[110.036,102.715],[110.468,102.549],[110.906,102.399],[111.348,102.263],[111.795,102.144],[112.245,102.04],[112.699,101.951],[113.156,101.879],[113.615,101.823],[114.076,101.782],[114.538,101.758],[115,101.75],[115.462,101.758],[115.924,101.782],[116.385,101.823],[116.844,101.879],[117.301,101.951],[117.755,102.04],[118.205,102.144],[118.652,102.263],[119.094,102.399],[119.532,102.549],[119.964,102.715],[120.389,102.896],[120.808,103.091],[121.22,103.301],[121.625,103.525],[122.021,103.763],[122.409,104.015],[122.788,104.281],[123.158,104.559],[123.517,104.85],[123.866,105.153],[124.204,105.469],[124.531,105.796],[124.847,106.134],[125.15,106.483],[125.441,106.842],[125.719,107.212],[125.985,107.591],[126.237,107.979],[126.475,108.375],[126.699,108.78],[126.909,109.192],[127.104,109.611],[127.285,110.036],[127.451,110.468],[127.601,110.906],[127.737,111.348],[127.856,111.795],[127.96,112.245],[128.049,112.699],[128.121,113.156],[128.177,113.615],[128.218,114.076],[128.242,114.538],[128.25,115],[128.242,115.462],[128.218,115.924],[128.177,116.385],[128.121,116.844],[128.049,117.301],[127.96,117.755],[127.856,118.205],[127.737,118.652],[127.601,119.094],[127.451,119.532],[127.285,119.964],[127.104,120.389],[126.909,120.808],[126.699,121.22],[126.475,121.625],[126.237,122.021],[125.985,122.409],[125.719,122.788],[125.441,123.158],[125.15,123.517],[124.847,123.866],[124.531,124.204],[124.204,124.531],[123.866,124.847],[123.517,125.15],[123.158,125.441],[122.788,125.719],[122.409,125.985],[122.021,126.237],[121.625,126.475],[121.22,126.699],[120.808,126.909],[120.389,127.104],[119.964,127.285],[119.532,127.451],[119.094,127.601],[118.652,127.737],[118.205,127.856],[117.755,127.96],[117.301,128.049],[116.844,128.121],[116.385,128.177],[115.924,128.218],[115.462,128.242],[115,128.25],[114.538,128.242],[114.076,128.218],[113.615,128.177],[113.156,128.121],[112.699,128.049],[112.245,127.96],[111.795,127.856],[111.348,127.737],[110.906,127.601],[110.468,127.451],[110.036,127.285],[109.611,127.104],[109.192,126.909],[108.78,126.699],[108.375,126.475],[107.979,126.237],[107.591,125.985],[107.212,125.719],[106.842,125.441],[106.483,125.15],[106.134,124.847],[105.796,124.531],[105.469,124.204],[105.153,123.866],[104.85,123.517],[104.559,123.158],[104.281,122.788],[104.015,122.409],[103.763,122.021],[103.525,121.625],[103.301,121.22],[103.091,120.808],[102.896,120.389],[102.715,119.964],[102.549,119.532],[102.399,119.094],[102.263,118.652],[102.144,118.205],[102.04,117.755],[101.951,117.301],[101.879,116.844],[101.823,116.385],[101.782,115.924],[101.758,115.462],[101.75,115]]
M73 P0 R16
;TYPE:Custom
M220 S100
G90 ; use absolute coordinates
M83 ; extruder relative mode
M104 S150 ; set temporary nozzle temp to prevent oozing during homing
M140 S75 ; set final bed temp
G4 S30 ; allow partial nozzle warmup
G28 ; home all axis and restore leveling
BED_MESH_CALIBRATE PROFILE=adaptive ADAPTIVE=1 ADAPTIVE_MARGIN=0
G1 Z25 F240
G1 X10.0 Y30 F3000
M104 S257 ; set final nozzle temp
M190 S75 ; wait for bed temp to stabilize
M109 S257 ; wait for nozzle temp to stabilize
G1 Z0.28 F240
G92 E0 ; Move Z Axis up
G1 Z2.0 F5000 ; Move to start position
M73 P1 R16
G1 X5 Y30 Z0.28 F300 ; Draw the first line
G1 X5 Y200 Z0.28 F1500 E15 ; Move to side a little
G1 X5.4 Y200 Z0.28 F5000.0 ; Draw the second line
M73 P2 R16
G1 X5.4 Y50 Z0.28 F1500.0 E30 ; Reset Extruder
G92 E0 ; Move Z Axis up
G1 Z2.0 F3000
M117 Start Printing..
G90
G21
M83 ; use relative distances for extrusion
; filament start gcode
M106 S0
;LAYER_CHANGE
;Z:0.2
;HEIGHT:0.2
;BEFORE_LAYER_CHANGE
;0.2
G92 E0

G1 E-.5 F2400
;_SET_FAN_SPEED_CHANGING_LAYER
SET_VELOCITY_LIMIT ACCEL=500 ACCEL_TO_DECEL=250
SET_VELOCITY_LIMIT SQUARE_CORNER_VELOCITY=7
; printing object Bouchon repose pied.stl id:0 copy 0
EXCLUDE_OBJECT_START NAME=Bouchon_repose_pied.stl_id_0_copy_0
G1 Z.2 F18000
G1 X121.445 Y143.755
G1 Z.2
G1 E.5 F2400
;TYPE:Outer wall
;WIDTH:0.38292
G1 F1800
G1 X120.918 Y143.667 E.0148
G1 X121.57 Y142.873 F18000
;WIDTH:0.402978
G1 F1800
G1 X121.113 Y142.825 E.01348
G1 E-.35 F2400
;WIPE_START
G1 F1800
G1 X121.57 Y142.873 E-.15
;WIPE_END
G1 Z.4 F18000
G1 X116.827 Y143.327 Z.4
G1 Z.2
G1 E.5 F2400
;TYPE:Inner wall
;WIDTH:0.370486
G1 F1800
G1 X116.35 Y142.953 E.01618
G1 X116.827 Y142.522 E.01717
G1 X116.768 Y142.936 E.01115
G1 X116.821 Y143.287 E.00948
G1 E-.35 F2400
;WIPE_START
G1 F1800
G1 X116.35 Y142.953 E-.08664
G1 X116.663 Y142.67 E-.06336
;WIPE_END
G1 Z.4 F18000
G1 X126.775 Y143.817 Z.4
G1 Z.2
G1 E.5 F2400
;WIDTH:0.438818
G1 F1800
G1 X127.158 Y144.454 E.02397
G1 X126.517 Y144.71 E.02227
G1 X126.69 Y144.29 E.01465
G1 X126.768 Y143.856 E.01422
G1 E-.35 F2400
;WIPE_START
G1 F1800
G1 X127.158 Y144.454 E-.107
G1 X126.892 Y144.56 E-.043
;WIPE_END
G1 Z.4 F18000
G1 X129.806 Y141.806 Z.4
G1 Z.2
G1 E.5 F2400
;WIDTH:0.403046
G1 F1800
G1 X130.174 Y141.904 E.01119
G1 X130.667 Y141.936 E.01448
G1 X130.255 Y142.377 E.01773
G1 X129.83 Y141.837 E.02015
G1 E-.35 F2400
;WIPE_START
M73 P3 R16
G1 F1800
G1 X130.174 Y141.904 E-.05253
G1 X130.667 Y141.936 E-.07402
G1 X130.56 Y142.05 E-.02345
;WIPE_END
G1 Z.4 F18000
G1 X131.95 Y138.632 Z.4
G1 Z.2
G1 E.5 F2400
;WIDTH:0.418758
G1 F1800
G1 X132.63 Y138.736 E.02106
G1 X132.383 Y139.337 E.01989
G1 X132.202 Y138.969 E.01255
G1 X131.974 Y138.664 E.01169
G1 E-.35 F2400
;WIPE_START
G1 F1800
G1 X132.63 Y138.736 E-.09896
G1 X132.5 Y139.051 E-.05104
;WIPE_END
G1 Z.4 F18000
G1 X131.816 Y134.979 Z.4
G1 Z.2
G1 E.5 F2400
;WIDTH:0.499999
G1 F1800
G1 X131.524 Y134.94 E.01099
G1 X131.019 Y134.972 E.01883
G1 X130.796 Y135.028 E.00856
G1 X130.266 Y135.262 E.02157
G1 X130.064 Y135.398 E.00909
G1 X129.694 Y135.759 E.01926
G1 X129.451 Y136.122 E.01625
G1 X129.258 Y136.649 E.02093
G1 X129.185 Y137.163 E.01933
G1 X129.236 Y137.672 E.01904
G1 X129.319 Y137.827 E.00655
G1 X129.154 Y137.889 E.00655
G1 X128.782 Y138.116 E.01623
G1 X128.43 Y138.483 E.01897
G1 X128.198 Y138.911 E.01811
G1 X128.067 Y139.394 E.01866
G1 X128.101 Y139.784 E.01458
G1 X127.946 Y139.705 E.00649
G1 X127.776 Y139.722 E.00637
G1 X127.544 Y139.823 E.00941
G1 X126.946 Y140.232 E.02701
G1 X126.743 Y140.5 E.01249
G1 X126.779 Y140.897 E.01486
G1 X126.002 Y140.87 E.02895
G1 X125.71 Y140.997 E.01185
G1 X125.507 Y141.242 E.01187
G1 X125.472 Y141.542 E.01124
G1 X124.902 Y141.356 E.02236
G1 X124.371 Y141.35 E.01977
G1 X123.782 Y141.465 E.02236
G1 X123.309 Y141.687 E.01947
G1 X123.079 Y141.607 E.00909
G1 X121.209 Y141.374 E.07018
G1 X121.027 Y141.424 E.00702
G1 X121.009 Y141.379 E.00182
G1 X120.655 Y141.17 E.01533
G1 X119.723 Y140.698 E.03889
G1 X119.415 Y140.703 E.0115
G1 X119.093 Y140.886 E.01377
G1 X118.969 Y141.054 E.00778
G1 X118.458 Y141.038 E.01905
G1 X118.003 Y141.114 E.0172
G1 X117.662 Y141.273 E.01402
G1 X117.469 Y141.405 E.0087
G1 X117.404 Y141.281 E.0052
G1 X118.336 Y140.388 E.04808
G1 X118.45 Y139.98 E.01576
G1 X118.411 Y139.782 E.00753
G1 X118.292 Y139.57 E.00905
G1 X117.661 Y138.813 E.03672
G1 X117.484 Y138.662 E.00865
G1 X117.191 Y138.568 E.01146
G1 X116.961 Y138.588 E.0086
G1 X116.728 Y138.699 E.00959
G1 X115.783 Y139.393 E.04367
G1 X115.392 Y139.169 E.01677
G1 X115.179 Y139.184 E.00795
G1 X114.918 Y139.306 E.01074
G1 X113.998 Y140.002 E.04298
G1 X113.905 Y139.841 E.00696
G1 X113.513 Y139.012 E.03413
G1 X113.321 Y138.532 E.01927
G1 X112.989 Y137.421 E.04318
G1 X112.793 Y136.4 E.03872
G1 X112.721 Y135.627 E.02893
G1 X115.628 Y135.872 E.10866
G1 X115.859 Y135.852 E.00863
G1 X116.162 Y135.682 E.01295
G1 X116.275 Y135.539 E.0068
G1 X116.365 Y135.278 E.0103
G1 X116.449 Y134.636 E.02409
G1 X116.506 Y133.966 E.02505
G1 X116.376 Y133.666 E.01216
;WIDTH:0.518782
G1 X116.056 Y133.424 E.01557
G1 X115.912 Y133.391 E.00576
;WIDTH:0.517158
G1 X115.881 Y133.242 E.00588
G1 X115.683 Y132.772 E.0197
G1 X116.14 Y132.957 E.01905
G1 X116.567 Y132.9 E.01666
;WIDTH:0.499999
G1 X116.748 Y132.778 E.00811
G1 X116.893 Y132.584 E.00905
G1 X117.401 Y131.567 E.04234
G1 X117.469 Y131.334 E.00902
G1 X117.39 Y130.933 E.01524
G1 X117.303 Y130.824 E.00518
G1 X117.904 Y130.658 E.02321
G1 X118.309 Y130.448 E.01698
G1 X119.096 Y129.752 E.03916
G1 X119.408 Y129.343 E.01914
G1 X119.52 Y129.106 E.00975
G1 X119.51 Y128.735 E.01383
G1 X119.381 Y128.497 E.0101
G1 X118.453 Y127.404 E.0534
G1 X118.247 Y127.281 E.00893
G1 X117.96 Y127.243 E.0108
G1 X117.14 Y126.536 E.04032
G1 X117.717 Y126.157 E.02571
G1 X118.161 Y125.904 E.01903
G1 X118.806 Y125.589 E.02674
G1 X119.299 Y125.397 E.01971
G1 X119.548 Y126.51 E.0425
G1 X119.692 Y126.801 E.01207
G1 X119.955 Y126.994 E.01215
G1 X120.276 Y127.017 E.01199
G1 X120.601 Y128.291 E.04898
G1 X120.854 Y128.563 E.01383
G1 X121.099 Y128.655 E.00975
G1 X121.332 Y128.653 E.00867
G1 X122.44 Y128.437 E.04203
G1 X122.705 Y128.244 E.01219
G1 X122.799 Y127.996 E.00988
G1 X122.924 Y128.23 E.00988
G1 X123.117 Y128.354 E.00856
G1 X123.264 Y128.398 E.00569
G1 X125.021 Y128.717 E.06651
G1 X125.244 Y128.718 E.00831
G1 X125.753 Y129.023 E.02212
G1 X125.834 Y129.124 E.00483
G1 X126.015 Y129.257 E.00835
G1 X126.324 Y129.327 E.0118
G1 X126.474 Y129.454 E.00734
G1 X127.518 Y130.065 E.04506
G1 X127.963 Y130.684 E.02841
G1 X128.179 Y130.831 E.00972
G1 X128.166 Y131.006 E.00651
G1 X128.236 Y131.213 E.00813
G1 X128.42 Y131.434 E.01073
G1 X128.658 Y131.535 E.00964
G1 X128.677 Y131.66 E.00468
G1 X128.754 Y131.801 E.00599
G1 X129.188 Y132.411 E.02789
G1 X129.375 Y132.59 E.00964
G1 X129.609 Y132.685 E.0094
G1 X129.911 Y132.679 E.01124
G1 X130.129 Y132.583 E.00888
G1 X131.388 Y131.738 E.05647
G1 X132.505 Y131.029 E.0493
G1 X132.681 Y131.474 E.0178
G1 X132.904 Y132.16 E.02689
G1 X133.078 Y132.858 E.02677
G1 X133.203 Y133.568 E.02685
G1 X133.266 Y134.138 E.02139
G1 X133.297 Y135.135 E.03714
G1 X133.26 Y135.773 E.02379
G1 X132.979 Y135.477 E.01521
G1 X132.512 Y135.172 E.02075
G1 X132.029 Y135.008 E.01902
G1 X131.856 Y134.985 E.00651
G1 E-.35 F2400
;WIPE_START
G1 F1800
G1 X131.524 Y134.94 E-.05026
G1 X131.019 Y134.972 E-.07582
G1 X130.865 Y135.011 E-.02392
;WIPE_END
G1 Z.4 F18000
G1 X131.181 Y137.144 Z.4
G1 Z.2
G1 E.5 F2400
;TYPE:Outer wall
;WIDTH:0.654826
G1 F1800
G1 X131.024 Y137.105 E.00805
G1 X130.835 Y137.193 E.01041
G1 X130.77 Y137.412 E.01139
G1 X130.728 Y137.857 E.02229
;WIDTH:0.650383
G1 X130.662 Y137.86 E.00329
;WIDTH:0.607489
G1 X130.596 Y137.863 E.00305
;WIDTH:0.564595
G1 X130.529 Y137.866 E.00282
;WIDTH:0.521701
G1 X130.463 Y137.869 E.00259
;WIDTH:0.478807
G1 X130.397 Y137.872 E.00236
;WIDTH:0.467956
G1 X130.154 Y137.787 E.00892
;WIDTH:0.499999
G1 X129.911 Y137.701 E.00959
G1 X129.698 Y137.576 E.0092
G1 X129.652 Y137.447 E.00509
G1 X129.666 Y136.958 E.01823
G1 X129.845 Y136.36 E.02326
G1 X130.013 Y136.087 E.01196
G1 X130.383 Y135.725 E.01926
G1 X130.906 Y135.479 E.02153
G1 X131.493 Y135.396 E.02207
G1 X131.976 Y135.473 E.01822
G1 X132.364 Y135.609 E.01529
G1 X132.658 Y135.802 E.01313
G1 X133.016 Y136.2 E.0199
G1 X133.215 Y136.685 E.01953
G1 X133.22 Y136.876 E.00711
;WIDTH:0.453786
G1 X133.225 Y137.067 E.0064
;WIDTH:0.407573
G1 X133.161 Y137.593 E.01577
;WIDTH:0.376153
G1 X132.997 Y138.163 E.01609
;WIDTH:0.417435
G1 X132.932 Y138.222 E.00269
;WIDTH:0.458717
G1 X132.868 Y138.282 E.00299
;WIDTH:0.499999
G1 X132.803 Y138.342 E.00328
G1 X131.895 Y138.202 E.03419
;WIDTH:0.526516
G1 X131.441 Y138.119 E.01819
;WIDTH:0.567805
G1 X131.388 Y138.07 E.00308
;WIDTH:0.609094
G1 X131.335 Y138.021 E.00333
;WIDTH:0.650383
G1 X131.283 Y137.972 E.00357
;WIDTH:0.654826
G1 X131.389 Y137.453 E.0264
G1 X131.344 Y137.271 E.00939
G1 X131.213 Y137.169 E.00829
G1 E-.35 F2400
;WIPE_START
G1 F1800
G1 X131.024 Y137.105 E-.02979
G1 X130.835 Y137.193 E-.03132
G1 X130.77 Y137.412 E-.03427
G1 X130.736 Y137.774 E-.05462
;WIPE_END
G1 Z.4 F18000
G1 X129.132 Y138.424 Z.4
G1 Z.2
G1 E.5 F2400
;WIDTH:0.499999
G1 F1800
G1 X129.439 Y138.264 E.01289
G1 X129.943 Y138.173 E.01907
;WIDTH:0.493809
G1 X130.204 Y138.223 E.00976
;WIDTH:0.462723
G1 X130.465 Y138.273 E.00909
;WIDTH:0.475386
G1 X130.542 Y138.277 E.00271
;WIDTH:0.519135
G1 X130.619 Y138.282 E.00299
;WIDTH:0.562885
G1 X130.696 Y138.286 E.00326
;WIDTH:0.606634
G1 X130.773 Y138.291 E.00354
;WIDTH:0.650383
G1 X130.85 Y138.295 E.00381
G1 X131.01 Y138.411 E.00979
;WIDTH:0.605817
G1 X131.171 Y138.526 E.00908
;WIDTH:0.561251
G1 X131.331 Y138.642 E.00836
;WIDTH:0.516684
G1 X131.782 Y139.075 E.02412
;WIDTH:0.499999
G1 X132.057 Y139.617 E.02265
G1 X132.103 Y140.096 E.01789
;WIDTH:0.485865
G1 X132.069 Y140.191 E.00366
;WIDTH:0.448162
G1 X132.036 Y140.287 E.00335
;WIDTH:0.410458
G1 X132.002 Y140.383 E.00304
;WIDTH:0.372754
G1 X131.77 Y140.833 E.01361
;WIDTH:0.382635
G1 X131.631 Y140.998 E.00598
;WIDTH:0.427043
G1 X131.491 Y141.163 E.00676
;WIDTH:0.471451
G1 X131.351 Y141.328 E.00755
;WIDTH:0.499999
G1 X130.875 Y141.519 E.01911
G1 X130.32 Y141.514 E.02068
G1 X130.048 Y141.452 E.0104
G1 X129.509 Y141.183 E.02243
G1 X128.999 Y140.733 E.02533
;WIDTH:0.511953
G1 X128.625 Y140.147 E.02656
G1 X128.522 Y139.501 E.02499
;WIDTH:0.499999
G1 X128.612 Y139.104 E.01517
G1 X128.777 Y138.78 E.01353
G1 X129.104 Y138.452 E.01725
G1 E-.35 F2400
;WIPE_START
G1 F1800
G1 X129.439 Y138.264 E-.05766
G1 X129.943 Y138.173 E-.07681
G1 X130.045 Y138.192 E-.01553
;WIPE_END
G1 Z.4 F18000
G1 X127.504 Y141.383 Z.4
G1 Z.2
G1 E.5 F2400
G1 F1800
G1 X127.183 Y140.892 E.02183
G1 X127.164 Y140.678 E.008
G1 X127.269 Y140.563 E.00579
G1 X127.801 Y140.201 E.02397
G1 X127.935 Y140.162 E.0052
;WIDTH:0.506338
G1 X128.121 Y140.26 E.00795
G1 X128.597 Y140.916 E.0306
;WIDTH:0.499999
G1 X129.963 Y142.668 E.08277
G1 X129.939 Y142.755 E.00335
;WIDTH:0.454341
G1 X129.915 Y142.841 E.00302
;WIDTH:0.408683
G1 X129.891 Y142.928 E.00268
;WIDTH:0.399067
G1 X129.15 Y143.455 E.02638
;WIDTH:0.426904
G1 X129.032 Y143.518 E.00419
;WIDTH:0.45474
G1 X128.913 Y143.581 E.0045
;WIDTH:0.475008
G1 X128.497 Y143.524 E.01482
G1 X128.57 Y143.622 E.00431
G1 X128.612 Y143.774 E.00555
G1 X128.554 Y143.835 E.00298
;WIDTH:0.435298
G1 X128.496 Y143.897 E.0027
;WIDTH:0.395587
G1 X127.85 Y144.315 E.02212
;WIDTH:0.399682
G1 X127.776 Y144.344 E.0023
;WIDTH:0.43866
G1 X127.702 Y144.373 E.00255
;WIDTH:0.46933
G1 X127.633 Y144.337 E.00269
;WIDTH:0.499999
G1 X127.564 Y144.301 E.00289
G1 X126.499 Y142.544 E.07655
;WIDTH:0.491988
G1 X126.2 Y142.085 E.02003
;WIDTH:0.499999
G1 X125.899 Y141.597 E.02135
G1 X125.956 Y141.388 E.00808
G1 X126.135 Y141.317 E.00718
G1 X127.464 Y141.381 E.04953
G1 E-.35 F2400
;WIPE_START
G1 F1800
G1 X127.183 Y140.892 E-.08456
G1 X127.164 Y140.678 E-.0322
G1 X127.269 Y140.563 E-.02331
G1 X127.323 Y140.525 E-.00993
;WIPE_END
G1 Z.4 F18000
G1 X124.326 Y143.055 Z.4
G1 Z.2
G1 E.5 F2400
;WIDTH:0.654824
G1 F1800
G1 X124.109 Y143.038 E.01087
G1 X123.712 Y143.196 E.02132
;WIDTH:0.644939
G1 X123.654 Y143.21 E.00294
;WIDTH:0.678598
G1 X123.595 Y143.223 E.0031
G1 X123.577 Y143.172 E.00277
;WIDTH:0.634105
G1 X123.56 Y143.122 E.00258
;WIDTH:0.589611
G1 X123.542 Y143.072 E.00238
