; HEADER_BLOCK_START
; generated by OrcaSlicer 2.0.0 on 2024-06-17 at 11:51:05
; total layer number: 50
; filament_density: 1.24
; filament_diameter: 1.75
; max_z_height: 10.00
; HEADER_BLOCK_END

; THUMBNAIL_BLOCK_START

;
; THUMBNAIL_BLOCK_END

; THUMBNAIL_BLOCK_START

;
; THUMBNAIL_BLOCK_END

; external perimeters extrusion width = 0.40mm
; perimeters extrusion width = 0.42mm
; infill extrusion width = 0.45mm
; solid infill extrusion width = 0.42mm
; top infill extrusion width = 0.40mm
; first layer extrusion width = 0.50mm

; EXECUTABLE_BLOCK_START
EXCLUDE_OBJECT_DEFINE NAME=Bouchon_frein.stl_id_0_copy_0 CENTER=115,115 POLYGON=[[107.001,115],[107.006,114.719],[107.02,114.439],[107.045,114.159],[107.079,113.88],[107.124,113.603],[107.177,113.328],[107.241,113.054],[107.314,112.783],[107.397,112.515],[107.488,112.249],[107.59,111.987],[107.7,111.729],[107.819,111.475],[107.947,111.225],[108.084,110.98],[108.229,110.739],[108.383,110.504],[108.545,110.275],[108.715,110.051],[108.892,109.834],[109.077,109.623],[109.27,109.418],[109.469,109.22],[109.675,109.03],[109.888,108.847],[110.107,108.671],[110.332,108.503],[110.563,108.343],[110.8,108.192],[111.041,108.049],[111.288,107.914],[111.539,107.788],[111.794,107.671],[112.053,107.563],[112.316,107.464],[112.582,107.374],[112.851,107.294],[113.123,107.224],[113.397,107.162],[113.673,107.111],[113.951,107.069],[114.23,107.037],[114.51,107.015],[114.79,107.003],[115.071,107],[115.352,107.008],[115.632,107.025],[115.911,107.052],[116.19,107.089],[116.467,107.135],[116.742,107.192],[117.015,107.258],[117.285,107.333],[117.553,107.418],[117.817,107.512],[118.078,107.616],[118.336,107.728],[118.589,107.85],[118.837,107.98],[119.081,108.119],[119.32,108.267],[119.554,108.422],[119.782,108.586],[120.004,108.758],[120.22,108.937],[120.43,109.124],[120.633,109.318],[120.829,109.52],[121.017,109.727],[121.199,109.942],[121.372,110.162],[121.538,110.389],[121.696,110.621],[121.845,110.859],[121.987,111.102],[122.119,111.349],[122.243,111.601],[122.358,111.858],[122.463,112.118],[122.56,112.381],[122.647,112.648],[122.725,112.918],[122.793,113.191],[122.852,113.465],[122.901,113.742],[122.94,114.02],[122.97,114.299],[122.99,114.579],[122.999,114.86],[122.999,115.14],[122.99,115.421],[122.97,115.701],[122.94,115.98],[122.901,116.258],[122.852,116.535],[122.793,116.809],[122.725,117.082],[122.647,117.352],[122.56,117.619],[122.463,117.882],[122.358,118.142],[122.243,118.399],[122.119,118.651],[121.987,118.898],[121.845,119.141],[121.696,119.379],[121.538,119.611],[121.372,119.838],[121.199,120.058],[121.017,120.273],[120.829,120.48],[120.633,120.682],[120.43,120.876],[120.22,121.063],[120.004,121.242],[119.782,121.414],[119.554,121.578],[119.32,121.733],[119.081,121.881],[118.837,122.02],[118.589,122.15],[118.336,122.272],[118.078,122.384],[117.817,122.488],[117.553,122.582],[117.285,122.667],[117.015,122.742],[116.742,122.808],[116.467,122.865],[116.19,122.911],[115.911,122.948],[115.632,122.975],[115.352,122.992],[115.071,123],[114.79,122.997],[114.51,122.985],[114.23,122.963],[113.951,122.931],[113.673,122.889],[113.397,122.838],[113.123,122.776],[112.851,122.706],[112.582,122.626],[112.316,122.536],[112.053,122.437],[111.794,122.329],[111.539,122.212],[111.288,122.086],[111.041,121.951],[110.8,121.808],[110.563,121.657],[110.332,121.497],[110.107,121.329],[109.888,121.153],[109.675,120.97],[109.469,120.78],[109.27,120.582],[109.077,120.377],[108.892,120.166],[108.715,119.949],[108.545,119.725],[108.383,119.496],[108.229,119.26],[108.084,119.02],[107.947,118.775],[107.819,118.525],[107.7,118.271],[107.59,118.013],[107.488,117.751],[107.397,117.485],[107.314,117.217],[107.241,116.946],[107.177,116.672],[107.124,116.397],[107.079,116.12],[107.045,115.841],[107.02,115.561],[107.006,115.281],[107.001,115]]
M73 P0 R6
;TYPE:Custom
M220 S100
G90 ; use absolute coordinates
M83 ; extruder relative mode
M104 S150 ; set temporary nozzle temp to prevent oozing during homing
M140 S75 ; set final bed temp
G4 S30 ; allow partial nozzle warmup
G28 ; home all axis and restore leveling
BED_MESH_CALIBRATE PROFILE=adaptive ADAPTIVE=1 ADAPTIVE_MARGIN=0
G1 Z25 F240
G1 X10.0 Y30 F3000
M104 S257 ; set final nozzle temp
M190 S75 ; wait for bed temp to stabilize
M109 S257 ; wait for nozzle temp to stabilize
M73 P1 R6
G1 Z0.28 F240
G92 E0 ; Move Z Axis up
G1 Z2.0 F5000 ; Move to start position
M73 P3 R6
G1 X5 Y30 Z0.28 F300 ; Draw the first line
G1 X5 Y200 Z0.28 F1500 E15 ; Move to side a little
G1 X5.4 Y200 Z0.28 F5000.0 ; Draw the second line
M73 P5 R6
G1 X5.4 Y50 Z0.28 F1500.0 E30 ; Reset Extruder
G92 E0 ; Move Z Axis up
G1 Z2.0 F3000
M117 Start Printing..
G90
G21
M83 ; use relative distances for extrusion
; filament start gcode
M106 S0
;LAYER_CHANGE
;Z:0.2
;HEIGHT:0.2
;BEFORE_LAYER_CHANGE
;0.2
G92 E0

M73 P6 R6
G1 E-.5 F2400
;_SET_FAN_SPEED_CHANGING_LAYER
SET_VELOCITY_LIMIT ACCEL=500 ACCEL_TO_DECEL=250
SET_VELOCITY_LIMIT SQUARE_CORNER_VELOCITY=7
; printing object Bouchon frein.stl id:0 copy 0
EXCLUDE_OBJECT_START NAME=Bouchon_frein.stl_id_0_copy_0
G1 Z.2 F18000
G1 X118.952 Y129.643
G1 Z.2
G1 E.5 F2400
;TYPE:Inner wall
;WIDTH:0.499999
G1 F1800
G1 X119.078 Y129.541 E.00604
G1 X119.575 Y129.224 E.02196
M73 P7 R6
G1 X120.201 Y128.896 E.02633
G1 X120.858 Y128.635 E.02633
G1 X121.539 Y128.445 E.02633
G1 X122.269 Y128.324 E.02758
G1 X122.931 Y128.282 E.02469
G1 X123.459 Y128.297 E.01969
G1 X124.115 Y128.377 E.02461
G1 X124.805 Y128.531 E.02633
G1 X125.475 Y128.757 E.02633
G1 X126.118 Y129.051 E.02633
G1 X126.726 Y129.412 E.02633
G1 X127.292 Y129.834 E.02633
G1 X127.733 Y130.226 E.02195
G1 X128.128 Y130.663 E.02195
G1 X128.575 Y131.254 E.02758
G1 X128.919 Y131.821 E.02469
G1 X129.151 Y132.295 E.01969
G1 X129.384 Y132.914 E.02461
G1 X129.568 Y133.596 E.02633
G1 X129.69 Y134.395 E.0301
G1 X129.714 Y135.325 E.03465
G1 X129.65 Y135.94 E.02303
G1 X129.515 Y136.634 E.02633
G1 X129.307 Y137.309 E.02633
G1 X129.029 Y137.959 E.02633
G1 X128.685 Y138.577 E.02633
G1 X128.257 Y139.181 E.02758
G1 X127.821 Y139.68 E.02469
G1 X127.438 Y140.045 E.01969
G1 X126.919 Y140.454 E.0246
G1 X126.324 Y140.836 E.02633
G1 X125.693 Y141.153 E.02633
G1 X125.031 Y141.402 E.02633
G1 X124.463 Y141.56 E.02195
G1 X123.882 Y141.658 E.02195
G1 X123.177 Y141.713 E.02633
G1 X122.437 Y141.692 E.02757
G1 X121.78 Y141.606 E.02469
G1 X121.264 Y141.491 E.01969
G1 X120.605 Y141.274 E.02585
G1 X119.997 Y141.009 E.02469
G1 X119.533 Y140.755 E.01969
G1 X118.987 Y140.384 E.02461
G1 X118.443 Y139.933 E.02633
G1 X117.95 Y139.426 E.02633
G1 X117.513 Y138.871 E.02633
G1 X117.189 Y138.378 E.02195
G1 X116.921 Y137.853 E.02196
G1 X116.655 Y137.198 E.02633
G1 X116.459 Y136.519 E.02633
G1 X116.335 Y135.823 E.02633
G1 X116.286 Y135.118 E.02633
G1 X116.296 Y134.529 E.02195
G1 X116.368 Y133.944 E.02196
G1 X116.516 Y133.252 E.02633
G1 X116.736 Y132.581 E.02632
G1 X117.025 Y131.934 E.02638
G1 X117.38 Y131.324 E.02631
G1 X117.719 Y130.842 E.02192
G1 X118.108 Y130.399 E.02196
G1 X118.619 Y129.911 E.02633
G1 X118.921 Y129.668 E.01442
G1 X118.666 Y129.287 F18000
;TYPE:Outer wall
G1 F1800
G1 X118.812 Y129.17 E.00697
G1 X119.342 Y128.83 E.02345
G1 X120.01 Y128.48 E.02812
G1 X120.712 Y128.202 E.02812
G1 X121.44 Y127.999 E.02812
G1 X122.217 Y127.87 E.02937
G1 X122.924 Y127.825 E.02638
G1 X123.491 Y127.841 E.02113
G1 X124.191 Y127.927 E.02626
G1 X124.928 Y128.091 E.02812
G1 X125.643 Y128.332 E.02812
G1 X126.33 Y128.646 E.02812
G1 X126.979 Y129.032 E.02812
G1 X127.584 Y129.483 E.02812
G1 X128.054 Y129.902 E.02345
G1 X128.477 Y130.368 E.02345
G1 X128.953 Y130.997 E.02937
G1 X129.32 Y131.602 E.02638
G1 X129.57 Y132.112 E.02112
G1 X129.819 Y132.772 E.02626
G1 X130.015 Y133.5 E.02812
G1 X130.144 Y134.347 E.03189
G1 X130.171 Y135.349 E.03733
G1 X130.103 Y136.004 E.02453
G1 X129.958 Y136.745 E.02812
G1 X129.736 Y137.466 E.02812
G1 X129.44 Y138.161 E.02812
G1 X129.072 Y138.82 E.02812
G1 X128.616 Y139.463 E.02937
G1 X128.15 Y139.997 E.02638
G1 X127.74 Y140.388 E.02113
G1 X127.186 Y140.825 E.02626
G1 X126.551 Y141.233 E.02812
G1 X125.876 Y141.571 E.02812
G1 X125.169 Y141.837 E.02812
G1 X124.563 Y142.007 E.02345
G1 X123.942 Y142.111 E.02345
G1 X123.189 Y142.17 E.02812
G1 X122.401 Y142.148 E.02937
G1 X121.699 Y142.056 E.02638
G1 X121.145 Y141.932 E.02113
G1 X120.444 Y141.702 E.0275
G1 X119.794 Y141.419 E.02638
G1 X119.297 Y141.146 E.02112
G1 X118.714 Y140.751 E.02626
G1 X118.133 Y140.268 E.02812
G1 X117.606 Y139.727 E.02812
G1 X117.139 Y139.134 E.02812
G1 X116.794 Y138.607 E.02345
G1 X116.507 Y138.047 E.02345
G1 X116.223 Y137.348 E.02812
G1 X116.014 Y136.622 E.02812
G1 X115.882 Y135.879 E.02812
G1 X115.829 Y135.126 E.02812
G1 X115.84 Y134.496 E.02344
G1 X115.917 Y133.872 E.02345
G1 X116.075 Y133.133 E.02812
G1 X116.309 Y132.416 E.02811
G1 X116.619 Y131.726 E.02818
G1 X116.998 Y131.073 E.0281
G1 X117.36 Y130.56 E.02341
G1 X117.775 Y130.086 E.02345
G1 X118.321 Y129.564 E.02812
G1 X118.635 Y129.312 E.01499
G1 E-.35 F2400
;WIPE_START
G1 F1800
G1 X118.812 Y129.17 E-.03405
G1 X119.342 Y128.83 E-.09444
G1 X119.469 Y128.764 E-.02151
;WIPE_END
G1 Z.4 F18000
G1 X128.679 Y131.667
G1 Z.4
G1 Z.2
G1 E.5 F2400
;TYPE:Bottom surface
;WIDTH:0.515001
G1 F3600
G1 X127.292 Y130.28 E.0755
G1 X126.815 Y129.883 E.02384
G1 X126.256 Y129.511 E.02584
G1 X125.661 Y129.199 E.02584
G1 X125.467 Y129.122 E.00805
G1 X128.883 Y132.539 E.18589
G1 X128.953 Y132.697 E.00662
G1 X129.163 Y133.339 E.02601
G1 X129.202 Y133.526 E.00733
G1 X124.471 Y128.794 E.25742
G1 X123.664 Y128.655 E.03148
G1 X129.338 Y134.329 E.30869
M73 P8 R6
G1 X129.375 Y134.673 E.01332
G1 X129.381 Y135.039 E.01408
G1 X122.966 Y128.625 E.34898
G1 X122.612 Y128.63 E.01363
G1 X122.336 Y128.662 E.0107
G1 X129.342 Y135.668 E.3812
G1 X129.257 Y136.251 E.02264
G1 X121.755 Y128.748 E.40816
G1 X121.215 Y128.877 E.02133
G1 X129.123 Y136.785 E.43022
G1 X128.952 Y137.281 E.0202
G1 X120.716 Y129.045 E.44808
G1 X120.253 Y129.249 E.01948
G1 X128.751 Y137.748 E.46235
G1 X128.524 Y138.188 E.01907
G1 X119.815 Y129.48 E.47378
G1 X119.4 Y129.732 E.01869
G1 X128.266 Y138.598 E.48233
G1 X127.979 Y138.979 E.01834
G1 X119.019 Y130.018 E.48746
G1 X118.66 Y130.327 E.01821
G1 X127.672 Y139.339 E.49028
G1 X127.34 Y139.675 E.01816
G1 X118.33 Y130.664 E.4902
G1 X118.017 Y131.019 E.0182
G1 X126.983 Y139.986 E.48782
G1 X126.595 Y140.265 E.0184
M73 P9 R6
G1 X117.736 Y131.406 E.48195
G1 X117.474 Y131.811 E.01857
G1 X126.184 Y140.521 E.47384
G1 X125.749 Y140.754 E.01898
G1 X117.247 Y132.253 E.4625
G1 X117.049 Y132.722 E.01959
G1 X125.284 Y140.957 E.44804
G1 X124.781 Y141.121 E.02037
G1 X116.88 Y133.22 E.42983
G1 X116.746 Y133.754 E.02116
G1 X124.249 Y141.257 E.4082
G1 X123.665 Y141.341 E.02269
G1 X116.654 Y134.33 E.38142
G1 X116.623 Y134.767 E.01686
G1 X116.626 Y134.969 E.00779
G1 X123.031 Y141.374 E.34845
G1 X122.833 Y141.38 E.00764
G1 X122.329 Y141.34 E.01944
G1 X116.662 Y135.673 E.30827
G1 X116.717 Y136.114 E.0171
G1 X116.802 Y136.48 E.01445
G1 X121.528 Y141.206 E.25712
G1 X121.075 Y141.085 E.01803
G1 X120.536 Y140.882 E.02218
G1 X117.116 Y137.462 E.18601
G1 X117.378 Y138.02 E.02368
G1 X117.594 Y138.391 E.01652
G1 X117.986 Y138.948 E.02619
G1 X118.357 Y139.371 E.02165
G1 X119.654 Y140.668 E.07054
G1 E-.35 F2400
;WIPE_START
G1 F3600
G1 X118.947 Y139.961 E-.15
;WIPE_END
G1 Z.4 F18000
G1 X128.75 Y132.039 Z.4
G1 Z.2
G1 E.5 F2400
;TYPE:Gap infill
;WIDTH:0.114126
M73 P10 R6
G1 F1800
G1 X128.656 Y131.912 E.00092
;WIDTH:0.130483
G1 X128.561 Y131.786 E.00113
G1 E-.35 F2400
;WIPE_START
G1 F1800
G1 X128.656 Y131.912 E-.15
;WIPE_END
G1 Z.4 F18000
G1 X120.035 Y140.747 Z.4
G1 Z.2
G1 E.5 F2400
;WIDTH:0.121389
G1 F1800
G1 X119.894 Y140.647 E.00111
;WIDTH:0.145009
G1 X119.771 Y140.55 E.0013
; stop printing object Bouchon frein.stl id:0 copy 0
M106 S48
;LAYER_CHANGE
;Z:0.4
;HEIGHT:0.2
;BEFORE_LAYER_CHANGE
;0.4
G92 E0

G1 E-.35 F2400
;WIPE_START
G1 F1800
G1 X119.894 Y140.647 E-.15
;WIPE_END
EXCLUDE_OBJECT_END NAME=Bouchon_frein.stl_id_0_copy_0
;_SET_FAN_SPEED_CHANGING_LAYER
SET_VELOCITY_LIMIT ACCEL=5000 ACCEL_TO_DECEL=2500
M140 S70 ; set bed temperature
; printing object Bouchon frein.stl id:0 copy 0
SET_VELOCITY_LIMIT SQUARE_CORNER_VELOCITY=8
EXCLUDE_OBJECT_START NAME=Bouchon_frein.stl_id_0_copy_0
G1 Z.4 F18000
G1 X118.674 Y129.33 Z.4
G1 E.5 F2400
SET_VELOCITY_LIMIT SQUARE_CORNER_VELOCITY=7
;TYPE:Inner wall
;WIDTH:0.419999
G1 F3600
G1 X118.94 Y129.132 E.01021
G1 X119.582 Y128.736 E.02317
G1 X120.251 Y128.415 E.02282
G1 X121 Y128.151 E.02439
G1 X121.706 Y127.982 E.0223
G1 X122.44 Y127.886 E.02274
G1 X123.063 Y127.859 E.01918
G1 X123.689 Y127.897 E.01926
G1 X124.432 Y128.009 E.02308
G1 X125.04 Y128.156 E.01923
G1 X125.63 Y128.366 E.01925
G1 X126.204 Y128.617 E.01923
G1 X126.748 Y128.927 E.01925
G1 X127.365 Y129.355 E.02308
G1 X127.935 Y129.845 E.02308
G1 X128.524 Y130.48 E.02663
G1 X128.847 Y130.899 E.01624
G1 X129.174 Y131.42 E.0189
G1 X129.513 Y132.082 E.02288
G1 X129.819 Y132.893 E.02663
G1 X129.961 Y133.402 E.01623
G1 X130.068 Y134.008 E.0189
G1 X130.132 Y134.75 E.02288
G1 X130.119 Y135.501 E.02308
G1 X130.027 Y136.246 E.02308
G1 X129.857 Y136.978 E.02308
G1 X129.663 Y137.573 E.01924
G1 X129.406 Y138.144 E.01925
G1 X129.111 Y138.697 E.01924
G1 X128.759 Y139.215 E.01924
G1 X128.284 Y139.796 E.02308
G1 X127.75 Y140.325 E.02308
G1 X127.164 Y140.795 E.02308
G1 X126.432 Y141.258 E.02664
G1 X125.961 Y141.498 E.01623
G1 X125.389 Y141.725 E.0189
G1 X124.676 Y141.936 E.02288
G1 X123.937 Y142.074 E.02308
G1 X123.188 Y142.133 E.02308
G1 X122.322 Y142.104 E.02664
G1 X121.798 Y142.039 E.01623
G1 X121.198 Y141.905 E.0189
G1 X120.488 Y141.679 E.02288
G1 X119.8 Y141.378 E.02308
G1 X119.148 Y141.006 E.02308
G1 X118.447 Y140.495 E.02664
G1 X118.05 Y140.147 E.01623
G1 X117.629 Y139.698 E.0189
G1 X117.169 Y139.113 E.02288
G1 X116.769 Y138.477 E.02308
G1 X116.438 Y137.803 E.02308
G1 X116.146 Y136.987 E.02664
G1 X116.014 Y136.475 E.01623
G1 X115.917 Y135.868 E.0189
G1 X115.866 Y135.125 E.02288
G1 X115.892 Y134.375 E.02308
G1 X115.997 Y133.631 E.02308
G1 X116.18 Y132.902 E.02308
G1 X116.439 Y132.197 E.02309
G1 X116.704 Y131.63 E.01924
G1 X117.029 Y131.094 E.01924
G1 X117.472 Y130.488 E.02308
G1 X117.978 Y129.931 E.0231
G1 X118.437 Y129.507 E.01921
G1 X118.642 Y129.354 E.00785
SET_VELOCITY_LIMIT SQUARE_CORNER_VELOCITY=8
G1 X118.446 Y129.028 F18000
SET_VELOCITY_LIMIT ACCEL=2000 ACCEL_TO_DECEL=1000
;TYPE:Outer wall
;WIDTH:0.399999
G1 F959.702
M106 S102
G1 X119.055 Y128.606 E.02156
G1 X119.749 Y128.227 E.02301
G1 X120.479 Y127.923 E.02301
G1 X121.263 Y127.691 E.02379
G1 X122.014 Y127.552 E.02222
G1 X122.805 Y127.489 E.02309
G1 X123.328 Y127.494 E.01522
G1 X124.117 Y127.57 E.02306
G1 X124.894 Y127.729 E.02308
G1 X125.396 Y127.879 E.01525
G1 X126.134 Y128.171 E.02309
G1 X126.602 Y128.406 E.01524
G1 X127.277 Y128.822 E.02307
G1 X127.903 Y129.306 E.02302
G1 X128.474 Y129.853 E.02301
G1 X128.986 Y130.458 E.02306
G1 X129.302 Y130.908 E.016
G1 X129.686 Y131.571 E.02229
G1 X130.009 Y132.293 E.02301
G1 X130.168 Y132.779 E.01488
G1 F974.316
G1 X130.318 Y133.32 E.01634
G1 X130.431 Y133.957 E.01882
G1 F959.699
G1 X130.513 Y135.132 E.03427
G1 X130.457 Y135.921 E.02302
G1 X130.319 Y136.699 E.02299
G1 X130.1 Y137.461 E.02307
G1 X129.911 Y137.95 E.01525
G1 X129.561 Y138.663 E.02311
G1 X129.29 Y139.111 E.01524
G1 X128.821 Y139.75 E.02306
G1 X128.29 Y140.336 E.02301
G1 X127.7 Y140.862 E.023
G1 X127.058 Y141.324 E.02301
G1 X126.369 Y141.716 E.02307
G1 X125.868 Y141.944 E.01602
G1 X125.146 Y142.2 E.02229
G1 X124.377 Y142.386 E.02302
G1 X123.593 Y142.49 E.02301
G1 X122.803 Y142.511 E.023
G1 X122.013 Y142.448 E.02306
G1 X121.47 Y142.355 E.01603
G1 X120.729 Y142.162 E.02228
G1 X119.989 Y141.883 E.02301
G1 X119.282 Y141.529 E.02301
G1 X118.617 Y141.102 E.023
G1 X117.998 Y140.606 E.02308
G1 X117.602 Y140.224 E.01601
G1 X117.097 Y139.648 E.02229
G1 X116.641 Y139.001 E.02303
G1 X116.256 Y138.311 E.02299
G1 X115.945 Y137.583 E.02303
G1 X115.713 Y136.826 E.02304
G1 X115.599 Y136.288 E.016
G1 X115.506 Y135.527 E.02231
G1 X115.492 Y134.736 E.02302
G1 X115.561 Y133.949 E.02299
G1 X115.713 Y133.172 E.02304
M73 P11 R6
