; HEADER_BLOCK_START
; generated by OrcaSlicer 2.1.1 on 2024-07-16 at 17:33:52
; total layer number: 80
; filament_density: 1.24
; filament_diameter: 1.75
; max_z_height: 16.00
; HEADER_BLOCK_END

; THUMBNAIL_BLOCK_START

;
; THUMBNAIL_BLOCK_END

; THUMBNAIL_BLOCK_START

;
; THUMBNAIL_BLOCK_END

; external perimeters extrusion width = 0.42mm
; perimeters extrusion width = 0.45mm
; infill extrusion width = 0.45mm
; solid infill extrusion width = 0.45mm
; top infill extrusion width = 0.42mm
; first layer extrusion width = 0.50mm

; EXECUTABLE_BLOCK_START
EXCLUDE_OBJECT_DEFINE NAME=Bouchon_alternateur_V2_v7_epreuve.step_id_0_copy_0 CENTER=115,115 POLYGON=[[36.4955,115.102],[36.4984,114.718],[36.5131,114.335],[36.5396,113.951],[36.5778,113.569],[36.6277,113.189],[36.6894,112.81],[36.7626,112.433],[36.8474,112.058],[36.9436,111.686],[37.0513,111.317],[37.1702,110.952],[37.3002,110.591],[37.4413,110.234],[37.5933,109.881],[37.7561,109.533],[37.9295,109.191],[38.1133,108.853],[38.3074,108.522],[38.5116,108.197],[38.7257,107.878],[38.9495,107.566],[39.1827,107.261],[39.4253,106.963],[39.6768,106.673],[39.9372,106.39],[40.2061,106.116],[40.4833,105.85],[40.7685,105.593],[41.0615,105.345],[41.362,105.106],[41.6697,104.876],[41.9843,104.656],[42.3055,104.445],[42.6331,104.245],[42.9666,104.054],[43.3059,103.874],[95.0409,76.6846],[95.6248,76.3862],[96.213,76.0966],[96.8057,75.816],[97.4607,75.5186],[98.1206,75.232],[98.7852,74.9565],[99.4543,74.6922],[100.128,74.4389],[100.805,74.197],[101.487,73.9663],[102.172,73.7471],[102.861,73.5393],[103.553,73.3429],[104.248,73.1582],[104.946,72.985],[105.647,72.8235],[106.351,72.6737],[107.057,72.5356],[107.765,72.4093],[108.476,72.2948],[109.188,72.1921],[109.901,72.1014],[110.616,72.0225],[111.333,71.9555],[112.05,71.9005],[112.768,71.8574],[113.487,71.8263],[114.206,71.8072],[114.925,71.8001],[115.645,71.8049],[116.364,71.8217],[117.083,71.8505],[117.801,71.8912],[118.519,71.9439],[119.235,72.0086],[119.951,72.0852],[120.665,72.1736],[121.377,72.274],[122.088,72.3862],[122.796,72.5102],[123.503,72.646],[124.207,72.7935],[124.908,72.9528],[125.607,73.1237],[126.303,73.3062],[126.996,73.5003],[127.685,73.7059],[128.371,73.923],[129.053,74.1514],[129.732,74.3912],[130.406,74.6422],[131.076,74.9045],[131.741,75.1778],[132.402,75.4622],[133.058,75.7576],[133.685,76.0523],[134.307,76.3571],[134.925,76.6718],[186.871,103.967],[187.207,104.152],[187.538,104.347],[187.862,104.553],[188.18,104.769],[188.491,104.994],[188.794,105.228],[189.091,105.472],[189.38,105.725],[189.661,105.987],[189.934,106.257],[190.198,106.535],[190.454,106.821],[190.701,107.115],[190.938,107.417],[191.167,107.725],[191.385,108.041],[191.594,108.363],[191.793,108.691],[191.982,109.025],[192.161,109.365],[192.328,109.71],[192.486,110.061],[192.632,110.416],[192.767,110.775],[192.892,111.138],[193.005,111.505],[193.107,111.875],[193.197,112.248],[193.276,112.624],[193.343,113.002],[193.399,113.382],[193.443,113.763],[193.475,114.145],[193.496,114.529],[193.504,114.913],[193.501,115.296],[193.487,115.68],[193.46,116.063],[193.422,116.445],[193.371,116.826],[193.31,117.204],[193.236,117.581],[193.151,117.956],[193.055,118.327],[192.947,118.696],[192.828,119.061],[192.698,119.422],[192.557,119.779],[192.405,120.131],[192.242,120.479],[192.069,120.822],[191.885,121.159],[191.691,121.49],[191.487,121.815],[191.273,122.133],[191.049,122.445],[190.816,122.75],[190.573,123.048],[190.322,123.338],[190.061,123.62],[189.792,123.894],[189.515,124.16],[189.23,124.417],[188.937,124.665],[188.637,124.904],[188.329,125.134],[188.015,125.354],[187.694,125.564],[187.366,125.765],[187.033,125.955],[186.694,126.135],[134.942,153.319],[134.361,153.616],[133.775,153.905],[133.185,154.184],[132.529,154.482],[131.869,154.768],[131.204,155.044],[130.535,155.308],[129.861,155.561],[129.184,155.803],[128.502,156.034],[127.817,156.253],[127.128,156.461],[126.435,156.658],[125.74,156.842],[125.041,157.016],[124.34,157.177],[123.636,157.327],[122.93,157.465],[122.221,157.591],[121.511,157.706],[120.799,157.808],[120.085,157.899],[119.369,157.978],[118.653,158.045],[117.935,158.1],[117.217,158.143],[116.498,158.174],[115.778,158.193],[115.059,158.2],[114.339,158.195],[113.62,158.178],[112.901,158.149],[112.182,158.108],[111.465,158.055],[110.748,157.991],[110.032,157.914],[109.318,157.825],[108.605,157.725],[107.895,157.612],[107.186,157.488],[106.479,157.352],[105.775,157.205],[105.073,157.045],[104.374,156.874],[103.678,156.691],[102.985,156.497],[102.295,156.291],[101.609,156.074],[100.927,155.845],[100.249,155.605],[99.5742,155.354],[98.9041,155.091],[98.2385,154.818],[97.5776,154.533],[96.9215,154.238],[96.2975,153.944],[95.6784,153.641],[95.0641,153.327],[43.139,126.048],[42.8025,125.863],[42.4719,125.667],[42.1474,125.462],[41.8294,125.247],[41.5181,125.022],[41.2139,124.787],[40.917,124.544],[40.6278,124.291],[40.3465,124.029],[40.0733,123.76],[39.8086,123.481],[39.5525,123.195],[39.3053,122.901],[39.0673,122.6],[38.8387,122.291],[38.6196,121.976],[38.4103,121.654],[38.2111,121.325],[38.022,120.991],[37.8433,120.651],[37.675,120.306],[37.5175,119.956],[37.3708,119.601],[37.2351,119.241],[37.1105,118.878],[36.9971,118.511],[36.8951,118.141],[36.8044,117.768],[36.7253,117.392],[36.6577,117.014],[36.6018,116.634],[36.5576,116.253],[36.5251,115.87],[36.5044,115.486],[36.4955,115.102]]
M73 P0 R69
;TYPE:Custom
M220 S100
G90 ; use absolute coordinates
M83 ; extruder relative mode
M104 S150 ; set temporary nozzle temp to prevent oozing during homing
M140 S55 ; set final bed temp
G4 S30 ; allow partial nozzle warmup
G28 ; home all axis and restore leveling
BED_MESH_CALIBRATE PROFILE=adaptive ADAPTIVE=1 ADAPTIVE_MARGIN=0
G1 Z25 F240
G1 X10.0 Y30 F3000
M104 S210 ; set final nozzle temp
M190 S55 ; wait for bed temp to stabilize
M109 S210 ; wait for nozzle temp to stabilize
M73 P0 R68
G1 Z0.28 F240
G92 E0 ; Move Z Axis up
G1 Z2.0 F5000 ; Move to start position
G1 X5 Y30 Z0.28 F300 ; Draw the first line
G1 X5 Y200 Z0.28 F1500 E15 ; Move to side a little
G1 X5.4 Y200 Z0.28 F5000.0 ; Draw the second line
G1 X5.4 Y50 Z0.28 F1500.0 E30 ; Reset Extruder
G92 E0 ; Move Z Axis up
G1 Z2.0 F3000
M117 Start Printing..
G90
G21
M83 ; use relative distances for extrusion
; filament start gcode
M106 S0
;LAYER_CHANGE
;Z:0.2
;HEIGHT:0.2
;BEFORE_LAYER_CHANGE
;0.2
G92 E0

G1 E-.5 F1800
;_SET_FAN_SPEED_CHANGING_LAYER
SET_VELOCITY_LIMIT ACCEL=1000
SET_VELOCITY_LIMIT SQUARE_CORNER_VELOCITY=7
; printing object Bouchon alternateur V2 v7 epreuve.step id:0 copy 0
EXCLUDE_OBJECT_START NAME=Bouchon_alternateur_V2_v7_epreuve.step_id_0_copy_0
G1 Z.2 F24000
G1 X64.383 Y120.69
G1 Z.2
G1 E.5 F1800
;TYPE:Inner wall
;WIDTH:0.499999
G1 X64.357 Y120.599 E.00361
G1 X63.85 Y119.611 E.04218
G1 X63.785 Y119.189 E.01622
G1 X63.846 Y118.78 E.01572
G1 X64.053 Y118.422 E.01572
G1 X64.366 Y118.132 E.01623
G1 X105.14 Y96.496 E1.75433
G1 X105.763 Y96.213 E.02599
G1 X107.727 Y95.399 E.08081
G1 X109.726 Y94.685 E.0807
G1 X111.073 Y94.266 E.05361
G1 X112.434 Y93.892 E.05361
G1 X114.503 Y93.416 E.0807
G1 X116.593 Y93.043 E.08069
G1 X117.991 Y92.853 E.05361
G1 X119.394 Y92.71 E.05362
G1 X121.513 Y92.583 E.0807
G1 X123.633 Y92.562 E.08058
G1 X125.752 Y92.647 E.08058
G1 X127.864 Y92.837 E.08058
G1 X129.963 Y93.133 E.08059
G1 X132.045 Y93.533 E.08058
G1 X134.105 Y94.037 E.08059
G1 X136.137 Y94.643 E.08058
G1 X138.139 Y95.351 E.08069
G1 X139.448 Y95.876 E.05362
G1 X140.728 Y96.439 E.05315
G1 X191.549 Y123.384 E2.18621
G1 X192.149 Y123.69 E.02559
G1 X192.86 Y123.913 E.02832
G1 X193.869 Y124.317 E.04131
G1 X194.836 Y124.812 E.04131
G1 X195.446 Y125.186 E.0272
G1 X196.037 Y125.6 E.02741
G1 X196.597 Y126.046 E.0272
G1 X197.392 Y126.787 E.04131
G1 X198.113 Y127.593 E.0411
G1 X198.756 Y128.463 E.04111
G1 X199.317 Y129.388 E.0411
G1 X199.79 Y130.36 E.0411
G1 X200.173 Y131.378 E.04131
G1 X200.372 Y132.06 E.02701
G1 X200.596 Y133.128 E.0415
G1 X200.689 Y133.833 E.027
G1 X200.741 Y135.071 E.04709
G1 X200.705 Y135.999 E.03531
G1 X200.564 Y137.071 E.0411
G1 X200.325 Y138.126 E.0411
G1 X199.988 Y139.159 E.04131
G1 X199.714 Y139.821 E.0272
G1 X199.401 Y140.464 E.0272
G1 X198.851 Y141.402 E.04131
G1 X198.218 Y142.285 E.04131
G1 X197.761 Y142.829 E.027
G1 X196.996 Y143.609 E.04152
G1 X196.461 Y144.076 E.027
G1 X195.585 Y144.73 E.04152
G1 X194.981 Y145.113 E.0272
G1 X194.349 Y145.46 E.02741
G1 X193.702 Y145.766 E.0272
G1 X192.687 Y146.154 E.04131
G1 X191.645 Y146.446 E.0411
G1 X190.53 Y146.65 E.04308
G1 X181.999 Y148.429 E.33121
G1 X181.733 Y148.58 E.01163
G1 X181.558 Y148.835 E.01175
G1 X181.512 Y149.121 E.011
G1 X181.589 Y149.404 E.01118
G1 X181.968 Y150.124 E.03091
G1 X182.112 Y150.491 E.01498
G1 X182.178 Y150.889 E.01533
G1 X182.082 Y151.28 E.01533
G1 X181.893 Y151.621 E.01481
G1 X181.59 Y151.898 E.01557
G1 X140.853 Y173.503 E1.75255
G1 X139.573 Y174.071 E.05321
G1 X138.265 Y174.601 E.05363
G1 X136.265 Y175.315 E.08072
G1 X134.235 Y175.927 E.08061
G1 X132.176 Y176.438 E.08061
G1 X130.095 Y176.845 E.08061
G1 X127.992 Y177.148 E.08072
G1 X126.589 Y177.29 E.05363
G1 X125.181 Y177.386 E.05363
G1 X123.058 Y177.443 E.08072
G1 X120.934 Y177.393 E.08072
G1 X118.817 Y177.237 E.08068
G1 X117.418 Y177.075 E.05355
G1 X116.022 Y176.866 E.05364
G1 X113.936 Y176.465 E.08072
G1 X111.873 Y175.96 E.08072
G1 X109.839 Y175.352 E.08069
G1 X108.507 Y174.893 E.05355
G1 X107.189 Y174.39 E.05363
G1 X105.249 Y173.554 E.08026
G1 X54.454 Y146.623 E2.18513
G1 X53.863 Y146.322 E.02519
G1 X53.146 Y146.098 E.02854
G1 X52.472 Y145.841 E.02742
G1 X51.815 Y145.543 E.02742
G1 X51.178 Y145.205 E.02742
G1 X50.562 Y144.828 E.02742
G1 X49.971 Y144.415 E.02742
G1 X49.407 Y143.966 E.02742
G1 X48.871 Y143.483 E.02742
G1 X48.365 Y142.968 E.02742
G1 X47.892 Y142.423 E.02742
G1 X47.454 Y141.85 E.02742
G1 X47.055 Y141.255 E.02721
G1 X46.519 Y140.309 E.04133
G1 X46.006 Y139.12 E.0492
G1 X45.645 Y137.993 E.04498
G1 X45.489 Y137.322 E.0262
G1 X45.392 Y136.791 E.02049
G1 X45.281 Y135.821 E.03712
G1 X45.256 Y134.73 E.04146
G1 X45.294 Y134.015 E.02721
G1 X45.376 Y133.304 E.02721
G1 X45.619 Y132.108 E.04636
G1 X45.886 Y131.201 E.03594
G1 X46.287 Y130.187 E.04146
G1 X46.6 Y129.543 E.02722
G1 X46.949 Y128.926 E.02694
G1 X47.558 Y128.017 E.0416
G1 X48.242 Y127.178 E.04112
G1 X48.999 Y126.405 E.04112
G1 X49.825 Y125.706 E.04112
G1 X50.716 Y125.082 E.04133
G1 X51.327 Y124.721 E.02701
G1 X52.303 Y124.241 E.04133
G1 X53.441 Y123.816 E.04616
G1 X54.104 Y123.626 E.02623
G1 X54.871 Y123.46 E.02981
G1 X55.472 Y123.359 E.02317
G1 X63.946 Y121.579 E.32909
G1 X64.224 Y121.416 E.01224
G1 X64.39 Y121.17 E.0113
G1 X64.436 Y120.883 E.01103
G1 X64.393 Y120.729 E.00609
G1 X63.953 Y120.813 F24000
;TYPE:Outer wall
G1 F1800
G1 X63.48 Y119.905 E.03892
G1 X63.328 Y119.38 E.02075
G1 X63.328 Y119 E.01445
G1 X63.412 Y118.629 E.01445
G1 X63.576 Y118.286 E.01445
G1 X63.813 Y117.988 E.01445
G1 X64.114 Y117.748 E.01463
G1 X104.938 Y96.085 E1.75649
G1 X105.581 Y95.794 E.02681
M73 P1 R68
G1 X107.562 Y94.972 E.08153
G1 X109.581 Y94.251 E.08149
G1 X110.945 Y93.827 E.05426
G1 X112.322 Y93.449 E.05426
G1 X114.411 Y92.968 E.08149
G1 X116.522 Y92.591 E.08149
G1 X117.937 Y92.399 E.05426
G1 X119.357 Y92.255 E.05427
G1 X121.497 Y92.126 E.08149
G1 X123.64 Y92.105 E.08145
G1 X125.782 Y92.191 E.08145
G1 X127.916 Y92.383 E.08145
G1 X130.038 Y92.682 E.08145
G1 X132.143 Y93.087 E.08145
G1 X134.225 Y93.596 E.08145
G1 X136.278 Y94.208 E.08145
G1 X138.3 Y94.923 E.08149
G1 X139.625 Y95.454 E.05427
G1 X140.927 Y96.028 E.05407
G1 X191.763 Y122.981 E2.18684
G1 X192.286 Y123.254 E.02242
G1 X193.013 Y123.482 E.02899
G1 X194.058 Y123.901 E.04278
G1 X195.06 Y124.413 E.04278
G1 X195.697 Y124.804 E.0284
G1 X196.311 Y125.234 E.02848
G1 X196.895 Y125.7 E.0284
G1 X197.719 Y126.467 E.04278
G1 X198.468 Y127.305 E.04271
G1 X199.136 Y128.208 E.04271
G1 X199.718 Y129.169 E.0427
G1 X200.21 Y130.179 E.0427
G1 X200.607 Y131.233 E.04278
G1 X200.816 Y131.949 E.02834
G1 X201.047 Y133.052 E.04283
G1 X201.144 Y133.791 E.02834
G1 X201.198 Y135.088 E.04935
G1 X201.161 Y136.038 E.03611
G1 X201.014 Y137.152 E.0427
G1 X200.766 Y138.247 E.04271
G1 X200.417 Y139.318 E.04278
G1 X200.131 Y140.008 E.0284
G1 X199.804 Y140.68 E.0284
G1 X199.235 Y141.651 E.04278
G1 X198.579 Y142.566 E.04278
G1 X198.099 Y143.136 E.02833
G1 X197.31 Y143.941 E.04285
G1 X196.748 Y144.432 E.02833
G1 X195.845 Y145.106 E.04285
G1 X195.214 Y145.506 E.0284
G1 X194.557 Y145.868 E.02848
G1 X193.882 Y146.187 E.0284
G1 X192.83 Y146.589 E.04278
G1 X191.748 Y146.892 E.04271
G1 X190.624 Y147.097 E.04345
G1 X182.092 Y148.882 E.33128
G1 X181.978 Y149.018 E.00673
G1 X181.994 Y149.192 E.00663
G1 X182.437 Y150.034 E.03616
G1 X182.61 Y150.532 E.02006
G1 X182.638 Y150.907 E.01427
G1 X182.581 Y151.278 E.01427
G1 X182.376 Y151.748 E.01949
G1 X182.142 Y152.042 E.01427
G1 X181.842 Y152.281 E.0146
G1 X141.053 Y173.914 E1.75478
G1 X139.752 Y174.492 E.0541
G1 X138.428 Y175.028 E.05428
G1 X136.408 Y175.749 E.08151
G1 X134.356 Y176.368 E.08147
G1 X132.275 Y176.884 E.08148
G1 X130.171 Y177.295 E.08148
G1 X128.048 Y177.601 E.08152
G1 X126.627 Y177.746 E.05428
G1 X125.202 Y177.843 E.05428
G1 X123.058 Y177.9 E.08152
G1 X120.914 Y177.849 E.08152
G1 X119.488 Y177.756 E.05432
G1 X118.77 Y177.691 E.02739
G1 X117.358 Y177.528 E.05405
G1 X115.945 Y177.317 E.05429
G1 X113.839 Y176.911 E.08151
G1 X111.756 Y176.401 E.08152
G1 X110.383 Y176.004 E.05432
G1 X109.696 Y175.786 E.02739
G1 X108.351 Y175.323 E.05405
G1 X107.017 Y174.813 E.05429
G1 X105.052 Y173.967 E.08132
G1 X54.24 Y147.026 E2.18583
G1 X53.726 Y146.759 E.022
G1 X52.996 Y146.53 E.02907
G1 X52.296 Y146.263 E.02849
G1 X51.613 Y145.953 E.02849
G1 X50.951 Y145.602 E.02849
G1 X50.312 Y145.211 E.02849
G1 X49.698 Y144.781 E.02849
G1 X49.111 Y144.315 E.02849
G1 X48.554 Y143.813 E.02849
G1 X48.029 Y143.278 E.02849
G1 X47.538 Y142.712 E.02849
G1 X47.083 Y142.116 E.02849
G1 X46.666 Y141.496 E.02841
G1 X46.111 Y140.516 E.0428
G1 X45.574 Y139.269 E.0516
G1 X45.202 Y138.108 E.04632
G1 X45.04 Y137.409 E.02727
G1 X44.939 Y136.851 E.02156
G1 X44.824 Y135.845 E.03846
G1 X44.799 Y134.723 E.04266
G1 X44.839 Y133.977 E.02841
G1 X44.924 Y133.234 E.02841
G1 X45.178 Y131.987 E.04836
G1 X45.455 Y131.046 E.03728
G1 X45.868 Y130.002 E.04265
G1 X46.195 Y129.33 E.02842
G1 X46.559 Y128.686 E.02814
G1 X47.191 Y127.745 E.04307
G1 X47.901 Y126.873 E.04273
G1 X48.688 Y126.07 E.04272
G1 X49.545 Y125.344 E.04272
G1 X50.468 Y124.698 E.0428
G1 X51.11 Y124.318 E.02834
G1 X52.12 Y123.821 E.0428
G1 X53.311 Y123.378 E.04829
G1 X54.002 Y123.181 E.0273
G1 X54.796 Y123.009 E.03087
G1 X55.378 Y122.911 E.02245
G1 X63.846 Y121.133 E.32884
G1 X63.97 Y120.987 E.0073
G1 X63.957 Y120.852 E.00513
G1 E-.5
;WIPE_START
G1 F12000
G1 X63.48 Y119.905
G1 X63.328 Y119.38
G1 X63.328 Y119
G1 X63.331 Y118.988
;WIPE_END
G1 Z.4 F24000
G1 X193.175 Y132.037 Z.4
G1 Z.2
G1 E.5 F1800
;TYPE:Inner wall
G1 X193.533 Y132.632 E.0264
G1 X193.713 Y132.967 E.01447
G1 X193.946 Y133.625 E.02653
G1 X194.13 Y134.735 E.04276
G1 X194.063 Y135.861 E.04285
G1 X193.899 Y136.544 E.0267
G1 X193.447 Y137.574 E.04277
G1 X192.921 Y138.304 E.0342
G1 X192.499 Y138.731 E.02281
G1 X192.077 Y139.111 E.02157
G1 X191.634 Y139.384 E.01978
G1 X191.156 Y139.66 E.02097
G1 X190.141 Y140.006 E.04075
G1 X189.201 Y140.13 E.03603
G1 X188.273 Y140.081 E.03532
G1 X187.234 Y139.818 E.04075
G1 X186.482 Y139.471 E.03147
G1 X185.626 Y138.863 E.03989
G1 X184.898 Y138.077 E.04074
G1 X184.456 Y137.377 E.03147
G1 X184.07 Y136.401 E.03989
G1 X183.887 Y135.344 E.04074
G1 X183.928 Y134.273 E.04074
G1 X184.109 Y133.47 E.03128
G1 X184.528 Y132.502 E.04008
G1 X185.146 Y131.626 E.04075
G1 X185.932 Y130.898 E.04075
G1 X186.853 Y130.349 E.04075
G1 X187.868 Y130.003 E.04075
G1 X188.688 Y129.884 E.03147
G1 X189.737 Y129.928 E.03989
G1 X190.796 Y130.197 E.04153
G1 X191.528 Y130.538 E.03069
G1 X192.1 Y130.939 E.02657
G1 X192.49 Y131.241 E.01874
G1 X193.112 Y131.932 E.03533
G1 X193.154 Y132.003 E.00312
G1 X192.79 Y132.27 F24000
;TYPE:Outer wall
G1 F1800
G1 X193.282 Y133.12 E.03732
G1 X193.515 Y133.778 E.02653
G1 X193.674 Y134.782 E.03863
G1 X193.625 Y135.712 E.03541
