; HEADER_BLOCK_START
; generated by OrcaSlicer 2.1.1 on 2024-07-19 at 13:01:04
; total layer number: 95
; filament_density: 1.24
; filament_diameter: 1.75
; max_z_height: 19.00
; HEADER_BLOCK_END

; THUMBNAIL_BLOCK_START

;
; THUMBNAIL_BLOCK_END

; THUMBNAIL_BLOCK_START

;
; THUMBNAIL_BLOCK_END

; external perimeters extrusion width = 0.42mm
; perimeters extrusion width = 0.45mm
; infill extrusion width = 0.45mm
; solid infill extrusion width = 0.45mm
; top infill extrusion width = 0.42mm
; first layer extrusion width = 0.50mm

; EXECUTABLE_BLOCK_START
EXCLUDE_OBJECT_DEFINE NAME=Bouchon_alternateur_V2_v13.step_id_0_copy_0 CENTER=115,115 POLYGON=[[36.496,115.102],[36.499,114.718],[36.5137,114.334],[36.5402,113.951],[36.5784,113.569],[36.6284,113.188],[36.69,112.809],[36.7633,112.432],[36.8481,112.057],[36.9443,111.686],[37.052,111.317],[37.1709,110.952],[37.301,110.59],[37.4421,110.233],[37.5941,109.881],[37.7569,109.533],[37.9303,109.19],[38.1141,108.853],[38.3082,108.522],[38.5124,108.196],[38.7265,107.878],[38.9503,107.565],[39.1836,107.26],[39.4261,106.963],[39.6777,106.672],[39.938,106.39],[40.2069,106.116],[40.4841,105.85],[40.7693,105.593],[41.0623,105.345],[41.3628,105.106],[41.6705,104.876],[41.9851,104.656],[42.3063,104.445],[42.6339,104.245],[42.9674,104.054],[43.3066,103.874],[96.7859,75.8806],[97.4294,75.5875],[98.0775,75.305],[98.7302,75.0331],[99.3872,74.772],[100.048,74.5216],[100.714,74.2821],[101.383,74.0536],[102.056,73.836],[102.732,73.6295],[103.411,73.4341],[104.094,73.2499],[104.779,73.0769],[105.468,72.9151],[106.159,72.7646],[106.852,72.6255],[107.547,72.4978],[108.245,72.3814],[108.944,72.2765],[109.645,72.1831],[110.347,72.1012],[111.051,72.0308],[111.755,71.9719],[112.461,71.9246],[113.167,71.8888],[113.873,71.8646],[114.58,71.8521],[115.287,71.851],[115.994,71.8616],[116.701,71.8838],[117.407,71.9175],[118.113,71.9628],[118.818,72.0196],[119.521,72.088],[120.224,72.168],[120.925,72.2594],[121.624,72.3623],[122.322,72.4766],[123.018,72.6024],[123.712,72.7395],[124.403,72.888],[125.092,73.0478],[125.778,73.2188],[126.461,73.4011],[127.141,73.5946],[127.818,73.7991],[128.491,74.0147],[129.161,74.2414],[129.827,74.4789],[130.489,74.7274],[131.147,74.9866],[131.8,75.2567],[132.449,75.5373],[133.093,75.8286],[186.868,103.965],[187.204,104.15],[187.534,104.345],[187.858,104.551],[188.175,104.766],[188.486,104.991],[188.789,105.225],[189.086,105.468],[189.374,105.72],[189.655,105.982],[189.928,106.251],[190.192,106.529],[190.448,106.815],[190.695,107.108],[190.932,107.409],[191.16,107.717],[191.379,108.032],[191.588,108.354],[191.787,108.681],[191.976,109.015],[192.155,109.354],[192.323,109.699],[192.48,110.049],[192.627,110.403],[192.762,110.762],[192.887,111.124],[193,111.491],[193.103,111.86],[193.193,112.233],[193.273,112.608],[193.34,112.985],[193.396,113.365],[193.441,113.745],[193.474,114.128],[193.495,114.51],[193.504,114.894],[193.501,115.277],[193.487,115.66],[193.461,116.043],[193.424,116.424],[193.374,116.805],[193.313,117.183],[193.241,117.56],[193.156,117.934],[193.061,118.305],[192.954,118.673],[192.836,119.038],[192.706,119.399],[192.566,119.756],[192.415,120.108],[192.253,120.456],[192.081,120.798],[191.898,121.135],[191.705,121.467],[191.501,121.792],[191.288,122.111],[191.065,122.423],[190.833,122.728],[190.592,123.026],[190.341,123.316],[190.082,123.598],[189.814,123.873],[189.538,124.139],[189.254,124.396],[188.962,124.645],[188.662,124.884],[188.356,125.115],[188.042,125.335],[187.722,125.546],[187.395,125.747],[187.063,125.938],[186.725,126.119],[133.205,154.119],[132.561,154.413],[131.913,154.696],[131.26,154.968],[130.602,155.229],[129.94,155.479],[129.274,155.719],[128.605,155.948],[127.932,156.165],[127.255,156.372],[126.575,156.567],[125.892,156.752],[125.205,156.925],[124.517,157.087],[123.825,157.237],[123.131,157.376],[122.435,157.504],[121.737,157.62],[121.038,157.725],[120.336,157.818],[119.633,157.9],[118.929,157.97],[118.224,158.029],[117.518,158.076],[116.811,158.112],[116.104,158.136],[115.397,158.148],[114.689,158.149],[113.982,158.138],[113.275,158.116],[112.568,158.082],[111.862,158.036],[111.156,157.979],[110.452,157.91],[109.749,157.83],[109.047,157.738],[108.347,157.635],[107.649,157.52],[106.953,157.394],[106.259,157.256],[105.567,157.107],[104.878,156.947],[104.191,156.776],[103.508,156.593],[102.827,156.399],[102.15,156.194],[101.476,155.978],[100.806,155.75],[100.14,155.512],[99.4777,155.263],[98.8196,155.003],[98.1658,154.733],[97.5165,154.451],[96.872,154.159],[43.1383,126.047],[42.8018,125.862],[42.4712,125.667],[42.1468,125.461],[41.8288,125.246],[41.5176,125.021],[41.2134,124.787],[40.9166,124.543],[40.6274,124.29],[40.3461,124.029],[40.073,123.759],[39.8083,123.481],[39.5522,123.194],[39.3051,122.9],[39.0671,122.599],[38.8385,122.29],[38.6195,121.975],[38.4103,121.653],[38.211,121.325],[38.022,120.99],[37.8433,120.65],[37.6751,120.305],[37.5176,119.955],[37.371,119.6],[37.2353,119.241],[37.1107,118.877],[36.9974,118.51],[36.8953,118.14],[36.8047,117.767],[36.7256,117.391],[36.6581,117.013],[36.6022,116.633],[36.558,116.252],[36.5256,115.869],[36.5049,115.486],[36.496,115.102]]
M73 P0 R278
;TYPE:Custom
M220 S100
G90 ; use absolute coordinates
M83 ; extruder relative mode
M104 S150 ; set temporary nozzle temp to prevent oozing during homing
M140 S95 ; set final bed temp
G4 S30 ; allow partial nozzle warmup
G28 ; home all axis and restore leveling
BED_MESH_CALIBRATE PROFILE=adaptive ADAPTIVE=1 ADAPTIVE_MARGIN=0
G1 Z25 F240
G1 X10.0 Y30 F3000
M104 S280 ; set final nozzle temp
M190 S95 ; wait for bed temp to stabilize
M109 S280 ; wait for nozzle temp to stabilize
G1 Z0.28 F240
G92 E0 ; Move Z Axis up
G1 Z2.0 F5000 ; Move to start position
G1 X5 Y30 Z0.28 F300 ; Draw the first line
G1 X5 Y200 Z0.28 F1500 E15 ; Move to side a little
G1 X5.4 Y200 Z0.28 F5000.0 ; Draw the second line
G1 X5.4 Y50 Z0.28 F1500.0 E30 ; Reset Extruder
G92 E0 ; Move Z Axis up
G1 Z2.0 F3000
M117 Start Printing..
G90
G21
M83 ; use relative distances for extrusion
; filament start gcode
M106 S0
;LAYER_CHANGE
;Z:0.2
;HEIGHT:0.2
;BEFORE_LAYER_CHANGE
;0.2
G92 E0

G1 E-1.5 F1800
;_SET_FAN_SPEED_CHANGING_LAYER
SET_VELOCITY_LIMIT ACCEL=500
SET_VELOCITY_LIMIT SQUARE_CORNER_VELOCITY=7
G1 Z.2 F18000
G1 X58.572 Y116.79
G1 Z.2
G1 E1.5 F1800
;TYPE:Skirt
;WIDTH:0.5
G1 F3000
G1 X104.265 Y92.916 E1.76344
G1 X107.017 Y91.796 E.10162
G1 X109.159 Y91.063 E.07745
G1 X111.335 Y90.436 E.07745
G1 X113.585 Y89.907 E.07908
G1 X115.812 Y89.5 E.07745
G1 X118.76 Y89.131 E.10162
G1 X121.067 Y88.976 E.07908
G1 X123.331 Y88.937 E.07745
G1 X126.3 Y89.055 E.10162
G1 X128.553 Y89.272 E.07745
G1 X130.793 Y89.601 E.07745
G1 X133.015 Y90.039 E.07745
G1 X135.258 Y90.598 E.07908
G1 X137.425 Y91.254 E.07744
G1 X139.557 Y92.016 E.07745
G1 X141.649 Y92.882 E.07745
G1 X196.219 Y121.383 E2.10585
G1 X197.883 Y122.405 E.0668
G1 X199.054 Y123.318 E.0508
G1 X200.304 Y124.52 E.05931
G1 X201.266 Y125.665 E.05116
G1 X202.079 Y126.841 E.04891
G1 X202.942 Y128.422 E.0616
G1 X203.488 Y129.731 E.0485
G1 X203.911 Y131.084 E.04851
G1 X204.209 Y132.47 E.0485
G1 X204.377 Y133.879 E.04851
G1 X204.414 Y135.385 E.05156
G1 X204.313 Y136.8 E.0485
G1 X204.084 Y138.199 E.04851
G1 X203.726 Y139.571 E.0485
G1 X203.094 Y141.255 E.06153
G1 X202.459 Y142.526 E.04858
G1 X201.66 Y143.804 E.05156
G1 X200.547 Y145.22 E.0616
G1 X199.494 Y146.298 E.05156
G1 X198.033 Y147.497 E.06466
G1 X196.514 Y148.465 E.0616
G1 X142.413 Y176.771 E2.08855
G1 X140.336 Y177.676 E.07751
G1 X137.547 Y178.706 E.1017
G1 X135.38 Y179.368 E.0775
G1 X133.136 Y179.934 E.07914
G1 X130.216 Y180.495 E.1017
G1 X127.923 Y180.8 E.07914
G1 X125.665 Y180.987 E.07751
G1 X122.692 Y181.063 E.1017
G1 X120.428 Y180.992 E.07751
G1 X118.122 Y180.806 E.07914
G1 X115.875 Y180.51 E.07751
G1 X112.954 Y179.956 E.1017
G1 X110.709 Y179.395 E.07914
G1 X108.541 Y178.737 E.07751
G1 X106.407 Y177.974 E.07751
G1 X103.67 Y176.814 E.1017
G1 X49.397 Y148.415 E2.09523
G1 X48.121 Y147.608 E.05164
G1 X46.71 Y146.485 E.0617
G1 X45.636 Y145.423 E.05164
G1 X44.445 Y143.952 E.06475
G1 X43.485 Y142.425 E.0617
G1 X42.86 Y141.15 E.04858
G1 X42.354 Y139.823 E.04858
G1 X41.953 Y138.367 E.05164
G1 X41.707 Y136.969 E.04858
G1 X41.584 Y135.236 E.0594
G1 X41.633 Y133.75 E.05087
G1 X41.814 Y132.341 E.04858
G1 X42.123 Y130.955 E.04858
G1 X42.591 Y129.52 E.05164
G1 X43.326 Y127.883 E.06137
G1 X44.044 Y126.647 E.04891
G1 X44.924 Y125.42 E.05164
G1 X45.857 Y124.35 E.04858
G1 X47.178 Y123.121 E.0617
G1 X48.314 Y122.268 E.04858
G1 X49.955 Y121.292 E.06532
G1 X58.536 Y116.809 E.33118
G1 X58.748 Y117.214 F18000
G1 F3000
G1 X104.447 Y93.335 E1.76371
G1 X107.178 Y92.224 E.10085
G1 X109.3 Y91.498 E.07668
G1 X111.493 Y90.868 E.07806
G1 X113.675 Y90.356 E.07668
G1 X115.88 Y89.952 E.07668
G1 X118.806 Y89.586 E.10085
G1 X121.083 Y89.433 E.07806
G1 X123.324 Y89.394 E.07668
G1 X126.27 Y89.511 E.10085
G1 X128.502 Y89.727 E.07668
G1 X130.72 Y90.052 E.07668
G1 X132.919 Y90.486 E.07668
G1 X135.094 Y91.027 E.07668
G1 X137.279 Y91.687 E.07805
G1 X139.39 Y92.441 E.07668
G1 X141.461 Y93.298 E.07668
G1 X196.007 Y121.788 E2.10495
G1 X197.554 Y122.732 E.06197
G1 X198.703 Y123.618 E.04964
G1 X199.708 Y124.558 E.04707
G1 X200.855 Y125.879 E.05984
G1 X201.648 Y127.015 E.04739
G1 X202.363 Y128.278 E.04964
G1 X202.925 Y129.534 E.04707
G1 X203.369 Y130.836 E.04707
G1 X203.759 Y132.551 E.06016
G1 X203.922 Y133.918 E.04707
G1 X203.957 Y135.368 E.04964
G1 X203.86 Y136.741 E.04707
G1 X203.638 Y138.099 E.04707
G1 X203.291 Y139.431 E.04707
G1 X202.674 Y141.075 E.0601
G1 X202.057 Y142.308 E.04713
G1 X201.288 Y143.538 E.04964
G1 X200.201 Y144.921 E.06017
G1 X199.187 Y145.96 E.04964
G1 X197.831 Y147.079 E.06017
G1 X196.287 Y148.069 E.06274
G1 X142.224 Y176.355 E2.08708
G1 X140.167 Y177.251 E.07674
M73 P0 R277
G1 X137.399 Y178.273 E.10093
G1 X135.253 Y178.929 E.07674
G1 X133.039 Y179.487 E.07812
G1 X130.141 Y180.044 E.10093
G1 X127.918 Y180.341 E.07674
G1 X125.642 Y180.53 E.07812
G1 X122.692 Y180.606 E.10093
G1 X120.45 Y180.536 E.07674
G1 X118.173 Y180.351 E.07811
G1 X115.949 Y180.059 E.07674
G1 X113.05 Y179.509 E.10093
G1 X110.834 Y178.956 E.07812
G1 X108.688 Y178.305 E.07674
G1 X106.575 Y177.549 E.07674
G1 X103.858 Y176.398 E.10093
G1 X49.617 Y148.015 E2.09401
G1 X48.078 Y147.012 E.06283
G1 X46.955 Y146.09 E.04972
G1 X45.671 Y144.775 E.06283
G1 X44.601 Y143.376 E.06026
G1 X43.847 Y142.134 E.04972
G1 X43.247 Y140.893 E.04714
G1 X42.763 Y139.603 E.04714
G1 X42.4 Y138.273 E.04714
G1 X42.161 Y136.916 E.04714
G1 X42.04 Y135.159 E.06026
G1 X42.089 Y133.781 E.04714
G1 X42.278 Y132.34 E.04972
G1 X42.586 Y130.997 E.04714
G1 X43.033 Y129.643 E.04878
G1 X43.734 Y128.089 E.05829
G1 X44.431 Y126.89 E.04747
G1 X45.232 Y125.768 E.04714
G1 X46.184 Y124.67 E.04972
G1 X47.474 Y123.47 E.06026
G1 X48.576 Y122.643 E.04714
G1 X50.167 Y121.697 E.06331
G1 X58.713 Y117.232 E.3298
; printing object Bouchon alternateur V2 v13.step id:0 copy 0
G1 E-1.5 F1800
;WIPE_START
G1 F12000
G1 X60.485 Y116.306
;WIPE_END
EXCLUDE_OBJECT_START NAME=Bouchon_alternateur_V2_v13.step_id_0_copy_0
G1 Z.4 F18000
G1 X178.605 Y116.536 Z.4
G1 Z.2
G1 E1.5 F1800
;TYPE:Inner wall
;WIDTH:0.499999
G1 X191.546 Y123.384 E.50082
G1 X192.148 Y123.69 E.02311
G1 X192.858 Y123.913 E.02546
G1 X193.871 Y124.318 E.03732
G1 X194.508 Y124.632 E.02427
G1 X195.442 Y125.185 E.03714
G1 X196.317 Y125.818 E.03695
G1 X197.131 Y126.529 E.03695
G1 X197.875 Y127.311 E.03695
G1 X198.545 Y128.159 E.03695
G1 X199.134 Y129.065 E.03695
G1 X199.637 Y130.021 E.03695
G1 X200.052 Y131.024 E.03713
G1 X200.273 Y131.704 E.02445
G1 X200.453 Y132.395 E.02445
G1 X200.645 Y133.464 E.03714
G1 X200.739 Y134.673 E.04146
G1 X200.744 Y135.261 E.02012
G1 X200.707 Y135.975 E.02445
G1 X200.567 Y137.051 E.03714
G1 X200.329 Y138.11 E.03714
G1 X200.119 Y138.794 E.02445
G1 X199.871 Y139.455 E.02414
G1 X199.409 Y140.447 E.03744
G1 X198.862 Y141.385 E.03714
G1 X198.456 Y141.973 E.02445
G1 X198.014 Y142.535 E.02446
G1 X197.283 Y143.332 E.037
G1 X196.754 Y143.827 E.02478
G1 X196.202 Y144.282 E.02444
G1 X195.315 Y144.907 E.03714
G1 X194.373 Y145.448 E.03714
G1 X193.733 Y145.753 E.02427
G1 X192.72 Y146.144 E.03714
G1 X192.14 Y146.308 E.02062
G1 X191.384 Y146.493 E.0266
G1 X190.57 Y146.644 E.02834
G1 X182 Y148.431 E.29942
G1 X181.729 Y148.587 E.01071
G1 X181.56 Y148.836 E.01031
G1 X181.513 Y149.122 E.00991
G1 X181.591 Y149.407 E.01008
G1 X181.965 Y150.118 E.02748
G1 X182.109 Y150.485 E.01349
G1 X182.175 Y150.883 E.0138
G1 X182.078 Y151.275 E.0138
G1 X181.889 Y151.616 E.01333
G1 X181.586 Y151.892 E.01402
G1 X145.656 Y170.908 E1.39055
G1 X145.596 Y170.886 E.00218
G1 X145.466 Y170.948 E.00492
G1 X144.718 Y171.404 E.02996
G1 X140.876 Y173.437 E.14869
G1 X138.972 Y174.267 E.07107
G1 X137.678 Y174.769 E.04746
G1 X136.369 Y175.228 E.04745
G1 X134.369 Y175.839 E.07152
G1 X133.026 Y176.189 E.04746
G1 X131.67 Y176.496 E.04756
G1 X130.305 Y176.758 E.04756
G1 X128.935 Y176.975 E.04745
G1 X126.86 Y177.216 E.07143
G1 X124.78 Y177.355 E.07133
G1 X122.692 Y177.392 E.07143
G1 X121.305 Y177.359 E.04746
G1 X119.92 Y177.281 E.04745
G1 X117.841 Y177.078 E.07143
G1 X115.778 Y176.774 E.07133
G1 X113.733 Y176.368 E.07133
G1 X111.71 Y175.863 E.07133
G1 X109.714 Y175.258 E.07133
G1 X107.742 Y174.553 E.07162
G1 X106.461 Y174.035 E.04726
G1 X105.203 Y173.478 E.04707
G1 X101.187 Y171.353 E.15542
G1 X100.394 Y170.872 E.03171
G1 X100.272 Y170.869 E.00418
G1 X54.457 Y146.624 E1.77305
G1 X53.862 Y146.322 E.02281
G1 X53.145 Y146.098 E.02568
G1 X52.471 Y145.841 E.02468
G1 X51.814 Y145.542 E.02468
G1 X51.177 Y145.204 E.02468
G1 X50.562 Y144.828 E.02468
G1 X49.971 Y144.414 E.02468
G1 X49.406 Y143.965 E.02468
G1 X48.87 Y143.482 E.02468
G1 X48.365 Y142.967 E.02468
G1 X47.892 Y142.422 E.02468
G1 X47.454 Y141.849 E.02468
G1 X47.055 Y141.255 E.02449
G1 X46.517 Y140.303 E.03738
G1 X46.215 Y139.66 E.02432
G1 X45.829 Y138.638 E.03736
G1 X45.63 Y137.955 E.02431
G1 X45.406 Y136.891 E.03719
G1 X45.282 Y135.817 E.03701
G1 X45.256 Y134.73 E.0372
G1 X45.295 Y134.015 E.02449
G1 X45.377 Y133.303 E.02449
G1 X45.585 Y132.236 E.0372
G1 X45.888 Y131.198 E.037
G1 X46.285 Y130.191 E.03701
G1 X46.774 Y129.226 E.03701
G1 X47.352 Y128.305 E.03719
G1 X47.778 Y127.73 E.02449
G1 X48.239 Y127.181 E.02449
G1 X49 Y126.405 E.03719
G1 X49.826 Y125.706 E.03701
G1 X50.716 Y125.082 E.03719
G1 X51.328 Y124.721 E.0243
G1 X52.304 Y124.241 E.0372
G1 X53.442 Y123.816 E.04154
G1 X54.105 Y123.626 E.02361
G1 X54.871 Y123.46 E.02682
G1 X55.473 Y123.359 E.02085
G1 X63.99 Y121.565 E.29774
G1 X64.228 Y121.422 E.00949
G1 X64.4 Y121.169 E.01044
G1 X64.446 Y120.883 E.00994
G1 X64.367 Y120.598 E.01011
G1 X63.862 Y119.612 E.03788
G1 X63.797 Y119.19 E.01461
G1 X63.858 Y118.781 E.01415
G1 X64.065 Y118.422 E.01415
G1 X64.378 Y118.132 E.01461
G1 X100.324 Y99.099 E1.39128
G1 X100.384 Y99.121 E.00218
G1 X100.514 Y99.06 E.00492
G1 X101.259 Y98.604 E.02988
G1 X105.12 Y96.56 E.14943
G1 X105.732 Y96.281 E.023
G1 X107.661 Y95.478 E.07147
G1 X109.622 Y94.772 E.07128
G1 X111.623 Y94.161 E.07157
G1 X112.959 Y93.813 E.04723
G1 X114.311 Y93.506 E.04742
G1 X116.366 Y93.129 E.07147
G1 X117.739 Y92.934 E.04742
G1 X119.117 Y92.785 E.04742
G1 X121.202 Y92.645 E.07147
G1 X122.588 Y92.609 E.04742
G1 X123.968 Y92.618 E.04723
G1 X126.058 Y92.718 E.07157
G1 X128.132 Y92.92 E.07128
G1 X130.194 Y93.223 E.07127
G1 X132.238 Y93.627 E.07128
G1 X134.26 Y94.131 E.07127
G1 X136.262 Y94.737 E.07156
G1 X137.566 Y95.19 E.04723
G1 X138.86 Y95.688 E.04742
G1 X140.765 Y96.511 E.07098
G1 X144.829 Y98.662 E.15728
G1 X145.615 Y99.139 E.03145
G1 X145.737 Y99.143 E.00419
G1 X178.57 Y116.517 E1.2706
G1 X178.819 Y116.132 F18000
;TYPE:Outer wall
G1 F1800
G1 X191.76 Y122.98 E.50082
G1 X192.285 Y123.254 E.02027
G1 X193.012 Y123.482 E.02606
G1 X194.058 Y123.9 E.03852
G1 X194.725 Y124.229 E.02547
G1 X195.693 Y124.802 E.03846
G1 X196.602 Y125.46 E.03839
G1 X197.447 Y126.198 E.03839
G1 X198.221 Y127.011 E.03839
G1 X198.917 Y127.892 E.03839
G1 X199.528 Y128.833 E.03839
G1 X200.051 Y129.827 E.03839
G1 X200.481 Y130.865 E.03845
G1 X200.712 Y131.575 E.02553
G1 X200.9 Y132.297 E.02553
