; HEADER_BLOCK_START
; generated by OrcaSlicer 2.1.1 on 2024-07-14 at 08:44:03
; total layer number: 95
; filament_density: 1.24
; filament_diameter: 1.75
; max_z_height: 19.00
; HEADER_BLOCK_END

; THUMBNAIL_BLOCK_START

;
; THUMBNAIL_BLOCK_END

; THUMBNAIL_BLOCK_START

;
; THUMBNAIL_BLOCK_END

; external perimeters extrusion width = 0.42mm
; perimeters extrusion width = 0.45mm
; infill extrusion width = 0.45mm
; solid infill extrusion width = 0.45mm
; top infill extrusion width = 0.42mm
; first layer extrusion width = 0.50mm

; EXECUTABLE_BLOCK_START
EXCLUDE_OBJECT_DEFINE NAME=Bouchon_alternateur_v7.step_id_0_copy_0 CENTER=115,115 POLYGON=[[36.5001,114.968],[36.507,114.581],[36.526,114.195],[36.5568,113.809],[36.5997,113.425],[36.6543,113.042],[36.7208,112.661],[36.7991,112.282],[36.8891,111.906],[36.9906,111.532],[37.1037,111.162],[37.2282,110.796],[37.3639,110.434],[37.5108,110.076],[37.6687,109.723],[37.8374,109.374],[38.0169,109.032],[38.2068,108.695],[38.4071,108.364],[38.6176,108.039],[38.838,107.721],[39.0681,107.41],[39.3077,107.106],[39.5567,106.81],[39.8146,106.522],[40.0814,106.242],[40.3567,105.97],[40.6403,105.707],[40.9319,105.452],[41.2312,105.207],[41.538,104.972],[41.8519,104.745],[42.1727,104.529],[42.5,104.323],[42.8335,104.127],[43.173,103.941],[96.7475,76.0938],[97.394,75.797],[98.0453,75.5109],[98.7012,75.2357],[99.3617,74.9714],[100.026,74.718],[100.695,74.4757],[101.368,74.2444],[102.044,74.0244],[102.724,73.8155],[103.408,73.618],[104.094,73.4318],[104.784,73.257],[105.476,73.0936],[106.171,72.9417],[106.869,72.8013],[107.568,72.6725],[108.27,72.5553],[108.973,72.4497],[109.678,72.3558],[110.385,72.2735],[111.093,72.203],[111.802,72.1442],[112.512,72.0971],[113.222,72.0618],[113.933,72.0382],[114.644,72.0265],[115.356,72.0265],[116.067,72.0382],[116.778,72.0618],[117.488,72.0971],[118.198,72.1442],[118.907,72.203],[119.615,72.2735],[120.322,72.3558],[121.027,72.4497],[121.73,72.5553],[122.432,72.6725],[123.131,72.8013],[123.829,72.9417],[124.524,73.0936],[125.216,73.257],[125.906,73.4318],[126.592,73.618],[127.276,73.8155],[127.956,74.0244],[128.632,74.2444],[129.305,74.4757],[129.974,74.718],[130.638,74.9714],[131.299,75.2357],[131.955,75.5109],[132.606,75.797],[133.253,76.0938],[186.885,103.972],[187.224,104.16],[187.556,104.357],[187.883,104.566],[188.203,104.784],[188.516,105.012],[188.822,105.249],[189.12,105.496],[189.41,105.752],[189.693,106.017],[189.967,106.291],[190.232,106.573],[190.489,106.863],[190.736,107.16],[190.974,107.466],[191.203,107.778],[191.422,108.098],[191.63,108.424],[191.829,108.756],[192.017,109.095],[192.195,109.439],[192.362,109.788],[192.518,110.142],[192.663,110.502],[192.796,110.865],[192.919,111.232],[193.03,111.603],[193.129,111.977],[193.217,112.354],[193.293,112.734],[193.357,113.116],[193.41,113.5],[193.45,113.885],[193.479,114.271],[193.495,114.658],[193.5,115.045],[193.493,115.432],[193.473,115.819],[193.442,116.205],[193.399,116.589],[193.343,116.973],[193.276,117.354],[193.198,117.733],[193.107,118.109],[193.005,118.483],[192.891,118.853],[192.766,119.22],[192.63,119.582],[192.482,119.94],[192.324,120.293],[192.155,120.641],[191.975,120.984],[191.784,121.321],[191.583,121.652],[191.372,121.977],[191.151,122.295],[190.92,122.606],[190.68,122.909],[190.43,123.205],[190.171,123.493],[189.904,123.773],[189.628,124.045],[189.344,124.308],[189.051,124.562],[188.751,124.806],[188.444,125.042],[188.129,125.268],[187.808,125.483],[187.48,125.689],[187.146,125.885],[186.806,126.07],[133.253,153.906],[132.606,154.203],[131.955,154.489],[131.299,154.764],[130.638,155.029],[129.974,155.282],[129.305,155.524],[128.632,155.756],[127.956,155.976],[127.276,156.184],[126.592,156.382],[125.906,156.568],[125.216,156.743],[124.524,156.906],[123.829,157.058],[123.131,157.199],[122.432,157.328],[121.73,157.445],[121.027,157.55],[120.322,157.644],[119.615,157.726],[118.907,157.797],[118.198,157.856],[117.488,157.903],[116.778,157.938],[116.067,157.962],[115.356,157.974],[114.644,157.974],[113.933,157.962],[113.222,157.938],[112.512,157.903],[111.802,157.856],[111.093,157.797],[110.385,157.726],[109.678,157.644],[108.973,157.55],[108.27,157.445],[107.568,157.328],[106.869,157.199],[106.171,157.058],[105.476,156.906],[104.784,156.743],[104.094,156.568],[103.408,156.382],[102.724,156.184],[102.044,155.976],[101.368,155.756],[100.695,155.524],[100.026,155.282],[99.3617,155.029],[98.7012,154.764],[98.0453,154.489],[97.394,154.203],[96.7475,153.906],[43.117,126.029],[42.7785,125.842],[42.446,125.644],[42.1197,125.436],[41.8,125.218],[41.4873,124.99],[41.1817,124.753],[40.8836,124.507],[40.5933,124.251],[40.311,123.986],[40.0371,123.713],[39.7718,123.431],[39.5153,123.142],[39.2678,122.844],[39.0297,122.539],[38.8012,122.227],[38.5824,121.908],[38.3736,121.583],[38.175,121.251],[37.9867,120.913],[37.8091,120.569],[37.6421,120.22],[37.486,119.866],[37.3409,119.507],[37.207,119.144],[37.0844,118.777],[36.9732,118.407],[36.8736,118.033],[36.7855,117.656],[36.7091,117.277],[36.6446,116.895],[36.5918,116.512],[36.551,116.127],[36.522,115.742],[36.5051,115.355],[36.5001,114.968]]
M73 P0 R168
;TYPE:Custom
M220 S100
G90 ; use absolute coordinates
M83 ; extruder relative mode
M104 S150 ; set temporary nozzle temp to prevent oozing during homing
M140 S75 ; set final bed temp
G4 S30 ; allow partial nozzle warmup
G28 ; home all axis and restore leveling
BED_MESH_CALIBRATE PROFILE=adaptive ADAPTIVE=1 ADAPTIVE_MARGIN=0
G1 Z25 F240
G1 X10.0 Y30 F3000
M104 S250 ; set final nozzle temp
M190 S75 ; wait for bed temp to stabilize
M109 S250 ; wait for nozzle temp to stabilize
G1 Z0.28 F240
G92 E0 ; Move Z Axis up
G1 Z2.0 F5000 ; Move to start position
G1 X5 Y30 Z0.28 F300 ; Draw the first line
G1 X5 Y200 Z0.28 F1500 E15 ; Move to side a little
G1 X5.4 Y200 Z0.28 F5000.0 ; Draw the second line
G1 X5.4 Y50 Z0.28 F1500.0 E30 ; Reset Extruder
G92 E0 ; Move Z Axis up
G1 Z2.0 F3000
M117 Start Printing..
G90
G21
M83 ; use relative distances for extrusion
; filament start gcode
M106 S0
;LAYER_CHANGE
;Z:0.2
;HEIGHT:0.2
;BEFORE_LAYER_CHANGE
;0.2
G92 E0

G1 E-1.5 F1800
;_SET_FAN_SPEED_CHANGING_LAYER
SET_VELOCITY_LIMIT ACCEL=1000
SET_VELOCITY_LIMIT SQUARE_CORNER_VELOCITY=7
; printing object Bouchon alternateur v7.step id:0 copy 0
EXCLUDE_OBJECT_START NAME=Bouchon_alternateur_v7.step_id_0_copy_0
G1 Z.2 F24000
G1 X48.546 Y126.858
G1 Z.2
G1 E1.5 F1800
;TYPE:Inner wall
;WIDTH:0.499999
G1 X48.877 Y126.521 E.01614
G1 X49.702 Y125.801 E.03747
G1 X50.591 Y125.161 E.03747
G1 X51.207 Y124.786 E.02465
G1 X52.184 Y124.291 E.0375
G1 X52.846 Y124.017 E.02449
G1 X53.881 Y123.68 E.03723
G1 X63.997 Y121.571 E.35348
G1 X64.255 Y121.426 E.01011
G1 X64.436 Y121.167 E.01082
G1 X64.484 Y120.881 E.00993
G1 X64.406 Y120.596 E.0101
G1 X63.4 Y118.682 E.07395
G1 X105.082 Y96.773 E1.61071
G1 X105.702 Y96.489 E.02332
G1 X106.988 Y95.936 E.04791
G1 X108.288 Y95.429 E.04771
G1 X110.273 Y94.746 E.0718
G1 X112.287 Y94.164 E.07171
G1 X114.327 Y93.683 E.07171
G1 X116.388 Y93.303 E.0717
G1 X118.466 Y93.026 E.0717
G1 X120.553 Y92.853 E.07162
G1 X121.953 Y92.795 E.04793
G1 X123.003 Y92.784 E.03591
G1 X124.047 Y92.795 E.03573
G1 X125.442 Y92.853 E.04774
G1 X127.534 Y93.026 E.07181
G1 X129.612 Y93.303 E.0717
G1 X131.676 Y93.683 E.0718
G1 X133.036 Y93.992 E.0477
G1 X134.385 Y94.346 E.04771
G1 X136.392 Y94.963 E.0718
G1 X138.363 Y95.677 E.07171
G1 X140.301 Y96.49 E.07191
G1 X140.918 Y96.773 E.02322
G1 X191.532 Y123.376 E1.95584
G1 X192.142 Y123.685 E.0234
G1 X192.859 Y123.91 E.0257
G1 X193.881 Y124.32 E.03768
G1 X194.528 Y124.64 E.02467
G1 X195.466 Y125.198 E.03734
G1 X196.352 Y125.844 E.0375
G1 X196.897 Y126.309 E.02451
G1 X197.676 Y127.087 E.03767
G1 X198.143 Y127.631 E.02451
G1 X198.79 Y128.516 E.0375
G1 X199.352 Y129.457 E.0375
G1 X199.671 Y130.099 E.02452
G1 X200.083 Y131.121 E.03767
G1 X200.299 Y131.804 E.02451
G1 X200.455 Y132.475 E.02359
G1 X200.569 Y133.024 E.01916
G1 X200.702 Y134.106 E.03728
G1 X200.742 Y135.042 E.03205
G1 X200.687 Y136.137 E.0375
G1 X200.596 Y136.848 E.02452
G1 X200.372 Y137.926 E.03767
G1 X200.172 Y138.614 E.02451
G1 X199.786 Y139.64 E.0375
G1 X199.309 Y140.621 E.03731
G1 X198.743 Y141.554 E.03731
G1 X198.09 Y142.434 E.0375
G1 X197.616 Y142.979 E.0247
G1 X197.105 Y143.497 E.02488
G1 X196.564 Y143.982 E.02486
G1 X195.693 Y144.648 E.03752
G1 X195.087 Y145.042 E.02469
G1 X194.459 Y145.396 E.02469
G1 X193.46 Y145.862 E.03769
G1 X192.79 Y146.114 E.0245
G1 X191.884 Y146.376 E.03224
G1 X182.01 Y148.425 E.34493
G1 X181.738 Y148.58 E.01074
G1 X181.564 Y148.833 E.01048
G1 X181.516 Y149.119 E.00993
G1 X181.594 Y149.404 E.01012
G1 X182.6 Y151.318 E.07395
G1 X140.921 Y173.225 E1.61061
G1 X139.656 Y173.793 E.04743
G1 X138.366 Y174.322 E.0477
G1 X136.389 Y175.038 E.07191
G1 X135.059 Y175.459 E.0477
G1 X133.716 Y175.835 E.04771
G1 X131.67 Y176.318 E.07191
G1 X130.301 Y176.582 E.0477
G1 X128.923 Y176.8 E.04771
G1 X126.838 Y177.043 E.07181
G1 X124.747 Y177.182 E.0717
G1 X122.651 Y177.216 E.07171
G1 X120.555 Y177.147 E.0717
G1 X118.463 Y176.973 E.07181
G1 X117.079 Y176.801 E.04771
G1 X115.707 Y176.583 E.04752
G1 X113.644 Y176.168 E.07199
G1 X111.612 Y175.653 E.0717
G1 X109.608 Y175.037 E.0717
G1 X107.634 Y174.322 E.07181
G1 X106.344 Y173.793 E.0477
G1 X105.079 Y173.225 E.04743
G1 X54.469 Y146.624 E1.9557
G1 X53.868 Y146.318 E.02308
G1 X52.79 Y145.962 E.03883
G1 X52.125 Y145.683 E.02468
G1 X51.473 Y145.361 E.02486
G1 X50.843 Y144.999 E.02486
G1 X50.236 Y144.599 E.02486
G1 X49.655 Y144.162 E.02486
G1 X49.103 Y143.69 E.02486
G1 X48.58 Y143.185 E.02486
G1 X48.09 Y142.648 E.02486
G1 X47.634 Y142.083 E.02486
G1 X47.214 Y141.49 E.02486
G1 X46.834 Y140.876 E.02468
G1 X46.328 Y139.899 E.03764
G1 X46.05 Y139.239 E.02449
G1 X45.702 Y138.2 E.03747
G1 X45.454 Y137.139 E.03728
G1 X45.306 Y136.059 E.03728
G1 X45.258 Y134.97 E.03728
G1 X45.312 Y133.876 E.03747
G1 X45.402 Y133.166 E.02449
G1 X45.624 Y132.088 E.03764
G1 X45.823 Y131.4 E.02449
G1 X46.207 Y130.374 E.03747
G1 X46.683 Y129.394 E.03728
G1 X47.247 Y128.461 E.03728
G1 X47.899 Y127.581 E.03747
G1 X48.371 Y127.036 E.02467
G1 X48.518 Y126.886 E.00716
G1 X48.22 Y126.537 F24000
;TYPE:Outer wall
G1 F1800
G1 X48.563 Y126.188 E.01675
G1 X49.418 Y125.443 E.0388
G1 X50.338 Y124.78 E.0388
G1 X50.984 Y124.387 E.02586
G1 X51.993 Y123.875 E.0387
G1 X52.688 Y123.588 E.0257
G1 X53.763 Y123.238 E.03869
G1 X63.9 Y121.12 E.35422
G1 X64.017 Y120.983 E.00617
G1 X64.001 Y120.808 E.00599
G1 X62.783 Y118.49 E.08959
G1 X104.88 Y96.363 E1.62676
G1 X105.516 Y96.071 E.02394
G1 X106.815 Y95.513 E.04836
G1 X108.13 Y95 E.04829
G1 X110.135 Y94.311 E.07251
G1 X112.17 Y93.722 E.07248
G1 X114.233 Y93.235 E.07248
G1 X116.317 Y92.852 E.07248
G1 X118.417 Y92.572 E.07248
G1 X120.525 Y92.397 E.07233
G1 X121.941 Y92.338 E.04849
G1 X123.003 Y92.327 E.03632
G1 X124.059 Y92.338 E.03614
G1 X125.47 Y92.397 E.0483
G1 X127.583 Y92.572 E.07252
G1 X129.683 Y92.852 E.07248
G1 X131.768 Y93.236 E.07252
G1 X133.145 Y93.548 E.04829
G1 X134.51 Y93.907 E.04829
G1 X136.537 Y94.529 E.07251
G1 X138.529 Y95.251 E.07248
G1 X140.485 Y96.072 E.07255
G1 X141.12 Y96.363 E.0239
G1 X191.744 Y122.972 E1.95626
G1 X192.279 Y123.249 E.0206
G1 X193.013 Y123.479 E.02631
G1 X194.068 Y123.903 E.0389
G1 X194.746 Y124.238 E.02588
G1 X195.718 Y124.816 E.03867
G1 X196.635 Y125.485 E.03884
G1 X197.207 Y125.973 E.02573
G1 X198.012 Y126.776 E.03888
G1 X198.501 Y127.347 E.02572
G1 X199.171 Y128.264 E.03883
G1 X199.753 Y129.238 E.03883
G1 X200.088 Y129.912 E.02573
G1 X200.514 Y130.966 E.03888
G1 X200.74 Y131.683 E.02572
G1 X200.901 Y132.372 E.0242
G1 X201.021 Y132.962 E.02062
G1 X201.159 Y134.086 E.03873
G1 X201.2 Y135.044 E.03278
G1 X201.143 Y136.178 E.03883
G1 X201.047 Y136.924 E.02573
G1 X200.816 Y138.036 E.03888
G1 X200.606 Y138.759 E.02572
G1 X200.207 Y139.821 E.03883
G1 X199.711 Y140.84 E.03877
G1 X199.123 Y141.809 E.03877
G1 X198.446 Y142.721 E.03883
G1 X197.951 Y143.289 E.02579
G1 X197.421 Y143.828 E.02585
G1 X196.856 Y144.334 E.02595
G1 X195.957 Y145.022 E.03873
G1 X195.324 Y145.433 E.02578
G1 X194.668 Y145.803 E.02578
G1 X193.637 Y146.284 E.0389
G1 X192.934 Y146.548 E.02572
G1 X191.843 Y146.864 E.03883
G1 X190.713 Y147.08 E.03937
G1 X182.105 Y148.872 E.30075
G1 X181.983 Y149.017 E.00649
G1 X181.999 Y149.192 E.00599
G1 X183.217 Y151.51 E.08959
G1 X141.121 Y173.636 E1.62673
G1 X139.836 Y174.213 E.04817
G1 X138.53 Y174.749 E.04829
G1 X136.536 Y175.471 E.07256
G1 X135.19 Y175.897 E.04828
G1 X133.831 Y176.278 E.04829
G1 X131.766 Y176.765 E.07255
G1 X130.38 Y177.032 E.04828
G1 X128.986 Y177.253 E.04829
G1 X126.88 Y177.498 E.07252
G1 X124.766 Y177.638 E.07248
G1 X122.647 Y177.673 E.07248
G1 X120.529 Y177.603 E.07248
G1 X118.416 Y177.428 E.07252
G1 X117.015 Y177.253 E.04829
G1 X115.626 Y177.033 E.0481
G1 X113.543 Y176.614 E.0727
G1 X111.489 Y176.093 E.07248
G1 X109.463 Y175.471 E.07248
G1 X107.47 Y174.749 E.07252
G1 X106.164 Y174.213 E.04829
G1 X104.879 Y173.636 E.04817
G1 X53.724 Y146.752 E1.97671
G1 X52.63 Y146.39 E.03943
G1 X51.935 Y146.099 E.02577
G1 X51.258 Y145.764 E.02583
G1 X50.603 Y145.388 E.02583
G1 X49.973 Y144.973 E.02583
G1 X49.369 Y144.519 E.02583
G1 X48.795 Y144.029 E.02583
G1 X48.252 Y143.504 E.02583
G1 X47.743 Y142.946 E.02583
G1 X47.269 Y142.358 E.02583
G1 X46.833 Y141.742 E.02583
G1 X46.436 Y141.102 E.02577
G1 X45.914 Y140.093 E.03885
G1 X45.622 Y139.401 E.0257
G1 X45.262 Y138.325 E.0388
G1 X45.004 Y137.222 E.03873
G1 X44.85 Y136.1 E.03874
G1 X44.8 Y134.969 E.03873
G1 X44.856 Y133.836 E.0388
G1 X44.951 Y133.091 E.0257
G1 X45.18 Y131.978 E.03885
G1 X45.389 Y131.256 E.0257
G1 X45.787 Y130.194 E.0388
G1 X46.281 Y129.175 E.03873
G1 X46.867 Y128.206 E.03874
G1 X47.542 Y127.294 E.0388
G1 X48.035 Y126.725 E.02576
G1 X48.192 Y126.566 E.00765
G1 E-1.5
;WIPE_START
G1 F12000
G1 X48.563 Y126.188
G1 X49.418 Y125.443
G1 X49.691 Y125.246
;WIPE_END
G1 Z.4 F24000
G1 X184.233 Y136.821 Z.4
G1 Z.2
G1 E1.5 F1800
;TYPE:Inner wall
G1 X184.065 Y136.397 E.01561
G1 X183.882 Y135.34 E.03668
G1 X183.893 Y134.514 E.02826
G1 X184.101 Y133.483 E.03596
G1 X184.523 Y132.498 E.03667
G1 X185.141 Y131.622 E.03668
G1 X185.928 Y130.893 E.03668
G1 X186.849 Y130.344 E.03668
G1 X187.864 Y129.999 E.03668
G1 X188.681 Y129.88 E.02826
G1 X189.732 Y129.924 E.03596
G1 X190.791 Y130.192 E.0374
G1 X191.519 Y130.531 E.02744
G1 X192.353 Y131.122 E.03498
G1 X192.778 Y131.563 E.02094
G1 X193.151 Y131.982 E.01918
G1 X193.548 Y132.626 E.0259
G1 X193.868 Y133.429 E.02955
G1 X193.972 Y133.742 E.0113
G1 X194.118 Y134.66 E.0318
G1 X194.08 Y135.67 E.03457
G1 X193.948 Y136.267 E.02092
G1 X193.813 Y136.771 E.01784
G1 X193.469 Y137.519 E.02816
G1 X192.859 Y138.378 E.03606
G1 X192.23 Y138.965 E.02941
G1 X191.972 Y139.182 E.01156
G1 X191.374 Y139.548 E.02397
G1 X190.559 Y139.873 E.03002
G1 X190.258 Y139.972 E.01082
G1 X189.34 Y140.118 E.0318
G1 X188.269 Y140.076 E.03668
G1 X187.229 Y139.813 E.03668
G1 X186.267 Y139.34 E.03668
G1 X185.607 Y138.848 E.02815
G1 X184.893 Y138.072 E.03606
G1 X184.453 Y137.377 E.02815
G1 X184.248 Y136.858 E.01908
G1 X184.655 Y136.654 F24000
;TYPE:Outer wall
G1 F1800
G1 X184.492 Y136.233 E.01544
G1 X184.334 Y135.268 E.03342
G1 X184.35 Y134.526 E.0254
G1 X184.548 Y133.578 E.03311
G1 X184.94 Y132.684 E.03342
G1 X185.511 Y131.89 E.03342
G1 X186.233 Y131.233 E.03342
G1 X187.077 Y130.74 E.03342
G1 X188.005 Y130.433 E.03342
G1 X188.741 Y130.333 E.0254
G1 X189.708 Y130.38 E.03311
G1 X190.653 Y130.628 E.03342
G1 X191.322 Y130.943 E.0253
G1 X192.084 Y131.492 E.03213
G1 X192.782 Y132.251 E.03527
G1 X193.158 Y132.865 E.02462
G1 X193.441 Y133.592 E.0267
G1 X193.56 Y134.063 E.0166
G1 X193.666 Y134.732 E.02316
G1 X193.623 Y135.646 E.03131
G1 X193.372 Y136.653 E.03549
G1 X193.057 Y137.322 E.0253
G1 X192.489 Y138.11 E.03321
G1 X191.733 Y138.792 E.03485
G1 X191.135 Y139.158 E.02397
G1 X190.187 Y139.521 E.03474
G1 X189.268 Y139.666 E.0318
G1 X188.292 Y139.62 E.03342
G1 X187.347 Y139.372 E.03342
G1 X186.475 Y138.933 E.03342
G1 X185.885 Y138.485 E.0253
G1 X185.233 Y137.767 E.03321
G1 X184.843 Y137.138 E.0253
G1 X184.67 Y136.691 E.0164
G1 E-1.5
;WIPE_START
G1 F12000
G1 X184.492 Y136.233
