; HEADER_BLOCK_START
; generated by OrcaSlicer 2.1.1 on 2024-07-15 at 18:34:02
; total layer number: 95
; filament_density: 1.24
; filament_diameter: 1.75
; max_z_height: 19.00
; HEADER_BLOCK_END

; THUMBNAIL_BLOCK_START

;
; THUMBNAIL_BLOCK_END

; THUMBNAIL_BLOCK_START

;
; THUMBNAIL_BLOCK_END

; external perimeters extrusion width = 0.42mm
; perimeters extrusion width = 0.45mm
; infill extrusion width = 0.45mm
; solid infill extrusion width = 0.45mm
; top infill extrusion width = 0.42mm
; first layer extrusion width = 0.50mm

; EXECUTABLE_BLOCK_START
EXCLUDE_OBJECT_DEFINE NAME=Bouchon_alternateur_V2_v4.step_id_0_copy_0 CENTER=115,115 POLYGON=[[36.4955,115.102],[36.4984,114.718],[36.5131,114.335],[36.5396,113.951],[36.5778,113.569],[36.6277,113.189],[36.6894,112.81],[36.7626,112.433],[36.8474,112.058],[36.9436,111.686],[37.0513,111.317],[37.1702,110.952],[37.3002,110.591],[37.4413,110.234],[37.5933,109.881],[37.7561,109.533],[37.9295,109.191],[38.1133,108.853],[38.3074,108.522],[38.5116,108.197],[38.7257,107.878],[38.9495,107.566],[39.1827,107.261],[39.4253,106.963],[39.6768,106.673],[39.9372,106.39],[40.2061,106.116],[40.4833,105.85],[40.7685,105.593],[41.0615,105.345],[41.362,105.106],[41.6697,104.876],[41.9843,104.656],[42.3055,104.445],[42.6331,104.245],[42.9666,104.054],[43.3059,103.874],[96.8057,75.816],[97.4607,75.5186],[98.1206,75.232],[98.7852,74.9565],[99.4543,74.6922],[100.128,74.4389],[100.805,74.197],[101.487,73.9663],[102.172,73.7471],[102.861,73.5393],[103.553,73.3429],[104.248,73.1582],[104.946,72.985],[105.647,72.8235],[106.351,72.6737],[107.057,72.5356],[107.765,72.4093],[108.476,72.2948],[109.188,72.1921],[109.901,72.1014],[110.616,72.0225],[111.333,71.9555],[112.05,71.9005],[112.768,71.8574],[113.487,71.8263],[114.206,71.8072],[114.925,71.8001],[115.645,71.8049],[116.364,71.8217],[117.083,71.8505],[117.801,71.8912],[118.519,71.9439],[119.235,72.0086],[119.951,72.0852],[120.665,72.1736],[121.377,72.274],[122.088,72.3862],[122.796,72.5102],[123.503,72.646],[124.207,72.7935],[124.908,72.9528],[125.607,73.1237],[126.303,73.3062],[126.996,73.5003],[127.685,73.7059],[128.371,73.923],[129.053,74.1514],[129.732,74.3912],[130.406,74.6422],[131.076,74.9045],[131.741,75.1778],[132.402,75.4622],[133.058,75.7576],[186.871,103.967],[187.207,104.152],[187.538,104.347],[187.862,104.553],[188.18,104.769],[188.491,104.994],[188.794,105.228],[189.091,105.472],[189.38,105.725],[189.661,105.987],[189.934,106.257],[190.198,106.535],[190.454,106.821],[190.701,107.115],[190.938,107.417],[191.167,107.725],[191.385,108.041],[191.594,108.363],[191.793,108.691],[191.982,109.025],[192.161,109.365],[192.328,109.71],[192.486,110.061],[192.632,110.416],[192.767,110.775],[192.892,111.138],[193.005,111.505],[193.107,111.875],[193.197,112.248],[193.276,112.624],[193.343,113.002],[193.399,113.382],[193.443,113.763],[193.475,114.145],[193.496,114.529],[193.504,114.913],[193.501,115.296],[193.487,115.68],[193.46,116.063],[193.422,116.445],[193.371,116.826],[193.31,117.204],[193.236,117.581],[193.151,117.956],[193.055,118.327],[192.947,118.696],[192.828,119.061],[192.698,119.422],[192.557,119.779],[192.405,120.131],[192.242,120.479],[192.069,120.822],[191.885,121.159],[191.691,121.49],[191.487,121.815],[191.273,122.133],[191.049,122.445],[190.816,122.75],[190.573,123.048],[190.322,123.338],[190.061,123.62],[189.792,123.894],[189.515,124.16],[189.23,124.417],[188.937,124.665],[188.637,124.904],[188.329,125.134],[188.015,125.354],[187.694,125.564],[187.366,125.765],[187.033,125.955],[186.694,126.135],[133.185,154.184],[132.529,154.482],[131.869,154.768],[131.204,155.044],[130.535,155.308],[129.861,155.561],[129.184,155.803],[128.502,156.034],[127.817,156.253],[127.128,156.461],[126.435,156.658],[125.74,156.842],[125.041,157.016],[124.34,157.177],[123.636,157.327],[122.93,157.465],[122.221,157.591],[121.511,157.706],[120.799,157.808],[120.085,157.899],[119.369,157.978],[118.653,158.045],[117.935,158.1],[117.217,158.143],[116.498,158.174],[115.778,158.193],[115.059,158.2],[114.339,158.195],[113.62,158.178],[112.901,158.149],[112.182,158.108],[111.465,158.055],[110.748,157.991],[110.032,157.914],[109.318,157.825],[108.605,157.725],[107.895,157.612],[107.186,157.488],[106.479,157.352],[105.775,157.205],[105.073,157.045],[104.374,156.874],[103.678,156.691],[102.985,156.497],[102.295,156.291],[101.609,156.074],[100.927,155.845],[100.249,155.605],[99.5742,155.354],[98.9041,155.091],[98.2385,154.818],[97.5776,154.533],[96.9215,154.238],[43.139,126.048],[42.8025,125.863],[42.4719,125.667],[42.1474,125.462],[41.8294,125.247],[41.5181,125.022],[41.2139,124.787],[40.917,124.544],[40.6278,124.291],[40.3465,124.029],[40.0733,123.76],[39.8086,123.481],[39.5525,123.195],[39.3053,122.901],[39.0673,122.6],[38.8387,122.291],[38.6196,121.976],[38.4103,121.654],[38.2111,121.325],[38.022,120.991],[37.8433,120.651],[37.675,120.306],[37.5175,119.956],[37.3708,119.601],[37.2351,119.241],[37.1105,118.878],[36.9971,118.511],[36.8951,118.141],[36.8044,117.768],[36.7253,117.392],[36.6577,117.014],[36.6018,116.634],[36.5576,116.253],[36.5251,115.87],[36.5044,115.486],[36.4955,115.102]]
M73 P0 R267
;TYPE:Custom
M220 S100
G90 ; use absolute coordinates
M83 ; extruder relative mode
M104 S150 ; set temporary nozzle temp to prevent oozing during homing
M140 S80 ; set final bed temp
G4 S30 ; allow partial nozzle warmup
G28 ; home all axis and restore leveling
BED_MESH_CALIBRATE PROFILE=adaptive ADAPTIVE=1 ADAPTIVE_MARGIN=0
G1 Z25 F240
G1 X10.0 Y30 F3000
M104 S253 ; set final nozzle temp
M190 S80 ; wait for bed temp to stabilize
M109 S253 ; wait for nozzle temp to stabilize
G1 Z0.28 F240
G92 E0 ; Move Z Axis up
G1 Z2.0 F5000 ; Move to start position
G1 X5 Y30 Z0.28 F300 ; Draw the first line
G1 X5 Y200 Z0.28 F1500 E15 ; Move to side a little
G1 X5.4 Y200 Z0.28 F5000.0 ; Draw the second line
G1 X5.4 Y50 Z0.28 F1500.0 E30 ; Reset Extruder
G92 E0 ; Move Z Axis up
G1 Z2.0 F3000
M117 Start Printing..
G90
G21
M83 ; use relative distances for extrusion
; filament start gcode
M106 S0
;LAYER_CHANGE
;Z:0.2
;HEIGHT:0.2
;BEFORE_LAYER_CHANGE
;0.2
G92 E0

G1 E-1.5 F1800
;_SET_FAN_SPEED_CHANGING_LAYER
SET_VELOCITY_LIMIT ACCEL=500
SET_VELOCITY_LIMIT SQUARE_CORNER_VELOCITY=7
; printing object Bouchon alternateur V2 v4.step id:0 copy 0
EXCLUDE_OBJECT_START NAME=Bouchon_alternateur_V2_v4.step_id_0_copy_0
G1 Z.2 F18000
G1 X116.189 Y176.89
G1 Z.2
G1 E1.5 F1800
;TYPE:Inner wall
;WIDTH:0.499999
G1 X116.022 Y176.866 E.00576
G1 X113.936 Y176.465 E.07265
G1 X111.876 Y175.96 E.07255
G1 X109.844 Y175.354 E.07255
G1 X107.842 Y174.645 E.07265
G1 X106.532 Y174.12 E.04827
G1 X105.252 Y173.556 E.04785
G1 X54.454 Y146.623 E1.96671
G1 X53.863 Y146.322 E.02267
G1 X53.146 Y146.098 E.02569
G1 X52.472 Y145.841 E.02468
G1 X51.815 Y145.543 E.02468
G1 X51.178 Y145.205 E.02468
G1 X50.562 Y144.828 E.02468
G1 X49.971 Y144.415 E.02468
G1 X49.407 Y143.966 E.02468
G1 X48.87 Y143.483 E.02468
G1 X48.365 Y142.968 E.02468
G1 X47.896 Y142.427 E.02449
G1 X47.249 Y141.553 E.03719
G1 X46.682 Y140.619 E.03736
G1 X46.361 Y139.985 E.02433
G1 X46.077 Y139.327 E.02449
G1 X45.725 Y138.299 E.03719
G1 X45.469 Y137.247 E.03701
G1 X45.312 Y136.177 E.03701
G1 X45.253 Y135.097 E.03701
G1 X45.295 Y134.01 E.03719
G1 X45.377 Y133.299 E.02449
G1 X45.504 Y132.588 E.02468
G1 X45.674 Y131.887 E.02468
G1 X45.885 Y131.203 E.02449
G1 X46.285 Y130.192 E.03719
G1 X46.773 Y129.226 E.03701
G1 X47.351 Y128.305 E.03719
G1 X47.777 Y127.73 E.02449
G1 X48.238 Y127.182 E.02449
G1 X48.999 Y126.405 E.0372
G1 X49.825 Y125.706 E.03701
G1 X50.716 Y125.082 E.03719
G1 X51.327 Y124.721 E.02431
G1 X52.303 Y124.241 E.0372
G1 X53.441 Y123.816 E.04154
G1 X54.104 Y123.626 E.02361
G1 X54.871 Y123.46 E.02683
G1 X55.472 Y123.359 E.02085
G1 X63.946 Y121.579 E.29617
G1 X64.211 Y121.428 E.01044
G1 X64.39 Y121.169 E.01077
G1 X64.436 Y120.883 E.00993
G1 X64.357 Y120.599 E.01009
G1 X63.85 Y119.611 E.03797
G1 X63.785 Y119.189 E.0146
G1 X63.846 Y118.78 E.01415
G1 X64.053 Y118.422 E.01415
G1 X64.366 Y118.132 E.0146
G1 X105.14 Y96.496 E1.57889
G1 X105.763 Y96.213 E.02339
G1 X107.727 Y95.399 E.07272
G1 X109.724 Y94.686 E.07253
G1 X111.756 Y94.072 E.07262
G1 X113.122 Y93.721 E.04825
G1 X114.5 Y93.416 E.04827
G1 X116.587 Y93.044 E.07251
G1 X118.693 Y92.776 E.07262
G1 X120.81 Y92.614 E.07262
G1 X122.221 Y92.564 E.04828
G1 X123.283 Y92.56 E.03633
G1 X124.339 Y92.578 E.03614
G1 X125.749 Y92.647 E.0483
G1 X127.861 Y92.837 E.07251
G1 X129.963 Y93.133 E.07263
G1 X132.045 Y93.533 E.07252
G1 X134.105 Y94.037 E.07253
G1 X136.137 Y94.643 E.07252
G1 X138.139 Y95.351 E.07262
G1 X139.448 Y95.876 E.04825
G1 X140.728 Y96.439 E.04783
G1 X191.548 Y123.384 E1.96757
G1 X192.149 Y123.69 E.02305
G1 X192.86 Y123.913 E.02549
G1 X193.869 Y124.317 E.03718
G1 X194.836 Y124.812 E.03718
G1 X195.442 Y125.184 E.02429
G1 X196.322 Y125.821 E.03718
G1 X197.136 Y126.533 E.03699
G1 X197.881 Y127.317 E.03699
G1 X198.557 Y128.175 E.03734
G1 X198.953 Y128.765 E.02432
G1 X199.314 Y129.383 E.02448
G1 X199.79 Y130.36 E.03718
G1 X200.171 Y131.372 E.03699
G1 X200.459 Y132.42 E.03718
G1 X200.596 Y133.123 E.02448
G1 X200.689 Y133.833 E.02448
G1 X200.741 Y135.071 E.04238
G1 X200.705 Y135.999 E.03178
G1 X200.564 Y137.071 E.03699
G1 X200.325 Y138.126 E.03699
G1 X199.988 Y139.159 E.03718
G1 X199.714 Y139.821 E.02448
G1 X199.401 Y140.464 E.02448
G1 X198.851 Y141.402 E.03718
G1 X198.218 Y142.285 E.03718
G1 X197.761 Y142.829 E.0243
G1 X196.996 Y143.609 E.03737
G1 X196.461 Y144.076 E.0243
G1 X195.585 Y144.73 E.03737
G1 X194.981 Y145.113 E.02448
G1 X194.349 Y145.46 E.02467
G1 X193.702 Y145.766 E.02448
G1 X192.687 Y146.154 E.03718
G1 X191.374 Y146.495 E.04638
G1 X190.532 Y146.649 E.02929
G1 X181.973 Y148.437 E.29909
G1 X181.734 Y148.579 E.00951
G1 X181.558 Y148.835 E.0106
G1 X181.512 Y149.121 E.0099
G1 X181.589 Y149.404 E.01007
G1 X182.05 Y150.315 E.0349
G1 X182.168 Y150.751 E.01547
G1 X182.104 Y151.262 E.01762
G1 X181.913 Y151.595 E.01313
G1 X181.59 Y151.898 E.01513
G1 X140.853 Y173.503 E1.57729
G1 X139.573 Y174.071 E.04789
G1 X138.265 Y174.601 E.04827
G1 X136.265 Y175.315 E.07265
G1 X134.235 Y175.927 E.07255
M73 P0 R266
G1 X132.176 Y176.438 E.07255
G1 X130.095 Y176.845 E.07255
G1 X127.993 Y177.148 E.07265
G1 X126.589 Y177.29 E.04827
G1 X125.181 Y177.386 E.04827
G1 X123.058 Y177.443 E.07265
G1 X120.934 Y177.393 E.07265
G1 X119.526 Y177.301 E.04827
G1 X118.122 Y177.162 E.04828
G1 X116.229 Y176.895 E.0654
G1 X116.125 Y177.344 F18000
;TYPE:Outer wall
G1 F1800
G1 X115.945 Y177.317 E.00622
G1 X113.839 Y176.911 E.07336
G1 X111.757 Y176.402 E.07333
G1 X109.702 Y175.789 E.07333
G1 X107.68 Y175.073 E.07336
G1 X106.355 Y174.541 E.04885
G1 X105.053 Y173.967 E.04868
G1 X54.24 Y147.026 E1.96728
G1 X53.726 Y146.759 E.0198
G1 X52.996 Y146.53 E.02617
G1 X52.296 Y146.263 E.02564
G1 X51.613 Y145.953 E.02564
G1 X50.951 Y145.602 E.02564
G1 X50.312 Y145.211 E.02564
G1 X49.698 Y144.781 E.02564
G1 X49.111 Y144.315 E.02564
G1 X48.554 Y143.813 E.02564
G1 X48.029 Y143.278 E.02564
G1 X47.539 Y142.713 E.02557
G1 X46.869 Y141.808 E.03852
G1 X46.282 Y140.841 E.03868
G1 X45.947 Y140.179 E.02541
G1 X45.651 Y139.492 E.02557
G1 X45.285 Y138.427 E.03852
G1 X45.02 Y137.335 E.03845
G1 X44.856 Y136.223 E.03845
G1 X44.796 Y135.1 E.03845
G1 X44.839 Y133.975 E.03852
G1 X44.925 Y133.232 E.02557
G1 X45.056 Y132.494 E.02564
G1 X45.233 Y131.766 E.02564
G1 X45.454 Y131.051 E.02558
G1 X45.867 Y130.004 E.03851
G1 X46.375 Y129.001 E.03845
G1 X46.973 Y128.047 E.03852
G1 X47.418 Y127.447 E.02557
G1 X47.899 Y126.874 E.02557
G1 X48.688 Y126.07 E.03852
G1 X49.545 Y125.344 E.03845
G1 X50.468 Y124.698 E.03852
G1 X51.11 Y124.318 E.02551
G1 X52.12 Y123.821 E.03852
G1 X53.311 Y123.378 E.04346
G1 X54.002 Y123.181 E.02457
G1 X54.796 Y123.009 E.02779
G1 X55.378 Y122.911 E.0202
G1 X63.846 Y121.133 E.29596
G1 X63.97 Y120.987 E.00657
G1 X63.953 Y120.813 E.00598
G1 X63.48 Y119.905 E.03503
G1 X63.328 Y119.38 E.01868
G1 X63.328 Y119 E.01301
G1 X63.412 Y118.629 E.01301
G1 X63.576 Y118.286 E.01301
G1 X63.813 Y117.988 E.01301
G1 X64.114 Y117.748 E.01317
G1 X104.938 Y96.085 E1.58084
G1 X105.581 Y95.794 E.02413
G1 X107.562 Y94.972 E.07337
G1 X109.581 Y94.251 E.07331
G1 X111.633 Y93.632 E.07334
G1 X113.016 Y93.277 E.04884
G1 X114.407 Y92.969 E.04872
G1 X116.52 Y92.592 E.07342
G1 X118.647 Y92.321 E.07334
G1 X120.785 Y92.157 E.07334
G1 X122.212 Y92.107 E.04885
G1 X123.286 Y92.102 E.03674
G1 X124.354 Y92.122 E.03655
G1 X125.777 Y92.19 E.04873
G1 X127.915 Y92.383 E.07342
G1 X130.038 Y92.682 E.07334
G1 X132.143 Y93.087 E.0733
G1 X134.225 Y93.596 E.07331
G1 X136.278 Y94.208 E.07331
G1 X138.3 Y94.923 E.07334
G1 X139.625 Y95.454 E.04884
G1 X140.927 Y96.028 E.04866
G1 X191.762 Y122.98 E1.96813
G1 X192.286 Y123.254 E.0202
G1 X193.013 Y123.482 E.02609
G1 X194.058 Y123.901 E.0385
G1 X195.06 Y124.413 E.0385
G1 X195.696 Y124.803 E.02549
G1 X196.607 Y125.463 E.0385
G1 X197.453 Y126.203 E.03844
G1 X198.227 Y127.018 E.03843
G1 X198.926 Y127.906 E.03866
G1 X199.34 Y128.522 E.0254
G1 X199.718 Y129.167 E.02557
G1 X200.21 Y130.179 E.0385
G1 X200.606 Y131.231 E.03844
G1 X200.905 Y132.316 E.0385
G1 X201.047 Y133.05 E.02556
G1 X201.144 Y133.791 E.02556
G1 X201.198 Y135.088 E.04442
G1 X201.161 Y136.038 E.0325
G1 X201.014 Y137.152 E.03843
G1 X200.766 Y138.247 E.03843
G1 X200.417 Y139.318 E.0385
G1 X200.131 Y140.008 E.02556
G1 X199.804 Y140.68 E.02556
G1 X199.235 Y141.651 E.0385
G1 X198.579 Y142.566 E.0385
G1 X198.099 Y143.136 E.0255
G1 X197.31 Y143.941 E.03857
G1 X196.748 Y144.432 E.0255
G1 X195.845 Y145.106 E.03857
G1 X195.214 Y145.506 E.02556
G1 X194.557 Y145.868 E.02563
G1 X193.882 Y146.187 E.02556
G1 X192.83 Y146.589 E.0385
G1 X191.456 Y146.945 E.04854
G1 X190.624 Y147.097 E.02894
G1 X182.08 Y148.888 E.29859
G1 X181.978 Y149.018 E.00566
G1 X181.994 Y149.192 E.00597
G1 X182.437 Y150.034 E.03254
G1 X182.61 Y150.532 E.01805
G1 X182.637 Y150.903 E.01271
G1 X182.542 Y151.406 E.01754
G1 X182.379 Y151.745 E.01285
G1 X182.142 Y152.042 E.01298
G1 X181.842 Y152.281 E.01314
G1 X141.053 Y173.914 E1.5793
G1 X139.752 Y174.492 E.04869
G1 X138.428 Y175.028 E.04886
G1 X136.408 Y175.749 E.07336
G1 X134.356 Y176.368 E.07333
G1 X132.275 Y176.884 E.07333
G1 X130.171 Y177.295 E.07333
G1 X128.048 Y177.601 E.07336
G1 X126.627 Y177.746 E.04885
G1 X125.203 Y177.843 E.04885
G1 X123.058 Y177.9 E.07337
G1 X120.914 Y177.849 E.07337
G1 X119.489 Y177.756 E.04885
G1 X118.071 Y177.616 E.04874
G1 X117.359 Y177.528 E.02456
G1 X116.164 Y177.349 E.0413
G1 E-1.5
;WIPE_START
G1 F12000
G1 X115.945 Y177.317
G1 X114.199 Y176.981
;WIPE_END
G1 Z.4 F18000
G1 X192.999 Y138.196 Z.4
G1 Z.2
G1 E1.5 F1800
;TYPE:Inner wall
G1 X192.921 Y138.304 E.00459
G1 X192.499 Y138.731 E.02053
G1 X192.077 Y139.111 E.01942
G1 X191.565 Y139.438 E.02078
G1 X191.215 Y139.627 E.01363
G1 X190.401 Y139.94 E.0298
G1 X189.432 Y140.108 E.03365
G1 X189.202 Y140.13 E.00792
G1 X188.273 Y140.081 E.0318
G1 X187.234 Y139.818 E.03668
G1 X186.272 Y139.345 E.03667
G1 X185.612 Y138.853 E.02815
G1 X184.972 Y138.174 E.03192
G1 X184.468 Y137.396 E.03169
G1 X184.07 Y136.401 E.03667
G1 X183.879 Y135.295 E.03839
G1 X183.928 Y134.273 E.035
G1 X184.11 Y133.467 E.02826
G1 X184.528 Y132.502 E.03596
G1 X185.146 Y131.626 E.03667
G1 X185.932 Y130.898 E.03668
G1 X186.853 Y130.349 E.03668
G1 X187.868 Y130.003 E.03668
G1 X188.686 Y129.884 E.02826
G1 X189.736 Y129.928 E.03596
G1 X190.796 Y130.197 E.03738
G1 X191.526 Y130.537 E.02756
G1 X192.309 Y131.092 E.03284
G1 X192.49 Y131.241 E.00801
G1 X193.112 Y131.932 E.0318
G1 X193.518 Y132.605 E.02688
G1 X193.713 Y132.967 E.01407
G1 X193.946 Y133.625 E.02388
G1 X194.13 Y134.735 E.03849
G1 X194.063 Y135.86 E.03856
G1 X193.899 Y136.542 E.02397
G1 X193.447 Y137.574 E.03856
G1 X193.023 Y138.163 E.02483
G1 X192.629 Y137.929 F18000
;TYPE:Outer wall
G1 F1800
G1 X192.494 Y138.114 E.00784
G1 X191.855 Y138.697 E.02959
G1 X191.327 Y139.049 E.0217
G1 X191.051 Y139.201 E.01077
G1 X190.238 Y139.513 E.0298
G1 X189.361 Y139.657 E.0304
G1 X188.297 Y139.624 E.03639
G1 X187.352 Y139.376 E.03342
G1 X186.48 Y138.937 E.03341
G1 X185.89 Y138.49 E.0253
G1 X185.356 Y137.925 E.02662
