; HEADER_BLOCK_START
; generated by OrcaSlicer 2.0.0 on 2024-06-16 at 07:32:26
; total layer number: 90
; filament_density: 1.24
; filament_diameter: 1.75
; max_z_height: 18.00
; HEADER_BLOCK_END

; THUMBNAIL_BLOCK_START

;
; THUMBNAIL_BLOCK_END

; THUMBNAIL_BLOCK_START

;
; THUMBNAIL_BLOCK_END

; external perimeters extrusion width = 0.40mm
; perimeters extrusion width = 0.42mm
; infill extrusion width = 0.45mm
; solid infill extrusion width = 0.42mm
; top infill extrusion width = 0.40mm
; first layer extrusion width = 0.50mm

; EXECUTABLE_BLOCK_START
EXCLUDE_OBJECT_DEFINE NAME=Corps1.stl_id_0_copy_0 CENTER=115,115 POLYGON=[[107,115],[107.006,114.697],[107.023,114.395],[107.023,114.391],[107.052,114.094],[107.052,114.088],[107.092,113.793],[107.093,113.786],[107.143,113.495],[107.145,113.486],[107.205,113.199],[107.208,113.188],[107.279,112.905],[107.283,112.893],[107.364,112.614],[107.368,112.6],[107.46,112.327],[107.465,112.312],[107.566,112.044],[107.573,112.027],[107.683,111.765],[107.692,111.746],[107.811,111.49],[107.821,111.47],[107.949,111.22],[107.96,111.199],[108.097,110.956],[108.11,110.934],[108.255,110.698],[108.27,110.675],[108.423,110.446],[108.44,110.422],[108.6,110.2],[108.619,110.175],[108.786,109.962],[108.807,109.936],[108.981,109.73],[109.004,109.704],[109.185,109.506],[109.21,109.479],[109.397,109.29],[109.424,109.263],[109.617,109.082],[109.647,109.055],[109.845,108.882],[109.877,108.855],[110.08,108.692],[110.115,108.665],[110.322,108.51],[110.36,108.483],[110.571,108.338],[110.611,108.311],[110.826,108.175],[110.869,108.149],[111.088,108.022],[111.133,107.997],[111.355,107.879],[111.402,107.855],[111.627,107.746],[111.677,107.723],[111.904,107.624],[111.956,107.602],[112.185,107.512],[112.24,107.491],[112.47,107.41],[112.528,107.392],[112.759,107.32],[112.819,107.303],[113.052,107.241],[113.114,107.226],[113.347,107.173],[113.411,107.159],[113.644,107.116],[113.711,107.105],[113.943,107.07],[114.012,107.061],[114.244,107.036],[114.315,107.029],[114.546,107.013],[114.619,107.009],[114.849,107.001],[114.924,107],[115.151,107.001],[115.228,107.003],[115.454,107.013],[115.533,107.018],[115.756,107.036],[115.836,107.044],[116.057,107.07],[116.139,107.081],[116.356,107.116],[116.439,107.131],[116.653,107.173],[116.738,107.191],[116.948,107.241],[117.034,107.263],[117.241,107.32],[117.327,107.346],[117.53,107.41],[117.617,107.44],[117.815,107.512],[117.902,107.545],[118.096,107.624],[118.184,107.661],[118.373,107.746],[118.461,107.788],[118.645,107.879],[118.733,107.925],[118.912,108.022],[119,108.072],[119.174,108.175],[119.261,108.229],[119.429,108.338],[119.516,108.396],[119.678,108.51],[119.764,108.573],[119.92,108.692],[120.005,108.759],[120.155,108.882],[120.239,108.954],[120.383,109.082],[120.465,109.158],[120.603,109.29],[120.684,109.37],[120.815,109.506],[120.894,109.591],[121.019,109.73],[121.096,109.819],[121.214,109.962],[121.288,110.055],[121.4,110.2],[121.472,110.298],[121.577,110.446],[121.646,110.548],[121.745,110.698],[121.811,110.804],[121.903,110.956],[121.966,111.066],[122.051,111.22],[122.111,111.334],[122.189,111.49],[122.245,111.608],[122.317,111.765],[122.369,111.886],[122.434,112.044],[122.482,112.169],[122.54,112.327],[122.585,112.456],[122.636,112.614],[122.676,112.746],[122.721,112.905],[122.756,113.04],[122.795,113.199],[122.825,113.337],[122.857,113.495],[122.883,113.636],[122.908,113.793],[122.929,113.937],[122.948,114.094],[122.964,114.24],[122.977,114.395],[122.987,114.543],[122.994,114.697],[122.999,114.848],[123,115],[122.999,115.152],[122.994,115.303],[122.987,115.457],[122.977,115.605],[122.964,115.76],[122.948,115.906],[122.929,116.063],[122.908,116.207],[122.883,116.364],[122.857,116.505],[122.825,116.663],[122.795,116.801],[122.756,116.96],[122.721,117.095],[122.676,117.254],[122.636,117.386],[122.585,117.544],[122.54,117.673],[122.482,117.831],[122.434,117.956],[122.369,118.114],[122.317,118.235],[122.245,118.392],[122.189,118.51],[122.111,118.666],[122.051,118.78],[121.966,118.934],[121.903,119.044],[121.811,119.196],[121.745,119.302],[121.646,119.452],[121.577,119.554],[121.472,119.702],[121.4,119.8],[121.288,119.945],[121.214,120.038],[121.096,120.181],[121.019,120.27],[120.894,120.409],[120.815,120.494],[120.684,120.63],[120.603,120.71],[120.465,120.842],[120.383,120.918],[120.239,121.046],[120.155,121.118],[120.005,121.241],[119.92,121.308],[119.764,121.427],[119.678,121.49],[119.516,121.604],[119.429,121.662],[119.261,121.771],[119.174,121.825],[119,121.928],[118.912,121.978],[118.733,122.075],[118.645,122.121],[118.461,122.212],[118.373,122.254],[118.184,122.339],[118.096,122.376],[117.902,122.455],[117.815,122.488],[117.617,122.56],[117.53,122.59],[117.327,122.654],[117.241,122.68],[117.034,122.737],[116.948,122.759],[116.738,122.809],[116.653,122.827],[116.439,122.869],[116.356,122.884],[116.139,122.919],[116.057,122.93],[115.836,122.956],[115.756,122.964],[115.533,122.982],[115.454,122.987],[115.228,122.997],[115.151,122.999],[114.924,123],[114.849,122.999],[114.619,122.991],[114.546,122.987],[114.315,122.971],[114.244,122.964],[114.012,122.939],[113.943,122.93],[113.711,122.895],[113.644,122.884],[113.411,122.841],[113.347,122.827],[113.114,122.774],[113.052,122.759],[112.819,122.697],[112.759,122.68],[112.528,122.608],[112.47,122.59],[112.24,122.509],[112.185,122.488],[111.956,122.398],[111.904,122.376],[111.677,122.277],[111.627,122.254],[111.402,122.145],[111.355,122.121],[111.133,122.003],[111.088,121.978],[110.869,121.851],[110.826,121.825],[110.611,121.689],[110.571,121.662],[110.36,121.517],[110.322,121.49],[110.115,121.335],[110.08,121.308],[109.877,121.145],[109.845,121.118],[109.647,120.945],[109.617,120.918],[109.424,120.737],[109.397,120.71],[109.21,120.521],[109.185,120.494],[109.004,120.296],[108.981,120.27],[108.807,120.064],[108.786,120.038],[108.619,119.825],[108.6,119.8],[108.44,119.578],[108.423,119.554],[108.27,119.325],[108.255,119.302],[108.11,119.066],[108.097,119.044],[107.96,118.801],[107.949,118.78],[107.821,118.53],[107.811,118.51],[107.692,118.254],[107.683,118.235],[107.573,117.973],[107.566,117.956],[107.465,117.688],[107.46,117.673],[107.368,117.4],[107.364,117.386],[107.283,117.107],[107.279,117.095],[107.208,116.812],[107.205,116.801],[107.145,116.514],[107.143,116.505],[107.093,116.214],[107.092,116.207],[107.052,115.912],[107.052,115.906],[107.023,115.609],[107.023,115.605],[107.006,115.303],[107,115]]
M73 P0 R10
;TYPE:Custom
M220 S100
G90 ; use absolute coordinates
M83 ; extruder relative mode
M104 S150 ; set temporary nozzle temp to prevent oozing during homing
M140 S75 ; set final bed temp
G4 S30 ; allow partial nozzle warmup
G28 ; home all axis and restore leveling
BED_MESH_CALIBRATE PROFILE=adaptive ADAPTIVE=1 ADAPTIVE_MARGIN=0
G1 Z25 F240
G1 X10.0 Y30 F3000
M104 S257 ; set final nozzle temp
M190 S75 ; wait for bed temp to stabilize
M109 S257 ; wait for nozzle temp to stabilize
G1 Z0.28 F240
G92 E0 ; Move Z Axis up
M73 P1 R10
G1 Z2.0 F5000 ; Move to start position
M73 P2 R10
G1 X5 Y30 Z0.28 F300 ; Draw the first line
G1 X5 Y200 Z0.28 F1500 E15 ; Move to side a little
G1 X5.4 Y200 Z0.28 F5000.0 ; Draw the second line
M73 P3 R10
G1 X5.4 Y50 Z0.28 F1500.0 E30 ; Reset Extruder
G92 E0 ; Move Z Axis up
G1 Z2.0 F3000
M117 Start Printing..
G90
G21
M83 ; use relative distances for extrusion
; filament start gcode
M106 S0
;LAYER_CHANGE
;Z:0.2
;HEIGHT:0.2
;BEFORE_LAYER_CHANGE
;0.2
G92 E0

M73 P4 R10
G1 E-.5 F2400
;_SET_FAN_SPEED_CHANGING_LAYER
SET_VELOCITY_LIMIT ACCEL=500 ACCEL_TO_DECEL=250
SET_VELOCITY_LIMIT SQUARE_CORNER_VELOCITY=7
; printing object Corps1.stl id:0 copy 0
EXCLUDE_OBJECT_START NAME=Corps1.stl_id_0_copy_0
G1 Z.2 F18000
G1 X114.784 Y126.426
G1 Z.2
G1 E.5 F2400
;TYPE:Brim
;WIDTH:0.5
G1 F1800
G1 X115.329 Y125.936 E.02728
G1 X116.178 Y125.28 E.03998
G1 X116.791 Y124.878 E.02729
G1 X117.735 Y124.356 E.04015
G1 X118.401 Y124.052 E.02731
G1 X118.818 Y123.886 E.01668
G1 X119.844 Y123.552 E.0402
G1 X120.556 Y123.379 E.02731
G1 X120.996 Y123.295 E.01668
G1 X122.069 Y123.162 E.04024
G1 X122.554 Y123.134 E.01812
G1 X123.251 Y123.128 E.02597
G1 X123.873 Y123.157 E.0232
G1 X124.36 Y123.204 E.0182
G1 X125.05 Y123.303 E.02597
G1 X125.659 Y123.427 E.02316
G1 X126.371 Y123.613 E.02739
G1 X127.385 Y123.964 E.04
G1 X127.835 Y124.155 E.0182
G1 X128.464 Y124.457 E.02597
G1 X129.008 Y124.757 E.02316
G1 X129.631 Y125.149 E.02739
G1 X129.997 Y125.406 E.01668
G1 X130.841 Y126.082 E.04025
G1 X131.171 Y126.384 E.01668
G1 X131.688 Y126.904 E.02731
G1 X132.386 Y127.726 E.04015
G1 X132.817 Y128.319 E.02731
G1 X133.062 Y128.694 E.01668
G1 X133.594 Y129.634 E.04025
G1 X133.804 Y130.073 E.01811
G1 X134.075 Y130.715 E.02597
G1 X134.284 Y131.302 E.02319
G1 X134.426 Y131.769 E.0182
G1 X134.597 Y132.445 E.02597
G1 X134.715 Y133.056 E.02316
G1 X134.813 Y133.785 E.02739
G1 X134.85 Y134.231 E.01668
G1 X134.871 Y135.31 E.0402
G1 X134.829 Y136.042 E.02731
G1 X134.781 Y136.487 E.01668
G1 X134.598 Y137.551 E.0402
G1 X134.418 Y138.261 E.02728
G1 X134.077 Y139.279 E.03998
G1 X133.791 Y139.957 E.0274
G1 X133.596 Y140.362 E.01674
G1 X133.258 Y140.981 E.02627
G1 X132.914 Y141.536 E.02434
G1 X132.66 Y141.906 E.01669
G1 X131.993 Y142.755 E.04024
G1 X131.667 Y143.117 E.01812
G1 X131.176 Y143.612 E.02597
G1 X130.714 Y144.028 E.02316
G1 X130.143 Y144.486 E.02728
G1 X129.253 Y145.095 E.04015
G1 X128.618 Y145.462 E.02731
G1 X128.22 Y145.666 E.01668
G1 X127.231 Y146.096 E.04016
G1 X126.337 Y146.396 E.03511
G1 X125.665 Y146.572 E.02588
G1 X125.056 Y146.696 E.02316
G1 X124.328 Y146.801 E.02739
G1 X123.256 Y146.872 E.04
G1 X122.768 Y146.872 E.0182
G1 X122.071 Y146.839 E.02597
G1 X121.453 Y146.774 E.02316
G1 X120.727 Y146.655 E.02739
G1 X119.849 Y146.449 E.03358
G1 X119.175 Y146.241 E.02627
G1 X118.563 Y146.015 E.02434
G1 X117.586 Y145.569 E.03997
G1 X116.945 Y145.215 E.02728
G1 X116.043 Y144.623 E.0402
G1 X115.685 Y144.354 E.01668
G1 X115.121 Y143.885 E.02731
G1 X114.348 Y143.134 E.04015
G1 X113.862 Y142.584 E.02731
G1 X113.583 Y142.234 E.01668
G1 X112.965 Y141.349 E.0402
G1 X112.593 Y140.719 E.02728
G1 X112.332 Y140.214 E.02116
G1 X111.932 Y139.3 E.03717
G1 X111.698 Y138.645 E.02587
G1 X111.523 Y138.049 E.02316
G1 X111.356 Y137.333 E.02739
G1 X111.277 Y136.892 E.01668
G1 X111.153 Y135.818 E.04026
G1 X111.131 Y135.37 E.0167
G1 X111.131 Y134.639 E.02726
G1 X111.213 Y133.562 E.04023
G1 X111.275 Y133.118 E.01668
G1 X111.414 Y132.398 E.02731
G1 X111.698 Y131.357 E.04019
G1 X111.857 Y130.897 E.01812
G1 X112.116 Y130.25 E.02597
G1 X112.38 Y129.686 E.0232
G1 X112.608 Y129.254 E.0182
G1 X112.963 Y128.654 E.02597
G1 X113.309 Y128.136 E.0232
G1 X113.6 Y127.744 E.0182
G1 X114.041 Y127.206 E.02589
G1 X114.757 Y126.455 E.03866
G1 X115.088 Y126.77 F18000
G1 F1800
G1 X115.107 Y126.75 E.00104
G1 X115.626 Y126.284 E.02598
G1 X116.44 Y125.656 E.0383
G1 X117.023 Y125.272 E.02599
G1 X117.945 Y124.763 E.03924
G1 X118.578 Y124.473 E.02592
G1 X118.969 Y124.318 E.01567
G1 X119.974 Y123.991 E.03937
G1 X120.65 Y123.827 E.02591
G1 X121.063 Y123.748 E.01567
G1 X122.114 Y123.617 E.03946
G1 X122.573 Y123.591 E.01709
G1 X123.246 Y123.585 E.0251
G1 X123.838 Y123.613 E.02204
G1 X124.309 Y123.658 E.01763
G1 X124.968 Y123.753 E.02481
G1 X125.552 Y123.871 E.02219
G1 X126.243 Y124.053 E.02659
G1 X127.217 Y124.39 E.03842
G1 X127.644 Y124.57 E.01727
G1 X128.251 Y124.861 E.02506
G1 X128.772 Y125.149 E.02219
G1 X129.375 Y125.528 E.0265
G1 X129.719 Y125.769 E.01567
G1 X130.547 Y126.432 E.03949
G1 X130.857 Y126.716 E.01567
G1 X131.347 Y127.21 E.02592
G1 X132.03 Y128.013 E.03924
G1 X132.439 Y128.576 E.02591
G1 X132.669 Y128.928 E.01567
G1 X133.19 Y129.85 E.03946
G1 X133.388 Y130.264 E.01709
G1 X133.647 Y130.878 E.02482
G1 X133.987 Y131.895 E.03994
G1 X134.15 Y132.541 E.02481
G1 X134.263 Y133.126 E.02219
G1 X134.358 Y133.831 E.0265
G1 X134.393 Y134.25 E.01567
G1 X134.413 Y135.307 E.03937
G1 X134.374 Y136.001 E.02591
G1 X134.329 Y136.42 E.01567
G1 X134.149 Y137.461 E.03936
G1 X133.978 Y138.137 E.02598
G1 X133.651 Y139.112 E.0383
G1 X133.376 Y139.765 E.02639
G1 X133.187 Y140.156 E.01615
G1 X132.865 Y140.748 E.02511
G1 X132.289 Y141.638 E.0395
G1 X131.64 Y142.464 E.03913
G1 X131.333 Y142.805 E.01709
G1 X130.864 Y143.278 E.02481
G1 X130.415 Y143.682 E.02248
G1 X129.875 Y144.116 E.0258
G1 X129.014 Y144.705 E.03886
G1 X128.403 Y145.059 E.0263
G1 X128.028 Y145.251 E.01567
G1 X127.072 Y145.666 E.03883
G1 X126.202 Y145.959 E.0342
G1 X125.565 Y146.126 E.02451
G1 X124.981 Y146.244 E.02219
G1 X124.275 Y146.346 E.02659
G1 X123.246 Y146.415 E.03842
G1 X122.782 Y146.415 E.01726
G1 X122.11 Y146.383 E.02506
G1 X121.517 Y146.321 E.02219
G1 X120.812 Y146.206 E.02664
G1 X119.965 Y146.007 E.0324
G1 X119.326 Y145.81 E.0249
G1 X118.732 Y145.59 E.02357
G1 X117.797 Y145.163 E.03831
G1 X117.186 Y144.826 E.02598
M73 P5 R10
G1 X116.309 Y144.252 E.03904
G1 X115.966 Y143.993 E.016
G1 X115.431 Y143.548 E.02591
G1 X114.675 Y142.814 E.03924
G1 X114.215 Y142.293 E.02591
G1 X113.952 Y141.964 E.01567
G1 X113.347 Y141.097 E.03937
G1 X112.995 Y140.501 E.0258
G1 X112.747 Y140.021 E.02012
G1 X112.355 Y139.127 E.03637
G1 X112.135 Y138.508 E.02446
G1 X111.966 Y137.936 E.02219
G1 X111.805 Y137.244 E.0265
G1 X111.73 Y136.83 E.01567
G1 X111.609 Y135.776 E.03949
G1 X111.588 Y135.356 E.01569
G1 X111.588 Y134.661 E.02587
G1 X111.668 Y133.607 E.03939
G1 X111.727 Y133.19 E.01567
G1 X111.858 Y132.507 E.02591
G1 X112.136 Y131.488 E.03934
G1 X112.286 Y131.054 E.01709
G1 X112.534 Y130.436 E.02481
G1 X113.009 Y129.474 E.03994
G1 X113.348 Y128.901 E.02481
G1 X113.681 Y128.403 E.02233
G1 X113.963 Y128.022 E.01762
G1 X114.38 Y127.513 E.02452
G1 X115.06 Y126.799 E.03672
G1 X115.392 Y127.115 F18000
G1 F1800
G1 X115.43 Y127.075 E.00206
G1 X115.923 Y126.632 E.02468
G1 X116.701 Y126.031 E.03662
G1 X117.255 Y125.667 E.02469
G1 X118.158 Y125.168 E.03842
G1 X119.116 Y124.751 E.03892
G1 X120.106 Y124.429 E.03878
G1 X121.139 Y124.199 E.03941
G1 X122.16 Y124.072 E.03834
G1 X123.241 Y124.042 E.04028
G1 X124.257 Y124.113 E.03793
G1 X124.886 Y124.203 E.02366
G1 X125.445 Y124.316 E.02122
G1 X126.114 Y124.492 E.0258
G1 X127.061 Y124.82 E.03733
G1 X128.045 Y125.27 E.04027
G1 X128.544 Y125.545 E.02123
G1 X129.125 Y125.911 E.02557
G1 X129.449 Y126.138 E.01474
G1 X130.246 Y126.777 E.03805
G1 X131.005 Y127.514 E.03941
G1 X131.675 Y128.302 E.03852
G1 X132.28 Y129.169 E.03941
G1 X132.788 Y130.069 E.03849
G1 X133.221 Y131.044 E.03972
G1 X133.549 Y132.028 E.03864
G1 X133.702 Y132.636 E.02337
G1 X133.811 Y133.196 E.02122
G1 X133.936 Y134.269 E.04025
G1 X133.956 Y135.293 E.03814
G1 X133.877 Y136.352 E.03956
G1 X133.7 Y137.371 E.03852
G1 X133.537 Y138.013 E.02468
G1 X133.225 Y138.946 E.03662
G1 X132.96 Y139.574 E.02538
G1 X132.779 Y139.95 E.01555
G1 X132.474 Y140.509 E.02374
G1 X131.913 Y141.378 E.0385
G1 X131.287 Y142.173 E.0377
G1 X130.551 Y142.944 E.03971
G1 X130.116 Y143.336 E.0218
G1 X129.606 Y143.745 E.02433
G1 X128.766 Y144.321 E.03795
G1 X127.837 Y144.835 E.03955
G1 X126.913 Y145.237 E.0375
G1 X126.066 Y145.522 E.03328
G1 X125.465 Y145.679 E.02314
G1 X124.907 Y145.793 E.02122
G1 X124.222 Y145.891 E.0258
G1 X123.222 Y145.958 E.03733
G1 X122.141 Y145.926 E.04027
G1 X121.574 Y145.867 E.02123
G1 X120.906 Y145.758 E.02523
G1 X120.08 Y145.564 E.03158
G1 X119.476 Y145.378 E.02353
G1 X118.902 Y145.165 E.0228
G1 X118.007 Y144.756 E.03666
G1 X117.426 Y144.437 E.02468
G1 X116.576 Y143.88 E.03787
G1 X116.247 Y143.633 E.01532
G1 X115.741 Y143.211 E.02451
G1 X115.01 Y142.502 E.03795
G1 X114.321 Y141.694 E.03956
G1 X113.729 Y140.845 E.03853
G1 X113.397 Y140.283 E.02434
G1 X113.162 Y139.828 E.01908
G1 X112.779 Y138.953 E.03556
G1 X112.571 Y138.37 E.02306
G1 X112.41 Y137.824 E.02122
G1 X112.184 Y136.771 E.04009
G1 X112.065 Y135.743 E.03855
G1 X112.045 Y134.686 E.03938
G1 X112.124 Y133.647 E.0388
G1 X112.305 Y132.605 E.0394
G1 X112.576 Y131.615 E.03824
G1 X112.954 Y130.618 E.03973
G1 X113.414 Y129.688 E.03864
G1 X113.733 Y129.148 E.02336
G1 X114.053 Y128.669 E.02146
G1 X114.718 Y127.822 E.04009
G1 X115.364 Y127.144 E.03489
G1 X115.695 Y127.459 F18000
G1 F1800
