; HEADER_BLOCK_START
; generated by OrcaSlicer 2.1.1 on 2024-09-22 at 12:16:34
; total layer number: 98
; filament_density: 1.24
; filament_diameter: 1.75
; max_z_height: 16.00
; HEADER_BLOCK_END

; THUMBNAIL_BLOCK_START

;
; THUMBNAIL_BLOCK_END

; THUMBNAIL_BLOCK_START

;
; THUMBNAIL_BLOCK_END

; external perimeters extrusion width = 0.42mm
; perimeters extrusion width = 0.45mm
; infill extrusion width = 0.45mm
; solid infill extrusion width = 0.45mm
; top infill extrusion width = 0.42mm
; support material extrusion width = 0.42mm
; first layer extrusion width = 0.50mm

; EXECUTABLE_BLOCK_START
EXCLUDE_OBJECT_DEFINE NAME=butée_fourche_v3.stl_id_0_copy_0 CENTER=115,115 POLYGON=[[101,105],[101.007,104.837],[101.008,104.826],[101.03,104.653],[101.068,104.482],[101.11,104.348],[101.121,104.316],[101.164,104.211],[101.187,104.155],[101.268,104],[101.362,103.853],[101.468,103.714],[101.586,103.586],[101.714,103.468],[101.853,103.362],[102,103.268],[102.155,103.187],[102.211,103.164],[102.316,103.121],[102.348,103.11],[102.482,103.068],[102.653,103.03],[102.826,103.008],[102.837,103.007],[103,103],[127,103],[127.163,103.007],[127.174,103.008],[127.347,103.03],[127.518,103.068],[127.652,103.11],[127.684,103.121],[127.789,103.164],[127.845,103.187],[128,103.268],[128.147,103.362],[128.286,103.468],[128.414,103.586],[128.532,103.714],[128.638,103.853],[128.732,104],[128.813,104.155],[128.836,104.211],[128.879,104.316],[128.89,104.348],[128.932,104.482],[128.97,104.653],[128.992,104.826],[128.993,104.837],[129,105],[129,125],[128.998,125.098],[128.992,125.174],[128.99,125.196],[128.978,125.293],[128.97,125.347],[128.962,125.39],[128.94,125.486],[128.932,125.518],[128.914,125.581],[128.883,125.674],[128.879,125.684],[128.848,125.765],[128.813,125.845],[128.808,125.855],[128.764,125.943],[128.732,126],[128.715,126.028],[128.663,126.111],[128.638,126.147],[128.606,126.191],[128.546,126.269],[128.532,126.286],[128.482,126.343],[128.414,126.414],[128.343,126.482],[128.286,126.532],[128.269,126.546],[128.191,126.606],[128.147,126.638],[128.111,126.663],[128.028,126.715],[128,126.732],[127.943,126.764],[127.855,126.808],[127.845,126.813],[127.765,126.848],[127.684,126.879],[127.674,126.883],[127.581,126.914],[127.518,126.932],[127.486,126.94],[127.39,126.962],[127.347,126.97],[127.293,126.978],[127.196,126.99],[127.174,126.992],[127.098,126.998],[127,127],[101,127],[101,105]]
M73 P0 R16
;TYPE:Custom
M220 S100
G90 ; use absolute coordinates
M83 ; extruder relative mode
M104 S150 ; set temporary nozzle temp to prevent oozing during homing
M140 S75 ; set final bed temp
G4 S30 ; allow partial nozzle warmup
G28 ; home all axis and restore leveling
BED_MESH_CALIBRATE PROFILE=adaptive ADAPTIVE=1 ADAPTIVE_MARGIN=0
G1 Z25 F240
G1 X10.0 Y30 F3000
M104 S257 ; set final nozzle temp
M190 S75 ; wait for bed temp to stabilize
M109 S257 ; wait for nozzle temp to stabilize
G1 Z0.28 F240
G92 E0 ; Move Z Axis up
G1 Z2.0 F5000 ; Move to start position
M73 P1 R16
G1 X5 Y30 Z0.28 F300 ; Draw the first line
G1 X5 Y200 Z0.28 F1500 E15 ; Move to side a little
G1 X5.4 Y200 Z0.28 F5000.0 ; Draw the second line
M73 P2 R16
G1 X5.4 Y50 Z0.28 F1500.0 E30 ; Reset Extruder
G92 E0 ; Move Z Axis up
G1 Z2.0 F3000
M117 Start Printing..
G90
G21
M83 ; use relative distances for extrusion
; filament start gcode
M106 S0
;LAYER_CHANGE
;Z:0.2
;HEIGHT:0.2
;BEFORE_LAYER_CHANGE
;0.2
G92 E0

G1 E-.5 F1800
;_SET_FAN_SPEED_CHANGING_LAYER
SET_VELOCITY_LIMIT ACCEL=1000
SET_VELOCITY_LIMIT SQUARE_CORNER_VELOCITY=7
; printing object butée fourche v3.stl id:0 copy 0
EXCLUDE_OBJECT_START NAME=butée_fourche_v3.stl_id_0_copy_0
G1 Z.2 F24000
G1 X119.184 Y142.693
G1 Z.2
G1 E.5 F1800
;TYPE:Support
;WIDTH:0.5
G1 X113.35 Y142.693 E.21731
G1 X113.35 Y133.062 E.35872
G1 X119.184 Y133.062 E.21731
G1 X119.184 Y142.624 E.35617
G1 X118.773 Y133.473 F24000
G1 F1800
G1 X118.773 Y142.281 E.32808
G1 X113.761 Y142.281 E.18666
G1 X113.761 Y133.473 E.32808
G1 X118.773 Y133.473 E.18666
G1 X118.265 Y133.981 F24000
M73 P3 R16
G1 F1800
G1 X118.265 Y141.773 E.29024
G1 X114.269 Y141.773 E.14883
G1 X114.269 Y133.981 E.29024
G1 X118.265 Y133.981 E.14883
G1 X117.757 Y134.489 F24000
G1 F1800
G1 X117.757 Y141.266 E.25241
G1 X114.777 Y141.266 E.111
G1 X114.777 Y134.489 E.25241
G1 X117.757 Y134.489 E.111
G1 X117.249 Y134.997 F24000
G1 F1800
G1 X117.249 Y140.758 E.21458
G1 X115.285 Y140.758 E.07316
G1 X115.285 Y134.997 E.21458
G1 X117.249 Y134.997 E.07316
G1 X116.741 Y135.504 F24000
G1 F1800
G1 X116.741 Y140.25 E.17675
G1 X115.793 Y140.25 E.03533
G1 X115.793 Y135.504 E.17675
G1 X116.741 Y135.504 E.03533
G1 E-.5
;WIPE_START
G1 X115.793 Y135.504
G1 X115.793 Y136.556
;WIPE_END
G1 Z.4 F24000
G1 X132.65 Y142.693 Z.4
G1 Z.2
G1 E.5 F1800
G1 X126.816 Y142.693 E.2173
G1 X126.816 Y133.062 E.35872
G1 X132.65 Y133.062 E.2173
G1 X132.65 Y142.624 E.35617
G1 X127.227 Y133.473 F24000
G1 F1800
G1 X132.239 Y133.473 E.18666
G1 X132.239 Y142.281 E.32808
G1 X127.227 Y142.281 E.18666
G1 X127.227 Y133.473 E.32808
G1 X127.735 Y133.981 F24000
G1 F1800
G1 X131.731 Y133.981 E.14883
G1 X131.731 Y141.773 E.29024
G1 X127.735 Y141.773 E.14883
G1 X127.735 Y133.981 E.29024
G1 X128.243 Y134.489 F24000
G1 F1800
G1 X131.223 Y134.489 E.111
G1 X131.223 Y141.266 E.25241
G1 X128.243 Y141.266 E.111
G1 X128.243 Y134.489 E.25241
G1 X128.751 Y134.997 F24000
G1 F1800
G1 X130.715 Y134.997 E.07316
G1 X130.715 Y140.758 E.21458
G1 X128.751 Y140.758 E.07316
G1 X128.751 Y134.997 E.21458
G1 X129.259 Y135.504 F24000
G1 F1800
G1 X130.207 Y135.504 E.03533
G1 X130.207 Y140.25 E.17675
G1 X129.259 Y140.25 E.03533
G1 X129.259 Y135.504 E.17675
G1 E-.5
;WIPE_START
G1 F12000
G1 X129.259 Y137.504
;WIPE_END
G1 Z.4 F24000
G1 X112.262 Y126.839 Z.4
G1 Z.2
G1 E.5 F1800
;TYPE:Inner wall
;WIDTH:0.499999
G1 X112.243 Y126.928 E.00341
G1 X112.243 Y146.243 E.7194
G1 X109.757 Y146.243 E.09258
G1 X109.764 Y125.05 E.78937
G1 X109.842 Y124.559 E.01851
M73 P4 R16
G1 X109.976 Y124.308 E.01057
G1 X110.301 Y123.977 E.01728
G1 X110.632 Y123.83 E.01351
G1 X111.032 Y123.757 E.01513
G1 X134.669 Y123.757 E.8804
G1 X135.335 Y123.807 E.02486
G1 X135.711 Y123.984 E.0155
G1 X136.006 Y124.277 E.01549
G1 X136.198 Y124.698 E.01724
G1 X136.243 Y125.09 E.01468
G1 X136.243 Y144.969 E.74042
G1 X136.165 Y145.424 E.01721
G1 X136.012 Y145.695 E.01159
G1 X135.711 Y146.016 E.01638
G1 X135.366 Y146.17 E.0141
G1 X134.968 Y146.243 E.01506
G1 X133.757 Y146.243 E.04511
G1 X133.757 Y126.929 E.71939
G1 X133.701 Y126.656 E.01036
G1 X133.556 Y126.444 E.00957
G1 X133.344 Y126.299 E.00957
G1 X133.071 Y126.243 E.01036
G1 X112.929 Y126.243 E.75025
G1 X112.657 Y126.299 E.01033
G1 X112.445 Y126.443 E.00954
G1 X112.3 Y126.655 E.00959
G1 X112.27 Y126.8 E.00548
G1 X112.7 Y126.928 F24000
;TYPE:Outer wall
G1 F1800
G1 X112.7 Y146.7 E.73641
G1 X109.3 Y146.7 E.12663
G1 X109.307 Y125.082 E.8052
G1 X109.349 Y124.669 E.01543
G1 X109.475 Y124.266 E.01573
G1 X109.696 Y123.912 E.01554
G1 X110.157 Y123.533 E.02223
G1 X110.709 Y123.326 E.02198
G1 X111.012 Y123.3 E.01131
G1 X134.865 Y123.3 E.88844
G1 X135.444 Y123.36 E.02167
G1 X135.83 Y123.525 E.01563
G1 X136.201 Y123.799 E.01718
G1 X136.463 Y124.165 E.01678
G1 X136.64 Y124.58 E.01679
G1 X136.7 Y125.09 E.01912
G1 X136.7 Y144.914 E.7384
G1 X136.637 Y145.431 E.01938
G1 X136.473 Y145.845 E.01657
G1 X136.198 Y146.204 E.01687
G1 X135.863 Y146.456 E.01563
G1 X135.465 Y146.619 E.01601
G1 X134.988 Y146.7 E.018
G1 X133.3 Y146.7 E.06287
G1 X133.3 Y126.929 E.73641
G1 X133.233 Y126.767 E.00651
G1 X133.071 Y126.7 E.00652
G1 X112.929 Y126.7 E.75025
G1 X112.767 Y126.767 E.0065
G1 X112.715 Y126.892 E.00504
G1 E-.5
;WIPE_START
G1 F12000
G1 X112.714 Y128.892
;WIPE_END
G1 Z.4 F24000
G1 X136.106 Y125.484
G1 Z.4
G1 Z.2
G1 E.5 F1800
;TYPE:Bottom surface
;WIDTH:0.500137
G1 F3600
G1 X134.722 Y124.1 E.07293
G1 X134.075 Y124.1 E.02409
G1 X135.9 Y125.925 E.09616
G1 X135.9 Y126.572 E.02409
G1 X133.428 Y124.1 E.13023
G1 X132.782 Y124.1 E.02409
G1 X135.9 Y127.218 E.1643
G1 X135.9 Y127.865 E.02409
G1 X132.135 Y124.1 E.19837
G1 X131.489 Y124.1 E.02409
G1 X135.9 Y128.511 E.23244
G1 X135.9 Y129.158 E.02409
G1 X134.1 Y127.358 E.09485
G1 X134.1 Y128.004 E.02409
G1 X135.9 Y129.805 E.09485
G1 X135.9 Y130.451 E.02409
G1 X134.1 Y128.651 E.09485
G1 X134.1 Y129.298 E.02409
G1 X135.9 Y131.098 E.09485
G1 X135.9 Y131.744 E.02409
G1 X134.1 Y129.944 E.09485
G1 X134.1 Y130.591 E.02409
G1 X135.9 Y132.391 E.09485
G1 X135.9 Y133.038 E.02409
G1 X134.1 Y131.237 E.09485
G1 X134.1 Y131.884 E.02409
M73 P5 R16
G1 X135.9 Y133.684 E.09485
G1 X135.9 Y134.331 E.02409
G1 X134.1 Y132.531 E.09485
G1 X134.1 Y133.177 E.02409
G1 X135.9 Y134.977 E.09485
G1 X135.9 Y135.624 E.02409
G1 X134.1 Y133.824 E.09485
G1 X134.1 Y134.47 E.02409
G1 X135.9 Y136.271 E.09485
G1 X135.9 Y136.917 E.02409
G1 X134.1 Y135.117 E.09485
G1 X134.1 Y135.764 E.02409
G1 X135.9 Y137.564 E.09485
G1 X135.9 Y138.21 E.02409
G1 X134.1 Y136.41 E.09485
G1 X134.1 Y137.057 E.02409
G1 X135.9 Y138.857 E.09485
G1 X135.9 Y139.504 E.02409
G1 X134.1 Y137.703 E.09485
G1 X134.1 Y138.35 E.02409
G1 X135.9 Y140.15 E.09485
G1 X135.9 Y140.797 E.02409
G1 X134.1 Y138.997 E.09485
G1 X134.1 Y139.643 E.02409
G1 X135.9 Y141.443 E.09485
G1 X135.9 Y142.09 E.02409
G1 X134.1 Y140.29 E.09485
G1 X134.1 Y140.936 E.02409
G1 X135.9 Y142.737 E.09485
G1 X135.9 Y143.383 E.02409
G1 X134.1 Y141.583 E.09485
G1 X134.1 Y142.23 E.02409
G1 X135.9 Y144.03 E.09485
G1 X135.9 Y144.676 E.02409
G1 X134.1 Y142.876 E.09485
G1 X134.1 Y143.523 E.02409
G1 X135.851 Y145.274 E.09225
G1 X135.786 Y145.428 E.00622
G1 X135.596 Y145.665 E.01133
G1 X134.1 Y144.169 E.07882
G1 X134.1 Y144.816 E.02409
G1 X135.16 Y145.876 E.05585
G1 X134.953 Y145.9 E.00775
G1 X134.537 Y145.9 E.01549
G1 X133.894 Y145.257 E.03388
G1 E-.5 F1800
;WIPE_START
G1 F12000
G1 X134.537 Y145.9
G1 X134.953 Y145.9
G1 X135.16 Y145.876
G1 X134.83 Y145.546
;WIPE_END
G1 Z.4 F24000
G1 X132.848 Y126.106 Z.4
G1 Z.2
G1 E.5 F1800
G1 F3600
G1 X130.842 Y124.1 E.10569
G1 X130.195 Y124.1 E.02409
G1 X131.996 Y125.9 E.09485
G1 X131.349 Y125.9 E.02409
G1 X129.549 Y124.1 E.09485
G1 X128.902 Y124.1 E.02409
G1 X130.702 Y125.9 E.09485
G1 X130.056 Y125.9 E.02409
G1 X128.256 Y124.1 E.09485
G1 X127.609 Y124.1 E.02409
G1 X129.409 Y125.9 E.09485
G1 X128.763 Y125.9 E.02409
G1 X126.962 Y124.1 E.09485
G1 X126.316 Y124.1 E.02409
G1 X128.116 Y125.9 E.09485
G1 X127.469 Y125.9 E.02409
G1 X125.669 Y124.1 E.09485
G1 X125.023 Y124.1 E.02409
G1 X126.823 Y125.9 E.09485
G1 X126.176 Y125.9 E.02409
G1 X124.376 Y124.1 E.09485
G1 X123.729 Y124.1 E.02409
G1 X125.53 Y125.9 E.09485
G1 X124.883 Y125.9 E.02409
G1 X123.083 Y124.1 E.09485
G1 X122.436 Y124.1 E.02409
G1 X124.236 Y125.9 E.09485
G1 X123.59 Y125.9 E.02409
G1 X121.79 Y124.1 E.09485
G1 X121.143 Y124.1 E.02409
G1 X122.943 Y125.9 E.09485
G1 X122.297 Y125.9 E.02409
G1 X120.496 Y124.1 E.09485
G1 X119.85 Y124.1 E.02409
G1 X121.65 Y125.9 E.09485
G1 X121.003 Y125.9 E.02409
G1 X119.203 Y124.1 E.09485
G1 X118.557 Y124.1 E.02409
G1 X120.357 Y125.9 E.09485
G1 X119.71 Y125.9 E.02409
G1 X117.91 Y124.1 E.09485
G1 X117.263 Y124.1 E.02409
G1 X119.064 Y125.9 E.09485
G1 X118.417 Y125.9 E.02409
M73 P5 R15
G1 X116.617 Y124.1 E.09485
G1 X115.97 Y124.1 E.02409
G1 X117.77 Y125.9 E.09485
G1 X117.124 Y125.9 E.02409
G1 X115.324 Y124.1 E.09485
G1 X114.677 Y124.1 E.02409
G1 X116.477 Y125.9 E.09485
G1 X115.831 Y125.9 E.02409
G1 X114.03 Y124.1 E.09485
G1 X113.384 Y124.1 E.02409
G1 X115.184 Y125.9 E.09485
G1 X114.537 Y125.9 E.02409
G1 X112.737 Y124.1 E.09485
G1 X112.09 Y124.1 E.02409
G1 X113.891 Y125.9 E.09485
G1 X113.244 Y125.9 E.02409
G1 X111.444 Y124.1 E.09485
G1 X110.826 Y124.128 E.02305
G1 X112.644 Y125.947 E.09581
G1 X112.517 Y125.985 E.00494
G1 X112.23 Y126.179 E.01292
G1 X110.401 Y124.35 E.09635
G1 X110.301 Y124.442 E.00508
G1 X110.224 Y124.552 E.00499
G1 X110.152 Y124.747 E.00775
G1 X111.973 Y126.568 E.09595
G1 X111.9 Y126.916 E.01325
G1 X111.9 Y127.143 E.00842
G1 X110.107 Y125.35 E.09447
G1 X110.107 Y125.996 E.02408
G1 X111.9 Y127.789 E.09448
G1 X111.9 Y128.436 E.02409
G1 X110.107 Y126.642 E.09449
G1 X110.107 Y127.289 E.02408
G1 X111.9 Y129.082 E.0945
G1 X111.9 Y129.729 E.02409
G1 X110.106 Y127.935 E.09452
G1 X110.106 Y128.582 E.02408
G1 X111.9 Y130.376 E.09453
G1 X111.9 Y131.022 E.02409
G1 X110.106 Y129.228 E.09454
G1 X110.106 Y129.874 E.02408
G1 X111.9 Y131.669 E.09455
G1 X111.9 Y132.315 E.02409
G1 X110.105 Y130.521 E.09456
G1 X110.105 Y131.167 E.02408
G1 X111.9 Y132.962 E.09457
G1 X111.9 Y133.609 E.02409
G1 X110.105 Y131.813 E.09458
G1 X110.105 Y132.46 E.02408
G1 X111.9 Y134.255 E.0946
G1 X111.9 Y134.902 E.02409
G1 X110.105 Y133.106 E.09461
G1 X110.104 Y133.753 E.02408
G1 X111.9 Y135.548 E.09462
G1 X111.9 Y136.195 E.02409
G1 X110.104 Y134.399 E.09463
G1 X110.104 Y135.045 E.02408
G1 X111.9 Y136.842 E.09464
G1 X111.9 Y137.488 E.02409
G1 X110.104 Y135.692 E.09465
G1 X110.103 Y136.338 E.02408
G1 X111.9 Y138.135 E.09466
G1 X111.9 Y138.781 E.02409
G1 X110.103 Y136.985 E.09468
G1 X110.103 Y137.631 E.02408
G1 X111.9 Y139.428 E.09469
G1 X111.9 Y140.075 E.02409
G1 X110.103 Y138.277 E.0947
G1 X110.103 Y138.924 E.02408
G1 X111.9 Y140.721 E.09471
G1 X111.9 Y141.368 E.02409
G1 X110.102 Y139.57 E.09472
G1 X110.102 Y140.216 E.02408
G1 X111.9 Y142.014 E.09473
M73 P6 R15
G1 X111.9 Y142.661 E.02409
G1 X110.102 Y140.863 E.09475
G1 X110.102 Y141.509 E.02408
G1 X111.9 Y143.308 E.09476
G1 X111.9 Y143.954 E.02409
G1 X110.102 Y142.156 E.09477
G1 X110.101 Y142.802 E.02408
G1 X111.9 Y144.601 E.09478
G1 X111.9 Y145.247 E.02409
G1 X110.101 Y143.448 E.09479
G1 X110.101 Y144.095 E.02408
G1 X111.9 Y145.894 E.0948
G1 X111.26 Y145.9 E.02386
G1 X110.101 Y144.741 E.06107
G1 X110.1 Y145.388 E.02408
G1 X110.819 Y146.106 E.03785
; stop printing object butée fourche v3.stl id:0 copy 0
M106 S48
;LAYER_CHANGE
;Z:0.4
;HEIGHT:0.2
;BEFORE_LAYER_CHANGE
;0.4
G92 E0

G1 E-.5 F1800
;WIPE_START
G1 F12000
G1 X110.1 Y145.388
G1 X110.101 Y144.741
G1 X110.34 Y144.98
;WIPE_END
EXCLUDE_OBJECT_END NAME=butée_fourche_v3.stl_id_0_copy_0
;_SET_FAN_SPEED_CHANGING_LAYER
SET_VELOCITY_LIMIT ACCEL=5000
M140 S70 ; set bed temperature
; printing object butée fourche v3.stl id:0 copy 0
EXCLUDE_OBJECT_START NAME=butée_fourche_v3.stl_id_0_copy_0
G1 Z.4 F24000
G1 X112.414 Y126.902 Z.4
G1 E.5 F1800
;TYPE:Inner wall
;WIDTH:0.449999
G1 F3600
G1 X112.398 Y126.979 E.0026
G1 X112.398 Y146.398 E.64418
G1 X109.602 Y146.398 E.09274
G1 X109.602 Y125.026 E.70894
G1 X109.678 Y124.601 E.01434
G1 X109.857 Y124.2 E.01457
G1 X110.092 Y123.947 E.01143
G1 X110.535 Y123.685 E.01707
G1 X111.026 Y123.602 E.01654
G1 X134.868 Y123.602 E.79086
G1 X135.373 Y123.656 E.01684
G1 X135.801 Y123.857 E.01568
G1 X136.143 Y124.2 E.01608
G1 X136.348 Y124.639 E.01608
G1 X136.39 Y124.999 E.01203
G1 X136.398 Y144.871 E.6592
G1 X136.344 Y145.373 E.01673
G1 X136.143 Y145.8 E.01567
G1 X135.91 Y146.051 E.01136
G1 X135.452 Y146.319 E.01759
G1 X134.974 Y146.398 E.01608
G1 X133.602 Y146.398 E.0455
G1 X133.602 Y126.979 E.64418
G1 X133.554 Y126.747 E.00783
G1 X133.431 Y126.567 E.00724
G1 X133.251 Y126.445 E.0072
G1 X133.021 Y126.398 E.00779
G1 X112.979 Y126.398 E.66486
G1 X112.748 Y126.446 E.00781
G1 X112.568 Y126.568 E.00722
G1 X112.446 Y126.748 E.00722
G1 X112.422 Y126.863 E.00389
G1 X112.79 Y126.979 F24000
SET_VELOCITY_LIMIT ACCEL=2000
;TYPE:Outer wall
;WIDTH:0.419999
G1 F3600
G1 X112.79 Y146.79 E.60875
G1 X109.21 Y146.79 E.11
G1 X109.217 Y124.927 E.67178
G1 X109.298 Y124.501 E.01333
G1 X109.466 Y124.092 E.01358
G1 X109.735 Y123.735 E.01374
G1 X110.122 Y123.458 E.01463
G1 X110.557 Y123.273 E.01452
G1 X111.009 Y123.21 E.01402
G1 X134.868 Y123.21 E.7331
G1 X135.466 Y123.273 E.0185
G1 X135.875 Y123.447 E.01365
G1 X136.265 Y123.735 E.0149
G1 X136.542 Y124.107 E.01425
G1 X136.728 Y124.537 E.0144
G1 X136.782 Y124.999 E.01429
G1 X136.79 Y144.871 E.61062
G1 X136.727 Y145.467 E.0184
G1 X136.553 Y145.875 E.01363
G1 X136.265 Y146.265 E.01491
G1 X135.876 Y146.542 E.01466
G1 X135.437 Y146.729 E.01469
G1 X134.991 Y146.79 E.01382
G1 X133.21 Y146.79 E.05472
G1 X133.21 Y126.979 E.60875
G1 X133.154 Y126.845 E.00445
G1 X133.021 Y126.79 E.00442
G1 X112.979 Y126.79 E.61586
G1 X112.845 Y126.845 E.00443
