; HEADER_BLOCK_START
; generated by OrcaSlicer 2.0.0 on 2024-06-21 at 18:06:08
; total layer number: 80
; filament_density: 1.24
; filament_diameter: 1.75
; max_z_height: 16.00
; HEADER_BLOCK_END

; THUMBNAIL_BLOCK_START

;
; THUMBNAIL_BLOCK_END

; THUMBNAIL_BLOCK_START

;
; THUMBNAIL_BLOCK_END

; external perimeters extrusion width = 0.40mm
; perimeters extrusion width = 0.42mm
; infill extrusion width = 0.45mm
; solid infill extrusion width = 0.42mm
; top infill extrusion width = 0.40mm
; first layer extrusion width = 0.50mm

; EXECUTABLE_BLOCK_START
EXCLUDE_OBJECT_DEFINE NAME=BXN-_Rectraction_test.stl_id_0_copy_0 CENTER=115,115 POLYGON=[[100,111],[130,111],[130,119],[100,119],[100,111]]
M73 P0 R5
;TYPE:Custom
M220 S100
G90 ; use absolute coordinates
M83 ; extruder relative mode
M104 S150 ; set temporary nozzle temp to prevent oozing during homing
M140 S75 ; set final bed temp
G4 S30 ; allow partial nozzle warmup
G28 ; home all axis and restore leveling
BED_MESH_CALIBRATE PROFILE=adaptive ADAPTIVE=1 ADAPTIVE_MARGIN=0
G1 Z25 F240
G1 X10.0 Y30 F3000
M104 S240 ; set final nozzle temp
M190 S75 ; wait for bed temp to stabilize
M109 S240 ; wait for nozzle temp to stabilize
M73 P1 R5
G1 Z0.28 F240
G92 E0 ; Move Z Axis up
G1 Z2.0 F5000 ; Move to start position
M73 P3 R5
G1 X5 Y30 Z0.28 F300 ; Draw the first line
G1 X5 Y200 Z0.28 F1500 E15 ; Move to side a little
G1 X5.4 Y200 Z0.28 F5000.0 ; Draw the second line
M73 P5 R5
G1 X5.4 Y50 Z0.28 F1500.0 E30 ; Reset Extruder
G92 E0 ; Move Z Axis up
G1 Z2.0 F3000
M117 Start Printing..
G90
G21
M83 ; use relative distances for extrusion
; filament start gcode
M106 S0
;LAYER_CHANGE
;Z:0.2
;HEIGHT:0.2
;BEFORE_LAYER_CHANGE
;0.2
G92 E0

M73 P7 R5
G1 E-1.2 F2400
;_SET_FAN_SPEED_CHANGING_LAYER
SET_VELOCITY_LIMIT ACCEL=500 ACCEL_TO_DECEL=250
SET_VELOCITY_LIMIT SQUARE_CORNER_VELOCITY=7
; printing object BXN- Rectraction test.stl id:0 copy 0
EXCLUDE_OBJECT_START NAME=BXN-_Rectraction_test.stl_id_0_copy_0
G1 Z.2 F18000
G1 X137.293 Y138.293
G1 Z.2
G1 E1.2 F2400
;TYPE:Inner wall
;WIDTH:0.499999
G1 F1800
G1 X108.707 Y138.293 E.9778
G1 X108.707 Y131.707 E.22527
M73 P8 R5
G1 X137.293 Y131.707 E.9778
G1 X137.293 Y138.253 E.2239
G1 X137.75 Y138.75 F18000
;TYPE:Outer wall
G1 F1800
G1 X108.25 Y138.75 E1.00907
G1 X108.25 Y131.25 E.25654
G1 X137.75 Y131.25 E1.00907
M73 P9 R5
G1 X137.75 Y138.71 E.25517
G1 E-.84 F2400
;WIPE_START
G1 F1800
G1 X136.75 Y138.711 E-.36
;WIPE_END
G1 Z.4 F18000
G1 X137.156 Y132.781
G1 Z.4
G1 Z.2
G1 E1.2 F2400
;TYPE:Bottom surface
;WIDTH:0.506069
G1 F3600
G1 X136.425 Y132.05 E.03584
G1 X135.77 Y132.05 E.0227
G1 X136.95 Y133.23 E.05786
G1 X136.95 Y133.885 E.0227
G1 X135.115 Y132.05 E.08997
G1 X134.46 Y132.05 E.0227
G1 X136.95 Y134.54 E.12207
G1 X136.95 Y135.195 E.0227
G1 X133.805 Y132.05 E.15418
G1 X133.15 Y132.05 E.0227
G1 X136.95 Y135.85 E.18628
G1 X136.95 Y136.505 E.0227
G1 X132.495 Y132.05 E.21839
G1 X131.84 Y132.05 E.0227
G1 X136.95 Y137.16 E.25049
G1 X136.95 Y137.815 E.0227
G1 X131.185 Y132.05 E.2826
G1 X130.53 Y132.05 E.0227
M73 P10 R5
G1 X136.43 Y137.95 E.28921
G1 X135.775 Y137.95 E.0227
G1 X129.875 Y132.05 E.28921
G1 X129.22 Y132.05 E.0227
G1 X135.12 Y137.95 E.28921
G1 X134.465 Y137.95 E.0227
G1 X128.565 Y132.05 E.28921
G1 X127.91 Y132.05 E.0227
G1 X133.81 Y137.95 E.28921
G1 X133.155 Y137.95 E.0227
G1 X127.255 Y132.05 E.28921
G1 X126.6 Y132.05 E.0227
G1 X132.5 Y137.95 E.28921
G1 X131.845 Y137.95 E.0227
G1 X125.945 Y132.05 E.28921
G1 X125.29 Y132.05 E.0227
G1 X131.19 Y137.95 E.28921
G1 X130.535 Y137.95 E.0227
G1 X124.635 Y132.05 E.28921
G1 X123.98 Y132.05 E.0227
G1 X129.88 Y137.95 E.28921
G1 X129.225 Y137.95 E.0227
G1 X123.325 Y132.05 E.28921
G1 X122.67 Y132.05 E.0227
G1 X128.57 Y137.95 E.28921
G1 X127.915 Y137.95 E.0227
G1 X122.015 Y132.05 E.28921
M73 P11 R5
G1 X121.36 Y132.05 E.0227
G1 X127.26 Y137.95 E.28921
G1 X126.605 Y137.95 E.0227
G1 X120.705 Y132.05 E.28921
G1 X120.05 Y132.05 E.0227
G1 X125.95 Y137.95 E.28921
G1 X125.295 Y137.95 E.0227
G1 X119.395 Y132.05 E.28921
G1 X118.74 Y132.05 E.0227
G1 X124.64 Y137.95 E.28921
G1 X123.985 Y137.95 E.0227
G1 X118.085 Y132.05 E.28921
G1 X117.43 Y132.05 E.0227
G1 X123.33 Y137.95 E.28921
G1 X122.675 Y137.95 E.0227
G1 X116.775 Y132.05 E.28921
G1 X116.12 Y132.05 E.0227
G1 X122.02 Y137.95 E.28921
G1 X121.365 Y137.95 E.0227
G1 X115.465 Y132.05 E.28921
G1 X114.81 Y132.05 E.0227
G1 X120.71 Y137.95 E.28921
G1 X120.055 Y137.95 E.0227
G1 X114.155 Y132.05 E.28921
G1 X113.5 Y132.05 E.0227
G1 X119.4 Y137.95 E.28921
M73 P12 R5
G1 X118.745 Y137.95 E.0227
G1 X112.845 Y132.05 E.28921
G1 X112.19 Y132.05 E.0227
G1 X118.09 Y137.95 E.28921
G1 X117.435 Y137.95 E.0227
G1 X111.535 Y132.05 E.28921
G1 X110.88 Y132.05 E.0227
G1 X116.78 Y137.95 E.28921
G1 X116.125 Y137.95 E.0227
G1 X110.225 Y132.05 E.28921
G1 X109.57 Y132.05 E.0227
G1 X115.47 Y137.95 E.28921
G1 X114.815 Y137.95 E.0227
G1 X109.05 Y132.185 E.2826
G1 X109.05 Y132.84 E.0227
G1 X114.16 Y137.95 E.25049
G1 X113.505 Y137.95 E.0227
G1 X109.05 Y133.495 E.21839
G1 X109.05 Y134.15 E.0227
G1 X112.85 Y137.95 E.18628
G1 X112.195 Y137.95 E.0227
G1 X109.05 Y134.805 E.15417
G1 X109.05 Y135.46 E.0227
G1 X111.54 Y137.95 E.12207
G1 X110.885 Y137.95 E.0227
G1 X109.05 Y136.115 E.08996
G1 X109.05 Y136.77 E.0227
G1 X110.23 Y137.95 E.05786
G1 X109.575 Y137.95 E.0227
G1 X108.844 Y137.219 E.03584
; stop printing object BXN- Rectraction test.stl id:0 copy 0
M106 S48
;LAYER_CHANGE
;Z:0.4
;HEIGHT:0.2
;BEFORE_LAYER_CHANGE
;0.4
G92 E0

M73 P13 R5
G1 E-.84 F2400
;WIPE_START
G1 F3600
G1 X109.551 Y137.926 E-.36
;WIPE_END
EXCLUDE_OBJECT_END NAME=BXN-_Rectraction_test.stl_id_0_copy_0
;_SET_FAN_SPEED_CHANGING_LAYER
SET_VELOCITY_LIMIT ACCEL=5000 ACCEL_TO_DECEL=2500
; printing object BXN- Rectraction test.stl id:0 copy 0
SET_VELOCITY_LIMIT SQUARE_CORNER_VELOCITY=8
EXCLUDE_OBJECT_START NAME=BXN-_Rectraction_test.stl_id_0_copy_0
G1 Z.4 F18000
G1 X137.433 Y138.433 Z.4
G1 E1.2 F2400
SET_VELOCITY_LIMIT SQUARE_CORNER_VELOCITY=7
;TYPE:Inner wall
;WIDTH:0.419999
G1 F3600
G1 X108.567 Y138.433 E.81456
G1 X108.567 Y131.567 E.19375
G1 X137.433 Y131.567 E.81456
G1 X137.433 Y138.393 E.19262
SET_VELOCITY_LIMIT SQUARE_CORNER_VELOCITY=8
G1 X137.8 Y138.8 F18000
SET_VELOCITY_LIMIT ACCEL=2000 ACCEL_TO_DECEL=1000
;TYPE:Outer wall
;WIDTH:0.399999
G1 F3600
G1 X108.2 Y138.8 E.79097
G1 X108.2 Y131.2 E.20309
G1 X137.8 Y131.2 E.79097
G1 X137.8 Y138.76 E.20202
G1 E-.84 F2400
;WIPE_START
G1 F3600
G1 X136.8 Y138.761 E-.36
;WIPE_END
SET_VELOCITY_LIMIT ACCEL=5000 ACCEL_TO_DECEL=2500
G1 Z.6 F18000
G1 X136.546 Y138.32
G1 Z.6
G1 Z.4
G1 E1.2 F2400
;TYPE:Internal solid infill
;WIDTH:0.425288
G1 F5689
G1 X137.15 Y137.716 E.02443
G1 X137.15 Y137.175 E.01547
G1 X136.175 Y138.15 E.03945
G1 X135.634 Y138.15 E.01547
G1 X137.15 Y136.634 E.06133
G1 X137.15 Y136.094 E.01547
G1 X135.094 Y138.15 E.08322
G1 X134.553 Y138.15 E.01547
G1 X137.15 Y135.553 E.1051
G1 X137.15 Y135.012 E.01547
G1 X134.012 Y138.15 E.12698
G1 X133.471 Y138.15 E.01547
G1 X137.15 Y134.471 E.14886
G1 X137.15 Y133.931 E.01547
M73 P14 R5
G1 X132.931 Y138.15 E.17075
G1 X132.39 Y138.15 E.01547
G1 X137.15 Y133.39 E.19263
G1 X137.15 Y132.849 E.01547
G1 X131.849 Y138.15 E.21451
G1 X131.308 Y138.15 E.01547
G1 X137.15 Y132.308 E.23639
G1 X137.15 Y131.85 E.01312
G1 X137.068 Y131.85 E.00235
G1 X130.768 Y138.15 E.25495
G1 X130.227 Y138.15 E.01547
G1 X136.527 Y131.85 E.25495
G1 X135.986 Y131.85 E.01547
G1 X129.686 Y138.15 E.25495
G1 X129.145 Y138.15 E.01547
G1 X135.446 Y131.85 E.25495
G1 X134.905 Y131.85 E.01547
G1 X128.605 Y138.15 E.25495
G1 X128.064 Y138.15 E.01547
G1 X134.364 Y131.85 E.25495
G1 X133.823 Y131.85 E.01547
G1 X127.523 Y138.15 E.25495
G1 X126.982 Y138.15 E.01547
G1 X133.283 Y131.85 E.25495
G1 X132.742 Y131.85 E.01547
G1 X126.442 Y138.15 E.25495
G1 X125.901 Y138.15 E.01547
G1 X132.201 Y131.85 E.25495
G1 X131.66 Y131.85 E.01547
G1 X125.36 Y138.15 E.25495
G1 X124.819 Y138.15 E.01547
G1 X131.12 Y131.85 E.25495
G1 X130.579 Y131.85 E.01547
G1 X124.279 Y138.15 E.25495
G1 X123.738 Y138.15 E.01547
G1 X130.038 Y131.85 E.25495
G1 X129.497 Y131.85 E.01547
G1 X123.197 Y138.15 E.25495
G1 X122.656 Y138.15 E.01547
G1 X128.957 Y131.85 E.25495
G1 X128.416 Y131.85 E.01547
G1 X122.116 Y138.15 E.25495
G1 X121.575 Y138.15 E.01547
G1 X127.875 Y131.85 E.25495
G1 X127.334 Y131.85 E.01547
G1 X121.034 Y138.15 E.25495
G1 X120.493 Y138.15 E.01547
G1 X126.794 Y131.85 E.25495
G1 X126.253 Y131.85 E.01547
G1 X119.953 Y138.15 E.25495
G1 X119.412 Y138.15 E.01547
G1 X125.712 Y131.85 E.25495
G1 X125.171 Y131.85 E.01547
G1 X118.871 Y138.15 E.25495
G1 X118.33 Y138.15 E.01547
G1 X124.631 Y131.85 E.25495
G1 X124.09 Y131.85 E.01547
G1 X117.79 Y138.15 E.25495
G1 X117.249 Y138.15 E.01547
M73 P15 R5
G1 X123.549 Y131.85 E.25495
G1 X123.008 Y131.85 E.01547
G1 X116.708 Y138.15 E.25495
G1 X116.167 Y138.15 E.01547
G1 X122.468 Y131.85 E.25495
G1 X121.927 Y131.85 E.01547
G1 X115.627 Y138.15 E.25495
G1 X115.086 Y138.15 E.01547
G1 X121.386 Y131.85 E.25495
G1 X120.845 Y131.85 E.01547
G1 X114.545 Y138.15 E.25495
G1 X114.004 Y138.15 E.01547
G1 X120.305 Y131.85 E.25495
G1 X119.764 Y131.85 E.01547
G1 X113.464 Y138.15 E.25495
G1 X112.923 Y138.15 E.01547
G1 X119.223 Y131.85 E.25495
G1 X118.682 Y131.85 E.01547
G1 X112.382 Y138.15 E.25495
G1 X111.841 Y138.15 E.01547
G1 X118.142 Y131.85 E.25495
G1 X117.601 Y131.85 E.01547
G1 X111.301 Y138.15 E.25495
G1 X110.76 Y138.15 E.01547
G1 X117.06 Y131.85 E.25495
G1 X116.519 Y131.85 E.01547
G1 X110.219 Y138.15 E.25495
G1 X109.678 Y138.15 E.01547
G1 X115.979 Y131.85 E.25495
G1 X115.438 Y131.85 E.01547
G1 X109.138 Y138.15 E.25495
G1 X108.85 Y138.15 E.00824
G1 X108.85 Y137.897 E.00724
G1 X114.897 Y131.85 E.24472
G1 X114.356 Y131.85 E.01547
G1 X108.85 Y137.356 E.22284
G1 X108.85 Y136.816 E.01547
G1 X113.816 Y131.85 E.20095
G1 X113.275 Y131.85 E.01547
G1 X108.85 Y136.275 E.17907
G1 X108.85 Y135.734 E.01547
G1 X112.734 Y131.85 E.15719
G1 X112.193 Y131.85 E.01547
G1 X108.85 Y135.193 E.13531
G1 X108.85 Y134.653 E.01547
G1 X111.653 Y131.85 E.11342
G1 X111.112 Y131.85 E.01547
G1 X108.85 Y134.112 E.09154
G1 X108.85 Y133.571 E.01547
G1 X110.571 Y131.85 E.06966
G1 X110.03 Y131.85 E.01547
G1 X108.85 Y133.03 E.04777
G1 X108.85 Y132.49 E.01547
G1 X109.659 Y131.68 E.03276
G1 X108.957 Y131.896 F18000
;WIDTH:0.401052
G1 F5689
G1 X108.89 Y131.935 E.00208
G1 X108.959 Y131.969 E.00208
; stop printing object BXN- Rectraction test.stl id:0 copy 0
;LAYER_CHANGE
;Z:0.6
;HEIGHT:0.2
;BEFORE_LAYER_CHANGE
;0.6
G92 E0

G1 E-1.13791 F2400
;WIPE_START
G1 F6000
G1 X108.89 Y131.935 E-.03107
G1 X108.957 Y131.896 E-.03101
;WIPE_END
EXCLUDE_OBJECT_END NAME=BXN-_Rectraction_test.stl_id_0_copy_0
;_SET_FAN_SPEED_CHANGING_LAYER
; printing object BXN- Rectraction test.stl id:0 copy 0
EXCLUDE_OBJECT_START NAME=BXN-_Rectraction_test.stl_id_0_copy_0
G1 Z.6 F18000
G1 X108.567 Y131.567 Z.6
G1 E1.2 F2400
SET_VELOCITY_LIMIT SQUARE_CORNER_VELOCITY=7
;TYPE:Inner wall
;WIDTH:0.419999
G1 F3600
G1 X137.433 Y131.567 E.81456
G1 X137.433 Y138.433 E.19375
M73 P16 R5
G1 X108.567 Y138.433 E.81456
G1 X108.567 Y131.607 E.19262
SET_VELOCITY_LIMIT SQUARE_CORNER_VELOCITY=8
G1 X108.2 Y131.2 F18000
SET_VELOCITY_LIMIT ACCEL=2000 ACCEL_TO_DECEL=1000
;TYPE:Outer wall
;WIDTH:0.399999
G1 F3600
G1 X137.8 Y131.2 E.79097
G1 X137.8 Y138.8 E.20309
G1 X108.2 Y138.8 E.79097
M73 P16 R4
G1 X108.2 Y131.24 E.20202
G1 E-.84 F2400
;WIPE_START
G1 F3600
G1 X109.2 Y131.239 E-.36
;WIPE_END
SET_VELOCITY_LIMIT ACCEL=5000 ACCEL_TO_DECEL=2500
G1 Z.8 F18000
G1 X108.957 Y138.027
G1 Z.8
G1 Z.6
G1 E1.2 F2400
;TYPE:Internal solid infill
;WIDTH:0.401052
G1 F5703
G1 X108.89 Y138.065 E.00208
G1 X108.959 Y138.1 E.00208
G1 X137.32 Y132.454 F18000
;WIDTH:0.425288
G1 F5703
G1 X136.716 Y131.85 E.02443
G1 X136.175 Y131.85 E.01547
G1 X137.15 Y132.825 E.03945
G1 X137.15 Y133.366 E.01547
G1 X135.634 Y131.85 E.06133
G1 X135.094 Y131.85 E.01547
G1 X137.15 Y133.906 E.08322
G1 X137.15 Y134.447 E.01547
G1 X134.553 Y131.85 E.1051
G1 X134.012 Y131.85 E.01547
G1 X137.15 Y134.988 E.12698
G1 X137.15 Y135.529 E.01547
G1 X133.471 Y131.85 E.14886
G1 X132.931 Y131.85 E.01547
G1 X137.15 Y136.069 E.17075
G1 X137.15 Y136.61 E.01547
G1 X132.39 Y131.85 E.19263
G1 X131.849 Y131.85 E.01547
G1 X137.15 Y137.151 E.21451
G1 X137.15 Y137.692 E.01547
G1 X131.308 Y131.85 E.23639
G1 X130.768 Y131.85 E.01547
G1 X137.068 Y138.15 E.25495
G1 X136.527 Y138.15 E.01547
G1 X130.227 Y131.85 E.25495
M73 P17 R4
G1 X129.686 Y131.85 E.01547
G1 X135.986 Y138.15 E.25495
G1 X135.446 Y138.15 E.01547
G1 X129.145 Y131.85 E.25495
G1 X128.605 Y131.85 E.01547
G1 X134.905 Y138.15 E.25495
G1 X134.364 Y138.15 E.01547
G1 X128.064 Y131.85 E.25495
G1 X127.523 Y131.85 E.01547
G1 X133.823 Y138.15 E.25495
G1 X133.283 Y138.15 E.01547
G1 X126.982 Y131.85 E.25495
G1 X126.442 Y131.85 E.01547
G1 X132.742 Y138.15 E.25495
G1 X132.201 Y138.15 E.01547
G1 X125.901 Y131.85 E.25495
G1 X125.36 Y131.85 E.01547
G1 X131.66 Y138.15 E.25495
G1 X131.12 Y138.15 E.01547
G1 X124.819 Y131.85 E.25495
G1 X124.279 Y131.85 E.01547
G1 X130.579 Y138.15 E.25495
G1 X130.038 Y138.15 E.01547
G1 X123.738 Y131.85 E.25495
G1 X123.197 Y131.85 E.01547
G1 X129.497 Y138.15 E.25495
G1 X128.957 Y138.15 E.01547
G1 X122.656 Y131.85 E.25495
G1 X122.116 Y131.85 E.01547
G1 X128.416 Y138.15 E.25495
G1 X127.875 Y138.15 E.01547
G1 X121.575 Y131.85 E.25495
G1 X121.034 Y131.85 E.01547
G1 X127.334 Y138.15 E.25495
G1 X126.794 Y138.15 E.01547
G1 X120.493 Y131.85 E.25495
G1 X119.953 Y131.85 E.01547
G1 X126.253 Y138.15 E.25495
G1 X125.712 Y138.15 E.01547
G1 X119.412 Y131.85 E.25495
G1 X118.871 Y131.85 E.01547
G1 X125.171 Y138.15 E.25495
G1 X124.631 Y138.15 E.01547
G1 X118.33 Y131.85 E.25495
G1 X117.79 Y131.85 E.01547
G1 X124.09 Y138.15 E.25495
G1 X123.549 Y138.15 E.01547
G1 X117.249 Y131.85 E.25495
G1 X116.708 Y131.85 E.01547
G1 X123.008 Y138.15 E.25495
G1 X122.468 Y138.15 E.01547
G1 X116.167 Y131.85 E.25495
G1 X115.627 Y131.85 E.01547
G1 X121.927 Y138.15 E.25495
G1 X121.386 Y138.15 E.01547
G1 X115.086 Y131.85 E.25495
G1 X114.545 Y131.85 E.01547
M73 P18 R4
G1 X120.845 Y138.15 E.25495
G1 X120.305 Y138.15 E.01547
G1 X114.004 Y131.85 E.25495
G1 X113.464 Y131.85 E.01547
G1 X119.764 Y138.15 E.25495
G1 X119.223 Y138.15 E.01547
G1 X112.923 Y131.85 E.25495
G1 X112.382 Y131.85 E.01547
G1 X118.682 Y138.15 E.25495
G1 X118.142 Y138.15 E.01547
G1 X111.841 Y131.85 E.25495
G1 X111.301 Y131.85 E.01547
G1 X117.601 Y138.15 E.25495
G1 X117.06 Y138.15 E.01547
G1 X110.76 Y131.85 E.25495
G1 X110.219 Y131.85 E.01547
G1 X116.519 Y138.15 E.25495
G1 X115.979 Y138.15 E.01547
G1 X109.678 Y131.85 E.25495
G1 X109.138 Y131.85 E.01547
G1 X115.438 Y138.15 E.25495
G1 X114.897 Y138.15 E.01547
G1 X108.85 Y132.103 E.24472
G1 X108.85 Y132.644 E.01547
G1 X114.356 Y138.15 E.22284
G1 X113.816 Y138.15 E.01547
G1 X108.85 Y133.184 E.20095
G1 X108.85 Y133.725 E.01547
G1 X113.275 Y138.15 E.17907
G1 X112.734 Y138.15 E.01547
G1 X108.85 Y134.266 E.15719
G1 X108.85 Y134.807 E.01547
G1 X112.193 Y138.15 E.13531
G1 X111.653 Y138.15 E.01547
G1 X108.85 Y135.347 E.11342
G1 X108.85 Y135.888 E.01547
G1 X111.112 Y138.15 E.09154
G1 X110.571 Y138.15 E.01547
G1 X108.85 Y136.429 E.06966
G1 X108.85 Y136.97 E.01547
G1 X110.03 Y138.15 E.04778
G1 X109.49 Y138.15 E.01547
G1 X108.68 Y137.341 E.03276
; stop printing object BXN- Rectraction test.stl id:0 copy 0
;LAYER_CHANGE
;Z:0.8
;HEIGHT:0.2
;BEFORE_LAYER_CHANGE
;0.8
G92 E0

G1 E-.84 F2400
;WIPE_START
G1 F6000
G1 X109.387 Y138.048 E-.36
;WIPE_END
EXCLUDE_OBJECT_END NAME=BXN-_Rectraction_test.stl_id_0_copy_0
;_SET_FAN_SPEED_CHANGING_LAYER
; printing object BXN- Rectraction test.stl id:0 copy 0
EXCLUDE_OBJECT_START NAME=BXN-_Rectraction_test.stl_id_0_copy_0
G1 Z.8 F18000
G1 X108.567 Y131.567 Z.8
G1 E1.2 F2400
SET_VELOCITY_LIMIT SQUARE_CORNER_VELOCITY=7
;TYPE:Inner wall
;WIDTH:0.419999
G1 F3600
G1 X137.433 Y131.567 E.81456
G1 X137.433 Y138.433 E.19375
G1 X108.567 Y138.433 E.81456
G1 X108.567 Y131.607 E.19262
SET_VELOCITY_LIMIT SQUARE_CORNER_VELOCITY=8
M73 P19 R4
G1 X108.2 Y131.2 F18000
SET_VELOCITY_LIMIT ACCEL=2000 ACCEL_TO_DECEL=1000
;TYPE:Outer wall
;WIDTH:0.399999
G1 F3600
G1 X137.8 Y131.2 E.79097
G1 X137.8 Y138.8 E.20309
G1 X108.2 Y138.8 E.79097
