; HEADER_BLOCK_START
; generated by OrcaSlicer 2.0.0 on 2024-06-05 at 18:59:43
; total layer number: 60
; filament_density: 1.27
; filament_diameter: 1.75
; max_z_height: 12.00
; HEADER_BLOCK_END

; THUMBNAIL_BLOCK_START

;
; THUMBNAIL_BLOCK_END

; THUMBNAIL_BLOCK_START

;
; THUMBNAIL_BLOCK_END

; external perimeters extrusion width = 0.40mm
; perimeters extrusion width = 0.42mm
; infill extrusion width = 0.45mm
; solid infill extrusion width = 0.42mm
; top infill extrusion width = 0.40mm
; first layer extrusion width = 0.50mm

; external perimeters extrusion width = 0.40mm
; perimeters extrusion width = 0.42mm
; infill extrusion width = 0.45mm
; solid infill extrusion width = 0.42mm
; top infill extrusion width = 0.40mm
; first layer extrusion width = 0.50mm

; EXECUTABLE_BLOCK_START
EXCLUDE_OBJECT_DEFINE NAME=Cale_02.stl_id_0_copy_0 CENTER=115.389,115 POLYGON=[[15.3893,65],[215.389,65],[215.389,165],[15.3893,165],[15.3893,65]]
EXCLUDE_OBJECT_DEFINE NAME=couvercle.stl_id_1_copy_0 CENTER=115.389,115 POLYGON=[[70.3893,80],[160.389,80],[160.389,150],[70.3893,150],[70.3893,80]]
M73 P0 R117
;TYPE:Custom
M220 S100
G90 ; use absolute coordinates
M83 ; extruder relative mode
M104 S150 ; set temporary nozzle temp to prevent oozing during homing
M140 S70 ; set final bed temp
G4 S30 ; allow partial nozzle warmup
G28 ; home all axis and restore leveling
BED_MESH_CALIBRATE PROFILE=adaptive ADAPTIVE=1 ADAPTIVE_MARGIN=0
G1 Z25 F240
G1 X10.0 Y30 F3000
M104 S245 ; set final nozzle temp
M190 S70 ; wait for bed temp to stabilize
M109 S245 ; wait for nozzle temp to stabilize
G1 Z0.28 F240
G92 E0 ; Move Z Axis up
G1 Z2.0 F5000 ; Move to start position
G1 X5 Y30 Z0.28 F300 ; Draw the first line
G1 X5 Y200 Z0.28 F1500 E15 ; Move to side a little
G1 X5.4 Y200 Z0.28 F5000.0 ; Draw the second line
G1 X5.4 Y50 Z0.28 F1500.0 E30 ; Reset Extruder
G92 E0 ; Move Z Axis up
G1 Z2.0 F3000
M117 Start Printing..
G90
G21
M83 ; use relative distances for extrusion
; filament start gcode
M106 S0
;LAYER_CHANGE
;Z:0.2
;HEIGHT:0.2
;BEFORE_LAYER_CHANGE
;0.2
G92 E0

M73 P0 R116
G1 E-.5 F2400
;_SET_FAN_SPEED_CHANGING_LAYER
SET_VELOCITY_LIMIT ACCEL=500 ACCEL_TO_DECEL=250
SET_VELOCITY_LIMIT SQUARE_CORNER_VELOCITY=7
; printing object Cale 02.stl id:0 copy 0
EXCLUDE_OBJECT_START NAME=Cale_02.stl_id_0_copy_0
G1 Z.2 F18000
G1 X222.682 Y184.293
G1 Z.2
G1 E.5 F2400
;TYPE:Inner wall
;WIDTH:0.499999
G1 F1800
G1 X24.096 Y184.293 E7.54751
G1 X24.096 Y85.707 E3.74688
G1 X222.682 Y85.707 E7.54751
G1 X222.682 Y184.253 E3.74536
G1 X223.139 Y184.75 F18000
;TYPE:Outer wall
G1 F1800
G1 X23.639 Y184.75 E7.58225
G1 X23.639 Y85.25 E3.78162
G1 X223.139 Y85.25 E7.58225
G1 X223.139 Y184.71 E3.7801
G1 E-.35 F2400
;WIPE_START
G1 F1800
G1 X222.139 Y184.71 E-.15
;WIPE_END
G1 Z.4 F18000
G1 X214.517 Y176.139 Z.4
G1 Z.2
G1 E.5 F2400
;TYPE:Inner wall
G1 F1800
G1 X214.879 Y175.875 E.01705
G1 X215.381 Y175.629 E.02123
G1 X215.918 Y175.474 E.02123
G1 X216.449 Y175.417 E.02031
G1 X216.976 Y175.449 E.02006
G1 X217.573 Y175.588 E.02329
G1 X218.084 Y175.815 E.02123
G1 X218.548 Y176.127 E.02123
G1 X218.95 Y176.514 E.02124
G1 X219.294 Y176.995 E.02248
G1 X219.524 Y177.468 E.01997
G1 X219.679 Y178.005 E.02123
G1 X219.738 Y178.56 E.02123
G1 X219.7 Y179.118 E.02123
G1 X219.565 Y179.66 E.02123
G1 X219.339 Y180.17 E.02123
G1 X219.027 Y180.634 E.02123
G1 X218.639 Y181.036 E.02123
G1 X218.187 Y181.365 E.02123
G1 X217.686 Y181.611 E.02123
G1 X217.149 Y181.765 E.02123
G1 X216.593 Y181.824 E.02123
G1 X216.036 Y181.786 E.02123
G1 X215.494 Y181.652 E.02123
G1 X214.983 Y181.425 E.02123
G1 X214.519 Y181.113 E.02123
G1 X214.117 Y180.726 E.02123
G1 X213.788 Y180.274 E.02123
G1 X213.543 Y179.772 E.02123
G1 X213.388 Y179.235 E.02123
G1 X213.329 Y178.68 E.02123
G1 X213.367 Y178.122 E.02123
G1 X213.502 Y177.58 E.02123
G1 X213.728 Y177.069 E.02123
G1 X214.04 Y176.606 E.02123
G1 X214.428 Y176.203 E.02123
G1 X214.485 Y176.162 E.00267
G1 X214.778 Y176.504 F18000
;TYPE:Outer wall
G1 F1800
G1 X214.782 Y176.501 E.00017
G1 X215.176 Y176.229 E.01821
G1 X215.612 Y176.03 E.01821
G1 X216.076 Y175.909 E.01821
G1 X216.527 Y175.873 E.01721
G1 X217.03 Y175.916 E.0192
G1 X217.492 Y176.043 E.01822
G1 X217.925 Y176.249 E.01821
G1 X218.285 Y176.501 E.0167
G1 X218.654 Y176.87 E.01981
G1 X218.935 Y177.287 E.01912
G1 X219.124 Y177.698 E.01721
G1 X219.244 Y178.162 E.01821
G1 X219.283 Y178.64 E.01821
G1 X219.237 Y179.117 E.01821
G1 X219.11 Y179.579 E.01821
G1 X218.904 Y180.012 E.01821
G1 X218.627 Y180.402 E.01821
G1 X218.285 Y180.739 E.01821
G1 X217.891 Y181.011 E.01821
G1 X217.455 Y181.21 E.01821
G1 X216.991 Y181.331 E.01821
G1 X216.514 Y181.369 E.01821
M73 P1 R116
G1 X216.036 Y181.324 E.01821
G1 X215.574 Y181.196 E.01821
G1 X215.142 Y180.991 E.01821
G1 X214.751 Y180.713 E.01822
G1 X214.415 Y180.372 E.01821
G1 X214.143 Y179.977 E.01821
G1 X213.943 Y179.541 E.01821
G1 X213.823 Y179.078 E.01821
G1 X213.784 Y178.6 E.01821
G1 X213.829 Y178.123 E.01821
G1 X213.957 Y177.661 E.01821
G1 X214.162 Y177.228 E.01821
G1 X214.522 Y176.756 E.02254
G1 X214.75 Y176.532 E.01215
G1 E-.35 F2400
;WIPE_START
G1 F1800
G1 X214.782 Y176.501 E-.00667
G1 X215.176 Y176.229 E-.07189
G1 X215.609 Y176.031 E-.07145
;WIPE_END
G1 Z.4 F18000
G1 X216.547 Y95.819 Z.4
G1 Z.2
G1 E.5 F2400
;TYPE:Inner wall
G1 F1800
G1 X216.474 Y95.824 E.00281
G1 X215.918 Y95.765 E.02123
G1 X215.381 Y95.611 E.02124
G1 X214.917 Y95.39 E.01953
G1 X214.433 Y95.04 E.02272
G1 X214.04 Y94.634 E.02146
G1 X213.755 Y94.222 E.01904
G1 X213.519 Y93.714 E.02131
G1 X213.367 Y93.117 E.02338
G1 X213.329 Y92.56 E.02123
G1 X213.378 Y92.046 E.01961
G1 X213.543 Y91.468 E.02287
G1 X213.788 Y90.966 E.02123
G1 X214.117 Y90.514 E.02123
G1 X214.519 Y90.127 E.02123
G1 X214.983 Y89.815 E.02123
G1 X215.494 Y89.588 E.02123
G1 X216.036 Y89.454 E.02123
G1 X216.587 Y89.416 E.02101
G1 X217.149 Y89.474 E.02145
G1 X217.686 Y89.629 E.02123
G1 X218.188 Y89.875 E.02124
G1 X218.639 Y90.203 E.02123
G1 X219.027 Y90.606 E.02123
G1 X219.339 Y91.069 E.02123
G1 X219.565 Y91.58 E.02123
G1 X219.7 Y92.122 E.02123
G1 X219.738 Y92.68 E.02124
G1 X219.679 Y93.235 E.02124
G1 X219.524 Y93.772 E.02123
G1 X219.279 Y94.274 E.02123
G1 X218.95 Y94.726 E.02124
G1 X218.548 Y95.113 E.02123
G1 X218.084 Y95.425 E.02123
G1 X217.573 Y95.652 E.02124
G1 X217.031 Y95.786 E.02123
G1 X216.587 Y95.817 E.01691
G1 X216.51 Y95.369 F18000
;TYPE:Outer wall
G1 F1800
G1 X216.036 Y95.324 E.01806
G1 X215.574 Y95.196 E.01821
G1 X215.142 Y94.991 E.01821
G1 X214.755 Y94.716 E.01802
G1 X214.415 Y94.372 E.01841
G1 X214.143 Y93.977 E.01821
G1 X213.943 Y93.541 E.01821
G1 X213.823 Y93.078 E.01822
G1 X213.784 Y92.6 E.01821
G1 X213.829 Y92.123 E.01821
G1 X213.957 Y91.661 E.01821
G1 X214.162 Y91.228 E.01821
G1 X214.44 Y90.837 E.01821
G1 X214.782 Y90.501 E.01821
G1 X215.176 Y90.229 E.01821
G1 X215.612 Y90.03 E.01822
G1 X216.076 Y89.909 E.01821
G1 X216.548 Y89.871 E.01802
G1 X217.03 Y89.916 E.0184
G1 X217.492 Y90.043 E.01821
G1 X217.925 Y90.249 E.01822
G1 X218.316 Y90.527 E.01821
G1 X218.652 Y90.868 E.01821
G1 X218.924 Y91.263 E.01821
G1 X219.124 Y91.698 E.01821
G1 X219.244 Y92.162 E.01821
G1 X219.283 Y92.64 E.01821
G1 X219.237 Y93.117 E.01822
G1 X219.11 Y93.579 E.01821
G1 X218.904 Y94.012 E.01821
G1 X218.627 Y94.402 E.01821
G1 X218.285 Y94.739 E.01821
G1 X217.891 Y95.011 E.01821
G1 X217.455 Y95.21 E.01822
G1 X216.888 Y95.34 E.0221
G1 X216.549 Y95.366 E.01292
G1 E-.35 F2400
;WIPE_START
G1 F1800
G1 X216.036 Y95.324 E-.07722
G1 X215.574 Y95.196 E-.07189
G1 X215.569 Y95.194 E-.0009
;WIPE_END
G1 Z.4 F18000
G1 X34.695 Y96.904 Z.4
G1 Z.2
G1 E.5 F2400
;TYPE:Inner wall
G1 F1800
G1 X34.72 Y96.754 E.00577
G1 X34.856 Y96.523 E.01018
G1 X35.123 Y96.338 E.01234
G1 X35.368 Y96.293 E.00947
G1 X211.411 Y96.293 E6.69074
G1 X211.72 Y96.367 E.0121
G1 X211.971 Y96.584 E.0126
G1 X212.075 Y96.809 E.00942
G1 X212.096 Y97.703 E.034
G1 X212.096 Y173.021 E2.86256
G1 X212.043 Y173.287 E.01031
G1 X211.873 Y173.528 E.0112
G1 X211.673 Y173.655 E.009
G1 X211.411 Y173.707 E.01016
G1 X35.368 Y173.707 E6.69074
G1 X35.054 Y173.631 E.01227
M73 P1 R115
G1 X34.863 Y173.485 E.00915
G1 X34.734 Y173.283 E.00911
G1 X34.682 Y173.021 E.01012
G1 X34.682 Y96.979 E2.89011
G1 X34.688 Y96.943 E.00137
G1 X35.139 Y96.979 F18000
;TYPE:Outer wall
G1 F1800
G1 X35.197 Y96.827 E.00618
G1 X35.346 Y96.751 E.00636
G1 X36.025 Y96.75 E.02579
G1 X211.411 Y96.75 E6.66576
G1 X211.569 Y96.813 E.00647
G1 X211.639 Y96.979 E.00682
G1 X211.639 Y173.021 E2.89011
G1 X211.579 Y173.176 E.00631
G1 X211.424 Y173.25 E.00653
G1 X210.53 Y173.25 E.03397
G1 X35.368 Y173.25 E6.65726
G1 X35.203 Y173.18 E.00682
G1 X35.139 Y173.021 E.00648
G1 X35.139 Y97.019 E2.88859
G1 E-.35 F2400
;WIPE_START
G1 F1800
G1 X35.197 Y96.827 E-.03006
G1 X35.346 Y96.751 E-.02512
G1 X35.979 Y96.75 E-.09483
;WIPE_END
G1 Z.4 F18000
G1 X33.58 Y91.639 Z.4
G1 Z.2
G1 E.5 F2400
;TYPE:Inner wall
G1 F1800
G1 X33.7 Y92.122 E.01892
G1 X33.738 Y92.68 E.02124
G1 X33.679 Y93.235 E.02123
G1 X33.524 Y93.772 E.02123
G1 X33.279 Y94.274 E.02123
G1 X32.95 Y94.726 E.02124
G1 X32.548 Y95.113 E.02123
G1 X32.109 Y95.413 E.02017
G1 X31.573 Y95.652 E.0223
G1 X31.031 Y95.786 E.02123
G1 X30.474 Y95.824 E.02123
G1 X29.918 Y95.765 E.02123
G1 X29.381 Y95.611 E.02123
G1 X28.879 Y95.365 E.02123
G1 X28.433 Y95.04 E.021
G1 X28.04 Y94.634 E.02146
G1 X27.728 Y94.17 E.02123
G1 X27.502 Y93.66 E.02123
G1 X27.367 Y93.117 E.02124
G1 X27.329 Y92.56 E.02123
G1 X27.388 Y92.005 E.02123
G1 X27.543 Y91.468 E.02123
G1 X27.788 Y90.966 E.02123
G1 X28.117 Y90.514 E.02123
G1 X28.519 Y90.127 E.02123
G1 X28.983 Y89.815 E.02123
G1 X29.494 Y89.588 E.02123
G1 X30.036 Y89.454 E.02123
G1 X30.587 Y89.416 E.02101
G1 X31.149 Y89.474 E.02145
G1 X31.686 Y89.629 E.02123
G1 X32.188 Y89.875 E.02124
G1 X32.639 Y90.203 E.02123
G1 X33.027 Y90.606 E.02123
G1 X33.339 Y91.069 E.02123
G1 X33.565 Y91.58 E.02123
G1 X33.57 Y91.6 E.0008
G1 X33.137 Y91.749 F18000
;TYPE:Outer wall
G1 F1800
G1 X33.244 Y92.162 E.01624
G1 X33.283 Y92.64 E.01821
G1 X33.237 Y93.117 E.01822
G1 X33.11 Y93.579 E.01821
G1 X32.904 Y94.012 E.01821
G1 X32.627 Y94.402 E.01821
G1 X32.285 Y94.739 E.01821
G1 X31.891 Y95.011 E.01821
G1 X31.455 Y95.21 E.01822
G1 X30.991 Y95.331 E.01821
G1 X30.514 Y95.369 E.01821
G1 X30.036 Y95.324 E.01821
G1 X29.574 Y95.196 E.01821
G1 X29.142 Y94.991 E.01821
G1 X28.755 Y94.716 E.01802
G1 X28.415 Y94.372 E.01841
G1 X28.143 Y93.977 E.01821
G1 X27.943 Y93.541 E.01821
G1 X27.823 Y93.078 E.01822
G1 X27.784 Y92.6 E.01821
G1 X27.829 Y92.123 E.01821
G1 X27.957 Y91.661 E.01821
G1 X28.162 Y91.228 E.01821
G1 X28.44 Y90.837 E.01821
G1 X28.782 Y90.501 E.01821
G1 X29.176 Y90.229 E.01821
G1 X29.612 Y90.03 E.01822
G1 X30.076 Y89.909 E.01821
G1 X30.548 Y89.871 E.01802
G1 X31.03 Y89.916 E.0184
G1 X31.492 Y90.043 E.01821
G1 X31.925 Y90.249 E.01822
G1 X32.316 Y90.527 E.01821
G1 X32.652 Y90.868 E.01821
G1 X32.924 Y91.263 E.01821
G1 X33.124 Y91.698 E.01821
G1 X33.127 Y91.71 E.00045
G1 E-.35 F2400
;WIPE_START
G1 F1800
G1 X33.244 Y92.162 E-.07011
G1 X33.283 Y92.64 E-.07189
G1 X33.278 Y92.693 E-.00801
;WIPE_END
G1 Z.4 F18000
G1 X29.916 Y181.756 Z.4
G1 Z.2
G1 E.5 F2400
;TYPE:Inner wall
G1 F1800
G1 X29.494 Y181.652 E.01654
G1 X28.983 Y181.425 E.02123
G1 X28.519 Y181.113 E.02123
G1 X28.117 Y180.726 E.02123
G1 X27.788 Y180.274 E.02123
G1 X27.543 Y179.772 E.02123
G1 X27.388 Y179.235 E.02123
G1 X27.329 Y178.68 E.02123
G1 X27.367 Y178.122 E.02123
G1 X27.502 Y177.58 E.02123
G1 X27.728 Y177.069 E.02123
G1 X28.04 Y176.606 E.02123
G1 X28.428 Y176.203 E.02123
G1 X28.879 Y175.875 E.02124
G1 X29.381 Y175.629 E.02123
G1 X29.918 Y175.474 E.02123
G1 X30.449 Y175.417 E.02031
G1 X31.025 Y175.453 E.02191
G1 X31.573 Y175.588 E.02147
G1 X32.084 Y175.815 E.02123
G1 X32.548 Y176.127 E.02123
G1 X32.95 Y176.514 E.02124
G1 X33.294 Y176.995 E.02248
G1 X33.524 Y177.468 E.01997
G1 X33.679 Y178.005 E.02123
G1 X33.738 Y178.56 E.02123
G1 X33.7 Y179.118 E.02123
G1 X33.565 Y179.66 E.02123
G1 X33.339 Y180.17 E.02123
G1 X33.027 Y180.634 E.02123
G1 X32.639 Y181.036 E.02123
G1 X32.187 Y181.365 E.02123
G1 X31.686 Y181.611 E.02123
G1 X31.149 Y181.765 E.02123
G1 X30.593 Y181.824 E.02123
G1 X30.036 Y181.786 E.02123
G1 X29.955 Y181.766 E.00317
G1 X30.023 Y181.32 F18000
;TYPE:Outer wall
G1 F1800
G1 X29.574 Y181.196 E.01767
G1 X29.142 Y180.991 E.01821
G1 X28.751 Y180.713 E.01822
G1 X28.415 Y180.372 E.01821
G1 X28.143 Y179.977 E.01821
G1 X27.943 Y179.541 E.01821
G1 X27.823 Y179.078 E.01821
G1 X27.784 Y178.64 E.0167
G1 X27.829 Y178.123 E.01972
G1 X27.957 Y177.661 E.01821
G1 X28.162 Y177.228 E.01821
G1 X28.44 Y176.837 E.01821
G1 X28.782 Y176.501 E.01821
G1 X29.176 Y176.229 E.01821
G1 X29.612 Y176.03 E.01821
G1 X30.076 Y175.909 E.01821
G1 X30.527 Y175.873 E.01721
G1 X31.03 Y175.916 E.0192
G1 X31.492 Y176.043 E.01822
G1 X31.925 Y176.249 E.01821
G1 X32.389 Y176.599 E.02208
G1 X32.654 Y176.87 E.01439
G1 X32.935 Y177.287 E.01912
G1 X33.124 Y177.698 E.01721
G1 X33.244 Y178.162 E.01821
G1 X33.283 Y178.64 E.01821
G1 X33.237 Y179.117 E.01821
G1 X33.11 Y179.579 E.01821
G1 X32.904 Y180.012 E.01821
G1 X32.627 Y180.402 E.01821
G1 X32.285 Y180.739 E.01821
G1 X31.891 Y181.011 E.01821
G1 X31.455 Y181.21 E.01821
G1 X30.991 Y181.331 E.01821
G1 X30.514 Y181.369 E.01821
G1 X30.062 Y181.326 E.01723
G1 E-.35 F2400
;WIPE_START
G1 F1800
G1 X29.574 Y181.196 E-.0757
G1 X29.142 Y180.991 E-.07188
G1 X29.128 Y180.981 E-.00242
;WIPE_END
G1 Z.4 F18000
G1 X221.621 Y85.844
G1 Z.4
G1 Z.2
G1 E.5 F2400
;TYPE:Bottom surface
;WIDTH:0.50002
G1 F3600
G1 X222.339 Y86.563 E.03861
G1 X222.339 Y87.209 E.02457
G1 X221.18 Y86.05 E.0623
G1 X220.534 Y86.05 E.02457
G1 X222.339 Y87.855 E.09705
G1 X222.339 Y88.502 E.02457
G1 X219.887 Y86.05 E.1318
G1 X219.241 Y86.05 E.02457
G1 X222.339 Y89.148 E.16654
G1 X222.339 Y89.795 E.02457
G1 X218.595 Y86.05 E.20129
G1 X217.948 Y86.05 E.02457
G1 X222.339 Y90.441 E.23604
G1 X222.339 Y91.088 E.02457
G1 X217.302 Y86.05 E.27078
G1 X216.655 Y86.05 E.02457
G1 X222.339 Y91.734 E.30553
G1 X222.339 Y92.38 E.02457
G1 X216.009 Y86.05 E.34028
G1 X215.362 Y86.05 E.02457
G1 X222.339 Y93.027 E.37502
G1 X222.339 Y93.673 E.02457
G1 X214.716 Y86.05 E.40977
G1 X214.07 Y86.05 E.02457
G1 X217.153 Y89.133 E.16575
G1 X217.066 Y89.112 E.00339
G1 X216.447 Y89.074 E.0236
G1 X213.423 Y86.05 E.16252
G1 X212.777 Y86.05 E.02457
G1 X215.864 Y89.137 E.16595
G1 X215.357 Y89.277 E.01999
G1 X212.13 Y86.05 E.17344
G1 X211.484 Y86.05 E.02457
G1 X214.908 Y89.474 E.18403
G1 X214.509 Y89.722 E.01784
G1 X210.837 Y86.05 E.19736
G1 X210.191 Y86.05 E.02457
G1 X214.15 Y90.009 E.21281
G1 X213.828 Y90.333 E.01737
G1 X209.544 Y86.05 E.23024
G1 X208.898 Y86.05 E.02457
G1 X213.554 Y90.706 E.25026
G1 X213.503 Y90.775 E.00327
G1 X213.329 Y91.127 E.01492
G1 X208.252 Y86.05 E.2729
G1 X207.605 Y86.05 E.02457
G1 X213.152 Y91.596 E.29813
G1 X213.041 Y91.98 E.01516
G1 X213.028 Y92.119 E.00532
G1 X206.959 Y86.05 E.32622
G1 X206.312 Y86.05 E.02457
G1 X212.989 Y92.727 E.3589
G1 X213.055 Y93.316 E.02252
G1 X213.101 Y93.485 E.00667
G1 X205.46 Y85.844 E.41071
G1 E-.35 F2400
;WIPE_START
G1 F3600
G1 X206.167 Y86.551 E-.15
;WIPE_END
G1 Z.4 F18000
G1 X222.545 Y94.525 Z.4
G1 Z.2
G1 E.5 F2400
G1 F3600
G1 X220.02 Y92.001 E.13572
G1 X220.084 Y92.619 E.02363
G1 X220.077 Y92.703 E.00322
G1 X222.339 Y94.966 E.12163
G1 X222.339 Y95.613 E.02457
G1 X220.015 Y93.288 E.12493
G1 X219.872 Y93.792 E.01989
G1 X222.339 Y96.259 E.13262
G1 X222.339 Y96.906 E.02457
G1 X219.675 Y94.241 E.14323
G1 X219.564 Y94.465 E.00949
G1 X219.432 Y94.644 E.00848
G1 X222.339 Y97.552 E.15629
G1 X222.339 Y98.198 E.02457
G1 X219.15 Y95.009 E.17145
G1 X218.819 Y95.324 E.01738
G1 X222.339 Y98.845 E.18923
G1 X222.339 Y99.491 E.02457
G1 X218.449 Y95.601 E.20912
G1 X218.026 Y95.825 E.01818
G1 X222.339 Y100.138 E.23184
G1 X222.339 Y100.784 E.02457
G1 X217.558 Y96.003 E.25701
G1 X217.23 Y96.099 E.01297
G1 X217.03 Y96.121 E.00767
G1 X222.339 Y101.431 E.2854
G1 X222.339 Y102.077 E.02457
G1 X216.416 Y96.154 E.31837
G1 X215.999 Y96.127 E.01591
G1 X215.661 Y96.045 E.0132
G1 X222.339 Y102.723 E.35897
G1 X222.339 Y103.37 E.02457
G1 X205.019 Y86.05 E.93098
G1 X204.373 Y86.05 E.02457
G1 X222.339 Y104.016 E.96572
G1 X222.339 Y104.663 E.02457
