; HEADER_BLOCK_START
; generated by OrcaSlicer 2.0.0 on 2024-06-06 at 21:21:54
; total layer number: 75
; filament_density: 1.27
; filament_diameter: 1.75
; max_z_height: 15.00
; HEADER_BLOCK_END

; THUMBNAIL_BLOCK_START

;
; THUMBNAIL_BLOCK_END

; THUMBNAIL_BLOCK_START

;
; THUMBNAIL_BLOCK_END

; external perimeters extrusion width = 0.40mm
; perimeters extrusion width = 0.42mm
; infill extrusion width = 0.45mm
; solid infill extrusion width = 0.42mm
; top infill extrusion width = 0.40mm
; first layer extrusion width = 0.50mm

; EXECUTABLE_BLOCK_START
EXCLUDE_OBJECT_DEFINE NAME=Cale_02.stl_id_0_copy_0 CENTER=115,115 POLYGON=[[15,71],[215,71],[215,159],[15,159],[15,71]]
M73 P0 R85
;TYPE:Custom
M220 S100
G90 ; use absolute coordinates
M83 ; extruder relative mode
M104 S150 ; set temporary nozzle temp to prevent oozing during homing
M140 S70 ; set final bed temp
G4 S30 ; allow partial nozzle warmup
G28 ; home all axis and restore leveling
BED_MESH_CALIBRATE PROFILE=adaptive ADAPTIVE=1 ADAPTIVE_MARGIN=0
G1 Z25 F240
G1 X10.0 Y30 F3000
M104 S245 ; set final nozzle temp
M190 S70 ; wait for bed temp to stabilize
M109 S245 ; wait for nozzle temp to stabilize
G1 Z0.28 F240
G92 E0 ; Move Z Axis up
G1 Z2.0 F5000 ; Move to start position
G1 X5 Y30 Z0.28 F300 ; Draw the first line
G1 X5 Y200 Z0.28 F1500 E15 ; Move to side a little
G1 X5.4 Y200 Z0.28 F5000.0 ; Draw the second line
G1 X5.4 Y50 Z0.28 F1500.0 E30 ; Reset Extruder
G92 E0 ; Move Z Axis up
G1 Z2.0 F3000
M117 Start Printing..
G90
G21
M83 ; use relative distances for extrusion
; filament start gcode
M106 S0
;LAYER_CHANGE
;Z:0.2
;HEIGHT:0.2
;BEFORE_LAYER_CHANGE
;0.2
G92 E0

G1 E-.5 F2400
;_SET_FAN_SPEED_CHANGING_LAYER
SET_VELOCITY_LIMIT ACCEL=500 ACCEL_TO_DECEL=250
SET_VELOCITY_LIMIT SQUARE_CORNER_VELOCITY=7
; printing object Cale 02.stl id:0 copy 0
EXCLUDE_OBJECT_START NAME=Cale_02.stl_id_0_copy_0
G1 Z.2 F18000
G1 X222.293 Y178.293
G1 Z.2
G1 E.5 F2400
;TYPE:Inner wall
;WIDTH:0.499999
G1 F1800
G1 X23.707 Y178.293 E7.54751
G1 X23.707 Y91.707 E3.29081
G1 X222.293 Y91.707 E7.54751
G1 X222.293 Y178.253 E3.28928
G1 X222.75 Y178.75 F18000
;TYPE:Outer wall
M73 P0 R84
G1 F1800
G1 X23.25 Y178.75 E7.58225
G1 X23.25 Y91.25 E3.32555
M73 P1 R84
G1 X222.75 Y91.25 E7.58225
G1 X222.75 Y178.71 E3.32403
G1 E-.35 F2400
;WIPE_START
G1 F1800
G1 X221.75 Y178.71 E-.15
;WIPE_END
G1 Z.4 F18000
G1 X214.163 Y101.742 Z.4
G1 Z.2
G1 E.5 F2400
;TYPE:Inner wall
G1 F1800
G1 X213.74 Y101.439 E.01976
G1 X213.298 Y100.992 E.02388
G1 X212.942 Y100.483 E.02361
G1 X212.671 Y99.91 E.02409
G1 X212.503 Y99.303 E.02395
G1 X212.439 Y98.678 E.02388
G1 X212.483 Y98.051 E.02388
G1 X212.632 Y97.441 E.02388
G1 X212.882 Y96.864 E.02389
G1 X213.225 Y96.338 E.02388
G1 X213.653 Y95.877 E.02388
G1 X214.152 Y95.496 E.02388
G1 X214.709 Y95.204 E.02388
G1 X215.307 Y95.011 E.02389
G1 X215.922 Y94.922 E.02361
G1 X216.555 Y94.938 E.02409
G1 X217.173 Y95.061 E.02394
G1 X217.76 Y95.286 E.02388
G1 X218.3 Y95.607 E.02388
G1 X218.779 Y96.014 E.02388
G1 X219.181 Y96.497 E.02389
G1 X219.493 Y97.035 E.02361
G1 X219.714 Y97.629 E.02409
G1 X219.831 Y98.248 E.02395
G1 X219.84 Y98.876 E.02388
G1 X219.744 Y99.497 E.02388
G1 X219.544 Y100.093 E.02389
G1 X219.246 Y100.646 E.02388
G1 X218.859 Y101.141 E.02388
G1 X218.394 Y101.564 E.02389
G1 X217.864 Y101.902 E.02388
G1 X217.285 Y102.145 E.02388
G1 X216.672 Y102.287 E.02388
G1 X216.045 Y102.324 E.02389
G1 X215.42 Y102.254 E.02388
G1 X214.817 Y102.079 E.02388
G1 X214.251 Y101.805 E.02389
G1 X214.195 Y101.765 E.00261
G1 X214.426 Y101.374 F18000
;TYPE:Outer wall
G1 F1800
G1 X214.012 Y101.072 E.01947
G1 X213.628 Y100.676 E.02095
G1 X213.321 Y100.227 E.02068
G1 X213.087 Y99.721 E.02119
G1 X212.945 Y99.188 E.02097
G1 X212.895 Y98.639 E.02095
G1 X212.938 Y98.09 E.02095
G1 X213.074 Y97.556 E.02095
G1 X213.298 Y97.052 E.02095
G1 X213.604 Y96.594 E.02095
G1 X213.983 Y96.194 E.02095
G1 X214.424 Y95.863 E.02095
G1 X214.915 Y95.612 E.02095
G1 X215.441 Y95.448 E.02095
G1 X215.98 Y95.375 E.02068
G1 X216.537 Y95.394 E.02119
G1 X217.077 Y95.507 E.02097
G1 X217.59 Y95.71 E.02095
G1 X218.061 Y95.996 E.02095
G1 X218.477 Y96.358 E.02095
G1 X218.825 Y96.784 E.02095
G1 X219.093 Y97.258 E.02068
G1 X219.283 Y97.782 E.02119
G1 X219.38 Y98.325 E.02097
G1 X219.383 Y98.876 E.02095
G1 X219.293 Y99.42 E.02095
G1 X219.113 Y99.941 E.02095
G1 X218.847 Y100.423 E.02095
G1 X218.503 Y100.854 E.02095
G1 X218.092 Y101.221 E.02095
G1 X217.624 Y101.513 E.02095
G1 X217.114 Y101.721 E.02095
G1 X216.576 Y101.84 E.02095
G1 X216.026 Y101.867 E.02095
G1 X215.479 Y101.8 E.02095
G1 X214.951 Y101.642 E.02095
G1 X214.458 Y101.397 E.0209
G1 E-.35 F2400
;WIPE_START
G1 F1800
G1 X214.012 Y101.072 E-.08286
G1 X213.7 Y100.751 E-.06714
;WIPE_END
G1 Z.4 F18000
G1 X34.838 Y102.326 Z.4
G1 Z.2
G1 E.5 F2400
;TYPE:Inner wall
G1 F1800
G1 X35.1 Y102.293 E.01002
G1 X211.021 Y102.293 E6.68613
G1 X211.319 Y102.361 E.01161
G1 X211.551 Y102.543 E.01122
G1 X211.687 Y102.812 E.01145
G1 X211.707 Y103.372 E.02126
G1 X211.707 Y171.021 E2.57112
G1 X211.639 Y171.319 E.01158
G1 X211.51 Y171.502 E.00853
G1 X211.297 Y171.649 E.00986
G1 X211.021 Y171.707 E.01069
G1 X34.979 Y171.707 E6.69074
G1 X34.703 Y171.649 E.01069
G1 X34.49 Y171.502 E.00986
G1 X34.325 Y171.227 E.01218
G1 X34.293 Y171.021 E.00792
G1 X34.293 Y102.979 E2.58606
G1 X34.32 Y102.787 E.00734
G1 X34.47 Y102.519 E.0117
G1 X34.727 Y102.341 E.01188
G1 X34.799 Y102.331 E.00274
G1 X34.895 Y102.766 F18000
;TYPE:Outer wall
G1 F1800
G1 X35.612 Y102.75 E.02728
G1 X211.021 Y102.75 E6.66665
G1 X211.171 Y102.806 E.00606
G1 X211.243 Y102.923 E.00524
G1 X211.25 Y103.884 E.03652
G1 X211.25 Y171.021 E2.55164
G1 X211.184 Y171.182 E.00658
G1 X211.021 Y171.25 E.00672
G1 X34.979 Y171.25 E6.69074
G1 X34.816 Y171.182 E.00672
G1 X34.75 Y171.021 E.00658
G1 X34.75 Y102.979 E2.58606
G1 X34.809 Y102.825 E.00624
M73 P2 R84
G1 X34.862 Y102.789 E.00244
G1 E-.35 F2400
;WIPE_START
G1 F1800
G1 X35.612 Y102.75 E-.11272
G1 X35.861 Y102.75 E-.03728
;WIPE_END
G1 Z.4 F18000
G1 X28.761 Y95.187 Z.4
G1 Z.2
G1 E.5 F2400
;TYPE:Inner wall
G1 F1800
G1 X29.307 Y95.011 E.02182
G1 X29.922 Y94.922 E.02361
G1 X30.555 Y94.938 E.02409
G1 X31.173 Y95.061 E.02394
G1 X31.76 Y95.286 E.02388
G1 X32.3 Y95.607 E.02388
G1 X32.779 Y96.014 E.02388
G1 X33.181 Y96.497 E.02389
G1 X33.493 Y97.035 E.02361
G1 X33.714 Y97.629 E.02409
G1 X33.831 Y98.248 E.02395
G1 X33.84 Y98.876 E.02388
G1 X33.744 Y99.497 E.02388
G1 X33.544 Y100.093 E.02389
G1 X33.246 Y100.646 E.02388
G1 X32.859 Y101.141 E.02388
G1 X32.394 Y101.564 E.02389
G1 X31.864 Y101.902 E.02388
G1 X31.285 Y102.145 E.02388
G1 X30.672 Y102.287 E.02388
G1 X30.045 Y102.324 E.02389
G1 X29.42 Y102.254 E.02388
G1 X28.817 Y102.079 E.02388
G1 X28.251 Y101.805 E.02389
G1 X27.74 Y101.439 E.02388
G1 X27.298 Y100.992 E.02388
G1 X26.942 Y100.483 E.02361
G1 X26.671 Y99.91 E.02409
G1 X26.503 Y99.303 E.02395
G1 X26.439 Y98.678 E.02388
G1 X26.483 Y98.051 E.02388
G1 X26.632 Y97.441 E.02388
G1 X26.882 Y96.864 E.02389
G1 X27.225 Y96.338 E.02388
G1 X27.653 Y95.877 E.02388
G1 X28.152 Y95.496 E.02388
G1 X28.709 Y95.204 E.02388
G1 X28.723 Y95.2 E.00055
G1 X28.895 Y95.622 F18000
;TYPE:Outer wall
G1 F1800
G1 X28.915 Y95.612 E.00084
G1 X29.441 Y95.448 E.02095
G1 X29.98 Y95.375 E.02068
G1 X30.537 Y95.394 E.02119
G1 X31.077 Y95.507 E.02097
G1 X31.59 Y95.71 E.02095
G1 X32.061 Y95.996 E.02095
G1 X32.477 Y96.358 E.02095
G1 X32.825 Y96.784 E.02095
G1 X33.093 Y97.258 E.02068
G1 X33.283 Y97.782 E.02119
G1 X33.38 Y98.325 E.02097
G1 X33.383 Y98.876 E.02095
G1 X33.293 Y99.42 E.02095
G1 X33.113 Y99.941 E.02095
G1 X32.847 Y100.423 E.02095
G1 X32.503 Y100.854 E.02095
G1 X32.092 Y101.221 E.02095
G1 X31.624 Y101.513 E.02095
G1 X31.114 Y101.721 E.02095
G1 X30.576 Y101.84 E.02095
G1 X30.026 Y101.867 E.02095
G1 X29.479 Y101.8 E.02095
G1 X28.951 Y101.642 E.02095
G1 X28.457 Y101.397 E.02095
G1 X28.012 Y101.072 E.02095
G1 X27.628 Y100.676 E.02095
G1 X27.321 Y100.227 E.02068
G1 X27.087 Y99.721 E.02119
G1 X26.945 Y99.188 E.02097
G1 X26.895 Y98.639 E.02095
G1 X26.938 Y98.09 E.02095
G1 X27.074 Y97.556 E.02095
G1 X27.298 Y97.052 E.02095
G1 X27.604 Y96.594 E.02095
G1 X27.983 Y96.194 E.02095
G1 X28.424 Y95.863 E.02095
G1 X28.859 Y95.641 E.01858
G1 E-.35 F2400
;WIPE_START
G1 F1800
G1 X28.915 Y95.612 E-.00933
G1 X29.441 Y95.448 E-.08267
G1 X29.824 Y95.396 E-.058
;WIPE_END
G1 Z.4 F18000
G1 X221.231 Y91.844
G1 Z.4
M73 P2 R83
G1 Z.2
G1 E.5 F2400
;TYPE:Bottom surface
;WIDTH:0.500473
G1 F3600
G1 X221.95 Y92.563 E.0387
G1 X221.95 Y93.211 E.02462
G1 X220.789 Y92.05 E.06245
G1 X220.142 Y92.05 E.02462
G1 X221.95 Y93.858 E.09727
G1 X221.95 Y94.505 E.02462
G1 X219.495 Y92.05 E.13208
G1 X218.848 Y92.05 E.02462
G1 X221.95 Y95.152 E.1669
G1 X221.95 Y95.799 E.02462
G1 X218.201 Y92.05 E.20171
G1 X217.554 Y92.05 E.02462
G1 X221.95 Y96.446 E.23653
G1 X221.95 Y97.093 E.02462
G1 X216.907 Y92.05 E.27135
G1 X216.26 Y92.05 E.02462
G1 X221.95 Y97.74 E.30616
G1 X221.95 Y98.387 E.02462
G1 X215.613 Y92.05 E.34098
G1 X214.966 Y92.05 E.02462
G1 X217.881 Y94.965 E.15684
G1 X218.483 Y95.317 E.02655
G1 X218.618 Y95.416 E.00635
G1 X219.12 Y95.876 E.02594
G1 X219.453 Y96.289 E.02015
G1 X219.799 Y96.883 E.02618
G1 X221.95 Y99.034 E.11574
G1 X221.95 Y99.681 E.02462
G1 X220.099 Y97.831 E.09958
G1 X220.17 Y98.197 E.0142
G1 X220.177 Y98.555 E.01362
G1 X221.95 Y100.328 E.09541
G1 X221.95 Y100.976 E.02462
G1 X220.141 Y99.166 E.09736
G1 X220.08 Y99.566 E.01539
G1 X220.034 Y99.706 E.00562
G1 X221.95 Y101.623 E.10312
G1 X221.95 Y102.27 E.02462
G1 X219.872 Y100.192 E.1118
G1 X219.797 Y100.363 E.00711
G1 X219.649 Y100.616 E.01115
G1 X221.95 Y102.917 E.1238
G1 X221.95 Y103.564 E.02462
G1 X219.4 Y101.014 E.13718
G1 X219.105 Y101.366 E.01747
G1 X221.95 Y104.211 E.15308
G1 X221.95 Y104.858 E.02462
G1 X218.772 Y101.68 E.171
G1 X218.412 Y101.967 E.01752
G1 X221.95 Y105.505 E.19037
G1 X221.95 Y106.152 E.02462
G1 X218.008 Y102.21 E.2121
G1 X217.554 Y102.403 E.01877
G1 X221.95 Y106.799 E.23653
G1 X221.95 Y107.446 E.02462
G1 X217.056 Y102.553 E.2633
G1 X216.613 Y102.642 E.01721
G1 X216.502 Y102.645 E.00423
G1 X221.95 Y108.093 E.29315
G1 X221.95 Y108.74 E.02462
G1 X215.866 Y102.656 E.32738
G1 X215.214 Y102.559 E.02508
G1 X215.077 Y102.515 E.00546
G1 X222.156 Y109.593 E.38086
G1 E-.35 F2400
;WIPE_START
G1 F3600
G1 X221.449 Y108.886 E-.15
;WIPE_END
G1 Z.4 F18000
G1 X214.113 Y91.844 Z.4
G1 Z.2
G1 E.5 F2400
G1 F3600
G1 X216.934 Y94.665 E.15176
G1 X216.577 Y94.595 E.01383
G1 X216.209 Y94.588 E.01398
G1 X213.672 Y92.05 E.13654
G1 X213.024 Y92.05 E.02462
G1 X215.593 Y94.619 E.13822
G1 X215.326 Y94.654 E.01026
G1 X215.059 Y94.732 E.01057
G1 X212.377 Y92.05 E.14431
G1 X211.73 Y92.05 E.02462
G1 X214.578 Y94.898 E.15323
G1 X214.141 Y95.108 E.01845
G1 X211.083 Y92.05 E.16452
G1 X210.436 Y92.05 E.02462
G1 X213.755 Y95.369 E.17858
G1 X213.393 Y95.654 E.01753
G1 X209.789 Y92.05 E.1939
G1 X209.142 Y92.05 E.02462
G1 X213.083 Y95.99 E.21202
G1 X212.945 Y96.14 E.00771
G1 X212.803 Y96.358 E.00992
G1 X208.495 Y92.05 E.23182
G1 X207.848 Y92.05 E.02462
G1 X212.555 Y96.757 E.25324
G1 X212.36 Y97.21 E.01875
G1 X207.201 Y92.05 E.27762
G1 X206.554 Y92.05 E.02462
G1 X212.21 Y97.706 E.30432
G1 X212.155 Y97.92 E.00841
G1 X212.123 Y98.266 E.01322
G1 X205.907 Y92.05 E.33445
G1 X205.26 Y92.05 E.02462
G1 X212.121 Y98.912 E.3692
G1 X212.142 Y99.226 E.01198
G1 X212.261 Y99.698 E.01853
G1 X204.612 Y92.05 E.41152
G1 X203.965 Y92.05 E.02462
G1 X221.95 Y110.035 E.96766
G1 X221.95 Y110.682 E.02462
G1 X203.318 Y92.05 E1.00248
G1 X202.671 Y92.05 E.02462
G1 X221.95 Y111.329 E1.03729
G1 X221.95 Y111.976 E.02462
G1 X202.024 Y92.05 E1.07211
G1 X201.377 Y92.05 E.02462
G1 X221.95 Y112.623 E1.10693
G1 X221.95 Y113.27 E.02462
G1 X212.05 Y103.37 E.53268
G1 X212.05 Y104.017 E.02462
G1 X221.95 Y113.917 E.53268
G1 X221.95 Y114.564 E.02462
G1 X212.05 Y104.664 E.53268
G1 X212.05 Y105.311 E.02462
G1 X221.95 Y115.211 E.53268
G1 X221.95 Y115.858 E.02462
G1 X212.05 Y105.958 E.53268
G1 X212.05 Y106.605 E.02462
G1 X221.95 Y116.505 E.53268
G1 X221.95 Y117.152 E.02462
G1 X212.05 Y107.252 E.53268
G1 X212.05 Y107.899 E.02462
G1 X221.95 Y117.8 E.53268
G1 X221.95 Y118.447 E.02462
G1 X212.05 Y108.546 E.53268
G1 X212.05 Y109.193 E.02462
G1 X221.95 Y119.094 E.53268
G1 X221.95 Y119.741 E.02462
G1 X212.05 Y109.841 E.53268
G1 X212.05 Y110.488 E.02462
G1 X221.95 Y120.388 E.53268
G1 X221.95 Y121.035 E.02462
G1 X212.05 Y111.135 E.53268
G1 X212.05 Y111.782 E.02462
G1 X221.95 Y121.682 E.53268
G1 X221.95 Y122.329 E.02462
G1 X212.05 Y112.429 E.53268
G1 X212.05 Y113.076 E.02462
G1 X221.95 Y122.976 E.53268
G1 X221.95 Y123.623 E.02462
G1 X212.05 Y113.723 E.53268
G1 X212.05 Y114.37 E.02462
G1 X221.95 Y124.27 E.53268
G1 X221.95 Y124.917 E.02462
G1 X212.05 Y115.017 E.53268
G1 X212.05 Y115.664 E.02462
G1 X221.95 Y125.564 E.53268
G1 X221.95 Y126.212 E.02462
G1 X212.05 Y116.311 E.53268
G1 X212.05 Y116.958 E.02462
G1 X221.95 Y126.859 E.53268
G1 X221.95 Y127.506 E.02462
G1 X212.05 Y117.605 E.53268
G1 X212.05 Y118.253 E.02462
G1 X221.95 Y128.153 E.53268
G1 X221.95 Y128.8 E.02462
G1 X212.05 Y118.9 E.53268
G1 X212.05 Y119.547 E.02462
G1 X221.95 Y129.447 E.53268
G1 X221.95 Y130.094 E.02462
G1 X212.05 Y120.194 E.53268
G1 X212.05 Y120.841 E.02462
G1 X221.95 Y130.741 E.53268
G1 X221.95 Y131.388 E.02462
G1 X212.05 Y121.488 E.53268
G1 X212.05 Y122.135 E.02462
G1 X221.95 Y132.035 E.53268
G1 X221.95 Y132.682 E.02462
G1 X212.05 Y122.782 E.53268
G1 X212.05 Y123.429 E.02462
G1 X221.95 Y133.329 E.53268
G1 X221.95 Y133.976 E.02462
G1 X212.05 Y124.076 E.53268
G1 X212.05 Y124.723 E.02462
G1 X221.95 Y134.624 E.53268
G1 X221.95 Y135.271 E.02462
G1 X212.05 Y125.37 E.53268
G1 X212.05 Y126.017 E.02462
G1 X221.95 Y135.918 E.53268
G1 X221.95 Y136.565 E.02462
G1 X212.05 Y126.665 E.53268
G1 X212.05 Y127.312 E.02462
G1 X221.95 Y137.212 E.53268
G1 X221.95 Y137.859 E.02462
G1 X212.05 Y127.959 E.53268
G1 X212.05 Y128.606 E.02462
G1 X221.95 Y138.506 E.53268
G1 X221.95 Y139.153 E.02462
G1 X212.05 Y129.253 E.53268
G1 X212.05 Y129.9 E.02462
G1 X221.95 Y139.8 E.53268
G1 X221.95 Y140.447 E.02462
G1 X212.05 Y130.547 E.53268
G1 X212.05 Y131.194 E.02462
G1 X221.95 Y141.094 E.53268
G1 X221.95 Y141.741 E.02462
G1 X212.05 Y131.841 E.53268
G1 X212.05 Y132.488 E.02462
G1 X221.95 Y142.388 E.53268
G1 X221.95 Y143.036 E.02462
G1 X212.05 Y133.135 E.53268
G1 X212.05 Y133.782 E.02462
G1 X221.95 Y143.683 E.53268
G1 X221.95 Y144.33 E.02462
G1 X212.05 Y134.429 E.53268
G1 X212.05 Y135.077 E.02462
G1 X221.95 Y144.977 E.53268
G1 X221.95 Y145.624 E.02462
G1 X212.05 Y135.724 E.53268
G1 X212.05 Y136.371 E.02462
G1 X221.95 Y146.271 E.53268
G1 X221.95 Y146.918 E.02462
G1 X212.05 Y137.018 E.53268
G1 X212.05 Y137.665 E.02462
G1 X221.95 Y147.565 E.53268
G1 X221.95 Y148.212 E.02462
G1 X212.05 Y138.312 E.53268
G1 X212.05 Y138.959 E.02462
G1 X221.95 Y148.859 E.53268
G1 X221.95 Y149.506 E.02462
G1 X212.05 Y139.606 E.53268
G1 X212.05 Y140.253 E.02462
G1 X221.95 Y150.153 E.53268
G1 X221.95 Y150.8 E.02462
G1 X212.05 Y140.9 E.53268
G1 X212.05 Y141.547 E.02462
G1 X221.95 Y151.448 E.53268
G1 X221.95 Y152.095 E.02462
G1 X212.05 Y142.194 E.53268
G1 X212.05 Y142.841 E.02462
G1 X221.95 Y152.742 E.53268
G1 X221.95 Y153.389 E.02462
G1 X212.05 Y143.489 E.53268
G1 X212.05 Y144.136 E.02462
G1 X221.95 Y154.036 E.53268
G1 X221.95 Y154.683 E.02462
G1 X212.05 Y144.783 E.53268
G1 X212.05 Y145.43 E.02462
G1 X221.95 Y155.33 E.53268
G1 X221.95 Y155.977 E.02462
G1 X212.05 Y146.077 E.53268
G1 X212.05 Y146.724 E.02462
G1 X221.95 Y156.624 E.53268
G1 X221.95 Y157.271 E.02462
G1 X212.05 Y147.371 E.53268
G1 X212.05 Y148.018 E.02462
G1 X221.95 Y157.918 E.53268
G1 X221.95 Y158.565 E.02462
G1 X212.05 Y148.665 E.53268
G1 X212.05 Y149.312 E.02462
G1 X221.95 Y159.212 E.53268
G1 X221.95 Y159.86 E.02462
G1 X212.05 Y149.959 E.53268
G1 X212.05 Y150.606 E.02462
G1 X221.95 Y160.507 E.53268
G1 X221.95 Y161.154 E.02462
G1 X212.05 Y151.254 E.53268
G1 X212.05 Y151.901 E.02462
G1 X221.95 Y161.801 E.53268
G1 X221.95 Y162.448 E.02462
G1 X212.05 Y152.548 E.53268
G1 X212.05 Y153.195 E.02462
G1 X221.95 Y163.095 E.53268
G1 X221.95 Y163.742 E.02462
G1 X212.05 Y153.842 E.53268
G1 X212.05 Y154.489 E.02462
