; HEADER_BLOCK_START
; generated by OrcaSlicer 2.1.1 on 2024-10-15 at 10:12:49
; total layer number: 79
; filament_density: 1.24
; filament_diameter: 1.75
; max_z_height: 15.80
; HEADER_BLOCK_END

; THUMBNAIL_BLOCK_START

;
; THUMBNAIL_BLOCK_END

; THUMBNAIL_BLOCK_START

;
; THUMBNAIL_BLOCK_END

; external perimeters extrusion width = 0.42mm
; perimeters extrusion width = 0.45mm
; infill extrusion width = 0.45mm
; solid infill extrusion width = 0.45mm
; top infill extrusion width = 0.42mm
; first layer extrusion width = 0.50mm

; EXECUTABLE_BLOCK_START
EXCLUDE_OBJECT_DEFINE NAME=Cale_coque_arriere_v5.stl_id_0_copy_0 CENTER=115,115 POLYGON=[[87.5,115],[87.5079,114.546],[87.5317,114.093],[87.5712,113.641],[87.6265,113.191],[87.6975,112.743],[87.7841,112.297],[87.8862,111.855],[88.0036,111.417],[88.1363,110.983],[88.284,110.554],[88.4466,110.13],[88.6239,109.712],[88.8157,109.301],[89.0217,108.897],[89.2417,108.5],[89.4754,108.111],[89.7225,107.73],[89.9828,107.359],[90.2559,106.996],[90.5414,106.644],[90.8391,106.301],[91.1486,105.969],[91.4694,105.649],[91.8013,105.339],[92.1438,105.041],[92.4964,104.756],[92.8588,104.483],[93.2305,104.223],[93.611,103.975],[94,103.742],[94.3969,103.522],[94.8012,103.316],[95.2124,103.124],[95.6301,102.947],[96.0537,102.784],[96.4828,102.636],[96.9167,102.504],[97.355,102.386],[97.7971,102.284],[98.2426,102.197],[98.6908,102.127],[99.1411,102.071],[99.5932,102.032],[100.046,102.008],[100.5,102],[129.5,102],[129.954,102.008],[130.407,102.032],[130.859,102.071],[131.309,102.127],[131.757,102.197],[132.203,102.284],[132.645,102.386],[133.083,102.504],[133.517,102.636],[133.946,102.784],[134.37,102.947],[134.788,103.124],[135.199,103.316],[135.603,103.522],[136,103.742],[136.389,103.975],[136.77,104.223],[137.141,104.483],[137.504,104.756],[137.856,105.041],[138.199,105.339],[138.531,105.649],[138.851,105.969],[139.161,106.301],[139.459,106.644],[139.744,106.996],[140.017,107.359],[140.277,107.73],[140.525,108.111],[140.758,108.5],[140.978,108.897],[141.184,109.301],[141.376,109.712],[141.553,110.13],[141.716,110.554],[141.864,110.983],[141.996,111.417],[142.114,111.855],[142.216,112.297],[142.303,112.743],[142.373,113.191],[142.429,113.641],[142.468,114.093],[142.492,114.546],[142.5,115],[142.492,115.454],[142.468,115.907],[142.429,116.359],[142.373,116.809],[142.303,117.257],[142.216,117.703],[142.114,118.145],[141.996,118.583],[141.864,119.017],[141.716,119.446],[141.553,119.87],[141.376,120.288],[141.184,120.699],[140.978,121.103],[140.758,121.5],[140.525,121.889],[140.277,122.27],[140.017,122.641],[139.744,123.004],[139.459,123.356],[139.161,123.699],[138.851,124.031],[138.531,124.351],[138.199,124.661],[137.856,124.959],[137.504,125.244],[137.141,125.517],[136.77,125.777],[136.389,126.025],[136,126.258],[135.603,126.478],[135.199,126.684],[134.788,126.876],[134.37,127.053],[133.946,127.216],[133.517,127.364],[133.083,127.496],[132.645,127.614],[132.203,127.716],[131.757,127.802],[131.309,127.873],[130.859,127.929],[130.407,127.968],[129.954,127.992],[129.5,128],[100.5,128],[100.046,127.992],[99.5932,127.968],[99.1411,127.929],[98.6908,127.873],[98.2426,127.802],[97.7971,127.716],[97.355,127.614],[96.9167,127.496],[96.4828,127.364],[96.0537,127.216],[95.6301,127.053],[95.2124,126.876],[94.8012,126.684],[94.3969,126.478],[94,126.258],[93.611,126.025],[93.2305,125.777],[92.8588,125.517],[92.4964,125.244],[92.1438,124.959],[91.8013,124.661],[91.4694,124.351],[91.1486,124.031],[90.8391,123.699],[90.5414,123.356],[90.2559,123.004],[89.9828,122.641],[89.7225,122.27],[89.4754,121.889],[89.2417,121.5],[89.0217,121.103],[88.8157,120.699],[88.6239,120.288],[88.4466,119.87],[88.284,119.446],[88.1363,119.017],[88.0036,118.583],[87.8862,118.145],[87.7841,117.703],[87.6975,117.257],[87.6265,116.809],[87.5712,116.359],[87.5317,115.907],[87.5079,115.454],[87.5,115]]
M73 P0 R38
;TYPE:Custom
M220 S100
G90 ; use absolute coordinates
M83 ; extruder relative mode
M104 S150 ; set temporary nozzle temp to prevent oozing during homing
M140 S75 ; set final bed temp
G4 S30 ; allow partial nozzle warmup
G28 ; home all axis and restore leveling
BED_MESH_CALIBRATE PROFILE=adaptive ADAPTIVE=1 ADAPTIVE_MARGIN=0
G1 Z25 F240
G1 X10.0 Y30 F3000
M104 S257 ; set final nozzle temp
M190 S75 ; wait for bed temp to stabilize
M109 S257 ; wait for nozzle temp to stabilize
G1 Z0.28 F240
G92 E0 ; Move Z Axis up
G1 Z2.0 F5000 ; Move to start position
G1 X5 Y30 Z0.28 F300 ; Draw the first line
G1 X5 Y200 Z0.28 F1500 E15 ; Move to side a little
G1 X5.4 Y200 Z0.28 F5000.0 ; Draw the second line
G1 X5.4 Y50 Z0.28 F1500.0 E30 ; Reset Extruder
G92 E0 ; Move Z Axis up
G1 Z2.0 F3000
M117 Start Printing..
G90
G21
M83 ; use relative distances for extrusion
; filament start gcode
M106 S0
;LAYER_CHANGE
;Z:0.2
;HEIGHT:0.2
;BEFORE_LAYER_CHANGE
;0.2
G92 E0

M73 P1 R38
G1 E-.5 F1800
;_SET_FAN_SPEED_CHANGING_LAYER
SET_VELOCITY_LIMIT ACCEL=1000
SET_VELOCITY_LIMIT SQUARE_CORNER_VELOCITY=7
; printing object Cale coque arriere v5.stl id:0 copy 0
EXCLUDE_OBJECT_START NAME=Cale_coque_arriere_v5.stl_id_0_copy_0
G1 Z.2 F24000
G1 X126.867 Y136.607
G1 Z.2
G1 E.5 F1800
;TYPE:Inner wall
;WIDTH:0.499999
G1 X126.845 Y136.494 E.00429
G1 X126.752 Y135.479 E.03799
G1 X126.747 Y134.617 E.03211
G1 X126.843 Y133.51 E.04137
G1 X126.975 Y132.763 E.02827
G1 X127.157 Y132.034 E.02796
G1 X127.389 Y131.32 E.02798
G1 X127.665 Y130.636 E.02746
G1 X128.189 Y129.608 E.04298
G1 X128.572 Y128.995 E.02694
G1 X129.268 Y128.071 E.04307
G1 X130.02 Y127.265 E.04105
G1 X130.584 Y126.757 E.02827
G1 X131.164 Y126.303 E.02746
G1 X132.123 Y125.681 E.04258
G1 X132.956 Y125.252 E.03489
G1 X133.449 Y125.031 E.02012
G1 X134.548 Y124.653 E.04327
G1 X135.252 Y124.478 E.02705
G1 X136.191 Y124.325 E.03542
G1 X136.731 Y124.267 E.02022
G1 X137.772 Y124.245 E.0388
G1 X138.633 Y124.3 E.03211
G1 X139.732 Y124.474 E.04146
G1 X140.818 Y124.764 E.04186
G1 X141.518 Y125.019 E.02775
G1 X142.551 Y125.5 E.04247
G1 X143.516 Y126.081 E.04195
G1 X144.416 Y126.758 E.04194
G1 X145.239 Y127.526 E.04195
G1 X145.987 Y128.387 E.04246
G1 X146.421 Y128.983 E.02746
G1 X146.819 Y129.62 E.02796
G1 X147.164 Y130.269 E.0274
G1 X147.617 Y131.335 E.04313
G1 X147.935 Y132.376 E.04053
G1 X148.157 Y133.519 E.04336
G1 X148.225 Y134.147 E.02354
G1 X148.254 Y134.707 E.02087
G1 X148.254 Y135.362 E.0244
G1 X148.153 Y136.514 E.04307
G1 X148.057 Y137.066 E.0209
G1 X147.946 Y137.582 E.01965
G1 X147.606 Y138.693 E.04327
G1 X147.33 Y139.377 E.02745
G1 X147.001 Y140.052 E.02797
G1 X146.625 Y140.702 E.02798
G1 X146.205 Y141.325 E.02796
G1 X145.751 Y141.906 E.02746
G1 X144.963 Y142.751 E.04307
G1 X144.131 Y143.475 E.04105
G1 X143.526 Y143.914 E.02786
G1 X142.712 Y144.407 E.03542
G1 X142.222 Y144.669 E.02071
G1 X141.69 Y144.908 E.0217
G1 X141.185 Y145.11 E.02025
G1 X140.108 Y145.44 E.04195
G1 X139.003 Y145.655 E.04195
G1 X137.883 Y145.754 E.04186
G1 X137.122 Y145.754 E.02835
G1 X136.01 Y145.657 E.04157
G1 X135.263 Y145.525 E.02826
G1 X134.534 Y145.343 E.02798
G1 X133.82 Y145.111 E.02796
G1 X133.123 Y144.83 E.02798
G1 X132.461 Y144.507 E.02746
G1 X131.481 Y143.918 E.04258
G1 X130.731 Y143.357 E.0349
G1 X130.314 Y143.009 E.02022
G1 X129.575 Y142.275 E.03879
G1 X129.018 Y141.62 E.03202
G1 X128.579 Y141.017 E.02778
G1 X128.182 Y140.38 E.02796
G1 X127.828 Y139.715 E.02807
G1 X127.39 Y138.685 E.04166
G1 X127.065 Y137.624 E.04135
G1 X126.875 Y136.647 E.03709
G1 X126.418 Y136.695 F24000
G1 F1800
G1 X126.392 Y136.559 E.00515
G1 X126.296 Y135.501 E.03956
G1 X126.29 Y134.603 E.03345
G1 X126.391 Y133.444 E.04332
G1 X126.528 Y132.668 E.02938
G1 X126.717 Y131.908 E.02915
G1 X126.959 Y131.163 E.02917
G1 X127.249 Y130.446 E.0288
G1 X127.791 Y129.383 E.04447
G1 X128.195 Y128.736 E.02843
G1 X128.915 Y127.781 E.04453
G1 X129.703 Y126.935 E.04309
G1 X130.29 Y126.407 E.02937
G1 X130.899 Y125.931 E.02879
G1 X131.894 Y125.285 E.04418
G1 X132.747 Y124.846 E.03575
G1 X133.284 Y124.605 E.0219
G1 X134.418 Y124.215 E.04467
G1 X135.16 Y124.029 E.02851
G1 X136.118 Y123.874 E.03613
G1 X136.704 Y123.811 E.02197
G1 X137.782 Y123.788 E.04014
G1 X138.678 Y123.845 E.03345
G1 X139.829 Y124.027 E.04338
G1 X140.961 Y124.33 E.04367
G1 X141.693 Y124.596 E.029
G1 X142.766 Y125.096 E.0441
G1 X143.772 Y125.701 E.04373
G1 X144.71 Y126.408 E.04373
G1 X145.569 Y127.208 E.04373
G1 X146.345 Y128.102 E.04409
G1 X146.8 Y128.727 E.0288
G1 X147.107 Y129.218 E.02156
G1 X147.382 Y129.705 E.02082
G1 X147.704 Y130.371 E.02756
G1 X148.09 Y131.313 E.0379
G1 X148.295 Y131.963 E.02542
G1 X148.45 Y132.63 E.02548
G1 X148.625 Y133.595 E.03653
G1 X148.686 Y134.19 E.02229
G1 X148.711 Y134.707 E.01925
G1 X148.711 Y135.382 E.02515
G1 X148.606 Y136.573 E.04453
G1 X148.507 Y137.145 E.02161
G1 X148.388 Y137.699 E.02112
G1 X148.037 Y138.846 E.04467
G1 X147.748 Y139.563 E.02879
G1 X147.404 Y140.266 E.02916
G1 X147.013 Y140.945 E.02917
G1 X146.575 Y141.593 E.02915
G1 X146.099 Y142.203 E.0288
G1 X145.284 Y143.077 E.04453
G1 X144.411 Y143.836 E.04309
G1 X143.779 Y144.295 E.02909
G1 X142.949 Y144.798 E.03613
G1 X142.421 Y145.081 E.02232
G1 X141.877 Y145.325 E.02219
G1 X141.34 Y145.54 E.02155
G1 X140.218 Y145.884 E.04373
G1 X139.065 Y146.108 E.04373
G1 X137.897 Y146.211 E.04367
G1 X137.107 Y146.211 E.02944
G1 X135.944 Y146.109 E.04346
G1 X135.168 Y145.972 E.02937
G1 X134.408 Y145.783 E.02917
G1 X133.664 Y145.541 E.02915
G1 X132.937 Y145.248 E.02917
G1 X132.243 Y144.909 E.0288
G1 X131.226 Y144.298 E.04418
G1 X130.457 Y143.723 E.03576
G1 X130.004 Y143.345 E.02197
G1 X129.239 Y142.586 E.04014
G1 X128.658 Y141.903 E.03339
G1 X128.2 Y141.273 E.02903
G1 X127.785 Y140.609 E.02915
G1 X127.417 Y139.916 E.02923
G1 X126.96 Y138.84 E.04352
G1 X126.619 Y137.729 E.0433
G1 X126.426 Y136.734 E.03775
G1 X125.97 Y136.782 F24000
G1 F1800
G1 X125.939 Y136.623 E.00601
G1 X125.839 Y135.523 E.04114
G1 X125.832 Y134.589 E.03479
G1 X125.879 Y133.895 E.02592
G1 X125.938 Y133.379 E.01936
G1 X126.08 Y132.572 E.03048
G1 X126.277 Y131.782 E.03034
G1 X126.529 Y131.007 E.03036
G1 X126.832 Y130.257 E.03014
G1 X127.392 Y129.157 E.04595
G1 X127.818 Y128.476 E.02991
G1 X128.561 Y127.49 E.04599
G1 X129.023 Y126.974 E.02578
G1 X129.387 Y126.604 E.01936
G1 X129.996 Y126.056 E.03048
G1 X130.633 Y125.558 E.03013
G1 X131.664 Y124.889 E.04579
G1 X132.652 Y124.381 E.04139
G1 X133.118 Y124.179 E.01891
G1 X134.288 Y123.776 E.04608
G1 X135.068 Y123.581 E.02996
G1 X136.171 Y123.402 E.04161
G1 X136.678 Y123.354 E.01896
G1 X137.791 Y123.33 E.04149
G1 X138.724 Y123.389 E.0348
G1 X139.413 Y123.484 E.02591
G1 X139.925 Y123.58 E.0194
G1 X140.606 Y123.747 E.02613
G1 X141.105 Y123.895 E.01936
G1 X141.868 Y124.173 E.03026
G1 X142.981 Y124.692 E.04574
G1 X144.028 Y125.322 E.04551
G1 X145.004 Y126.057 E.04551
G1 X145.898 Y126.89 E.04552
G1 X146.703 Y127.817 E.04573
G1 X147.179 Y128.472 E.03014
G1 X147.611 Y129.162 E.03034
G1 X147.99 Y129.875 E.03008
G1 X148.409 Y130.862 E.03993
G1 X148.619 Y131.457 E.02349
G1 X148.785 Y132.021 E.0219
G1 X148.899 Y132.542 E.01989
G1 X149.08 Y133.546 E.03797
G1 X149.142 Y134.163 E.0231
G1 X149.168 Y134.707 E.02028
G1 X149.168 Y135.402 E.02589
G1 X149.06 Y136.632 E.04599
G1 X148.942 Y137.314 E.02578
G1 X148.83 Y137.816 E.01914
G1 X148.469 Y138.999 E.04608
G1 X148.166 Y139.749 E.03013
G1 X147.808 Y140.481 E.03035
G1 X147.401 Y141.187 E.03036
G1 X146.945 Y141.862 E.03034
G1 X146.447 Y142.5 E.03014
G1 X145.605 Y143.403 E.04599
G1 X145.092 Y143.868 E.02578
G1 X144.691 Y144.198 E.01936
G1 X144.032 Y144.676 E.03031
G1 X143.077 Y145.255 E.04161
G1 X142.62 Y145.492 E.01917
G1 X141.98 Y145.78 E.02613
G1 X141.495 Y145.97 E.0194
G1 X140.829 Y146.189 E.02613
G1 X140.327 Y146.328 E.0194
G1 X139.641 Y146.476 E.02613
G1 X139.127 Y146.561 E.0194
G1 X138.43 Y146.636 E.02613
G1 X137.911 Y146.668 E.01936
G1 X137.092 Y146.668 E.03052
G1 X136.395 Y146.621 E.02601
G1 X135.879 Y146.562 E.01936
G1 X135.073 Y146.42 E.03048
G1 X134.282 Y146.223 E.03036
G1 X133.507 Y145.971 E.03034
G1 X132.751 Y145.666 E.03036
G1 X132.024 Y145.311 E.03013
G1 X130.971 Y144.678 E.04579
G1 X130.081 Y144.012 E.04139
G1 X129.694 Y143.681 E.01896
G1 X128.903 Y142.897 E.04149
G1 X128.299 Y142.186 E.03475
G1 X127.821 Y141.528 E.03027
G1 X127.389 Y140.838 E.03034
G1 X127.006 Y140.117 E.0304
G1 X126.72 Y139.48 E.026
G1 X126.53 Y138.995 E.0194
G1 X126.311 Y138.329 E.02613
G1 X126.174 Y137.833 E.01914
G1 X125.977 Y136.821 E.03841
G1 X125.521 Y136.869 F24000
;TYPE:Outer wall
G1 F1800
G1 X125.486 Y136.688 E.00687
G1 X125.382 Y135.546 E.04272
G1 X125.375 Y134.575 E.03614
G1 X125.424 Y133.853 E.02695
G1 X125.486 Y133.313 E.02027
G1 X125.633 Y132.477 E.03159
G1 X125.838 Y131.656 E.03153
G1 X126.099 Y130.851 E.03155
G1 X126.416 Y130.067 E.03147
G1 X126.994 Y128.932 E.04744
G1 X127.441 Y128.217 E.0314
G1 X128.208 Y127.2 E.04745
G1 X128.689 Y126.662 E.0269
G1 X129.071 Y126.274 E.02027
G1 X129.702 Y125.706 E.03159
G1 X130.367 Y125.186 E.03147
G1 X131.434 Y124.493 E.04739
G1 X132.457 Y123.967 E.04281
G1 X132.952 Y123.752 E.02013
G1 X134.158 Y123.337 E.04748
G1 X134.976 Y123.133 E.03142
G1 X136.113 Y122.949 E.04288
G1 X136.651 Y122.897 E.02014
G1 X137.801 Y122.873 E.04284
G1 X138.769 Y122.934 E.03614
G1 X139.486 Y123.033 E.02694
G1 X140.022 Y123.133 E.02029
G1 X140.726 Y123.306 E.02702
G1 X141.248 Y123.461 E.02027
G1 X142.043 Y123.751 E.03152
G1 X143.196 Y124.288 E.04737
G1 X144.284 Y124.942 E.0473
G1 X145.298 Y125.706 E.0473
G1 X146.227 Y126.572 E.0473
G1 X147.062 Y127.532 E.04736
G1 X147.558 Y128.216 E.03147
G1 X148.007 Y128.934 E.03152
G1 X148.403 Y129.678 E.03142
G1 X148.829 Y130.684 E.04067
G1 X149.053 Y131.314 E.02492
G1 X149.226 Y131.899 E.02271
G1 X149.348 Y132.455 E.02121
G1 X149.534 Y133.497 E.0394
G1 X149.598 Y134.135 E.02391
G1 X149.625 Y134.707 E.0213
G1 X149.625 Y135.422 E.02663
G1 X149.514 Y136.691 E.04745
G1 X149.39 Y137.403 E.02691
G1 X149.273 Y137.932 E.02021
G1 X148.9 Y139.151 E.04748
G1 X148.583 Y139.935 E.03147
G1 X148.212 Y140.696 E.03154
G1 X147.789 Y141.429 E.03155
G1 X147.315 Y142.131 E.03153
G1 X146.795 Y142.797 E.03148
G1 X145.926 Y143.729 E.04746
G1 X145.391 Y144.214 E.02691
G1 X144.97 Y144.56 E.02027
G1 X144.285 Y145.057 E.03154
G1 X143.301 Y145.654 E.04288
G1 X142.819 Y145.904 E.02021
G1 X142.157 Y146.201 E.02702
G1 X141.65 Y146.4 E.02029
G1 X140.961 Y146.627 E.02702
G1 X140.436 Y146.772 E.02029
G1 X139.727 Y146.925 E.02702
G1 X139.189 Y147.014 E.02029
G1 X138.468 Y147.092 E.02702
G1 X137.925 Y147.125 E.02027
G1 X137.076 Y147.125 E.0316
G1 X136.353 Y147.076 E.02698
G1 X135.813 Y147.014 E.02027
G1 X134.978 Y146.867 E.03159
G1 X134.156 Y146.662 E.03155
G1 X133.351 Y146.401 E.03153
G1 X132.565 Y146.083 E.03155
G1 X131.806 Y145.713 E.03147
G1 X130.715 Y145.058 E.04739
G1 X129.795 Y144.369 E.04281
G1 X129.384 Y144.018 E.02015
G1 X128.568 Y143.208 E.04284
G1 X127.939 Y142.469 E.03612
G1 X127.442 Y141.784 E.03152
G1 X126.993 Y141.066 E.03153
G1 X126.595 Y140.318 E.03156
G1 X126.299 Y139.657 E.02698
G1 X126.1 Y139.15 E.02029
G1 X125.873 Y138.461 E.02702
G1 X125.729 Y137.938 E.02021
G1 X125.529 Y136.908 E.03907
G1 E-.5
;WIPE_START
G1 F12000
G1 X125.486 Y136.688
G1 X125.382 Y135.546
G1 X125.377 Y134.917
;WIPE_END
G1 Z.4 F24000
G1 X138.536 Y139.668 Z.4
G1 Z.2
G1 E.5 F1800
;TYPE:Inner wall
G1 X138.013 Y139.763 E.01982
G1 X137.326 Y139.775 E.02558
G1 X136.775 Y139.74 E.02058
G1 X136.262 Y139.631 E.01951
G1 X135.483 Y139.336 E.03103
G1 X135.056 Y139.12 E.01783
G1 X134.495 Y138.73 E.02546
G1 X134.236 Y138.506 E.01274
G1 X133.771 Y138.006 E.02545
G1 X133.566 Y137.732 E.01274
G1 X133.217 Y137.144 E.02547
G1 X132.997 Y136.63 E.02083
G1 X132.859 Y136.185 E.01734
G1 X132.737 Y135.513 E.02546
G1 X132.726 Y134.813 E.02606
G1 X132.761 Y134.267 E.02037
G1 X132.87 Y133.76 E.01934
G1 X133.148 Y133.02 E.02944
G1 X133.349 Y132.603 E.01723
G1 X133.663 Y132.122 E.02141
G1 X134.059 Y131.684 E.02196
G1 X134.422 Y131.324 E.01907
G1 X135.056 Y130.88 E.02881
G1 X135.679 Y130.582 E.02574
G1 X136.174 Y130.391 E.01975
G1 X136.985 Y130.238 E.03076
G1 X137.71 Y130.212 E.02699
G1 X138.259 Y130.282 E.02062
G1 X138.783 Y130.379 E.01984
G1 X139.644 Y130.716 E.03445
G1 X140.139 Y131.015 E.02154
