; HEADER_BLOCK_START
; generated by OrcaSlicer 2.2.0 on 2024-11-11 at 09:12:28
; total layer number: 15
; filament_density: 1.24
; filament_diameter: 1.75
; max_z_height: 3.00
; HEADER_BLOCK_END

; THUMBNAIL_BLOCK_START

;
; THUMBNAIL_BLOCK_END

; THUMBNAIL_BLOCK_START

;
; THUMBNAIL_BLOCK_END

; external perimeters extrusion width = 0.42mm
; perimeters extrusion width = 0.45mm
; infill extrusion width = 0.45mm
; solid infill extrusion width = 0.45mm
; top infill extrusion width = 0.42mm
; first layer extrusion width = 0.50mm

; external perimeters extrusion width = 0.42mm
; perimeters extrusion width = 0.45mm
; infill extrusion width = 0.45mm
; solid infill extrusion width = 0.45mm
; top infill extrusion width = 0.42mm
; first layer extrusion width = 0.50mm

; external perimeters extrusion width = 0.42mm
; perimeters extrusion width = 0.45mm
; infill extrusion width = 0.45mm
; solid infill extrusion width = 0.45mm
; top infill extrusion width = 0.42mm
; first layer extrusion width = 0.50mm

; external perimeters extrusion width = 0.42mm
; perimeters extrusion width = 0.45mm
; infill extrusion width = 0.45mm
; solid infill extrusion width = 0.45mm
; top infill extrusion width = 0.42mm
; first layer extrusion width = 0.50mm

; EXECUTABLE_BLOCK_START
EXCLUDE_OBJECT_DEFINE NAME=Carpuride_C_v21.stl_2_id_0_copy_0 CENTER=124,124 POLYGON=[[116,116],[132,116],[132,132],[116,132],[116,116]]
EXCLUDE_OBJECT_DEFINE NAME=Carpuride_C_v21.stl_2_id_1_copy_0 CENTER=124,106 POLYGON=[[116,98],[132,98],[132,114],[116,114],[116,98]]
EXCLUDE_OBJECT_DEFINE NAME=Carpuride_C_v21.stl_2_id_2_copy_0 CENTER=106,124 POLYGON=[[98,116],[114,116],[114,132],[98,132],[98,116]]
EXCLUDE_OBJECT_DEFINE NAME=Carpuride_C_v21.stl_2_id_3_copy_0 CENTER=106,106 POLYGON=[[98,98],[114,98],[114,114],[98,114],[98,98]]
M73 P0 R8
;TYPE:Custom
M220 S100
G90 ; use absolute coordinates
M83 ; extruder relative mode
M104 S150 ; set temporary nozzle temp to prevent oozing during homing
M140 S75 ; set final bed temp
G4 S30 ; allow partial nozzle warmup
G28 ; home all axis and restore leveling
BED_MESH_CALIBRATE PROFILE=adaptive ADAPTIVE=1 ADAPTIVE_MARGIN=0
G1 Z25 F240
G1 X10.0 Y30 F3000
M73 P1 R8
M104 S257 ; set final nozzle temp
M190 S75 ; wait for bed temp to stabilize
M109 S257 ; wait for nozzle temp to stabilize
M73 P1 R8
G1 Z0.28 F240
G92 E0 ; Move Z Axis up
G1 Z2.0 F5000 ; Move to start position
M73 P2 R8
M73 P2 R8
G1 X5 Y30 Z0.28 F300 ; Draw the first line
G1 X5 Y200 Z0.28 F1500 E15 ; Move to side a little
G1 X5.4 Y200 Z0.28 F5000.0 ; Draw the second line
M73 P4 R8
M73 P4 R8
G1 X5.4 Y50 Z0.28 F1500.0 E30 ; Reset Extruder
G92 E0 ; Move Z Axis up
G1 Z2.0 F3000
M73 P5 R8
M117 Start Printing..
G90
G21
M83 ; use relative distances for extrusion
; filament start gcode
M106 S0
;LAYER_CHANGE
;Z:0.2
;HEIGHT:0.2
;BEFORE_LAYER_CHANGE
;0.2
G92 E0

M73 P5 R8
G1 E-.5 F1800
;_SET_FAN_SPEED_CHANGING_LAYER
SET_VELOCITY_LIMIT ACCEL=1000
SET_VELOCITY_LIMIT SQUARE_CORNER_VELOCITY=7
; printing object Carpuride C v21.stl_2 id:2 copy 0
EXCLUDE_OBJECT_START NAME=Carpuride_C_v21.stl_2_id_2_copy_0
G1 Z.4 F24000
G1 X121.243 Y151.243
M73 P5 R7
M73 P5 R7
G1 Z.4
G1 Z.2
G1 E.5 F1800
;TYPE:Inner wall
;WIDTH:0.499999
G1 F3000
G1 X106.757 Y151.243 E.53954
G1 X106.757 Y136.757 E.53954
G1 X121.243 Y136.757 E.53954
G1 X121.243 Y151.203 E.53805
G1 X121.7 Y151.7 F24000
;TYPE:Outer wall
G1 F3000
G1 X106.3 Y151.7 E.57359
G1 X106.3 Y136.3 E.57359
G1 X121.7 Y136.3 E.57359
G1 X121.7 Y151.66 E.5721
M73 P6 R7
M73 P6 R7
G1 E-.5 F1800
;WIPE_START
G1 F12000
G1 X119.7 Y151.665
;WIPE_END
G1 Z.4 F24000
G1 X115.815 Y147.447 Z.4
G1 Z.2
G1 E.5 F1800
;TYPE:Inner wall
G1 F3000
G1 X115.068 Y147.755 E.03009
G1 X114.19 Y147.899 E.03315
G1 X113.302 Y147.841 E.03315
G1 X112.45 Y147.583 E.03315
G1 X111.679 Y147.138 E.03315
G1 X111.225 Y146.722 E.02294
G1 X110.929 Y146.41 E.01601
G1 X110.532 Y145.792 E.02736
G1 X110.216 Y144.96 E.03315
G1 X110.097 Y144.078 E.03315
G1 X110.181 Y143.192 E.03315
G1 X110.458 Y142.36 E.03268
G1 X110.928 Y141.591 E.03354
G1 X111.555 Y140.957 E.03322
G1 X112.308 Y140.482 E.03315
G1 X113.148 Y140.19 E.03315
G1 X114.021 Y140.097 E.03268
G1 X114.632 Y140.148 E.02286
G1 X115.343 Y140.335 E.02737
G1 X116.138 Y140.734 E.03315
G1 X116.823 Y141.303 E.03315
G1 X117.36 Y142.013 E.03315
G1 X117.723 Y142.825 E.03313
G1 X117.892 Y143.699 E.03316
G1 X117.859 Y144.589 E.03315
G1 X117.63 Y145.435 E.03268
G1 X117.204 Y146.229 E.03354
G1 X116.674 Y146.834 E.02994
G1 X116.497 Y147.001 E.00908
G1 X115.89 Y147.415 E.02736
G1 X115.852 Y147.431 E.00157
G1 X115.655 Y147.021 F24000
;TYPE:Outer wall
G1 F3000
G1 X115.632 Y147.038 E.00105
G1 X114.902 Y147.329 E.02929
G1 X114.125 Y147.447 E.02929
G1 X113.341 Y147.385 E.02929
G1 X112.591 Y147.148 E.02929
G1 X111.915 Y146.747 E.02929
G1 X111.543 Y146.394 E.01908
G1 X111.314 Y146.163 E.01214
G1 X110.917 Y145.545 E.02736
G1 X110.647 Y144.807 E.02929
G1 X110.551 Y144.026 E.02929
G1 X110.635 Y143.244 E.02929
G1 X110.889 Y142.513 E.02883
G1 X111.313 Y141.838 E.02971
G1 X111.873 Y141.285 E.02931
G1 X112.544 Y140.874 E.02929
G1 X113.29 Y140.625 E.02929
G1 X114.06 Y140.552 E.02884
G1 X114.516 Y140.59 E.01704
G1 X115.227 Y140.777 E.02737
G1 X115.925 Y141.138 E.02929
G1 X116.523 Y141.649 E.02929
G1 X116.99 Y142.281 E.02929
G1 X117.302 Y143.003 E.02927
G1 X117.442 Y143.777 E.0293
G1 X117.403 Y144.562 E.02929
G1 X117.191 Y145.307 E.02883
G1 X116.806 Y146.006 E.02971
G1 X116.338 Y146.525 E.02604
G1 X115.688 Y146.998 E.02995
G1 E-.5 F1800
;WIPE_START
G1 F12000
G1 X115.632 Y147.038
G1 X114.902 Y147.329
G1 X114.125 Y147.447
G1 X113.766 Y147.419
;WIPE_END
G1 Z.4 F24000
G1 X121.106 Y137.821
G1 Z.4
G1 Z.2
G1 E.5 F1800
;TYPE:Bottom surface
;WIDTH:0.501167
G1 F6300
G1 X120.385 Y137.1 E.03806
G1 X119.737 Y137.1 E.0242
G1 X120.9 Y138.263 E.06142
G1 X120.9 Y138.911 E.0242
G1 X119.089 Y137.1 E.09565
G1 X118.441 Y137.1 E.0242
G1 X120.9 Y139.559 E.12987
G1 X120.9 Y140.207 E.0242
G1 X117.793 Y137.1 E.16409
G1 X117.145 Y137.1 E.0242
G1 X120.9 Y140.855 E.19832
G1 X120.9 Y141.503 E.0242
G1 X116.497 Y137.1 E.23254
G1 X115.849 Y137.1 E.0242
G1 X120.9 Y142.151 E.26676
G1 X120.9 Y142.799 E.0242
G1 X115.201 Y137.1 E.30099
G1 X114.553 Y137.1 E.0242
G1 X120.9 Y143.447 E.33521
G1 X120.9 Y144.096 E.0242
G1 X113.904 Y137.1 E.36943
G1 X113.256 Y137.1 E.0242
G1 X120.9 Y144.744 E.40365
G1 X120.9 Y145.392 E.0242
G1 X117.92 Y142.412 E.15737
G1 X117.75 Y142.009 E.01631
G1 X117.641 Y141.817 E.00827
G1 X117.202 Y141.212 E.02788
G1 X117.073 Y141.067 E.00726
G1 X116.487 Y140.559 E.02896
G1 X116.304 Y140.434 E.00827
G1 X115.562 Y140.054 E.03114
G1 X112.608 Y137.1 E.15598
G1 X111.96 Y137.1 E.0242
G1 X114.667 Y139.807 E.14296
G1 X114.546 Y139.786 E.00459
M73 P7 R7
M73 P7 R7
G1 X113.97 Y139.757 E.02155
G1 X111.312 Y137.1 E.14033
G1 X110.664 Y137.1 E.0242
G1 X113.376 Y139.811 E.14319
G1 X113.18 Y139.829 E.00735
G1 X112.849 Y139.933 E.01294
G1 X110.016 Y137.1 E.14961
G1 X109.368 Y137.1 E.0242
G1 X112.356 Y140.088 E.15778
G1 X112.136 Y140.185 E.00897
G1 X111.93 Y140.31 E.009
G1 X108.72 Y137.1 E.16951
G1 X108.072 Y137.1 E.0242
G1 X111.526 Y140.554 E.18238
G1 X111.321 Y140.707 E.00955
G1 X111.174 Y140.85 E.00766
G1 X107.424 Y137.1 E.19801
G1 X107.1 Y137.1 E.0121
G1 X107.1 Y137.424 E.0121
G1 X110.845 Y141.169 E.19777
G1 X110.643 Y141.401 E.0115
G1 X110.56 Y141.532 E.00577
G1 X107.1 Y138.072 E.1827
G1 X107.1 Y138.72 E.0242
G1 X110.307 Y141.927 E.16936
G1 X110.234 Y142.041 E.00506
G1 X110.094 Y142.362 E.01307
G1 X107.1 Y139.368 E.15809
G1 X107.1 Y140.016 E.0242
G1 X109.924 Y142.84 E.14911
G1 X109.841 Y143.147 E.01188
G1 X109.816 Y143.38 E.00876
G1 X107.1 Y140.664 E.14343
G1 X107.1 Y141.312 E.0242
G1 X109.753 Y143.965 E.1401
G1 X109.824 Y144.685 E.027
G1 X106.894 Y141.755 E.15474
G1 E-.5 F1800
;WIPE_START
G1 F12000
G1 X108.308 Y143.169
;WIPE_END
G1 Z.4 F24000
G1 X117.919 Y143.058 Z.4
G1 Z.2
G1 E.5 F1800
G1 F6300
G1 X120.9 Y146.04 E.15745
G1 X120.9 Y146.688 E.0242
G1 X118.232 Y144.02 E.14088
G1 X118.194 Y144.63 E.02282
G1 X120.9 Y147.336 E.14289
G1 X120.9 Y147.984 E.0242
G1 X118.067 Y145.151 E.1496
G1 X117.912 Y145.644 E.0193
G1 X120.9 Y148.632 E.15779
G1 X120.9 Y149.28 E.0242
G1 X117.688 Y146.068 E.16963
G1 X117.447 Y146.475 E.01767
G1 X120.9 Y149.928 E.18233
G1 X120.9 Y150.576 E.0242
G1 X117.148 Y146.824 E.19813
G1 X116.835 Y147.159 E.01712
G1 X120.576 Y150.9 E.19755
G1 X119.928 Y150.9 E.0242
G1 X116.465 Y147.438 E.18285
G1 X116.081 Y147.701 E.01741
G1 X119.28 Y150.9 E.16896
G1 X118.632 Y150.9 E.0242
G1 X115.634 Y147.902 E.15831
G1 X115.166 Y148.082 E.01873
G1 X117.984 Y150.9 E.14881
G1 X117.336 Y150.9 E.0242
G1 X114.616 Y148.18 E.14365
G1 X114.095 Y148.249 E.01961
G1 X114.032 Y148.244 E.00236
G1 X116.688 Y150.9 E.14025
G1 X116.04 Y150.9 E.0242
G1 X113.067 Y147.927 E.15699
G1 E-.5 F1800
M73 P8 R7
;WIPE_START
M73 P8 R7
G1 F12000
G1 X114.481 Y149.342
;WIPE_END
G1 Z.4 F24000
G1 X115.597 Y151.106 Z.4
G1 Z.2
G1 E.5 F1800
G1 F6300
G1 X112.427 Y147.936 E.1674
G1 X112.136 Y147.815 E.01177
G1 X111.496 Y147.429 E.02792
G1 X111.321 Y147.293 E.00827
G1 X110.784 Y146.772 E.02791
G1 X110.644 Y146.601 E.00827
G1 X110.24 Y145.972 E.02792
G1 X110.142 Y145.773 E.0083
G1 X110.079 Y145.588 E.00729
G1 X107.1 Y142.608 E.15733
G1 X107.1 Y143.257 E.0242
G1 X114.743 Y150.9 E.40365
G1 X114.095 Y150.9 E.0242
G1 X107.1 Y143.905 E.36942
G1 X107.1 Y144.553 E.0242
G1 X113.447 Y150.9 E.3352
G1 X112.799 Y150.9 E.0242
G1 X107.1 Y145.201 E.30098
G1 X107.1 Y145.849 E.0242
G1 X112.151 Y150.9 E.26676
G1 X111.503 Y150.9 E.0242
G1 X107.1 Y146.497 E.23253
G1 X107.1 Y147.145 E.0242
G1 X110.855 Y150.9 E.19831
G1 X110.207 Y150.9 E.0242
G1 X107.1 Y147.793 E.16409
G1 X107.1 Y148.441 E.0242
G1 X109.559 Y150.9 E.12986
G1 X108.911 Y150.9 E.0242
G1 X107.1 Y149.089 E.09564
G1 X107.1 Y149.737 E.0242
G1 X108.263 Y150.9 E.06142
G1 X107.615 Y150.9 E.0242
G1 X106.894 Y150.179 E.03806
; stop printing object Carpuride C v21.stl_2 id:2 copy 0
; printing object Carpuride C v21.stl_2 id:0 copy 0
G1 E-.5 F1800
;WIPE_START
G1 F12000
G1 X107.615 Y150.9
G1 X108.263 Y150.9
G1 X108.028 Y150.665
;WIPE_END
EXCLUDE_OBJECT_END NAME=Carpuride_C_v21.stl_2_id_2_copy_0
EXCLUDE_OBJECT_START NAME=Carpuride_C_v21.stl_2_id_0_copy_0
G1 Z.4 F24000
G1 X139.243 Y151.243 Z.4
G1 Z.2
G1 E.5 F1800
;TYPE:Inner wall
;WIDTH:0.499999
G1 F3000
G1 X124.757 Y151.243 E.53954
G1 X124.757 Y136.757 E.53954
G1 X139.243 Y136.757 E.53954
G1 X139.243 Y151.203 E.53805
G1 X139.7 Y151.7 F24000
;TYPE:Outer wall
G1 F3000
G1 X124.3 Y151.7 E.57359
G1 X124.3 Y136.3 E.57359
G1 X139.7 Y136.3 E.57359
M73 P9 R7
M73 P9 R7
G1 X139.7 Y151.66 E.5721
G1 E-.5 F1800
;WIPE_START
G1 F12000
G1 X137.7 Y151.665
;WIPE_END
G1 Z.4 F24000
G1 X133.815 Y147.447 Z.4
G1 Z.2
G1 E.5 F1800
;TYPE:Inner wall
G1 F3000
G1 X133.068 Y147.755 E.03009
G1 X132.19 Y147.899 E.03315
G1 X131.302 Y147.841 E.03315
G1 X130.45 Y147.583 E.03315
G1 X129.679 Y147.138 E.03315
G1 X129.225 Y146.722 E.02294
G1 X128.929 Y146.41 E.01601
G1 X128.532 Y145.792 E.02736
G1 X128.216 Y144.96 E.03315
G1 X128.097 Y144.078 E.03315
G1 X128.181 Y143.192 E.03315
G1 X128.458 Y142.36 E.03268
G1 X128.928 Y141.591 E.03354
G1 X129.555 Y140.957 E.03322
G1 X130.308 Y140.482 E.03315
G1 X131.148 Y140.19 E.03315
G1 X132.021 Y140.097 E.03268
G1 X132.632 Y140.148 E.02286
G1 X133.343 Y140.335 E.02737
G1 X134.138 Y140.734 E.03315
G1 X134.823 Y141.303 E.03315
G1 X135.36 Y142.013 E.03315
G1 X135.723 Y142.825 E.03313
G1 X135.892 Y143.699 E.03316
G1 X135.859 Y144.589 E.03315
G1 X135.63 Y145.435 E.03268
G1 X135.204 Y146.229 E.03354
G1 X134.674 Y146.834 E.02994
G1 X134.497 Y147.001 E.00908
G1 X133.89 Y147.415 E.02736
G1 X133.852 Y147.431 E.00157
G1 X133.655 Y147.021 F24000
;TYPE:Outer wall
G1 F3000
G1 X133.632 Y147.038 E.00105
G1 X132.902 Y147.329 E.02929
G1 X132.125 Y147.447 E.02929
G1 X131.341 Y147.385 E.02929
G1 X130.591 Y147.148 E.02929
G1 X129.915 Y146.747 E.02929
G1 X129.543 Y146.394 E.01908
G1 X129.314 Y146.163 E.01214
G1 X128.917 Y145.545 E.02736
G1 X128.647 Y144.807 E.02929
G1 X128.551 Y144.026 E.02929
G1 X128.635 Y143.244 E.02929
G1 X128.889 Y142.513 E.02883
G1 X129.313 Y141.838 E.02971
G1 X129.873 Y141.285 E.02931
G1 X130.544 Y140.874 E.02929
G1 X131.29 Y140.625 E.02929
G1 X132.06 Y140.552 E.02884
G1 X132.516 Y140.59 E.01704
G1 X133.227 Y140.777 E.02737
G1 X133.925 Y141.138 E.02929
G1 X134.523 Y141.649 E.02929
G1 X134.99 Y142.281 E.02929
G1 X135.302 Y143.003 E.02927
G1 X135.442 Y143.777 E.0293
G1 X135.403 Y144.562 E.02929
G1 X135.191 Y145.307 E.02883
G1 X134.806 Y146.006 E.02971
G1 X134.338 Y146.525 E.02604
G1 X133.688 Y146.998 E.02995
G1 E-.5 F1800
;WIPE_START
G1 F12000
G1 X133.632 Y147.038
G1 X132.902 Y147.329
G1 X132.125 Y147.447
G1 X131.766 Y147.419
;WIPE_END
G1 Z.4 F24000
G1 X139.106 Y137.821 Z.4
G1 Z.2
G1 E.5 F1800
;TYPE:Bottom surface
;WIDTH:0.501167
G1 F6300
G1 X138.385 Y137.1 E.03806
G1 X137.737 Y137.1 E.0242
G1 X138.9 Y138.263 E.06142
G1 X138.9 Y138.911 E.0242
G1 X137.089 Y137.1 E.09565
G1 X136.441 Y137.1 E.0242
G1 X138.9 Y139.559 E.12987
G1 X138.9 Y140.207 E.0242
G1 X135.793 Y137.1 E.16409
G1 X135.145 Y137.1 E.0242
G1 X138.9 Y140.855 E.19832
G1 X138.9 Y141.503 E.0242
G1 X134.497 Y137.1 E.23254
G1 X133.849 Y137.1 E.0242
G1 X138.9 Y142.151 E.26676
G1 X138.9 Y142.799 E.0242
G1 X133.201 Y137.1 E.30099
G1 X132.553 Y137.1 E.0242
G1 X138.9 Y143.447 E.33521
G1 X138.9 Y144.096 E.0242
G1 X131.904 Y137.1 E.36943
G1 X131.256 Y137.1 E.0242
G1 X138.9 Y144.744 E.40365
G1 X138.9 Y145.392 E.0242
G1 X135.92 Y142.412 E.15737
G1 X135.75 Y142.009 E.01631
M73 P10 R7
M73 P10 R7
G1 X135.641 Y141.817 E.00827
G1 X135.202 Y141.212 E.02788
G1 X135.073 Y141.067 E.00726
G1 X134.487 Y140.559 E.02896
G1 X134.304 Y140.434 E.00827
G1 X133.562 Y140.054 E.03114
G1 X130.608 Y137.1 E.15598
G1 X129.96 Y137.1 E.0242
G1 X132.667 Y139.807 E.14296
G1 X132.546 Y139.786 E.00459
G1 X131.97 Y139.757 E.02155
G1 X129.312 Y137.1 E.14033
G1 X128.664 Y137.1 E.0242
G1 X131.376 Y139.811 E.14319
G1 X131.18 Y139.829 E.00735
G1 X130.849 Y139.933 E.01294
G1 X128.016 Y137.1 E.14961
G1 X127.368 Y137.1 E.0242
G1 X130.356 Y140.088 E.15778
G1 X130.136 Y140.185 E.00897
G1 X129.93 Y140.31 E.009
G1 X126.72 Y137.1 E.16951
G1 X126.072 Y137.1 E.0242
G1 X129.526 Y140.554 E.18238
G1 X129.321 Y140.707 E.00955
G1 X129.174 Y140.85 E.00766
G1 X125.424 Y137.1 E.19801
G1 X125.1 Y137.1 E.0121
G1 X125.1 Y137.424 E.0121
G1 X128.845 Y141.169 E.19777
G1 X128.643 Y141.401 E.0115
G1 X128.56 Y141.532 E.00577
G1 X125.1 Y138.072 E.1827
G1 X125.1 Y138.72 E.0242
G1 X128.307 Y141.927 E.16936
G1 X128.234 Y142.041 E.00506
G1 X128.094 Y142.362 E.01307
G1 X125.1 Y139.368 E.15809
G1 X125.1 Y140.016 E.0242
G1 X127.924 Y142.84 E.14911
G1 X127.841 Y143.147 E.01188
G1 X127.816 Y143.38 E.00876
G1 X125.1 Y140.664 E.14343
G1 X125.1 Y141.312 E.0242
G1 X127.753 Y143.965 E.1401
G1 X127.824 Y144.685 E.027
G1 X124.894 Y141.755 E.15474
G1 E-.5 F1800
;WIPE_START
G1 F12000
G1 X126.308 Y143.169
;WIPE_END
G1 Z.4 F24000
G1 X135.919 Y143.058 Z.4
G1 Z.2
G1 E.5 F1800
G1 F6300
G1 X138.9 Y146.04 E.15745
G1 X138.9 Y146.688 E.0242
G1 X136.232 Y144.02 E.14088
G1 X136.194 Y144.63 E.02282
G1 X138.9 Y147.336 E.14289
G1 X138.9 Y147.984 E.0242
G1 X136.067 Y145.151 E.1496
G1 X135.912 Y145.644 E.0193
G1 X138.9 Y148.632 E.15779
G1 X138.9 Y149.28 E.0242
G1 X135.688 Y146.068 E.16963
G1 X135.447 Y146.475 E.01767
G1 X138.9 Y149.928 E.18233
G1 X138.9 Y150.576 E.0242
G1 X135.148 Y146.824 E.19813
G1 X134.835 Y147.159 E.01712
G1 X138.576 Y150.9 E.19755
G1 X137.928 Y150.9 E.0242
G1 X134.465 Y147.438 E.18285
G1 X134.081 Y147.701 E.01741
G1 X137.28 Y150.9 E.16896
G1 X136.632 Y150.9 E.0242
G1 X133.634 Y147.902 E.15831
G1 X133.166 Y148.082 E.01873
G1 X135.984 Y150.9 E.14881
G1 X135.336 Y150.9 E.0242
M73 P11 R7
M73 P11 R7
G1 X132.616 Y148.18 E.14365
G1 X132.095 Y148.249 E.01961
G1 X132.032 Y148.244 E.00236
G1 X134.688 Y150.9 E.14025
G1 X134.04 Y150.9 E.0242
G1 X131.067 Y147.927 E.15699
G1 E-.5 F1800
;WIPE_START
G1 F12000
G1 X132.481 Y149.342
;WIPE_END
G1 Z.4 F24000
G1 X133.597 Y151.106 Z.4
G1 Z.2
G1 E.5 F1800
G1 F6300
G1 X130.427 Y147.936 E.1674
G1 X130.136 Y147.815 E.01177
G1 X129.496 Y147.429 E.02792
