; HEADER_BLOCK_START
; generated by OrcaSlicer 2.2.0 on 2024-11-13 at 13:47:34
; total layer number: 70
; filament_density: 1.27
; filament_diameter: 1.75
; max_z_height: 14.00
; HEADER_BLOCK_END

; THUMBNAIL_BLOCK_START

;
; THUMBNAIL_BLOCK_END

; THUMBNAIL_BLOCK_START

;
; THUMBNAIL_BLOCK_END

; external perimeters extrusion width = 0.42mm
; perimeters extrusion width = 0.45mm
; infill extrusion width = 0.45mm
; solid infill extrusion width = 0.45mm
; top infill extrusion width = 0.42mm
; first layer extrusion width = 0.50mm

; EXECUTABLE_BLOCK_START
EXCLUDE_OBJECT_DEFINE NAME=Carpuride_E_v6.stl_id_0_copy_0 CENTER=115,115 POLYGON=[[19.5,113],[210.5,113],[210.5,117],[19.5,117],[19.5,113]]
M73 P0 R15
;TYPE:Custom
M220 S100
G90 ; use absolute coordinates
M83 ; extruder relative mode
M104 S150 ; set temporary nozzle temp to prevent oozing during homing
M140 S70 ; set final bed temp
G4 S30 ; allow partial nozzle warmup
G28 ; home all axis and restore leveling
BED_MESH_CALIBRATE PROFILE=adaptive ADAPTIVE=1 ADAPTIVE_MARGIN=0
G1 Z25 F240
G1 X10.0 Y30 F3000
M73 P0 R14
M104 S245 ; set final nozzle temp
M190 S70 ; wait for bed temp to stabilize
M109 S245 ; wait for nozzle temp to stabilize
M73 P0 R14
G1 Z0.28 F240
G92 E0 ; Move Z Axis up
G1 Z2.0 F5000 ; Move to start position
M73 P1 R14
M73 P1 R14
G1 X5 Y30 Z0.28 F300 ; Draw the first line
G1 X5 Y200 Z0.28 F1500 E15 ; Move to side a little
G1 X5.4 Y200 Z0.28 F5000.0 ; Draw the second line
M73 P2 R14
M73 P2 R14
G1 X5.4 Y50 Z0.28 F1500.0 E30 ; Reset Extruder
G92 E0 ; Move Z Axis up
G1 Z2.0 F3000
M73 P3 R14
M117 Start Printing..
G90
G21
M83 ; use relative distances for extrusion
; filament start gcode
M106 S0
;LAYER_CHANGE
;Z:0.2
;HEIGHT:0.2
;BEFORE_LAYER_CHANGE
;0.2
G92 E0

M73 P3 R14
G1 E-.5 F1800
;_SET_FAN_SPEED_CHANGING_LAYER
SET_VELOCITY_LIMIT ACCEL=1000
SET_VELOCITY_LIMIT SQUARE_CORNER_VELOCITY=7
; printing object Carpuride E v6.stl id:0 copy 0
EXCLUDE_OBJECT_START NAME=Carpuride_E_v6.stl_id_0_copy_0
G1 Z.4 F24000
G1 X105.572 Y134.493
G1 Z.4
G1 Z.2
G1 E.5 F1800
;TYPE:Inner wall
;WIDTH:0.514381
G1 F3000
G1 X105.071 Y134.236 E.02097
G1 X98.822 Y134.236 E.23274
G1 X98.485 Y134.406 E.01405
;WIDTH:0.499999
G1 X98.274 Y134.723 E.01375
G1 X98.243 Y135.243 E.01881
G1 X87.757 Y135.243 E.3786
G1 X87.726 Y134.723 E.01881
G1 X87.515 Y134.406 E.01375
;WIDTH:0.514381
G1 X87.071 Y134.236 E.01768
G1 X81.319 Y134.236 E.21423
G1 X80.88 Y134.517 E.01942
;WIDTH:0.499999
G1 X80.743 Y134.929 E.01566
G1 X80.743 Y136.243 E.04746
G1 X28.257 Y136.243 E1.89505
G1 X28.257 Y133.757 E.08975
G1 X80.5 Y133.757 E1.88628
;WIDTH:0.514381
G1 X87.753 Y133.757 E.27011
;WIDTH:0.499999
G1 X98.247 Y133.757 E.37891
;WIDTH:0.514381
G1 X106 Y133.757 E.28873
;WIDTH:0.499999
G1 X140 Y133.757 E1.2276
;WIDTH:0.514381
G1 X147.753 Y133.757 E.28873
;WIDTH:0.499999
G1 X158.247 Y133.757 E.37891
;WIDTH:0.514381
G1 X165.5 Y133.757 E.27011
;WIDTH:0.499999
G1 X217.743 Y133.757 E1.88628
G1 X217.743 Y136.243 E.08975
G1 X165.257 Y136.243 E1.89505
G1 X165.257 Y135 E.04488
G1 X165.12 Y134.517 E.01812
;WIDTH:0.514381
G1 X164.571 Y134.236 E.02296
G1 X158.822 Y134.236 E.21412
G1 X158.485 Y134.406 E.01405
;WIDTH:0.499999
G1 X158.274 Y134.723 E.01375
G1 X158.243 Y135.243 E.01881
G1 X147.757 Y135.243 E.3786
G1 X147.726 Y134.723 E.01881
G1 X147.515 Y134.406 E.01375
;WIDTH:0.514381
G1 X147.071 Y134.236 E.01768
G1 X140.819 Y134.236 E.23285
G1 X140.38 Y134.517 E.01942
;WIDTH:0.499999
G1 X140.243 Y134.929 E.01566
G1 X140.243 Y136.243 E.04746
G1 X105.757 Y136.243 E1.24514
G1 X105.757 Y135 E.04488
M73 P4 R14
M73 P4 R14
G1 X105.62 Y134.517 E.01812
;WIDTH:0.514381
G1 X105.608 Y134.511 E.0005
G1 X105.254 Y134.791 F24000
;TYPE:Outer wall
;WIDTH:0.499999
G1 F3000
G1 X105.071 Y134.7 E.00738
G1 X98.929 Y134.7 E.2218
G1 X98.781 Y134.754 E.00568
G1 X98.7 Y134.929 E.00694
G1 X98.7 Y135.7 E.02785
G1 X87.3 Y135.7 E.41161
G1 X87.3 Y134.929 E.02785
G1 X87.219 Y134.754 E.00694
G1 X87.071 Y134.7 E.00568
G1 X81.429 Y134.7 E.20374
G1 X81.246 Y134.791 E.00738
G1 X81.2 Y134.929 E.00522
G1 X81.2 Y136.7 E.06396
G1 X27.8 Y136.7 E1.92806
G1 X27.8 Y133.3 E.12276
G1 X218.2 Y133.3 E6.87457
G1 X218.2 Y136.7 E.12276
G1 X164.8 Y136.7 E1.92806
G1 X164.8 Y135 E.06138
G1 X164.754 Y134.791 E.00771
G1 X164.571 Y134.7 E.00738
G1 X158.929 Y134.7 E.20374
G1 X158.781 Y134.754 E.00568
G1 X158.7 Y134.929 E.00694
G1 X158.7 Y135.7 E.02785
G1 X147.3 Y135.7 E.41161
G1 X147.3 Y134.929 E.02785
G1 X147.219 Y134.754 E.00694
G1 X147.071 Y134.7 E.00568
G1 X140.929 Y134.7 E.2218
G1 X140.746 Y134.791 E.00738
G1 X140.7 Y134.929 E.00522
G1 X140.7 Y136.7 E.06396
G1 X105.3 Y136.7 E1.27815
G1 X105.3 Y135 E.06138
M73 P5 R14
M73 P5 R14
G1 X105.263 Y134.83 E.00627
G1 E-.5 F1800
;WIPE_START
G1 F12000
G1 X105.071 Y134.7
G1 X103.303 Y134.7
;WIPE_END
G1 Z.4 F24000
G1 X97.482 Y133.894
G1 Z.4
G1 Z.2
G1 E.5 F1800
;TYPE:Bottom surface
;WIDTH:0.507132
G1 F5816.308
G1 X98.048 Y134.461 E.02937
G1 X97.946 Y134.614 E.00675
G1 X97.913 Y134.9 E.01057
G1 X97.831 Y134.9 E.003
G1 X97.031 Y134.1 E.0415
G1 X96.374 Y134.1 E.02407
G1 X97.174 Y134.9 E.0415
G1 X96.518 Y134.9 E.02407
G1 X95.718 Y134.1 E.0415
G1 X95.061 Y134.1 E.02407
G1 X95.862 Y134.9 E.0415
G1 X95.205 Y134.9 E.02407
G1 X94.405 Y134.1 E.0415
G1 X93.748 Y134.1 E.02407
G1 X94.549 Y134.9 E.0415
G1 X93.892 Y134.9 E.02407
G1 X93.092 Y134.1 E.0415
G1 X92.435 Y134.1 E.02407
G1 X93.236 Y134.9 E.0415
G1 X92.579 Y134.9 E.02407
G1 X91.779 Y134.1 E.0415
G1 X91.122 Y134.1 E.02407
G1 X91.923 Y134.9 E.0415
G1 X91.266 Y134.9 E.02407
G1 X90.466 Y134.1 E.0415
G1 X89.809 Y134.1 E.02407
G1 X90.61 Y134.9 E.0415
G1 X89.953 Y134.9 E.02407
G1 X89.153 Y134.1 E.0415
G1 X88.496 Y134.1 E.02407
G1 X89.297 Y134.9 E.0415
G1 X88.64 Y134.9 E.02407
G1 X87.634 Y133.894 E.05217
G1 E-.5 F1800
;WIPE_START
G1 F12000
G1 X88.64 Y134.9
G1 X89.217 Y134.9
;WIPE_END
G1 Z.4 F24000
G1 X80.046 Y133.894 Z.4
G1 Z.2
G1 E.5 F1800
;WIDTH:0.504972
G1 F5843.499
G1 X80.565 Y134.414 E.02683
G1 X80.402 Y134.904 E.01885
G1 X79.598 Y134.1 E.04151
G1 X78.944 Y134.1 E.02385
G1 X80.4 Y135.556 E.07514
G1 X80.4 Y135.9 E.01258
G1 X80.091 Y135.9 E.01127
G1 X78.291 Y134.1 E.09292
G1 X77.638 Y134.1 E.02385
G1 X79.438 Y135.9 E.09292
G1 X78.784 Y135.9 E.02385
G1 X76.984 Y134.1 E.09292
G1 X76.331 Y134.1 E.02385
G1 X78.131 Y135.9 E.09292
G1 X77.478 Y135.9 E.02385
G1 X75.677 Y134.1 E.09292
G1 X75.024 Y134.1 E.02385
G1 X76.824 Y135.9 E.09292
G1 X76.171 Y135.9 E.02385
G1 X74.37 Y134.1 E.09292
G1 X73.717 Y134.1 E.02385
G1 X75.517 Y135.9 E.09292
G1 X74.864 Y135.9 E.02385
G1 X73.064 Y134.1 E.09292
G1 X72.41 Y134.1 E.02385
G1 X74.21 Y135.9 E.09292
G1 X73.557 Y135.9 E.02385
G1 X71.757 Y134.1 E.09292
G1 X71.103 Y134.1 E.02385
G1 X72.903 Y135.9 E.09292
G1 X72.25 Y135.9 E.02385
G1 X70.45 Y134.1 E.09292
G1 X69.796 Y134.1 E.02385
G1 X71.597 Y135.9 E.09292
G1 X70.943 Y135.9 E.02385
G1 X69.143 Y134.1 E.09292
G1 X68.489 Y134.1 E.02385
G1 X70.29 Y135.9 E.09292
G1 X69.636 Y135.9 E.02385
G1 X67.836 Y134.1 E.09292
G1 X67.183 Y134.1 E.02385
G1 X68.983 Y135.9 E.09292
G1 X68.329 Y135.9 E.02385
G1 X66.529 Y134.1 E.09292
G1 X65.876 Y134.1 E.02385
G1 X67.676 Y135.9 E.09292
G1 X67.022 Y135.9 E.02385
G1 X65.222 Y134.1 E.09292
G1 X64.569 Y134.1 E.02385
G1 X66.369 Y135.9 E.09292
G1 X65.716 Y135.9 E.02385
G1 X63.915 Y134.1 E.09292
G1 X63.262 Y134.1 E.02385
G1 X65.062 Y135.9 E.09292
G1 X64.409 Y135.9 E.02385
G1 X62.608 Y134.1 E.09292
G1 X61.955 Y134.1 E.02385
G1 X63.755 Y135.9 E.09292
G1 X63.102 Y135.9 E.02385
G1 X61.302 Y134.1 E.09292
G1 X60.648 Y134.1 E.02385
G1 X62.448 Y135.9 E.09292
G1 X61.795 Y135.9 E.02385
G1 X59.995 Y134.1 E.09292
G1 X59.341 Y134.1 E.02385
G1 X61.142 Y135.9 E.09292
G1 X60.488 Y135.9 E.02385
G1 X58.688 Y134.1 E.09292
G1 X58.034 Y134.1 E.02385
G1 X59.835 Y135.9 E.09292
G1 X59.181 Y135.9 E.02385
G1 X57.381 Y134.1 E.09292
G1 X56.728 Y134.1 E.02385
G1 X58.528 Y135.9 E.09292
G1 X57.874 Y135.9 E.02385
G1 X56.074 Y134.1 E.09292
G1 X55.421 Y134.1 E.02385
G1 X57.221 Y135.9 E.09292
G1 X56.567 Y135.9 E.02385
G1 X54.767 Y134.1 E.09292
G1 X54.114 Y134.1 E.02385
G1 X55.914 Y135.9 E.09292
G1 X55.261 Y135.9 E.02385
G1 X53.46 Y134.1 E.09292
G1 X52.807 Y134.1 E.02385
G1 X54.607 Y135.9 E.09292
G1 X53.954 Y135.9 E.02385
G1 X52.153 Y134.1 E.09292
G1 X51.5 Y134.1 E.02385
G1 X53.3 Y135.9 E.09292
G1 X52.647 Y135.9 E.02385
G1 X50.847 Y134.1 E.09292
G1 X50.193 Y134.1 E.02385
G1 X51.993 Y135.9 E.09292
G1 X51.34 Y135.9 E.02385
G1 X49.54 Y134.1 E.09292
G1 X48.886 Y134.1 E.02385
G1 X50.686 Y135.9 E.09292
G1 X50.033 Y135.9 E.02385
G1 X48.233 Y134.1 E.09292
G1 X47.579 Y134.1 E.02385
G1 X49.38 Y135.9 E.09292
G1 X48.726 Y135.9 E.02385
G1 X46.926 Y134.1 E.09292
G1 X46.272 Y134.1 E.02385
G1 X48.073 Y135.9 E.09292
G1 X47.419 Y135.9 E.02385
G1 X45.619 Y134.1 E.09292
G1 X44.966 Y134.1 E.02385
M73 P6 R14
M73 P6 R14
G1 X46.766 Y135.9 E.09292
G1 X46.112 Y135.9 E.02385
G1 X44.312 Y134.1 E.09292
G1 X43.659 Y134.1 E.02385
G1 X45.459 Y135.9 E.09292
G1 X44.806 Y135.9 E.02385
G1 X43.005 Y134.1 E.09292
G1 X42.352 Y134.1 E.02385
G1 X44.152 Y135.9 E.09292
G1 X43.499 Y135.9 E.02385
G1 X41.698 Y134.1 E.09292
G1 X41.045 Y134.1 E.02385
G1 X42.845 Y135.9 E.09292
G1 X42.192 Y135.9 E.02385
G1 X40.392 Y134.1 E.09292
G1 X39.738 Y134.1 E.02385
G1 X41.538 Y135.9 E.09292
G1 X40.885 Y135.9 E.02385
G1 X39.085 Y134.1 E.09292
G1 X38.431 Y134.1 E.02385
G1 X40.231 Y135.9 E.09292
G1 X39.578 Y135.9 E.02385
G1 X37.778 Y134.1 E.09292
G1 X37.124 Y134.1 E.02385
G1 X38.925 Y135.9 E.09292
G1 X38.271 Y135.9 E.02385
G1 X36.471 Y134.1 E.09292
G1 X35.817 Y134.1 E.02385
G1 X37.618 Y135.9 E.09292
G1 X36.964 Y135.9 E.02385
G1 X35.164 Y134.1 E.09292
G1 X34.511 Y134.1 E.02385
G1 X36.311 Y135.9 E.09292
G1 X35.657 Y135.9 E.02385
G1 X33.857 Y134.1 E.09292
G1 X33.204 Y134.1 E.02385
G1 X35.004 Y135.9 E.09292
G1 X34.35 Y135.9 E.02385
G1 X32.55 Y134.1 E.09292
G1 X31.897 Y134.1 E.02385
G1 X33.697 Y135.9 E.09292
G1 X33.044 Y135.9 E.02385
G1 X31.243 Y134.1 E.09292
G1 X30.59 Y134.1 E.02385
G1 X32.39 Y135.9 E.09292
G1 X31.737 Y135.9 E.02385
G1 X29.936 Y134.1 E.09292
G1 X29.283 Y134.1 E.02385
G1 X31.083 Y135.9 E.09292
G1 X30.43 Y135.9 E.02385
G1 X28.63 Y134.1 E.09292
G1 X28.6 Y134.1 E.00108
G1 X28.6 Y134.724 E.02277
G1 X29.776 Y135.9 E.06073
G1 X29.123 Y135.9 E.02385
G1 X28.394 Y135.171 E.03762
G1 E-.5 F1800
;WIPE_START
G1 F12000
G1 X29.123 Y135.9
G1 X29.776 Y135.9
G1 X29.553 Y135.677
;WIPE_END
G1 Z.4 F24000
G1 X139.555 Y133.894 Z.4
G1 Z.2
G1 E.5 F1800
;WIDTH:0.500542
G1 F5900.066
G1 X140.068 Y134.407 E.02621
G1 X139.906 Y134.892 E.0185
G1 X139.114 Y134.1 E.04051
G1 X138.466 Y134.1 E.02339
G1 X139.9 Y135.534 E.07329
G1 X139.9 Y135.9 E.01325
G1 X139.619 Y135.9 E.01014
G1 X137.819 Y134.1 E.09203
G1 X137.172 Y134.1 E.02339
G1 X138.972 Y135.9 E.09203
G1 X138.325 Y135.9 E.02339
G1 X136.525 Y134.1 E.09203
G1 X135.878 Y134.1 E.02339
G1 X137.678 Y135.9 E.09203
G1 X137.031 Y135.9 E.02339
G1 X135.231 Y134.1 E.09203
G1 X134.583 Y134.1 E.02339
G1 X136.384 Y135.9 E.09203
G1 X135.736 Y135.9 E.02339
G1 X133.936 Y134.1 E.09203
G1 X133.289 Y134.1 E.02339
G1 X135.089 Y135.9 E.09203
G1 X134.442 Y135.9 E.02339
G1 X132.642 Y134.1 E.09203
G1 X131.995 Y134.1 E.02339
G1 X133.795 Y135.9 E.09203
G1 X133.148 Y135.9 E.02339
G1 X131.347 Y134.1 E.09203
G1 X130.7 Y134.1 E.02339
G1 X132.501 Y135.9 E.09203
G1 X131.853 Y135.9 E.02339
G1 X130.053 Y134.1 E.09203
G1 X129.406 Y134.1 E.02339
G1 X131.206 Y135.9 E.09203
G1 X130.559 Y135.9 E.02339
G1 X128.759 Y134.1 E.09203
G1 X128.112 Y134.1 E.02339
G1 X129.912 Y135.9 E.09203
G1 X129.265 Y135.9 E.02339
G1 X127.464 Y134.1 E.09203
G1 X126.817 Y134.1 E.02339
G1 X128.618 Y135.9 E.09203
G1 X127.97 Y135.9 E.02339
G1 X126.17 Y134.1 E.09203
G1 X125.523 Y134.1 E.02339
G1 X127.323 Y135.9 E.09203
G1 X126.676 Y135.9 E.02339
G1 X124.876 Y134.1 E.09203
G1 X124.229 Y134.1 E.02339
G1 X126.029 Y135.9 E.09203
G1 X125.382 Y135.9 E.02339
G1 X123.581 Y134.1 E.09203
G1 X122.934 Y134.1 E.02339
G1 X124.734 Y135.9 E.09203
G1 X124.087 Y135.9 E.02339
G1 X122.287 Y134.1 E.09203
G1 X121.64 Y134.1 E.02339
G1 X123.44 Y135.9 E.09203
G1 X122.793 Y135.9 E.02339
G1 X120.993 Y134.1 E.09203
G1 X120.346 Y134.1 E.02339
G1 X122.146 Y135.9 E.09203
G1 X121.499 Y135.9 E.02339
G1 X119.698 Y134.1 E.09203
G1 X119.051 Y134.1 E.02339
G1 X120.851 Y135.9 E.09203
G1 X120.204 Y135.9 E.02339
G1 X118.404 Y134.1 E.09203
G1 X117.757 Y134.1 E.02339
G1 X119.557 Y135.9 E.09203
G1 X118.91 Y135.9 E.02339
G1 X117.11 Y134.1 E.09203
G1 X116.462 Y134.1 E.02339
G1 X118.263 Y135.9 E.09203
G1 X117.616 Y135.9 E.02339
G1 X115.815 Y134.1 E.09203
G1 X115.168 Y134.1 E.02339
G1 X116.968 Y135.9 E.09203
G1 X116.321 Y135.9 E.02339
G1 X114.521 Y134.1 E.09203
M73 P7 R14
M73 P7 R14
G1 X113.874 Y134.1 E.02339
G1 X115.674 Y135.9 E.09203
G1 X115.027 Y135.9 E.02339
G1 X113.227 Y134.1 E.09203
G1 X112.579 Y134.1 E.02339
G1 X114.38 Y135.9 E.09203
G1 X113.732 Y135.9 E.02339
G1 X111.932 Y134.1 E.09203
G1 X111.285 Y134.1 E.02339
G1 X113.085 Y135.9 E.09203
G1 X112.438 Y135.9 E.02339
G1 X110.638 Y134.1 E.09203
G1 X109.991 Y134.1 E.02339
M73 P7 R13
M73 P7 R13
G1 X111.791 Y135.9 E.09203
G1 X111.144 Y135.9 E.02339
G1 X109.344 Y134.1 E.09203
G1 X108.696 Y134.1 E.02339
G1 X110.497 Y135.9 E.09203
G1 X109.849 Y135.9 E.02339
G1 X108.049 Y134.1 E.09203
G1 X107.402 Y134.1 E.02339
G1 X109.202 Y135.9 E.09203
G1 X108.555 Y135.9 E.02339
G1 X106.755 Y134.1 E.09203
G1 X106.108 Y134.1 E.02339
G1 X107.908 Y135.9 E.09203
G1 X107.261 Y135.9 E.02339
G1 X106.015 Y134.654 E.06371
G1 X106.1 Y134.91 E.00976
G1 X106.1 Y135.386 E.01722
G1 X106.819 Y136.106 E.03678
G1 E-.5 F1800
;WIPE_START
G1 F12000
G1 X106.1 Y135.386
G1 X106.1 Y134.91
G1 X106.015 Y134.654
G1 X106.182 Y134.821
;WIPE_END
G1 Z.4 F24000
G1 X157.482 Y133.894 Z.4
G1 Z.2
G1 E.5 F1800
;WIDTH:0.507132
G1 F5816.308
G1 X158.048 Y134.461 E.02937
G1 X157.946 Y134.614 E.00675
G1 X157.913 Y134.9 E.01057
G1 X157.831 Y134.9 E.003
G1 X157.031 Y134.1 E.0415
G1 X156.374 Y134.1 E.02407
G1 X157.174 Y134.9 E.0415
G1 X156.518 Y134.9 E.02407
G1 X155.718 Y134.1 E.0415
G1 X155.061 Y134.1 E.02407
G1 X155.862 Y134.9 E.0415
G1 X155.205 Y134.9 E.02407
G1 X154.405 Y134.1 E.0415
G1 X153.748 Y134.1 E.02407
G1 X154.549 Y134.9 E.0415
G1 X153.892 Y134.9 E.02407
G1 X153.092 Y134.1 E.0415
G1 X152.435 Y134.1 E.02407
G1 X153.236 Y134.9 E.0415
G1 X152.579 Y134.9 E.02407
G1 X151.779 Y134.1 E.0415
G1 X151.122 Y134.1 E.02407
G1 X151.923 Y134.9 E.0415
G1 X151.266 Y134.9 E.02407
G1 X150.466 Y134.1 E.0415
G1 X149.809 Y134.1 E.02407
G1 X150.61 Y134.9 E.0415
G1 X149.953 Y134.9 E.02407
G1 X149.153 Y134.1 E.0415
G1 X148.496 Y134.1 E.02407
G1 X149.297 Y134.9 E.0415
G1 X148.64 Y134.9 E.02407
G1 X147.634 Y133.894 E.05217
G1 E-.5 F1800
;WIPE_START
G1 F12000
G1 X148.64 Y134.9
G1 X149.217 Y134.9
;WIPE_END
G1 Z.4 F24000
G1 X217.606 Y134.822 Z.4
G1 Z.2
G1 E.5 F1800
;WIDTH:0.50182
G1 F5883.635
G1 X216.884 Y134.1 E.03702
G1 X216.235 Y134.1 E.02353
G1 X217.4 Y135.265 E.05975
G1 X217.4 Y135.9 E.02301
G1 X217.386 Y135.9 E.00051
G1 X215.586 Y134.1 E.09229
G1 X214.937 Y134.1 E.02353
G1 X216.737 Y135.9 E.09229
G1 X216.088 Y135.9 E.02353
G1 X214.288 Y134.1 E.09229
G1 X213.639 Y134.1 E.02353
G1 X215.439 Y135.9 E.09229
G1 X214.79 Y135.9 E.02353
G1 X212.99 Y134.1 E.09229
G1 X212.341 Y134.1 E.02353
G1 X214.141 Y135.9 E.09229
G1 X213.492 Y135.9 E.02353
G1 X211.692 Y134.1 E.09229
G1 X211.043 Y134.1 E.02353
G1 X212.843 Y135.9 E.09229
G1 X212.194 Y135.9 E.02353
G1 X210.394 Y134.1 E.09229
G1 X209.745 Y134.1 E.02353
G1 X211.545 Y135.9 E.09229
G1 X210.896 Y135.9 E.02353
G1 X209.096 Y134.1 E.09229
G1 X208.447 Y134.1 E.02353
G1 X210.247 Y135.9 E.09229
G1 X209.598 Y135.9 E.02353
G1 X207.798 Y134.1 E.09229
G1 X207.149 Y134.1 E.02353
G1 X208.949 Y135.9 E.09229
G1 X208.3 Y135.9 E.02353
G1 X206.5 Y134.1 E.09229
G1 X205.851 Y134.1 E.02353
G1 X207.651 Y135.9 E.09229
G1 X207.002 Y135.9 E.02353
G1 X205.202 Y134.1 E.09229
G1 X204.553 Y134.1 E.02353
G1 X206.353 Y135.9 E.09229
G1 X205.704 Y135.9 E.02353
G1 X203.904 Y134.1 E.09229
G1 X203.255 Y134.1 E.02353
G1 X205.055 Y135.9 E.09229
G1 X204.406 Y135.9 E.02353
G1 X202.606 Y134.1 E.09229
G1 X201.957 Y134.1 E.02353
G1 X203.757 Y135.9 E.09229
G1 X203.108 Y135.9 E.02353
G1 X201.308 Y134.1 E.09229
