; HEADER_BLOCK_START
; generated by OrcaSlicer 2.1.1 on 2024-08-18 at 08:15:44
; total layer number: 15
; filament_density: 1.24
; filament_diameter: 1.75
; max_z_height: 3.00
; HEADER_BLOCK_END

; THUMBNAIL_BLOCK_START

;
; THUMBNAIL_BLOCK_END

; THUMBNAIL_BLOCK_START

;
; THUMBNAIL_BLOCK_END

; external perimeters extrusion width = 0.42mm
; perimeters extrusion width = 0.45mm
; infill extrusion width = 0.45mm
; solid infill extrusion width = 0.45mm
; top infill extrusion width = 0.42mm
; first layer extrusion width = 0.50mm

; EXECUTABLE_BLOCK_START
EXCLUDE_OBJECT_DEFINE NAME=Cochonou_v9.stl_id_0_copy_0 CENTER=115,115 POLYGON=[[97.6732,106.764],[97.6744,106.317],[97.7557,105.895],[97.8551,105.477],[97.9725,105.064],[98.1076,104.656],[98.2603,104.254],[98.4301,103.859],[98.6169,103.472],[98.8202,103.093],[99.0396,102.724],[99.2749,102.364],[99.5254,102.015],[99.7908,101.677],[100.071,101.351],[100.364,101.037],[100.671,100.736],[100.991,100.449],[101.322,100.176],[101.666,99.9172],[102.02,99.6736],[102.384,99.4455],[102.758,99.2334],[103.14,99.0377],[103.531,98.8587],[103.929,98.6967],[104.371,98.596],[104.611,98.5436],[104.809,98.5013],[105.244,98.4123],[105.674,98.329],[105.984,98.2724],[106.101,98.2512],[106.524,98.1787],[106.673,98.1543],[106.943,98.1113],[107.358,98.0487],[107.364,98.0478],[107.768,97.9908],[108.056,97.9525],[108.174,97.9373],[108.574,97.8879],[108.749,97.8674],[108.97,97.8424],[109.359,97.8006],[109.443,97.792],[109.743,97.7621],[110.12,97.7268],[110.136,97.7253],[110.491,97.6944],[110.83,97.6667],[110.854,97.6648],[111.209,97.6378],[111.524,97.6152],[111.555,97.6131],[111.892,97.5906],[112.218,97.5703],[112.537,97.5517],[112.843,97.535],[112.912,97.5313],[113.138,97.5199],[113.606,97.4974],[113.944,97.484],[114.301,97.4701],[114.624,97.4607],[114.82,97.4556],[115,97.4517],[115.18,97.4556],[115.376,97.4607],[115.699,97.4701],[116.056,97.484],[116.394,97.4974],[116.862,97.5199],[117.088,97.5313],[117.157,97.535],[117.463,97.5517],[117.782,97.5703],[118.108,97.5906],[118.445,97.6131],[118.476,97.6152],[118.791,97.6378],[119.146,97.6648],[119.17,97.6667],[119.509,97.6944],[119.864,97.7253],[119.88,97.7268],[120.257,97.7621],[120.557,97.792],[120.641,97.8006],[121.03,97.8424],[121.251,97.8674],[121.426,97.8879],[121.826,97.9373],[121.944,97.9525],[122.232,97.9908],[122.636,98.0478],[122.642,98.0487],[123.057,98.1113],[123.327,98.1543],[123.476,98.1787],[123.899,98.2512],[124.016,98.2724],[124.326,98.329],[124.756,98.4123],[125.191,98.5013],[125.389,98.5436],[125.629,98.596],[126.071,98.6967],[126.469,98.8587],[126.86,99.0377],[127.242,99.2334],[127.616,99.4455],[127.98,99.6736],[128.334,99.9172],[128.678,100.176],[129.009,100.449],[129.329,100.736],[129.636,101.037],[129.929,101.351],[130.209,101.677],[130.475,102.015],[130.725,102.364],[130.96,102.724],[131.18,103.093],[131.383,103.472],[131.57,103.859],[131.74,104.254],[131.892,104.656],[132.028,105.064],[132.145,105.477],[132.244,105.895],[132.326,106.317],[132.327,106.764],[132.31,107.211],[132.274,107.656],[132.22,108.1],[132.147,108.541],[128.351,129.16],[128.27,129.516],[128.169,129.868],[128.05,130.213],[127.912,130.552],[127.757,130.883],[127.584,131.205],[127.394,131.518],[127.187,131.819],[126.861,131.974],[126.527,132.111],[126.187,132.23],[125.84,132.33],[125.489,132.412],[125.133,132.475],[124.775,132.519],[124.415,132.543],[124.054,132.548],[105.946,132.548],[105.585,132.543],[105.225,132.519],[104.867,132.475],[104.511,132.412],[104.16,132.33],[103.813,132.23],[103.473,132.111],[103.139,131.974],[102.813,131.819],[102.606,131.518],[102.416,131.205],[102.243,130.883],[102.088,130.552],[101.95,130.213],[101.831,129.868],[101.73,129.516],[101.649,129.16],[97.8529,108.541],[97.7804,108.1],[97.7262,107.656],[97.6905,107.211],[97.6732,106.764]]
M73 P0 R7
;TYPE:Custom
M220 S100
G90 ; use absolute coordinates
M83 ; extruder relative mode
M104 S150 ; set temporary nozzle temp to prevent oozing during homing
M140 S55 ; set final bed temp
G4 S30 ; allow partial nozzle warmup
G28 ; home all axis and restore leveling
BED_MESH_CALIBRATE PROFILE=adaptive ADAPTIVE=1 ADAPTIVE_MARGIN=0
G1 Z25 F240
G1 X10.0 Y30 F3000
M104 S205 ; set final nozzle temp
M190 S55 ; wait for bed temp to stabilize
M109 S205 ; wait for nozzle temp to stabilize
M73 P1 R7
G1 Z0.28 F240
G92 E0 ; Move Z Axis up
G1 Z2.0 F5000 ; Move to start position
M73 P2 R7
G1 X5 Y30 Z0.28 F300 ; Draw the first line
G1 X5 Y200 Z0.28 F1500 E15 ; Move to side a little
G1 X5.4 Y200 Z0.28 F5000.0 ; Draw the second line
M73 P4 R7
G1 X5.4 Y50 Z0.28 F1500.0 E30 ; Reset Extruder
G92 E0 ; Move Z Axis up
G1 Z2.0 F3000
M117 Start Printing..
G90
G21
M83 ; use relative distances for extrusion
; filament start gcode
SET_PRESSURE_ADVANCE ADVANCE=0.052; Override pressure advance value
M106 S0
;LAYER_CHANGE
;Z:0.2
;HEIGHT:0.2
;BEFORE_LAYER_CHANGE
;0.2
G92 E0

M73 P5 R7
G1 E-.5 F1800
;_SET_FAN_SPEED_CHANGING_LAYER
SET_VELOCITY_LIMIT ACCEL=1000
SET_VELOCITY_LIMIT SQUARE_CORNER_VELOCITY=7
; printing object Cochonou v9.stl id:0 copy 0
EXCLUDE_OBJECT_START NAME=Cochonou_v9.stl_id_0_copy_0
G1 Z.2 F24000
G1 X131.089 Y141.678
G1 Z.2
G1 E.5 F1800
;TYPE:Inner wall
;WIDTH:0.499999
G1 X131.171 Y141.83 E.00643
G1 X131.427 Y142.015 E.01176
G1 X132.48 Y142.455 E.04249
G1 X133.029 Y142.78 E.0238
G1 X133.55 Y143.169 E.0242
G1 X134.026 Y143.612 E.0242
G1 X134.451 Y144.103 E.0242
G1 X134.817 Y144.629 E.02387
G1 X135.269 Y145.512 E.03695
G1 X135.482 Y146.116 E.02386
G1 X135.629 Y146.74 E.02387
G1 X135.725 Y147.727 E.03695
G1 X135.701 Y148.367 E.02386
G1 X135.61 Y148.995 E.02363
G1 X135.487 Y149.481 E.01866
G1 X135.318 Y149.953 E.01869
G1 X135.299 Y149.625 E.01225
G1 X135.066 Y149.079 E.02211
G1 X134.898 Y148.85 E.01057
G1 X134.564 Y148.55 E.01672
G1 X134.318 Y148.409 E.01056
G1 X133.735 Y148.238 E.02264
G1 X133.227 Y148.26 E.01892
M73 P6 R7
G1 X132.754 Y148.421 E.01861
G1 X132.335 Y148.737 E.01956
G1 X132.138 Y148.941 E.01055
G1 X131.899 Y149.389 E.01891
G1 X131.819 Y149.688 E.01153
G1 X131.802 Y150.306 E.02302
G1 X131.985 Y150.828 E.02063
G1 X132.106 Y151.037 E.00897
G1 X132.49 Y151.426 E.02035
G1 X133.03 Y151.723 E.02298
G1 X132.055 Y151.79 E.03641
G1 X131.434 Y151.749 E.02317
G1 X130.476 Y151.554 E.03639
G1 X129.867 Y151.342 E.02403
G1 X129.301 Y151.074 E.02332
G1 X128.744 Y150.732 E.02436
G1 X128.255 Y150.355 E.02301
G1 X127.572 Y149.667 E.03609
G1 X127.015 Y148.886 E.03574
G1 X126.586 Y148.019 E.03604
G1 X126.347 Y147.306 E.02799
G1 X126.217 Y147.077 E.00982
G1 X126.005 Y146.912 E.01002
G1 X125.68 Y146.839 E.01241
G1 X125.414 Y146.9 E.01014
G1 X124.751 Y147.2 E.02713
G1 X124.174 Y147.385 E.02255
G1 X123.58 Y147.505 E.02258
G1 X123 Y147.556 E.02169
G1 X122.42 Y147.505 E.02169
G1 X121.826 Y147.385 E.02257
G1 X121.249 Y147.2 E.02255
G1 X120.586 Y146.899 E.02714
G1 X120.327 Y146.839 E.00989
G1 X120.046 Y146.888 E.01061
G1 X119.794 Y147.065 E.01147
G1 X119.658 Y147.29 E.00979
G1 X119.28 Y148.33 E.04123
G1 X118.986 Y148.887 E.02345
G1 X118.628 Y149.418 E.02384
G1 X118.215 Y149.907 E.02384
G1 X117.753 Y150.35 E.02384
G1 X117.245 Y150.74 E.02384
G1 X116.699 Y151.074 E.02384
G1 X116.12 Y151.347 E.02384
G1 X115.515 Y151.557 E.02385
G1 X114.9 Y151.699 E.02351
G1 X113.927 Y151.79 E.03642
G1 X113.297 Y151.764 E.0235
G1 X112.663 Y151.669 E.02384
G1 X112.052 Y151.51 E.02352
G1 X111.329 Y151.214 E.0291
G1 X110.923 Y150.546 E.0291
G1 X110.663 Y149.955 E.02407
G1 X110.391 Y149.001 E.03694
G1 X110.3 Y148.381 E.02335
G1 X110.275 Y147.718 E.02471
G1 X110.32 Y147.07 E.02419
G1 X110.435 Y146.43 E.02421
G1 X110.611 Y145.829 E.02334
G1 X111.02 Y144.909 E.03748
G1 X111.351 Y144.372 E.02351
G1 X111.972 Y143.616 E.03643
G1 X112.451 Y143.169 E.02439
G1 X112.964 Y142.785 E.02386
G1 X113.817 Y142.31 E.0364
G1 X114.346 Y142.103 E.02114
G1 X114.743 Y141.912 E.0164
G1 X114.907 Y141.716 E.00955
G1 X114.991 Y141.442 E.01067
G1 X114.971 Y141.206 E.00882
G1 X114.836 Y140.944 E.01098
G1 X113.028 Y138.764 E.1055
G1 X112.184 Y137.704 E.05046
G1 X110.532 Y135.539 E.10145
G1 X109.732 Y134.445 E.05046
G1 X108.179 Y132.231 E.10072
G1 X107.531 Y131.139 E.04731
G1 X107.186 Y130.391 E.03068
G1 X106.901 Y129.611 E.03095
G1 X106.682 Y128.809 E.03095
G1 X106.53 Y127.992 E.03095
G1 X106.447 Y127.165 E.03095
G1 X106.433 Y126.391 E.02886
G1 X106.587 Y125.675 E.02726
G1 X106.966 Y124.532 E.04487
G1 X107.289 Y123.823 E.029
G1 X107.92 Y122.764 E.04592
G1 X108.372 Y122.164 E.02798
G1 X109.19 Y121.289 E.04461
G1 X110.114 Y120.528 E.04457
G1 X110.795 Y120.083 E.03032
G1 X110.71 Y120.46 E.01442
G1 X110.705 Y120.748 E.01071
G1 X110.765 Y121.046 E.0113
G1 X110.915 Y121.356 E.01286
G1 X111.115 Y121.592 E.0115
G1 X111.383 Y121.784 E.01228
G1 X111.97 Y122.017 E.02352
G1 X112.764 Y122.295 E.03133
G1 X113.84 Y122.619 E.04188
G1 X114.861 Y122.875 E.03918
G1 X115.93 Y123.099 E.04071
G1 X117.04 Y123.29 E.04193
G1 X118.248 Y123.452 E.04539
;WIDTH:0.545456
G1 X118.598 Y123.515 E.01459
;WIDTH:0.590913
G1 X118.949 Y123.579 E.01591
G1 X119.243 Y123.601 E.0132
;WIDTH:0.591731
G1 X119.788 Y123.654 E.02448
G1 X120.211 Y123.656 E.01893
;WIDTH:0.545865
G1 X120.634 Y123.658 E.01734
;WIDTH:0.499999
G1 X121.501 Y123.705 E.03232
G1 X122.601 Y123.73 E.04098
G1 X123.829 Y123.725 E.04576
G1 X125.452 Y123.661 E.06047
;WIDTH:0.534842
G1 X125.722 Y123.66 E.01084
;WIDTH:0.569684
G1 X125.992 Y123.658 E.01161
;WIDTH:0.604526
G1 X126.263 Y123.657 E.01237
G1 X126.76 Y123.601 E.02292
;WIDTH:0.581255
G1 X127.331 Y123.52 E.02529
;WIDTH:0.538559
G1 X128.22 Y123.397 E.03626
;WIDTH:0.499999
G1 X130.014 Y123.106 E.06768
G1 X131.031 Y122.896 E.03868
G1 X132.146 Y122.62 E.04279
G1 X133.769 Y122.114 E.0633
G1 X134.74 Y121.72 E.03903
G1 X135.086 Y121.356 E.01871
G1 X135.223 Y121.1 E.01079
G1 X135.279 Y120.905 E.00756
G1 X135.292 Y120.474 E.01607
G1 X135.165 Y120.069 E.01581
G1 X135.565 Y120.307 E.01732
G1 X136.203 Y120.767 E.0293
G1 X137.099 Y121.572 E.04487
G1 X137.623 Y122.157 E.02926
G1 X138.115 Y122.816 E.03062
G1 X138.516 Y123.46 E.02826
G1 X139.04 Y124.545 E.04488
G1 X139.236 Y125.097 E.02179
G1 X139.405 Y125.675 E.02243
G1 X139.567 Y126.383 E.02706
G1 X139.553 Y127.165 E.02915
G1 X139.47 Y127.992 E.03095
G1 X139.319 Y128.802 E.03069
G1 X138.962 Y130.01 E.04692
G1 X138.648 Y130.772 E.03068
G1 X138.269 Y131.511 E.03095
G1 X137.825 Y132.225 E.03132
G1 X136.268 Y134.445 E.10098
G1 X135.468 Y135.539 E.05046
G1 X133.816 Y137.704 E.10145
G1 X132.972 Y138.764 E.05046
G1 X131.104 Y141.016 E.10899
G1 X131.009 Y141.314 E.01164
G1 X131.032 Y141.572 E.00964
G1 X131.07 Y141.643 E.003
G1 E-.5
;WIPE_START
G1 F12000
G1 X131.171 Y141.83
G1 X131.427 Y142.015
G1 X132.48 Y142.455
G1 X132.764 Y142.623
;WIPE_END
G1 Z.4 F24000
G1 X126.106 Y124.336 Z.4
G1 Z.2
G1 E.5 F1800
;WIDTH:0.549126
G1 X126.173 Y124.297 E.00322
;WIDTH:0.576826
G1 X126.258 Y124.255 E.0041
;WIDTH:0.604526
G1 X126.342 Y124.212 E.00432
G1 X126.874 Y124.133 E.02463
;WIDTH:0.595672
G1 X127.131 Y124.127 E.01156
G1 X127.466 Y124.221 E.01569
;WIDTH:0.547836
M73 P7 R7
G1 X127.802 Y124.315 E.01433
;WIDTH:0.499999
G1 X128.468 Y124.664 E.028
G1 X129.037 Y125.182 E.02869
G1 X129.501 Y125.829 E.02963
G1 X129.857 Y126.573 E.03073
G1 X130.05 Y127.199 E.02441
G1 X130.215 Y128.052 E.03235
G1 X130.272 Y128.727 E.02524
G1 X130.238 Y129.688 E.0358
G1 X130.077 Y130.634 E.03577
G1 X129.778 Y131.524 E.03496
G1 X129.46 Y132.144 E.02596
G1 X129.005 Y132.759 E.02848
G1 X128.456 Y133.249 E.02741
G1 X127.816 Y133.584 E.02688
G1 X127.191 Y133.712 E.02377
G1 X126.893 Y133.726 E.01111
G1 X126.376 Y133.644 E.01949
G1 X125.698 Y133.348 E.02759
G1 X125.269 Y133.014 E.02024
G1 X124.995 Y132.759 E.01393
G1 X124.605 Y132.247 E.02398
G1 X124.222 Y131.524 E.03046
G1 X123.947 Y130.724 E.03152
G1 X123.779 Y129.872 E.03235
G1 X123.719 Y128.994 E.03277
G1 X123.768 Y128.117 E.0327
G1 X123.923 Y127.269 E.03212
G1 X124.182 Y126.475 E.03111
G1 X124.404 Y126.024 E.01872
G1 X124.702 Y125.53 E.0215
G1 X125.095 Y125.039 E.02343
G1 X125.544 Y124.655 E.02202
;WIDTH:0.549126
G1 X126.071 Y124.356 E.02497
G1 X126.345 Y124.75 F24000
;TYPE:Outer wall
;WIDTH:0.499999
G1 F1800
G1 X126.384 Y124.731 E.00163
G1 X126.874 Y124.632 E.01862
G1 X127.183 Y124.638 E.01152
G1 X127.696 Y124.76 E.01964
G1 X128.241 Y125.06 E.02317
G1 X128.721 Y125.512 E.02455
G1 X129.124 Y126.088 E.0262
G1 X129.442 Y126.765 E.02786
G1 X129.611 Y127.329 E.02192
G1 X129.764 Y128.123 E.0301
G1 X129.816 Y128.748 E.02338
G1 X129.782 Y129.66 E.03397
G1 X129.628 Y130.549 E.03363
G1 X129.463 Y131.048 E.01956
G1 X129.191 Y131.667 E.02518
G1 X129.031 Y131.97 E.01276
G1 X128.641 Y132.482 E.02399
G1 X128.159 Y132.901 E.02381
G1 X127.617 Y133.172 E.02256
G1 X127.12 Y133.261 E.01879
G1 X126.793 Y133.247 E.01221
G1 X126.383 Y133.172 E.0155
G1 X125.89 Y132.933 E.02041
G1 X125.392 Y132.517 E.02418
G1 X124.969 Y131.97 E.02578
G1 X124.629 Y131.315 E.02746
G1 X124.38 Y130.579 E.02895
G1 X124.228 Y129.787 E.03006
G1 X124.175 Y128.966 E.03063
G1 X124.224 Y128.145 E.03061
G1 X124.372 Y127.354 E.02998
G1 X124.616 Y126.62 E.02881
G1 X124.947 Y125.968 E.02724
G1 X125.359 Y125.421 E.02548
G1 X125.841 Y125.002 E.02382
G1 X126.309 Y124.768 E.01946
G1 E-.5
;WIPE_START
G1 F12000
G1 X126.384 Y124.731
G1 X126.874 Y124.632
G1 X127.183 Y124.638
G1 X127.696 Y124.76
G1 X128.203 Y125.04
;WIPE_END
G1 Z.4 F24000
G1 X133.718 Y119.395 Z.4
G1 Z.2
G1 E.5 F1800
;TYPE:Inner wall
G1 X132.542 Y119.824 E.04664
G1 X131.564 Y120.119 E.03803
G1 X130.501 Y120.384 E.04082
G1 X129.367 Y120.615 E.0431
G1 X127.544 Y120.893 E.06868
G1 X126.28 Y121.028 E.04733
G1 X124.983 Y121.119 E.04845
G1 X123.667 Y121.163 E.04905
G1 X121.672 Y121.147 E.07431
G1 X120.365 Y121.079 E.04872
G1 X119.085 Y120.966 E.04788
G1 X117.225 Y120.717 E.06987
G1 X116.041 Y120.499 E.04486
G1 X114.695 Y120.188 E.05147
G1 X113.446 Y119.819 E.0485
G1 X112.284 Y119.396 E.04607
G1 X113.791 Y119.078 E.05739
G1 X115.086 Y118.855 E.04895
G1 X116.676 Y118.638 E.05976
G1 X118.19 Y118.481 E.05668
G1 X119.917 Y118.348 E.06454
G1 X121.714 Y118.251 E.06701
G1 X123.163 Y118.213 E.054
G1 X124.84 Y118.277 E.0625
G1 X126.715 Y118.391 E.06999
G1 X128.203 Y118.518 E.05561
G1 X129.737 Y118.689 E.05751
G1 X131.343 Y118.924 E.06045
G1 X132.605 Y119.154 E.04777
G1 X133.679 Y119.386 E.04092
G1 E-.5
;WIPE_START
G1 F12000
G1 X132.542 Y119.824
G1 X131.793 Y120.049
;WIPE_END
G1 Z.4 F24000
G1 X131.486 Y141.484 Z.4
G1 Z.2
G1 E.5 F1800
;TYPE:Outer wall
G1 X131.603 Y141.593 E.00596
G1 X132.685 Y142.045 E.04368
G1 X133.283 Y142.399 E.0259
G1 X133.843 Y142.818 E.02603
G1 X134.355 Y143.294 E.02603
G1 X134.813 Y143.822 E.02603
G1 X135.21 Y144.393 E.02593
G1 X135.69 Y145.331 E.03924
G1 X135.921 Y145.987 E.02592
G1 X136.081 Y146.665 E.02593
G1 X136.174 Y147.627 E.036
G1 X136.169 Y148.079 E.01684
G1 X136.124 Y148.634 E.02076
G1 X136.045 Y149.146 E.01928
G1 X135.806 Y149.965 E.03179
;WIDTH:0.537673
G1 X135.722 Y150.122 E.00715
;WIDTH:0.575347
G1 X135.638 Y150.278 E.00769
;WIDTH:0.613021
G1 X135.555 Y150.434 E.00824
;WIDTH:0.650694
G1 X135.233 Y151.044 E.03415
;WIDTH:0.670822
G1 X134.922 Y151.515 E.02891
G1 X134.602 Y151.669 E.01817
;WIDTH:0.644743
G1 X134.372 Y151.783 E.01258
;WIDTH:0.618664
G1 X133.677 Y152.017 E.03438
;WIDTH:0.578739
G1 X133.385 Y152.097 E.01326
;WIDTH:0.539369
G1 X133.092 Y152.177 E.01228
;WIDTH:0.499999
G1 X132.055 Y152.248 E.0387
G1 X131.373 Y152.203 E.02545
G1 X130.355 Y151.996 E.03869
G1 X129.694 Y151.765 E.02609
G1 X129.084 Y151.477 E.02515
G1 X128.484 Y151.109 E.02618
G1 X127.951 Y150.699 E.02505
G1 X127.222 Y149.963 E.0386
G1 X126.621 Y149.122 E.03848
G1 X126.276 Y148.423 E.02903
G1 X126.081 Y147.951 E.01905
G1 X125.91 Y147.442 E.01998
M73 P8 R7
G1 X125.784 Y147.313 E.0067
G1 X125.603 Y147.316 E.00678
G1 X124.915 Y147.627 E.0281
G1 X124.29 Y147.828 E.02447
G1 X123.645 Y147.958 E.02448
G1 X123 Y148.014 E.02413
G1 X122.595 Y147.979 E.01515
G1 X121.948 Y147.876 E.02441
G1 X121.431 Y147.738 E.01992
G1 X120.863 Y147.527 E.02257
G1 X120.369 Y147.305 E.02018
G1 X120.196 Y147.322 E.00644
G1 X120.088 Y147.446 E.00614
G1 X119.699 Y148.516 E.04241
G1 X119.379 Y149.122 E.02554
G1 X118.993 Y149.694 E.02567
G1 X118.549 Y150.221 E.02567
