; HEADER_BLOCK_START
; generated by OrcaSlicer 2.1.1 on 2024-08-16 at 11:07:34
; total layer number: 25
; filament_density: 1.24
; filament_diameter: 1.75
; max_z_height: 5.00
; HEADER_BLOCK_END

; THUMBNAIL_BLOCK_START

;
; THUMBNAIL_BLOCK_END

; THUMBNAIL_BLOCK_START

;
; THUMBNAIL_BLOCK_END

; external perimeters extrusion width = 0.42mm
; perimeters extrusion width = 0.45mm
; infill extrusion width = 0.45mm
; solid infill extrusion width = 0.45mm
; top infill extrusion width = 0.42mm
; first layer extrusion width = 0.50mm

; EXECUTABLE_BLOCK_START
EXCLUDE_OBJECT_DEFINE NAME=Cochonou_plat_v10.stl_id_0_copy_0 CENTER=115,115 POLYGON=[[103.112,108.728],[103.112,108.519],[103.119,108.311],[103.163,108.113],[103.212,107.917],[103.268,107.722],[103.329,107.529],[103.396,107.338],[103.469,107.149],[103.547,106.963],[103.631,106.779],[103.721,106.597],[103.815,106.418],[103.916,106.243],[104.021,106.07],[104.132,105.9],[104.248,105.734],[104.368,105.572],[104.494,105.413],[104.624,105.258],[104.759,105.107],[104.898,104.96],[105.041,104.817],[105.189,104.679],[105.341,104.545],[105.497,104.416],[105.657,104.292],[105.82,104.172],[105.987,104.058],[106.157,103.948],[106.331,103.844],[106.507,103.745],[106.687,103.652],[106.869,103.563],[107.054,103.481],[107.241,103.404],[107.43,103.332],[107.622,103.266],[107.815,103.206],[115,103.093],[122.185,103.206],[122.378,103.266],[122.57,103.332],[122.759,103.404],[122.946,103.481],[123.131,103.563],[123.313,103.652],[123.493,103.745],[123.669,103.844],[123.843,103.948],[124.013,104.058],[124.18,104.172],[124.343,104.292],[124.503,104.416],[124.659,104.545],[124.811,104.679],[124.959,104.817],[125.102,104.96],[125.241,105.107],[125.376,105.258],[125.506,105.413],[125.632,105.572],[125.752,105.734],[125.868,105.9],[125.979,106.07],[126.084,106.243],[126.185,106.418],[126.279,106.597],[126.369,106.779],[126.453,106.963],[126.531,107.149],[126.604,107.338],[126.671,107.529],[126.732,107.722],[126.788,107.917],[126.837,108.113],[126.881,108.311],[126.888,108.519],[126.888,108.728],[126.883,108.936],[126.872,109.145],[126.854,109.353],[126.831,109.56],[126.802,109.767],[126.767,109.972],[126.726,110.177],[126.68,110.38],[126.627,110.582],[122.915,124.727],[122.871,124.884],[122.822,125.04],[122.767,125.194],[122.706,125.346],[122.64,125.496],[122.568,125.643],[122.49,125.787],[122.408,125.928],[122.32,126.066],[122.227,126.2],[122.129,126.331],[122.026,126.458],[121.881,126.527],[121.734,126.59],[121.584,126.648],[121.432,126.7],[121.279,126.746],[121.124,126.787],[120.967,126.821],[120.809,126.85],[120.651,126.873],[120.491,126.89],[120.332,126.901],[120.171,126.907],[120.011,126.906],[109.434,126.682],[109.265,126.674],[109.096,126.661],[108.927,126.641],[108.76,126.616],[108.593,126.585],[108.428,126.549],[108.263,126.506],[108.101,126.458],[108.002,126.33],[107.908,126.198],[107.82,126.062],[107.736,125.923],[107.657,125.782],[107.584,125.637],[107.516,125.49],[107.454,125.34],[107.397,125.188],[107.346,125.034],[107.301,124.879],[103.373,110.582],[103.32,110.38],[103.274,110.177],[103.233,109.972],[103.198,109.767],[103.169,109.56],[103.146,109.353],[103.128,109.145],[103.117,108.936],[103.112,108.728]]
M73 P0 R4
;TYPE:Custom
M220 S100
G90 ; use absolute coordinates
M83 ; extruder relative mode
M104 S150 ; set temporary nozzle temp to prevent oozing during homing
M140 S55 ; set final bed temp
G4 S30 ; allow partial nozzle warmup
G28 ; home all axis and restore leveling
BED_MESH_CALIBRATE PROFILE=adaptive ADAPTIVE=1 ADAPTIVE_MARGIN=0
G1 Z25 F240
G1 X10.0 Y30 F3000
M104 S205 ; set final nozzle temp
M190 S55 ; wait for bed temp to stabilize
M109 S205 ; wait for nozzle temp to stabilize
M73 P2 R4
G1 Z0.28 F240
G92 E0 ; Move Z Axis up
G1 Z2.0 F5000 ; Move to start position
M73 P4 R4
G1 X5 Y30 Z0.28 F300 ; Draw the first line
G1 X5 Y200 Z0.28 F1500 E15 ; Move to side a little
G1 X5.4 Y200 Z0.28 F5000.0 ; Draw the second line
M73 P7 R4
G1 X5.4 Y50 Z0.28 F1500.0 E30 ; Reset Extruder
G92 E0 ; Move Z Axis up
G1 Z2.0 F3000
M117 Start Printing..
G90
G21
M83 ; use relative distances for extrusion
; filament start gcode
SET_PRESSURE_ADVANCE ADVANCE=0.052; Override pressure advance value
M106 S0
;LAYER_CHANGE
;Z:0.2
;HEIGHT:0.2
;BEFORE_LAYER_CHANGE
;0.2
G92 E0

M73 P9 R4
G1 E-.5 F1800
;_SET_FAN_SPEED_CHANGING_LAYER
SET_VELOCITY_LIMIT ACCEL=1000
SET_VELOCITY_LIMIT SQUARE_CORNER_VELOCITY=7
; printing object Cochonou plat v10.stl id:0 copy 0
EXCLUDE_OBJECT_START NAME=Cochonou_plat_v10.stl_id_0_copy_0
G1 Z.2 F24000
G1 X118.447 Y140.148
G1 Z.2
G1 E.5 F1800
;TYPE:Inner wall
;WIDTH:0.499999
G1 X118.524 Y140.079 E.00386
G1 X118.644 Y139.773 E.01225
G1 X118.617 Y139.471 E.01131
G1 X118.479 Y139.229 E.01035
G1 X117.602 Y138.234 E.0494
G1 X116.41 Y136.821 E.06889
G1 X114.874 Y134.885 E.09202
G1 X114.135 Y133.904 E.04575
G1 X113.065 Y132.418 E.06818
G1 X112.57 Y131.591 E.03591
G1 X112.344 Y131.094 E.02033
G1 X112.104 Y130.381 E.02803
G1 X111.946 Y129.645 E.02802
G1 X111.885 Y129.098 E.02051
G1 X111.877 Y128.406 E.02576
G1 X112.05 Y127.765 E.02475
G1 X112.24 Y127.272 E.01968
G1 X112.571 Y126.623 E.02711
G1 X112.863 Y126.177 E.01988
G1 X113.194 Y125.758 E.01987
G1 X113.702 Y125.237 E.02712
G1 X114.109 Y124.9 E.01969
G1 X114.712 Y124.5 E.02693
G1 X115.353 Y124.177 E.02673
G1 X115.952 Y123.962 E.02372
G1 X123 Y123.851 E.26255
G1 X130.048 Y123.962 E.26255
G1 X130.647 Y124.177 E.02372
G1 X131.288 Y124.5 E.02673
G1 X131.891 Y124.9 E.02693
G1 X132.302 Y125.24 E.01987
G1 X132.68 Y125.616 E.01988
G1 X133.14 Y126.181 E.02711
G1 X133.429 Y126.623 E.01969
G1 X133.76 Y127.272 E.02711
G1 X133.95 Y127.765 E.01968
G1 X134.124 Y128.411 E.02495
G1 X134.126 Y128.902 E.01825
G1 X134.052 Y129.655 E.02819
G1 X133.946 Y130.191 E.02035
G1 X133.657 Y131.089 E.03515
G1 X133.243 Y131.937 E.03514
G1 X132.94 Y132.412 E.02097
G1 X132.188 Y133.464 E.04818
G1 X130.607 Y135.555 E.09762
M73 P10 R4
G1 X128.953 Y137.585 E.09755
G1 X127.555 Y139.193 E.07933
G1 X127.438 Y139.453 E.01063
G1 X127.448 Y139.791 E.01261
G1 X127.63 Y140.095 E.01319
G1 X127.841 Y140.234 E.0094
G1 X128.365 Y140.455 E.0212
G1 X128.735 Y140.67 E.01593
G1 X129.151 Y141.006 E.01991
G1 X129.596 Y141.512 E.02511
G1 X129.871 Y141.98 E.0202
G1 X130.115 Y142.525 E.02226
G1 X130.26 Y143.184 E.02512
G1 X130.276 Y143.627 E.01653
G1 X130.014 Y143.314 E.01523
G1 X129.807 Y143.147 E.00989
G1 X129.433 Y142.95 E.01574
G1 X128.983 Y142.837 E.01729
G1 X128.477 Y142.861 E.01888
G1 X128.23 Y142.927 E.00951
G1 X127.678 Y143.226 E.02337
G1 X127.359 Y143.571 E.0175
G1 X127.118 Y144.02 E.01898
G1 X127.026 Y144.613 E.02234
G1 X127.046 Y144.876 E.00985
G1 X127.201 Y145.394 E.02013
G1 X127.537 Y145.853 E.02118
G1 X127.922 Y146.135 E.01778
G1 X127.762 Y146.13 E.00595
G1 X127.232 Y146.036 E.02008
G1 X126.721 Y145.862 E.0201
G1 X126.241 Y145.611 E.02018
G1 X125.806 Y145.291 E.02011
G1 X125.424 Y144.908 E.02016
G1 X125.105 Y144.473 E.02006
G1 X124.857 Y143.996 E.02004
G1 X124.682 Y143.493 E.01984
G1 X124.526 Y142.912 E.02242
G1 X124.356 Y142.702 E.01006
G1 X124.06 Y142.56 E.01221
G1 X123.768 Y142.563 E.01088
G1 X123.016 Y142.701 E.0285
G1 X122.288 Y142.581 E.02749
G1 X121.977 Y142.602 E.01161
G1 X121.727 Y142.74 E.01061
G1 X121.537 Y143.01 E.01231
G1 X121.356 Y143.476 E.01862
G1 X121.082 Y143.965 E.02088
G1 X120.821 Y144.349 E.0173
G1 X120.457 Y144.757 E.02037
G1 X119.882 Y145.222 E.02752
G1 X119.411 Y145.49 E.02019
G1 X118.854 Y145.705 E.02223
G1 X118.268 Y145.861 E.02259
G1 X117.68 Y145.921 E.02203
G1 X117.118 Y145.898 E.02093
G1 X116.558 Y145.795 E.02122
G1 X116.246 Y145.251 E.02335
G1 X116.048 Y144.723 E.02098
G1 X115.933 Y144.133 E.02239
G1 X115.909 Y143.62 E.01915
G1 X115.969 Y143.096 E.01963
G1 X116.106 Y142.571 E.0202
G1 X116.311 Y142.077 E.01994
G1 X116.599 Y141.621 E.02007
G1 X116.938 Y141.219 E.01959
G1 X117.327 Y140.869 E.0195
G1 X118.293 Y140.285 E.04205
G1 X118.417 Y140.175 E.00619
G1 X118.125 Y139.845 F24000
;TYPE:Outer wall
G1 F1800
G1 X118.193 Y139.677 E.00676
G1 X118.136 Y139.531 E.00584
G1 X117.256 Y138.533 E.04958
G1 X116.056 Y137.11 E.06933
G1 X114.512 Y135.165 E.09249
G1 X113.767 Y134.175 E.04615
G1 X112.683 Y132.67 E.06908
G1 X112.164 Y131.804 E.0376
G1 X111.919 Y131.262 E.02216
G1 X111.662 Y130.502 E.02985
G1 X111.494 Y129.719 E.02985
G1 X111.428 Y129.126 E.02221
G1 X111.419 Y128.349 E.02895
G1 X111.614 Y127.623 E.028
G1 X111.822 Y127.085 E.02148
G1 X112.175 Y126.394 E.02891
G1 X112.491 Y125.909 E.02154
G1 X112.85 Y125.456 E.02154
G1 X113.392 Y124.9 E.02891
G1 X113.836 Y124.533 E.02148
G1 X114.482 Y124.104 E.02885
G1 X115.172 Y123.757 E.02878
G1 X115.869 Y123.506 E.02758
G1 X123 Y123.393 E.26565
G1 X130.131 Y123.506 E.26565
G1 X130.828 Y123.757 E.02758
G1 X131.518 Y124.104 E.02878
G1 X132.164 Y124.533 E.02885
G1 X132.609 Y124.901 E.02154
G1 X133.019 Y125.309 E.02154
G1 X133.51 Y125.911 E.02891
G1 X133.825 Y126.394 E.02148
G1 X134.178 Y127.085 E.02891
G1 X134.386 Y127.623 E.02147
G1 X134.581 Y128.35 E.02806
G1 X134.583 Y128.923 E.02133
G1 X134.505 Y129.722 E.02989
G1 X134.389 Y130.306 E.02218
M73 P11 R4
G1 X134.082 Y131.26 E.03734
G1 X133.642 Y132.161 E.03734
G1 X133.319 Y132.668 E.02239
G1 X132.556 Y133.735 E.04885
G1 X130.967 Y135.837 E.09816
G1 X129.303 Y137.88 E.09813
G1 X127.935 Y139.453 E.07763
G1 X127.884 Y139.553 E.00418
G1 X127.912 Y139.721 E.00637
G1 X128.019 Y139.813 E.00524
G1 X128.682 Y140.093 E.02684
G1 X129.134 Y140.395 E.02022
G1 X129.68 Y140.893 E.02754
G1 X130.015 Y141.306 E.01979
G1 X130.361 Y141.918 E.0262
G1 X130.555 Y142.394 E.01913
G1 X130.719 Y143.14 E.02848
G1 X130.741 Y143.876 E.02742
;WIDTH:0.512422
G1 X130.686 Y144.327 E.01738
;WIDTH:0.531254
G1 X130.441 Y145.242 E.03769
;WIDTH:0.504733
G1 X130.206 Y145.686 E.01891
;WIDTH:0.536741
G1 X130.041 Y145.898 E.0108
;WIDTH:0.568748
G1 X129.876 Y146.11 E.0115
G1 X129.753 Y146.207 E.00671
G1 X129.216 Y146.415 E.02471
;WIDTH:0.567683
G1 X128.574 Y146.541 E.02796
;WIDTH:0.533841
G1 X128.312 Y146.601 E.01076
;WIDTH:0.499999
G1 X127.72 Y146.587 E.02204
G1 X127.133 Y146.485 E.0222
G1 X126.568 Y146.297 E.0222
G1 X126.037 Y146.027 E.02219
G1 X125.551 Y145.681 E.0222
G1 X125.123 Y145.267 E.0222
G1 X124.76 Y144.794 E.0222
G1 X124.472 Y144.272 E.0222
G1 X124.264 Y143.712 E.02227
G1 X124.133 Y143.15 E.02149
G1 X124.013 Y143.023 E.00651
G1 X123.869 Y143.008 E.00539
G1 X123.005 Y143.163 E.0327
G1 X122.213 Y143.032 E.02989
G1 X122.069 Y143.056 E.00544
G1 X121.964 Y143.173 E.00586
G1 X121.77 Y143.671 E.01991
G1 X121.481 Y144.188 E.02207
G1 X121.185 Y144.625 E.01964
G1 X120.769 Y145.092 E.02333
G1 X120.301 Y145.471 E.02241
G1 X119.867 Y145.765 E.01953
G1 X119.311 Y146.042 E.02313
G1 X118.71 Y146.228 E.02341
G1 X118.197 Y146.336 E.01953
G1 X117.601 Y146.383 E.02227
G1 X117.051 Y146.35 E.02053
G1 X116.282 Y146.196 E.02922
G1 X116.106 Y145.948 E.01132
G1 X115.868 Y145.514 E.01842
G1 X115.673 Y145.052 E.01869
G1 X115.523 Y144.506 E.02108
G1 X115.458 Y143.887 E.02317
G1 X115.478 Y143.305 E.0217
G1 X115.581 Y142.71 E.02248
G1 X115.785 Y142.134 E.02278
G1 X116.052 Y141.617 E.02166
G1 X116.407 Y141.115 E.02291
G1 X116.88 Y140.649 E.02473
G1 X117.432 Y140.272 E.0249
G1 X118.091 Y139.866 E.02882
G1 E-.5
;WIPE_START
G1 F12000
G1 X118.193 Y139.677
G1 X118.136 Y139.531
G1 X117.256 Y138.533
G1 X117.064 Y138.306
;WIPE_END
G1 Z.4 F24000
G1 X130.055 Y144.269 Z.4
G1 Z.2
G1 E.5 F1800
;WIDTH:0.531254
G1 X130.127 Y144.507 E.00988
G1 X130.066 Y144.922 E.01669
;WIDTH:0.50721
G1 X129.833 Y145.409 E.02045
;WIDTH:0.537979
G1 X129.666 Y145.581 E.00965
;WIDTH:0.568748
G1 X129.5 Y145.752 E.01025
G1 X129.336 Y145.839 E.00792
;WIDTH:0.567683
G1 X128.829 Y145.962 E.02233
G1 X128.58 Y145.902 E.01095
;WIDTH:0.533841
G1 X128.331 Y145.843 E.01025
;WIDTH:0.499999
G1 X127.898 Y145.573 E.01899
G1 X127.6 Y145.161 E.01895
G1 X127.48 Y144.666 E.01898
G1 X127.556 Y144.162 E.01897
G1 X127.803 Y143.736 E.01835
G1 X128.106 Y143.493 E.01446
G1 X128.521 Y143.316 E.0168
G1 X128.904 Y143.288 E.0143
G1 X129.221 Y143.354 E.01206
G1 X129.662 Y143.605 E.01891
G1 X129.977 Y144.008 E.01904
;WIDTH:0.531254
G1 X130.044 Y144.231 E.00925
G1 E-.5
;WIPE_START
G1 F12000
G1 X130.127 Y144.507
G1 X130.066 Y144.922
G1 X129.833 Y145.409
G1 X129.666 Y145.581
G1 X129.5 Y145.752
G1 X129.336 Y145.839
G1 X129.25 Y145.86
;WIPE_END
G1 Z.4 F24000
G1 X131.168 Y124.593
G1 Z.4
G1 Z.2
G1 E.5 F1800
;TYPE:Bottom surface
;WIDTH:0.505466
G1 F3600
G1 X132.443 Y125.868 E.06796
G1 X132.863 Y126.383 E.02506
G1 X133.132 Y126.796 E.01856
G1 X133.447 Y127.412 E.02608
G1 X133.519 Y127.598 E.00753
M73 P12 R4
G1 X130.359 Y124.438 E.16844
G1 X129.986 Y124.303 E.01496
G1 X129.563 Y124.297 E.01591
G1 X133.782 Y128.515 E.22485
G1 X133.783 Y128.885 E.01396
G1 X133.758 Y129.145 E.00983
G1 X128.899 Y124.286 E.25899
G1 X128.234 Y124.276 E.02505
G1 X133.688 Y129.73 E.29071
G1 X133.613 Y130.104 E.01441
G1 X133.563 Y130.259 E.00613
G1 X127.57 Y124.265 E.31949
G1 X126.905 Y124.255 E.02505
G1 X133.404 Y130.754 E.34643
G1 X133.338 Y130.961 E.00818
G1 X133.213 Y131.217 E.01074
G1 X126.24 Y124.244 E.37166
G1 X125.576 Y124.234 E.02505
G1 X132.998 Y131.656 E.39565
G1 X132.754 Y132.066 E.01798
G1 X124.911 Y124.223 E.41803
G1 X124.247 Y124.213 E.02505
G1 X132.488 Y132.454 E.43929
G1 X132.215 Y132.836 E.01767
G1 X123.582 Y124.203 E.46019
G1 X122.924 Y124.198 E.02481
G1 X131.943 Y133.218 E.48075
G1 X131.662 Y133.591 E.01761
G1 X122.279 Y124.208 E.50014
G1 X121.635 Y124.218 E.02429
M73 P13 R4
G1 X131.381 Y133.964 E.51948
G1 X131.099 Y134.336 E.0176
G1 X120.991 Y124.228 E.53881
G1 X120.346 Y124.238 E.02429
G1 X130.817 Y134.709 E.55814
G1 X130.536 Y135.081 E.0176
G1 X119.702 Y124.247 E.57748
G1 X119.058 Y124.257 E.02429
G1 X130.25 Y135.45 E.59662
G1 X129.957 Y135.81 E.01752
G1 X118.413 Y124.267 E.61531
G1 X117.769 Y124.277 E.02429
G1 X129.663 Y136.171 E.634
G1 X129.369 Y136.531 E.01752
G1 X117.125 Y124.287 E.6527
G1 X116.48 Y124.296 E.02429
G1 X129.076 Y136.892 E.67139
G1 X128.782 Y137.252 E.01752
M73 P14 R4
G1 X115.881 Y124.351 E.68767
G1 X115.409 Y124.533 E.01908
G1 X128.481 Y137.605 E.69681
G1 X128.177 Y137.955 E.01748
G1 X114.974 Y124.752 E.70379
G1 X114.572 Y125.004 E.01788
G1 X127.873 Y138.305 E.70899
G1 X127.568 Y138.655 E.01748
G1 X114.191 Y125.278 E.71307
G1 X113.843 Y125.584 E.01747
G1 X127.422 Y139.163 E.72384
G1 E-.5 F1800
;WIPE_START
G1 F12000
G1 X126.008 Y137.749
;WIPE_END
G1 Z.4 F24000
G1 X129.869 Y142.264 Z.4
G1 Z.2
G1 E.5 F1800
G1 F3600
G1 X128.587 Y140.982 E.06831
G1 X128.308 Y140.803 E.01247
M73 P15 R4
G1 X127.677 Y140.537 E.02583
G1 X127.53 Y140.454 E.00634
G1 X127.39 Y140.34 E.00683
G1 X127.228 Y140.137 E.00978
G1 X127.118 Y139.887 E.01028
G1 X127.08 Y139.666 E.00846
G1 X127.094 Y139.489 E.00669
G1 X113.52 Y125.915 E.72356
G1 X113.224 Y126.273 E.01751
G1 X129.621 Y142.671 E.87407
G1 X129.443 Y142.581 E.00754
G1 X129.036 Y142.498 E.01562
G1 X128.785 Y142.489 E.00946
G1 X112.957 Y126.66 E.84374
G1 X112.723 Y127.08 E.01812
G1 X128.213 Y142.57 E.82571
G1 X128.086 Y142.616 E.00509
G1 X127.766 Y142.778 E.01351
G1 X112.51 Y127.522 E.81319
G1 X112.34 Y128.005 E.01933
G1 X127.378 Y143.043 E.80158
G1 X127.249 Y143.158 E.00649
G1 X127.07 Y143.39 E.01103
G1 X112.221 Y128.541 E.79148
G1 X112.243 Y129.217 E.02549
M73 P16 R4
G1 X126.841 Y143.815 E.77812
G1 X126.799 Y143.893 E.00332
G1 X126.744 Y144.086 E.00758
G1 X126.713 Y144.341 E.00969
G1 X112.373 Y130.001 E.76439
G1 X112.435 Y130.29 E.01114
G1 X112.652 Y130.935 E.02565
G1 X123.923 Y142.206 E.60079
G1 X124.132 Y142.224 E.00789
G1 X124.342 Y142.293 E.00833
G1 X124.575 Y142.437 E.01033
G1 X124.775 Y142.659 E.01125
G1 X124.882 Y142.865 E.00876
G1 X124.977 Y143.26 E.0153
G1 X126.727 Y145.01 E.09328
G1 X126.901 Y145.569 E.02207
G1 X126.452 Y145.341 E.01898
G1 X126.285 Y145.222 E.00773
G1 X124.97 Y143.906 E.07013
G1 E-.5 F1800
;WIPE_START
G1 F12000
G1 X126.285 Y145.222
G1 X126.399 Y145.303
;WIPE_END
G1 Z.4 F24000
G1 X123.538 Y142.475 Z.4
G1 Z.2
G1 E.5 F1800
G1 F3600
G1 X113.502 Y132.439 E.53497
G1 X114.411 Y133.701 E.05862
G1 X115.374 Y134.965 E.0599
G1 X122.713 Y142.304 E.39122
G1 X122.327 Y142.24 E.01477
G1 X122.153 Y142.229 E.00657
G1 X122.007 Y142.252 E.00556
