; HEADER_BLOCK_START
; generated by OrcaSlicer 2.2.0 on 2024-12-01 at 09:49:50
; total layer number: 114
; filament_density: 1.27
; filament_diameter: 1.75
; max_z_height: 23.00
; HEADER_BLOCK_END

; THUMBNAIL_BLOCK_START

;
; THUMBNAIL_BLOCK_END

; THUMBNAIL_BLOCK_START

;
; THUMBNAIL_BLOCK_END

; external perimeters extrusion width = 0.42mm
; perimeters extrusion width = 0.45mm
; infill extrusion width = 0.45mm
; solid infill extrusion width = 0.45mm
; top infill extrusion width = 0.42mm
; first layer extrusion width = 0.50mm

; EXECUTABLE_BLOCK_START
EXCLUDE_OBJECT_DEFINE NAME=Cône_id_0_copy_0 CENTER=115,115 POLYGON=[[103.5,115],[103.502,114.799],[103.507,114.599],[103.516,114.398],[103.528,114.198],[103.544,113.998],[103.563,113.798],[103.586,113.599],[103.612,113.4],[103.642,113.201],[103.675,113.003],[103.711,112.806],[103.751,112.609],[103.795,112.413],[103.842,112.218],[103.892,112.024],[103.945,111.83],[104.002,111.638],[104.063,111.446],[104.127,111.256],[104.194,111.067],[104.264,110.879],[104.337,110.692],[104.414,110.507],[104.494,110.323],[104.577,110.14],[104.664,109.959],[104.753,109.779],[104.846,109.601],[104.942,109.425],[105.041,109.25],[105.143,109.077],[105.247,108.906],[105.355,108.737],[105.466,108.569],[105.58,108.404],[105.696,108.24],[105.816,108.079],[105.938,107.92],[106.063,107.763],[106.19,107.608],[106.321,107.455],[106.454,107.305],[106.589,107.157],[106.728,107.011],[106.868,106.868],[107.011,106.728],[107.157,106.589],[107.305,106.454],[107.455,106.321],[107.608,106.19],[107.763,106.063],[107.92,105.938],[108.079,105.816],[108.24,105.696],[108.404,105.58],[108.569,105.466],[108.737,105.355],[108.906,105.247],[109.077,105.143],[109.25,105.041],[109.425,104.942],[109.601,104.846],[109.779,104.753],[109.959,104.664],[110.14,104.577],[110.323,104.494],[110.507,104.414],[110.692,104.337],[110.879,104.264],[111.067,104.194],[111.256,104.127],[111.446,104.063],[111.638,104.002],[111.83,103.945],[112.024,103.892],[112.218,103.842],[112.413,103.795],[112.609,103.751],[112.806,103.711],[113.003,103.675],[113.201,103.642],[113.4,103.612],[113.599,103.586],[113.798,103.563],[113.998,103.544],[114.198,103.528],[114.398,103.516],[114.599,103.507],[114.799,103.502],[115,103.5],[115.201,103.502],[115.401,103.507],[115.602,103.516],[115.802,103.528],[116.002,103.544],[116.202,103.563],[116.401,103.586],[116.6,103.612],[116.799,103.642],[116.997,103.675],[117.194,103.711],[117.391,103.751],[117.587,103.795],[117.782,103.842],[117.976,103.892],[118.17,103.945],[118.362,104.002],[118.554,104.063],[118.744,104.127],[118.933,104.194],[119.121,104.264],[119.308,104.337],[119.493,104.414],[119.677,104.494],[119.86,104.577],[120.041,104.664],[120.221,104.753],[120.399,104.846],[120.575,104.942],[120.75,105.041],[120.923,105.143],[121.094,105.247],[121.263,105.355],[121.431,105.466],[121.596,105.58],[121.76,105.696],[121.921,105.816],[122.08,105.938],[122.237,106.063],[122.392,106.19],[122.545,106.321],[122.695,106.454],[122.843,106.589],[122.989,106.728],[123.132,106.868],[123.272,107.011],[123.411,107.157],[123.546,107.305],[123.679,107.455],[123.81,107.608],[123.937,107.763],[124.062,107.92],[124.184,108.079],[124.304,108.24],[124.42,108.404],[124.534,108.569],[124.645,108.737],[124.753,108.906],[124.857,109.077],[124.959,109.25],[125.058,109.425],[125.154,109.601],[125.247,109.779],[125.336,109.959],[125.423,110.14],[125.506,110.323],[125.586,110.507],[125.663,110.692],[125.736,110.879],[125.806,111.067],[125.873,111.256],[125.937,111.446],[125.998,111.638],[126.055,111.83],[126.108,112.024],[126.158,112.218],[126.205,112.413],[126.249,112.609],[126.289,112.806],[126.325,113.003],[126.358,113.201],[126.388,113.4],[126.414,113.599],[126.437,113.798],[126.456,113.998],[126.472,114.198],[126.484,114.398],[126.493,114.599],[126.498,114.799],[126.5,115],[126.498,115.201],[126.493,115.401],[126.484,115.602],[126.472,115.802],[126.456,116.002],[126.437,116.202],[126.414,116.401],[126.388,116.6],[126.358,116.799],[126.325,116.997],[126.289,117.194],[126.249,117.391],[126.205,117.587],[126.158,117.782],[126.108,117.976],[126.055,118.17],[125.998,118.362],[125.937,118.554],[125.873,118.744],[125.806,118.933],[125.736,119.121],[125.663,119.308],[125.586,119.493],[125.506,119.677],[125.423,119.86],[125.336,120.041],[125.247,120.221],[125.154,120.399],[125.058,120.575],[124.959,120.75],[124.857,120.923],[124.753,121.094],[124.645,121.263],[124.534,121.431],[124.42,121.596],[124.304,121.76],[124.184,121.921],[124.062,122.08],[123.937,122.237],[123.81,122.392],[123.679,122.545],[123.546,122.695],[123.411,122.843],[123.272,122.989],[123.132,123.132],[122.989,123.272],[122.843,123.411],[122.695,123.546],[122.545,123.679],[122.392,123.81],[122.237,123.937],[122.08,124.062],[121.921,124.184],[121.76,124.304],[121.596,124.42],[121.431,124.534],[121.263,124.645],[121.094,124.753],[120.923,124.857],[120.75,124.959],[120.575,125.058],[120.399,125.154],[120.221,125.247],[120.041,125.336],[119.86,125.423],[119.677,125.506],[119.493,125.586],[119.308,125.663],[119.121,125.736],[118.933,125.806],[118.744,125.873],[118.554,125.937],[118.362,125.998],[118.17,126.055],[117.976,126.108],[117.782,126.158],[117.587,126.205],[117.391,126.249],[117.194,126.289],[116.997,126.325],[116.799,126.358],[116.6,126.388],[116.401,126.414],[116.202,126.437],[116.002,126.456],[115.802,126.472],[115.602,126.484],[115.401,126.493],[115.201,126.498],[115,126.5],[114.799,126.498],[114.599,126.493],[114.398,126.484],[114.198,126.472],[113.998,126.456],[113.798,126.437],[113.599,126.414],[113.4,126.388],[113.201,126.358],[113.003,126.325],[112.806,126.289],[112.609,126.249],[112.413,126.205],[112.218,126.158],[112.024,126.108],[111.83,126.055],[111.638,125.998],[111.446,125.937],[111.256,125.873],[111.067,125.806],[110.879,125.736],[110.692,125.663],[110.507,125.586],[110.323,125.506],[110.14,125.423],[109.959,125.336],[109.779,125.247],[109.601,125.154],[109.425,125.058],[109.25,124.959],[109.077,124.857],[108.906,124.753],[108.737,124.645],[108.569,124.534],[108.404,124.42],[108.24,124.304],[108.079,124.184],[107.92,124.062],[107.763,123.937],[107.608,123.81],[107.455,123.679],[107.305,123.546],[107.157,123.411],[107.011,123.272],[106.868,123.132],[106.728,122.989],[106.589,122.843],[106.454,122.695],[106.321,122.545],[106.19,122.392],[106.063,122.237],[105.938,122.08],[105.816,121.921],[105.696,121.76],[105.58,121.596],[105.466,121.431],[105.355,121.263],[105.247,121.094],[105.143,120.923],[105.041,120.75],[104.942,120.575],[104.846,120.399],[104.753,120.221],[104.664,120.041],[104.577,119.86],[104.494,119.677],[104.414,119.493],[104.337,119.308],[104.264,119.121],[104.194,118.933],[104.127,118.744],[104.063,118.554],[104.002,118.362],[103.945,118.17],[103.892,117.976],[103.842,117.782],[103.795,117.587],[103.751,117.391],[103.711,117.194],[103.675,116.997],[103.642,116.799],[103.612,116.6],[103.586,116.401],[103.563,116.202],[103.544,116.002],[103.528,115.802],[103.516,115.602],[103.507,115.401],[103.502,115.201],[103.5,115]]
M73 P0 R9
;TYPE:Custom
M220 S100
G90 ; use absolute coordinates
M83 ; extruder relative mode
M104 S150 ; set temporary nozzle temp to prevent oozing during homing
M140 S70 ; set final bed temp
G4 S30 ; allow partial nozzle warmup
G28 ; home all axis and restore leveling
BED_MESH_CALIBRATE
G1 Z25 F240
G1 X10.0 Y30 F3000
M73 P1 R9
M104 S245 ; set final nozzle temp
M190 S70 ; wait for bed temp to stabilize
M109 S245 ; wait for nozzle temp to stabilize
M73 P1 R9
G1 Z0.28 F240
G92 E0 ; Move Z Axis up
LINE_PURGE
G92 E0 ; Move Z Axis up
G1 Z2.0 F3000
M73 P2 R9
M117 Start Printing..
G90
G21
M83 ; use relative distances for extrusion
; filament start gcode
M106 S0
;LAYER_CHANGE
;Z:0.2
;HEIGHT:0.2
;BEFORE_LAYER_CHANGE
;0.2
G92 E0

M73 P2 R9
G1 E-.5 F1800
TIMELAPSE_TAKE_FRAME
;_SET_FAN_SPEED_CHANGING_LAYER
SET_VELOCITY_LIMIT ACCEL=1000
SET_VELOCITY_LIMIT SQUARE_CORNER_VELOCITY=7
; printing object Cône id:0 copy 0
EXCLUDE_OBJECT_START NAME=Cône_id_0_copy_0
G1 Z.4 F24000
G1 X131.434 Y141.567
G1 Z.4
G1 Z.2
G1 E.5 F1800
;TYPE:Inner wall
;WIDTH:0.499999
G1 F3000
G1 X131.191 Y141.873 E.01411
G1 X130.82 Y142.292 E.02021
G1 X130.428 Y142.692 E.02021
G1 X130.02 Y143.066 E.01999
G1 X129.28 Y143.654 E.03412
G1 X128.824 Y143.968 E.02
G1 X128.351 Y144.257 E.01999
G1 X127.513 Y144.693 E.03412
G1 X127.006 Y144.914 E.01999
G1 X126.487 Y145.108 E.01999
G1 X125.581 Y145.376 E.03412
G1 X125.04 Y145.496 E.01999
G1 X124.488 Y145.589 E.02021
G1 X123.932 Y145.652 E.02021
G1 X123.379 Y145.686 E.01999
G1 X122.437 Y145.678 E.03402
G1 X121.7 Y145.613 E.02673
G1 X120.771 Y145.458 E.03399
G1 X120.232 Y145.328 E.02001
G1 X119.696 Y145.169 E.02021
G1 X119.174 Y144.985 E.01998
G1 X118.307 Y144.608 E.03412
G1 X117.816 Y144.352 E.02
G1 X117.339 Y144.071 E.01998
G1 X116.56 Y143.536 E.03413
G1 X116.127 Y143.191 E.01999
G1 X115.708 Y142.82 E.02021
G1 X115.308 Y142.428 E.02021
G1 X114.934 Y142.02 E.01999
G1 X114.346 Y141.28 E.03412
G1 X114.032 Y140.824 E.02
G1 X113.743 Y140.351 E.01999
G1 X113.307 Y139.513 E.03412
G1 X113.086 Y139.006 E.01999
G1 X112.892 Y138.487 E.01999
G1 X112.624 Y137.581 E.03412
G1 X112.504 Y137.04 E.01999
G1 X112.411 Y136.488 E.02021
G1 X112.348 Y135.932 E.02021
G1 X112.314 Y135.379 E.01999
G1 X112.322 Y134.437 E.03402
G1 X112.387 Y133.7 E.02673
G1 X112.542 Y132.771 E.03399
G1 X112.672 Y132.232 E.02001
G1 X112.831 Y131.696 E.02021
G1 X113.015 Y131.174 E.01998
G1 X113.392 Y130.307 E.03412
G1 X113.648 Y129.816 E.02
G1 X113.929 Y129.339 E.01998
G1 X114.464 Y128.56 E.03413
G1 X114.809 Y128.127 E.01999
G1 X115.18 Y127.708 E.02021
G1 X115.572 Y127.308 E.02021
G1 X115.98 Y126.934 E.01999
G1 X116.72 Y126.346 E.03412
G1 X117.176 Y126.032 E.02
G1 X117.649 Y125.743 E.01999
G1 X118.487 Y125.307 E.03412
G1 X118.994 Y125.086 E.01999
G1 X119.513 Y124.892 E.01999
G1 X120.419 Y124.624 E.03412
G1 X120.96 Y124.504 E.01999
G1 X121.512 Y124.411 E.02021
G1 X122.068 Y124.348 E.02021
G1 X122.621 Y124.314 E.01999
G1 X123.563 Y124.322 E.03402
G1 X124.3 Y124.387 E.02673
G1 X125.229 Y124.542 E.03399
G1 X125.768 Y124.672 E.02001
G1 X126.304 Y124.831 E.02021
G1 X126.826 Y125.015 E.01998
G1 X127.693 Y125.392 E.03412
G1 X128.184 Y125.648 E.02
G1 X128.661 Y125.929 E.01998
G1 X129.44 Y126.464 E.03413
G1 X129.873 Y126.809 E.01999
G1 X130.292 Y127.18 E.02021
G1 X130.692 Y127.572 E.02021
G1 X131.066 Y127.98 E.01999
G1 X131.654 Y128.72 E.03412
G1 X131.968 Y129.176 E.02
G1 X132.257 Y129.649 E.01999
G1 X132.693 Y130.487 E.03412
G1 X132.914 Y130.994 E.01999
G1 X133.108 Y131.513 E.01999
G1 X133.445 Y132.728 E.04553
G1 X133.545 Y133.253 E.01928
G1 X133.618 Y133.773 E.01898
G1 X133.666 Y134.305 E.01927
G1 X133.683 Y134.937 E.02284
G1 X133.678 Y135.563 E.0226
G1 X133.613 Y136.3 E.02673
G1 X133.458 Y137.229 E.03399
G1 X133.328 Y137.768 E.02001
G1 X133.169 Y138.304 E.02021
G1 X132.985 Y138.826 E.01998
G1 X132.608 Y139.693 E.03412
G1 X132.352 Y140.184 E.02
G1 X132.071 Y140.661 E.01998
G1 X131.536 Y141.44 E.03413
G1 X131.459 Y141.536 E.00444
G1 X131.792 Y141.852 F24000
;TYPE:Outer wall
G1 F3000
G1 X131.541 Y142.167 E.01454
G1 X131.155 Y142.604 E.02108
G1 X130.745 Y143.021 E.02108
G1 X130.317 Y143.413 E.021
G1 X129.552 Y144.022 E.03527
G1 X129.073 Y144.351 E.02101
G1 X128.577 Y144.655 E.021
G1 X127.71 Y145.106 E.03527
G1 X127.177 Y145.338 E.021
G1 X126.632 Y145.542 E.021
G1 X125.695 Y145.819 E.03528
G1 X125.128 Y145.945 E.021
G1 X124.552 Y146.041 E.02108
G1 X123.972 Y146.107 E.02108
G1 X123.391 Y146.143 E.021
G1 X122.415 Y146.134 E.03525
G1 X121.642 Y146.067 E.02802
G1 X120.68 Y145.906 E.03522
G1 X120.114 Y145.77 E.02102
G1 X119.554 Y145.604 E.02107
G1 X119.006 Y145.41 E.02099
G1 X118.11 Y145.02 E.03527
G1 X117.594 Y144.752 E.02101
G1 X117.093 Y144.457 E.02099
G1 X116.288 Y143.903 E.03528
G1 X115.833 Y143.541 E.021
G1 X115.396 Y143.155 E.02108
G1 X114.979 Y142.745 E.02108
G1 X114.587 Y142.317 E.021
G1 X113.978 Y141.552 E.03527
G1 X113.649 Y141.073 E.02101
G1 X113.345 Y140.577 E.021
G1 X112.894 Y139.71 E.03527
G1 X112.662 Y139.177 E.021
G1 X112.458 Y138.632 E.021
G1 X112.181 Y137.695 E.03528
G1 X112.055 Y137.128 E.021
G1 X111.959 Y136.552 E.02108
G1 X111.893 Y135.972 E.02108
G1 X111.857 Y135.391 E.021
G1 X111.866 Y134.415 E.03525
G1 X111.933 Y133.642 E.02802
G1 X112.094 Y132.68 E.03522
G1 X112.23 Y132.114 E.02102
G1 X112.396 Y131.554 E.02107
G1 X112.59 Y131.006 E.02099
G1 X112.98 Y130.11 E.03527
G1 X113.248 Y129.594 E.02101
G1 X113.543 Y129.093 E.02099
G1 X114.097 Y128.288 E.03528
G1 X114.459 Y127.833 E.021
G1 X114.845 Y127.396 E.02108
G1 X115.255 Y126.979 E.02108
G1 X115.683 Y126.587 E.021
G1 X116.448 Y125.978 E.03527
G1 X116.927 Y125.649 E.02101
G1 X117.423 Y125.345 E.021
G1 X118.29 Y124.894 E.03527
G1 X118.823 Y124.662 E.021
G1 X119.368 Y124.458 E.021
G1 X120.305 Y124.181 E.03528
G1 X120.872 Y124.055 E.021
G1 X121.448 Y123.959 E.02108
G1 X122.028 Y123.893 E.02108
G1 X122.609 Y123.857 E.021
G1 X123.585 Y123.866 E.03525
G1 X124.358 Y123.933 E.02802
G1 X125.32 Y124.094 E.03522
G1 X125.886 Y124.23 E.02102
G1 X126.446 Y124.396 E.02107
G1 X126.994 Y124.59 E.02099
G1 X127.89 Y124.98 E.03527
G1 X128.406 Y125.248 E.02101
G1 X128.907 Y125.543 E.02099
G1 X129.712 Y126.097 E.03528
G1 X130.167 Y126.459 E.021
G1 X130.604 Y126.845 E.02108
G1 X131.021 Y127.255 E.02108
G1 X131.413 Y127.683 E.021
G1 X132.022 Y128.448 E.03527
G1 X132.351 Y128.927 E.02101
G1 X132.655 Y129.423 E.021
G1 X133.106 Y130.29 E.03527
G1 X133.338 Y130.823 E.021
G1 X133.542 Y131.368 E.021
G1 X133.891 Y132.629 E.04726
G1 X133.996 Y133.177 E.02014
G1 X134.073 Y133.721 E.01984
G1 X134.123 Y134.277 E.02014
G1 X134.14 Y134.941 E.02399
G1 X134.134 Y135.585 E.02324
G1 X134.067 Y136.358 E.02802
G1 X133.906 Y137.32 E.03522
G1 X133.77 Y137.886 E.02102
G1 X133.604 Y138.446 E.02107
G1 X133.41 Y138.994 E.02099
G1 X133.02 Y139.89 E.03527
G1 X132.752 Y140.406 E.02101
G1 X132.457 Y140.907 E.02099
G1 X131.903 Y141.712 E.03528
G1 X131.817 Y141.821 E.00502
G1 E-.5 F1800
;WIPE_START
G1 F12000
G1 X131.541 Y142.167
G1 X131.155 Y142.604
G1 X130.745 Y143.021
G1 X130.458 Y143.284
;WIPE_END
TIMELAPSE_TAKE_FRAME
G1 Z.4 F24000
G1 X131.784 Y129.152
G1 Z.4
G1 Z.2
G1 E.5 F1800
;TYPE:Bottom surface
;WIDTH:0.502778
G1 F5871.378
G1 X130.059 Y127.431 E.08854
G1 X129.653 Y127.072 E.01968
M73 P3 R9
M73 P3 R9
G1 X129.236 Y126.74 E.01935
G1 X128.477 Y126.218 E.03346
G1 X127.835 Y125.853 E.02682
G1 X132.131 Y130.149 E.22068
G1 X132.384 Y130.634 E.0199
G1 X132.681 Y131.349 E.02809
G1 X126.648 Y125.316 E.30991
G1 X126.198 Y125.157 E.01732
G1 X125.687 Y125.005 E.01938
G1 X132.984 Y132.303 E.37489
G1 X133.044 Y132.505 E.00766
G1 X133.18 Y133.149 E.02391
G1 X124.859 Y124.828 E.42747
G1 X124.094 Y124.713 E.02812
G1 X133.289 Y133.908 E.47236
G1 X133.342 Y134.611 E.02562
G1 X123.394 Y124.664 E.51102
G1 X122.738 Y124.658 E.02383
G1 X133.337 Y135.257 E.5445
G1 X133.335 Y135.546 E.01051
G1 X133.306 Y135.876 E.01202
G1 X122.118 Y124.688 E.57474
G1 X121.535 Y124.755 E.02134
G1 X133.239 Y136.459 E.60127
G1 X133.146 Y137.016 E.02052
G1 X120.98 Y124.85 E.62499
G1 X120.451 Y124.972 E.01972
G1 X133.028 Y137.549 E.64613
G1 X132.885 Y138.057 E.01915
G1 X119.949 Y125.12 E.66456
G1 X119.457 Y125.279 E.01877
G1 X132.721 Y138.543 E.6814
G1 X132.533 Y139.005 E.01813
G1 X118.99 Y125.462 E.69574
G1 X118.542 Y125.664 E.01785
G1 X132.336 Y139.458 E.70862
G1 X132.118 Y139.891 E.01759
G1 X118.114 Y125.887 E.71941
G1 X117.694 Y126.117 E.0174
G1 X131.882 Y140.306 E.72889
G1 X131.628 Y140.701 E.01709
G1 X117.294 Y126.367 E.73634
G1 X116.909 Y126.633 E.01698
G1 X131.363 Y141.086 E.74249
G1 X131.083 Y141.458 E.01687
G1 X116.547 Y126.921 E.74675
G1 X116.186 Y127.211 E.01681
G1 X130.787 Y141.812 E.7501
G1 X130.477 Y142.152 E.01672
M73 P4 R9
M73 P4 R9
G1 X115.847 Y127.522 E.7516
G1 X115.81 Y127.555 E.00179
G1 X115.523 Y127.848 E.01492
G1 X130.153 Y142.478 E.7516
G1 X129.814 Y142.789 E.01672
G1 X115.213 Y128.188 E.7501
G1 X114.916 Y128.542 E.01677
G1 X129.453 Y143.079 E.74675
G1 X129.09 Y143.367 E.01681
G1 X114.637 Y128.914 E.74249
G1 X114.372 Y129.299 E.01699
G1 X128.706 Y143.633 E.73634
