; HEADER_BLOCK_START
; generated by OrcaSlicer 2.2.0 on 2024-11-13 at 19:00:34
; total layer number: 50
; filament_density: 1.27
; filament_diameter: 1.75
; max_z_height: 10.00
; HEADER_BLOCK_END

; THUMBNAIL_BLOCK_START

;
; THUMBNAIL_BLOCK_END

; THUMBNAIL_BLOCK_START

;
; THUMBNAIL_BLOCK_END

; external perimeters extrusion width = 0.42mm
; perimeters extrusion width = 0.45mm
; infill extrusion width = 0.45mm
; solid infill extrusion width = 0.45mm
; top infill extrusion width = 0.42mm
; support material extrusion width = 0.42mm
; first layer extrusion width = 0.50mm

; EXECUTABLE_BLOCK_START
EXCLUDE_OBJECT_DEFINE NAME=CONNECTEUR_GS.stl_id_0_copy_0 CENTER=115,115 POLYGON=[[95,78.5],[135,78.5],[135,151.5],[95,151.5],[95,78.5]]
M73 P0 R34
;TYPE:Custom
M220 S100
G90 ; use absolute coordinates
M83 ; extruder relative mode
M104 S150 ; set temporary nozzle temp to prevent oozing during homing
M140 S70 ; set final bed temp
G4 S30 ; allow partial nozzle warmup
G28 ; home all axis and restore leveling
BED_MESH_CALIBRATE PROFILE=adaptive ADAPTIVE=1 ADAPTIVE_MARGIN=0
G1 Z25 F240
G1 X10.0 Y30 F3000
M104 S245 ; set final nozzle temp
M190 S70 ; wait for bed temp to stabilize
M109 S245 ; wait for nozzle temp to stabilize
G1 Z0.28 F240
G92 E0 ; Move Z Axis up
G1 Z2.0 F5000 ; Move to start position
G1 X5 Y30 Z0.28 F300 ; Draw the first line
G1 X5 Y200 Z0.28 F1500 E15 ; Move to side a little
G1 X5.4 Y200 Z0.28 F5000.0 ; Draw the second line
M73 P1 R33
M73 P1 R33
G1 X5.4 Y50 Z0.28 F1500.0 E30 ; Reset Extruder
G92 E0 ; Move Z Axis up
G1 Z2.0 F3000
M117 Start Printing..
G90
G21
M83 ; use relative distances for extrusion
; filament start gcode
M106 S0
;LAYER_CHANGE
;Z:0.2
;HEIGHT:0.2
;BEFORE_LAYER_CHANGE
;0.2
G92 E0

G1 E-.5 F1800
;_SET_FAN_SPEED_CHANGING_LAYER
SET_VELOCITY_LIMIT ACCEL=1000
SET_VELOCITY_LIMIT SQUARE_CORNER_VELOCITY=7
; printing object CONNECTEUR GS.stl id:0 copy 0
EXCLUDE_OBJECT_START NAME=CONNECTEUR_GS.stl_id_0_copy_0
G1 Z.4 F24000
G1 X109.155 Y91.788
G1 Z.4
G1 Z.2
G1 E.5 F1800
;TYPE:Support
;WIDTH:0.5
G1 F3000
G1 X109.642 Y91.843 E.01769
G1 X110.513 Y92.147 E.03332
G1 X111.295 Y92.638 E.03333
G1 X111.436 Y92.778 E.00718
G1 X111.831 Y92.649 E.01498
G1 X112.224 Y92.597 E.01435
G1 X112.759 Y92.563 E.01935
G1 X113.623 Y92.708 E.03164
G1 X114.443 Y93.078 E.03247
G1 X115.31 Y93.78 E.04028
G1 X115.883 Y93.34 E.02607
G1 X116.66 Y92.982 E.0309
G1 X117.51 Y92.842 E.03111
G1 X117.946 Y92.873 E.0158
G1 X118.45 Y92.94 E.01834
G1 X119.257 Y93.256 E.03132
G1 X119.971 Y93.789 E.03214
G1 X120.514 Y94.487 E.03194
G1 X120.86 Y95.318 E.03252
G1 X120.971 Y96.196 E.03196
G1 X120.847 Y97.067 E.03176
G1 X120.486 Y97.902 E.03286
G1 X105.167 Y97.91 E.55311
G1 X105.005 Y97.651 E.01103
G1 X104.701 Y96.779 E.03336
G1 X104.599 Y95.861 E.03334
G1 X104.704 Y94.942 E.03338
G1 X105.01 Y94.071 E.03333
G1 X105.501 Y93.29 E.03332
G1 X106.155 Y92.638 E.03335
G1 X106.937 Y92.147 E.03331
G1 X107.808 Y91.843 E.03332
G1 X108.725 Y91.739 E.03332
G1 X109.087 Y91.78 E.01316
G1 X120.461 Y97.453 F24000
G1 F3000
G1 X120.459 Y95.424 E.07327
G1 X120.156 Y94.697 E.02843
G1 X119.953 Y94.436 E.01196
G1 X119.953 Y97.499 E.1106
G1 X119.445 Y97.499 E.01834
G1 X119.445 Y93.91 E.12958
G1 X119.056 Y93.619 E.01755
G1 X118.937 Y93.573 E.00459
G1 X118.937 Y97.499 E.14175
G1 X118.429 Y97.499 E.01834
G1 X118.429 Y93.374 E.14894
G1 X118.346 Y93.341 E.00322
G1 X117.921 Y93.285 E.01547
G1 X117.921 Y97.499 E.15215
G1 X117.413 Y97.499 E.01834
G1 X117.413 Y93.275 E.1525
G1 X116.906 Y93.358 E.01858
G1 X116.906 Y97.499 E.14949
G1 X116.398 Y97.499 E.01834
G1 X116.398 Y93.556 E.14237
G1 X116.097 Y93.694 E.01197
G1 X115.89 Y93.853 E.00941
G1 X115.89 Y97.499 E.13163
G1 X115.382 Y97.499 E.01834
G1 X115.382 Y94.243 E.11754
G1 X115.303 Y94.304 E.00358
G1 X114.874 Y93.956 E.01994
G1 X114.874 Y97.499 E.12791
G1 X114.366 Y97.499 E.01834
G1 X114.366 Y93.545 E.14275
G1 X114.225 Y93.431 E.00654
G1 X113.858 Y93.265 E.01454
G1 X113.858 Y97.499 E.15285
G1 X113.351 Y97.499 E.01834
G1 X113.351 Y93.079 E.15957
G1 X112.843 Y92.994 E.01859
G1 X112.843 Y97.499 E.16265
G1 X112.335 Y97.499 E.01834
G1 X112.335 Y93.002 E.16236
G1 X111.922 Y93.052 E.015
G1 X111.827 Y93.083 E.00363
G1 X111.827 Y97.499 E.15942
G1 X111.319 Y97.499 E.01834
G1 X111.319 Y93.243 E.15366
G1 X111.037 Y92.962 E.01437
G1 X110.811 Y92.82 E.00964
G1 X110.811 Y97.499 E.16894
G1 X110.303 Y97.499 E.01834
G1 X110.303 Y92.509 E.18014
G1 X109.795 Y92.332 E.01942
G1 X109.795 Y97.499 E.18655
G1 X109.288 Y97.499 E.01834
G1 X109.288 Y92.217 E.19071
G1 X108.78 Y92.16 E.01845
G1 X108.78 Y97.499 E.19277
G1 X108.272 Y97.499 E.01834
G1 X108.272 Y92.204 E.19115
G1 X107.9 Y92.246 E.01352
G1 X107.764 Y92.294 E.0052
G1 X107.764 Y97.499 E.18793
G1 X107.256 Y97.499 E.01834
G1 X107.256 Y92.471 E.18152
G1 X107.116 Y92.52 E.00536
G1 X106.748 Y92.751 E.01568
G1 X106.748 Y97.499 E.17141
G1 X106.24 Y97.499 E.01834
G1 X106.24 Y93.134 E.1576
G1 X105.825 Y93.549 E.0212
G1 X105.733 Y93.695 E.00626
G1 X105.733 Y97.499 E.13732
G1 X105.395 Y97.499 E.0122
G1 X105.225 Y97.032 E.01794
G1 X105.225 Y94.116 E.10528
G1 E-.5 F1800
;WIPE_START
G1 F3000
G1 X105.225 Y96.116
;WIPE_END
G1 Z.4 F24000
G1 X130.559 Y91.941 Z.4
G1 Z.2
G1 E.5 F1800
G1 F3000
G1 X131.053 Y91.997 E.01795
G1 X131.9 Y92.275 E.0322
G1 X132.681 Y92.749 E.033
G1 X133.504 Y93.554 E.04155
G1 X133.825 Y93.306 E.01464
G1 X134.602 Y92.948 E.03088
G1 X135.452 Y92.808 E.03111
G1 X135.889 Y92.839 E.01583
G1 X136.392 Y92.906 E.0183
G1 X137.199 Y93.222 E.03131
G1 X137.913 Y93.755 E.03214
G1 X138.456 Y94.452 E.03193
G1 X138.631 Y94.865 E.01617
G1 X138.802 Y95.284 E.01636
G1 X138.914 Y96.162 E.03195
G1 X138.79 Y97.033 E.03176
G1 X138.429 Y97.868 E.03285
G1 X138.395 Y97.91 E.00196
G1 X122.249 Y97.91 E.58297
G1 X122.119 Y97.719 E.00834
G1 X121.94 Y97.293 E.01669
G1 X121.812 Y96.854 E.01651
G1 X121.753 Y96.422 E.01575
G1 X121.749 Y95.975 E.01611
G1 X121.805 Y95.531 E.01618
G1 X121.919 Y95.111 E.01572
G1 X122.113 Y94.636 E.01852
G1 X122.561 Y93.979 E.02871
G1 X122.899 Y93.66 E.01678
G1 X123.311 Y93.342 E.01877
G1 X124.087 Y92.984 E.03087
G1 X124.937 Y92.844 E.03111
G1 X125.375 Y92.875 E.01585
G1 X125.877 Y92.941 E.0183
G1 X126.685 Y93.257 E.03131
G1 X127.035 Y93.518 E.01577
G1 X127.599 Y92.897 E.03031
G1 X128.357 Y92.375 E.03321
G1 X129.212 Y92.041 E.03315
G1 X130.094 Y91.914 E.03218
G1 X130.49 Y91.937 E.01432
G1 X138.236 Y97.704 F24000
G1 F3000
G1 X138.236 Y94.987 E.09812
G1 X138.099 Y94.662 E.01272
G1 X137.728 Y94.187 E.02177
G1 X137.728 Y97.499 E.11957
G1 X137.22 Y97.499 E.01834
G1 X137.22 Y93.751 E.13531
G1 X136.998 Y93.585 E.01003
G1 X136.712 Y93.473 E.01106
G1 X136.712 Y97.499 E.14535
G1 X136.205 Y97.499 E.01834
G1 X136.205 Y93.296 E.15175
G1 X135.697 Y93.238 E.01846
G1 X135.697 Y97.499 E.15384
G1 X135.189 Y97.499 E.01834
G1 X135.189 Y93.269 E.15273
G1 X134.681 Y93.365 E.01866
G1 X134.681 Y97.499 E.14926
G1 X134.173 Y97.499 E.01834
G1 X134.173 Y93.599 E.14081
G1 X134.039 Y93.66 E.00531
G1 X133.665 Y93.949 E.01706
G1 X133.665 Y97.499 E.12816
G1 X133.157 Y97.499 E.01834
G1 X133.157 Y93.79 E.1339
G1 X132.649 Y93.293 E.02566
G1 X132.649 Y97.499 E.15185
G1 X132.142 Y97.499 E.01834
G1 X132.142 Y92.902 E.16595
G1 X131.727 Y92.651 E.0175
G1 X131.634 Y92.62 E.00355
G1 X131.634 Y97.499 E.17614
G1 X131.126 Y97.499 E.01834
G1 X131.126 Y92.454 E.18214
G1 X130.965 Y92.401 E.00612
G1 X130.618 Y92.362 E.0126
G1 X130.618 Y97.499 E.18546
G1 X130.11 Y97.499 E.01834
G1 X130.11 Y92.327 E.18671
G1 X129.602 Y92.4 E.01852
G1 X129.602 Y97.499 E.18408
G1 X129.094 Y97.499 E.01834
G1 X129.094 Y92.528 E.17945
G1 X128.587 Y92.727 E.01969
G1 X128.587 Y97.499 E.17229
G1 X128.079 Y97.499 E.01834
G1 X128.079 Y93.066 E.16004
G1 X127.872 Y93.208 E.00907
G1 X127.571 Y93.54 E.01618
G1 X127.571 Y97.499 E.14292
G1 X127.063 Y97.499 E.01834
G1 X127.063 Y94.052 E.12443
G1 X126.555 Y93.673 E.02288
G1 X126.555 Y97.499 E.13811
G1 X126.047 Y97.499 E.01834
G1 X126.047 Y93.449 E.14621
G1 X125.774 Y93.342 E.0106
G1 X125.539 Y93.311 E.00854
G1 X125.539 Y97.499 E.15119
G1 X125.031 Y97.499 E.01834
G1 X125.031 Y93.263 E.15293
G1 X124.957 Y93.258 E.00271
G1 X124.524 Y93.329 E.01585
G1 X124.524 Y97.499 E.15054
G1 X124.016 Y97.499 E.01834
G1 X124.016 Y93.47 E.14545
G1 X123.508 Y93.71 E.02028
G1 X123.508 Y97.499 E.1368
G1 X123 Y97.499 E.01834
G1 X123 Y94.131 E.12161
G1 X122.876 Y94.248 E.00615
G1 X122.492 Y94.811 E.0246
G1 X122.492 Y97.704 E.10448
G1 E-.5 F1800
;WIPE_START
G1 F3000
G1 X122.492 Y95.704
;WIPE_END
G1 Z.4 F24000
G1 X139.791 Y172.548 Z.4
G1 Z.2
M73 P2 R33
M73 P2 R33
G1 E.5 F1800
G1 F3000
G1 X140.258 Y173.343 E.03329
G1 X140.55 Y174.219 E.03335
G1 X140.653 Y175.138 E.0334
G1 X140.563 Y176.06 E.03345
G1 X140.283 Y176.945 E.0335
G1 X139.823 Y177.752 E.03354
G1 X139.205 Y178.446 E.03357
G1 X138.454 Y178.996 E.0336
G1 X137.605 Y179.377 E.03362
G1 X136.694 Y179.573 E.03363
G1 X135.762 Y179.573 E.03364
G1 X134.851 Y179.378 E.03363
G1 X134.002 Y178.998 E.03362
G1 X133.25 Y178.448 E.03361
G1 X133.117 Y178.298 E.00725
G1 X132.354 Y178.403 E.02779
G1 X131.566 Y178.336 E.02858
G1 X131.491 Y178.42 E.00406
G1 X130.74 Y178.97 E.0336
G1 X129.891 Y179.351 E.03362
G1 X128.98 Y179.546 E.03363
G1 X128.048 Y179.546 E.03363
G1 X127.138 Y179.351 E.03363
G1 X126.288 Y178.971 E.03362
G1 X125.537 Y178.421 E.0336
G1 X125.41 Y178.278 E.00689
G1 X124.524 Y178.4 E.03228
G1 X123.965 Y178.353 E.02027
G1 X123.127 Y178.967 E.0375
G1 X122.278 Y179.348 E.03361
G1 X121.367 Y179.543 E.03363
G1 X120.436 Y179.544 E.03363
G1 X119.525 Y179.35 E.03363
G1 X118.675 Y178.969 E.03362
G1 X117.821 Y178.345 E.03818
G1 X117.302 Y178.43 E.01899
G1 X116.36 Y178.379 E.03408
G1 X116.244 Y178.515 E.00645
G1 X115.511 Y179.087 E.03358
G1 X114.677 Y179.5 E.0336
G1 X113.777 Y179.736 E.03361
G1 X112.847 Y179.784 E.03362
G1 X111.926 Y179.643 E.03362
G1 X111.053 Y179.318 E.03362
G1 X110.561 Y179.01 E.02096
G1 X110.294 Y179.124 E.01049
G1 X109.403 Y179.296 E.03279
G1 X108.493 Y179.275 E.03284
G1 X107.608 Y179.061 E.0329
G1 X106.787 Y178.662 E.03296
G1 X106.097 Y178.118 E.03171
G1 X105.755 Y177.736 E.0185
G1 X105.492 Y177.384 E.01587
G1 X105.264 Y176.985 E.01661
G1 X105.077 Y176.571 E.01641
G1 X104.942 Y176.148 E.01602
G1 X104.845 Y175.686 E.01702
G1 X104.803 Y175.263 E.01536
G1 X104.808 Y174.773 E.0177
G1 X104.856 Y174.34 E.01574
G1 X105.074 Y173.527 E.03038
G1 X105.48 Y172.731 E.03225
G1 X105.994 Y172.1 E.02938
G1 X139.383 Y172.1 E1.20556
G1 X139.745 Y172.497 E.01939
G1 X139.76 Y177.448 F24000
G1 F3000
G1 X139.76 Y173.306 E.14954
G1 X139.458 Y172.793 E.0215
G1 X139.252 Y172.566 E.01107
G1 X139.252 Y177.775 E.18807
G1 X138.926 Y178.14 E.01765
G1 X138.744 Y178.274 E.00817
G1 X138.744 Y172.511 E.20806
G1 X138.236 Y172.511 E.01834
G1 X138.236 Y178.643 E.2214
G1 X137.728 Y178.871 E.0201
G1 X137.728 Y172.511 E.22962
G1 X137.22 Y172.511 E.01834
G1 X137.22 Y179.039 E.23569
G1 X136.712 Y179.148 E.01875
G1 X136.712 Y172.511 E.23962
G1 X136.205 Y172.511 E.01834
G1 X136.205 Y179.161 E.24011
G1 X135.806 Y179.162 E.0144
G1 X135.697 Y179.138 E.00403
G1 X135.697 Y172.511 E.23927
G1 X135.189 Y172.511 E.01834
G1 X135.189 Y179.03 E.23535
G1 X134.98 Y178.985 E.00771
G1 X134.681 Y178.851 E.01183
G1 X134.681 Y172.511 E.22891
G1 X134.173 Y172.511 E.01834
G1 X134.173 Y178.613 E.22032
G1 X133.665 Y178.242 E.02272
G1 X133.665 Y172.511 E.2069
G1 X133.157 Y172.511 E.01834
G1 X133.157 Y177.877 E.19374
G1 X132.649 Y177.947 E.01851
G1 X132.649 Y172.511 E.19626
G1 X132.142 Y172.511 E.01834
G1 X132.142 Y177.972 E.19716
G1 X131.634 Y177.929 E.0184
G1 X131.634 Y172.511 E.19561
G1 X131.126 Y172.511 E.01834
G1 X131.126 Y178.177 E.20458
G1 X130.618 Y178.549 E.02273
G1 X130.618 Y172.511 E.21801
G1 X130.11 Y172.511 E.01834
G1 X130.11 Y178.802 E.22712
G1 X129.762 Y178.958 E.01378
G1 X129.602 Y178.992 E.00589
G1 X129.602 Y172.511 E.23399
G1 X129.094 Y172.511 E.01834
G1 X129.094 Y179.101 E.23791
G1 X128.936 Y179.135 E.00584
G1 X128.587 Y179.135 E.01263
G1 X128.587 Y172.511 E.23914
G1 X128.079 Y172.511 E.01834
G1 X128.079 Y179.132 E.23904
G1 X127.571 Y179.023 E.01875
G1 X127.571 Y172.511 E.23512
G1 X127.063 Y172.511 E.01834
G1 X127.063 Y178.867 E.22948
G1 X126.555 Y178.639 E.02009
G1 X126.555 Y172.511 E.22126
G1 X126.047 Y172.511 E.01834
G1 X126.047 Y178.284 E.20844
G1 X125.815 Y178.115 E.01039
G1 X125.571 Y177.841 E.01323
G1 X125.539 Y177.845 E.00116
G1 X125.539 Y172.511 E.19259
G1 X125.031 Y172.511 E.01834
G1 X125.031 Y177.915 E.1951
G1 X124.524 Y177.985 E.01851
G1 X124.524 Y172.511 E.19762
G1 X124.016 Y172.511 E.01834
G1 X124.016 Y177.944 E.19615
G1 X123.846 Y177.93 E.00615
G1 X123.508 Y178.178 E.01514
G1 X123.508 Y172.511 E.20458
G1 X123 Y172.511 E.01834
G1 X123 Y178.55 E.21803
G1 X122.919 Y178.609 E.00362
G1 X122.492 Y178.801 E.0169
G1 X122.492 Y172.511 E.22709
G1 X121.984 Y172.511 E.01834
G1 X121.984 Y178.99 E.23393
G1 X121.476 Y179.099 E.01875
G1 X121.476 Y172.511 E.23786
G1 X120.969 Y172.511 E.01834
G1 X120.969 Y179.132 E.23905
G1 X120.461 Y179.129 E.01834
G1 X120.461 Y172.511 E.23892
G1 X119.953 Y172.511 E.01834
G1 X119.953 Y179.02 E.23501
G1 X119.653 Y178.956 E.01106
G1 X119.445 Y178.863 E.00824
G1 X119.445 Y172.511 E.22934
G1 X118.937 Y172.511 E.01834
G1 X118.937 Y178.636 E.22113
G1 X118.429 Y178.28 E.0224
G1 X118.429 Y172.511 E.20827
G1 X117.921 Y172.511 E.01834
G1 X117.921 Y177.911 E.19498
G1 X117.413 Y177.995 E.01858
G1 X117.413 Y172.511 E.19798
G1 X116.906 Y172.511 E.01834
G1 X116.906 Y177.996 E.19804
G1 X116.398 Y177.969 E.01836
G1 X116.398 Y172.511 E.19704
G1 X115.89 Y172.511 E.01834
G1 X115.89 Y178.27 E.20791
G1 X115.382 Y178.666 E.02327
G1 X115.382 Y172.511 E.22224
G1 X114.874 Y172.511 E.01834
G1 X114.874 Y178.944 E.23225
G1 X114.533 Y179.113 E.01376
G1 X114.366 Y179.156 E.00621
G1 X114.366 Y172.511 E.23992
G1 X113.858 Y172.511 E.01834
G1 X113.858 Y179.289 E.24471
G1 X113.713 Y179.327 E.00541
G1 X113.351 Y179.346 E.01312
G1 X113.351 Y172.511 E.24676
G1 X112.843 Y172.511 E.01834
G1 X112.843 Y179.367 E.24753
G1 X112.335 Y179.289 E.01855
G1 X112.335 Y172.511 E.24472
G1 X111.827 Y172.511 E.01834
G1 X111.827 Y179.167 E.2403
G1 X111.319 Y178.978 E.01956
G1 X111.319 Y172.511 E.23348
G1 X110.811 Y172.511 E.01834
G1 X110.811 Y178.681 E.22276
G1 X110.597 Y178.547 E.00911
G1 X110.303 Y178.673 E.01155
G1 X110.303 Y172.511 E.22246
G1 X109.795 Y172.511 E.01834
G1 X109.795 Y178.801 E.22711
G1 X109.368 Y178.884 E.01572
G1 X109.288 Y178.882 E.0029
G1 X109.288 Y172.511 E.23002
G1 X108.78 Y172.511 E.01834
G1 X108.78 Y178.87 E.22959
G1 X108.547 Y178.865 E.0084
G1 X108.272 Y178.798 E.01023
G1 X108.272 Y172.511 E.22699
G1 X107.764 Y172.511 E.01834
G1 X107.764 Y178.675 E.22255
G1 X107.256 Y178.433 E.02032
G1 X107.256 Y172.511 E.21379
G1 X106.748 Y172.511 E.01834
G1 X106.748 Y178.108 E.20207
G1 X106.38 Y177.817 E.01695
G1 X106.24 Y177.662 E.00754
G1 X106.24 Y172.511 E.18596
G1 X106.189 Y172.511 E.00184
G1 X105.827 Y172.957 E.02075
G1 X105.733 Y173.141 E.00747
G1 X105.733 Y176.976 E.13844
G1 X105.631 Y176.798 E.00741
G1 X105.462 Y176.423 E.01485
G1 X105.34 Y176.043 E.0144
G1 X105.253 Y175.624 E.01547
G1 X105.225 Y175.347 E.01004
G1 X105.225 Y173.758 E.05736
G1 E-.5 F1800
;WIPE_START
G1 F12000
G1 X105.225 Y175.347
G1 X105.253 Y175.624
G1 X105.28 Y175.754
;WIPE_END
G1 Z.4 F24000
G1 X142.243 Y170.743 Z.4
G1 Z.2
G1 E.5 F1800
;TYPE:Inner wall
;WIDTH:0.499999
G1 F3000
G1 X103.757 Y170.743 E1.38957
G1 X103.757 Y99.267 E2.5807
G1 X142.243 Y99.267 E1.38957
G1 X142.243 Y170.703 E2.57926
G1 X142.7 Y171.2 F24000
M73 P3 R33
;TYPE:Outer wall
M73 P3 R33
G1 F3000
G1 X103.3 Y171.2 E1.42257
G1 X103.3 Y98.81 E2.61371
G1 X142.7 Y98.81 E1.42257
G1 X142.7 Y171.16 E2.61227
G1 E-.5 F1800
;WIPE_START
G1 F12000
G1 X140.7 Y171.162
;WIPE_END
G1 Z.4 F24000
G1 X117.161 Y114.239 Z.4
G1 Z.2
G1 E.5 F1800
;TYPE:Inner wall
G1 F3000
G1 X117.198 Y114.059 E.00662
G1 X117.383 Y113.807 E.01128
G1 X117.617 Y113.676 E.00967
G1 X117.829 Y113.643 E.00773
G1 X128.171 Y113.643 E.37344
G1 X128.448 Y113.701 E.01022
G1 X128.701 Y113.893 E.01145
G1 X128.825 Y114.123 E.00944
G1 X128.857 Y114.329 E.00752
G1 X128.857 Y151.671 E1.3483
G1 X128.798 Y151.95 E.01027
G1 X128.603 Y152.204 E.01159
