; HEADER_BLOCK_START
; generated by OrcaSlicer 2.2.0 on 2024-10-29 at 18:29:28
; total layer number: 17
; filament_density: 1.24
; filament_diameter: 1.75
; max_z_height: 3.40
; HEADER_BLOCK_END

; THUMBNAIL_BLOCK_START

;
; THUMBNAIL_BLOCK_END

; THUMBNAIL_BLOCK_START

;
; THUMBNAIL_BLOCK_END

; external perimeters extrusion width = 0.42mm
; perimeters extrusion width = 0.45mm
; infill extrusion width = 0.45mm
; solid infill extrusion width = 0.45mm
; top infill extrusion width = 0.42mm
; first layer extrusion width = 0.50mm

; EXECUTABLE_BLOCK_START
EXCLUDE_OBJECT_DEFINE NAME=Corps1.stl_id_0_copy_0 CENTER=115,115 POLYGON=[[69.3644,108.921],[69.3685,107.96],[69.4028,106.075],[69.4707,104.186],[69.5169,103.22],[69.5711,102.23],[69.6331,101.208],[69.703,100.152],[69.7809,99.059],[69.8669,97.9307],[69.9612,96.7719],[70.0642,95.5899],[70.2985,93.1973],[70.4311,92.0102],[70.5753,90.8459],[70.732,89.7162],[70.8155,89.1678],[70.9027,88.6319],[70.9937,88.1098],[71.0887,87.6021],[71.1881,87.1098],[71.2919,86.6333],[71.4004,86.1729],[71.514,85.7287],[71.6328,85.3005],[71.7572,84.888],[71.8875,84.4905],[72.0238,84.1076],[72.1666,83.7382],[72.3159,83.3815],[72.4722,83.0366],[72.6356,82.7023],[72.9843,82.062],[73.3633,81.4528],[73.7728,80.8682],[74.1787,80.3455],[74.6094,79.8387],[75.0635,79.3483],[75.539,78.8759],[75.7798,78.6624],[76.6246,77.9792],[77.4805,77.3111],[77.8996,77.0416],[78.3281,76.7885],[78.7666,76.5514],[79.2157,76.3296],[79.6763,76.1221],[80.1494,75.9278],[80.6356,75.7452],[81.1359,75.573],[81.6508,75.4096],[82.1806,75.2537],[82.7252,75.104],[83.2844,74.9592],[83.8572,74.8186],[84.4426,74.6812],[85.6453,74.4141],[86.8791,74.155],[88.1296,73.903],[90.6302,73.4229],[91.8649,73.1983],[93.0877,72.9868],[94.3025,72.7902],[95.5149,72.6103],[96.7296,72.448],[97.9489,72.3037],[99.1702,72.1765],[100.386,72.0646],[101.584,71.9656],[102.752,71.8766],[103.88,71.7952],[104.963,71.7197],[106.003,71.6493],[107.012,71.585],[109.006,71.4819],[110.026,71.4471],[111.077,71.4251],[112.16,71.4158],[113.266,71.4178],[115.503,71.449],[116.612,71.4754],[117.71,71.5088],[119.898,71.6021],[121.01,71.6661],[122.147,71.7438],[123.308,71.8352],[124.485,71.9387],[125.66,72.0508],[126.81,72.1675],[127.368,72.2262],[127.912,72.2847],[128.441,72.3426],[128.952,72.3997],[129.446,72.456],[129.924,72.5117],[130.837,72.6227],[131.714,72.7367],[132.578,72.8577],[133.451,72.9886],[134.342,73.1292],[137.892,73.7059],[138.721,73.8439],[139.534,73.9898],[140.348,74.1532],[141.171,74.3414],[141.999,74.5551],[142.811,74.7878],[143.202,74.9084],[143.579,75.0304],[143.94,75.153],[144.285,75.2763],[145.126,75.6328],[145.963,76.0082],[146.492,76.2886],[146.836,76.4811],[147.193,76.687],[147.928,77.132],[148.661,77.603],[149.013,77.841],[149.35,78.0773],[149.795,78.4113],[150.23,78.7565],[150.654,79.1141],[151.065,79.4852],[151.191,79.6047],[151.58,79.9859],[151.968,80.3868],[152.357,80.8123],[152.745,81.2629],[154.272,83.2044],[154.796,83.903],[155.045,84.2614],[155.288,84.642],[155.524,85.054],[155.756,85.5002],[155.982,85.9755],[156.201,86.4691],[156.613,87.4602],[156.805,87.9384],[156.986,88.4025],[157.326,89.3232],[157.487,89.8052],[157.646,90.3174],[157.855,91.0753],[158.049,91.8362],[158.408,93.3632],[158.611,94.2697],[158.773,95.0269],[158.923,95.7522],[159.067,96.4678],[159.207,97.2015],[159.291,97.6641],[159.387,98.2087],[159.483,98.7786],[159.579,99.3718],[159.674,99.9837],[159.853,101.238],[160.012,102.484],[160.082,103.095],[160.133,103.573],[160.179,104.039],[160.261,104.935],[160.382,106.509],[160.445,107.439],[160.501,108.389],[160.527,108.881],[160.552,109.388],[160.574,109.912],[160.593,110.454],[160.609,111.014],[160.622,111.591],[160.636,112.783],[160.63,114.003],[160.604,115.218],[160.583,115.813],[160.558,116.396],[160.528,116.964],[160.494,117.516],[160.456,118.051],[160.416,118.568],[160.373,119.069],[160.328,119.554],[160.234,120.491],[160.134,121.404],[160.023,122.33],[159.962,122.81],[159.897,123.305],[159.865,123.54],[159.767,124.237],[159.657,124.972],[159.534,125.747],[159.396,126.558],[159.243,127.402],[159.075,128.275],[158.891,129.169],[158.692,130.079],[158.256,131.921],[157.782,133.761],[157.284,135.572],[156.764,137.349],[156.49,138.231],[156.203,139.114],[155.896,140.004],[155.565,140.907],[155.205,141.828],[154.815,142.767],[154.393,143.723],[153.943,144.692],[153.472,145.663],[152.991,146.619],[152.515,147.539],[152.285,147.979],[152.062,148.402],[151.848,148.804],[151.645,149.184],[150.729,150.905],[150.463,151.395],[150.353,151.585],[150.248,151.744],[150.088,151.941],[149.905,152.115],[149.754,152.228],[149.604,152.318],[149.441,152.392],[132.454,158.432],[132.239,158.49],[131.995,158.531],[131.718,158.559],[131.404,158.576],[131.049,158.583],[130.651,158.584],[130.206,158.58],[96.5703,158.194],[96.3117,158.191],[96.0661,158.187],[95.8338,158.184],[95.6146,158.181],[95.4083,158.177],[95.2149,158.172],[94.8653,158.163],[94.5631,158.151],[94.3045,158.137],[94.0852,158.119],[93.9,158.095],[93.743,158.065],[93.6085,158.027],[93.4906,157.982],[77.2017,151.286],[76.9419,151.167],[76.6936,151.009],[76.573,150.902],[76.4601,150.783],[76.3545,150.651],[76.2559,150.507],[76.08,150.171],[75.9217,149.794],[75.5192,148.501],[75.1305,147.217],[74.7556,145.944],[74.3946,144.681],[74.0474,143.428],[73.7139,142.184],[73.3942,140.95],[73.0882,139.725],[72.7958,138.51],[72.517,137.303],[72.2516,136.104],[71.9995,134.913],[71.7606,133.728],[71.5347,132.548],[71.3215,131.374],[71.1208,130.203],[70.7559,127.867],[70.4378,125.534],[70.1644,123.2],[69.9335,120.869],[69.7433,118.554],[69.6631,117.408],[69.5927,116.275],[69.5319,115.158],[69.4806,114.06],[69.4388,112.984],[69.4064,111.931],[69.3832,110.904],[69.3693,109.901],[69.3644,108.921]]
M73 P0 R26
;TYPE:Custom
M220 S100
G90 ; use absolute coordinates
M83 ; extruder relative mode
M104 S150 ; set temporary nozzle temp to prevent oozing during homing
M140 S55 ; set final bed temp
G4 S30 ; allow partial nozzle warmup
G28 ; home all axis and restore leveling
BED_MESH_CALIBRATE PROFILE=adaptive ADAPTIVE=1 ADAPTIVE_MARGIN=0
G1 Z25 F240
G1 X10.0 Y30 F3000
M73 P0 R25
M104 S210 ; set final nozzle temp
M190 S55 ; wait for bed temp to stabilize
M109 S210 ; wait for nozzle temp to stabilize
M73 P0 R25
G1 Z0.28 F240
G92 E0 ; Move Z Axis up
G1 Z2.0 F5000 ; Move to start position
G1 X5 Y30 Z0.28 F300 ; Draw the first line
G1 X5 Y200 Z0.28 F1500 E15 ; Move to side a little
G1 X5.4 Y200 Z0.28 F5000.0 ; Draw the second line
M73 P1 R25
M73 P1 R25
G1 X5.4 Y50 Z0.28 F1500.0 E30 ; Reset Extruder
G92 E0 ; Move Z Axis up
G1 Z2.0 F3000
M117 Start Printing..
G90
G21
M83 ; use relative distances for extrusion
; filament start gcode
M106 S0
;LAYER_CHANGE
;Z:0.2
;HEIGHT:0.2
;BEFORE_LAYER_CHANGE
;0.2
G92 E0

G1 E-.5 F1800
;_SET_FAN_SPEED_CHANGING_LAYER
SET_VELOCITY_LIMIT ACCEL=1000
SET_VELOCITY_LIMIT SQUARE_CORNER_VELOCITY=7
; printing object Corps1.stl id:0 copy 0
EXCLUDE_OBJECT_START NAME=Corps1.stl_id_0_copy_0
G1 Z.4 F24000
G1 X97.678 Y171.113
G1 Z.4
G1 Z.2
G1 E.5 F1800
;TYPE:Inner wall
;WIDTH:0.499999
G1 F3000
G1 X97.532 Y171.021 E.00581
G1 X97.03 Y170.878 E.01757
G1 X96.49 Y170.825 E.01823
G1 X89.836 Y170.757 E.22383
G1 X86.025 Y170.672 E.12822
G1 X85.625 Y170.617 E.01359
G1 X85.147 Y170.395 E.01771
G1 X84.909 Y170.117 E.01231
G1 X84.63 Y169.522 E.02209
G1 X83.856 Y167.001 E.08872
G1 X83.123 Y164.476 E.08843
G1 X82.446 Y161.991 E.08663
G1 X81.824 Y159.545 E.08489
G1 X81.256 Y157.138 E.0832
G1 X80.504 Y153.582 E.12225
G1 X79.867 Y150.077 E.11981
G1 X79.505 Y147.757 E.07897
G1 X79.189 Y145.438 E.07872
G1 X78.917 Y143.119 E.07856
G1 X78.687 Y140.801 E.07833
G1 X78.498 Y138.499 E.07769
G1 X78.288 Y135.12 E.11389
G1 X78.163 Y131.91 E.10806
G1 X78.126 Y129.893 E.06782
G1 X78.126 Y127.967 E.06479
G1 X78.16 Y126.095 E.06297
G1 X78.227 Y124.219 E.06315
G1 X78.327 Y122.274 E.06551
G1 X78.536 Y119.115 E.10651
G1 X78.818 Y115.658 E.11666
G1 X79.051 Y113.278 E.08042
G1 X79.326 Y110.942 E.07911
G1 X79.481 Y109.829 E.03781
G1 X79.739 Y108.243 E.05404
G1 X79.929 Y107.266 E.03349
G1 X80.136 Y106.354 E.03144
G1 X80.36 Y105.512 E.02933
G1 X80.604 Y104.736 E.02735
G1 X80.869 Y104.021 E.02564
G1 X81.155 Y103.364 E.02412
G1 X81.464 Y102.777 E.0223
G1 X81.843 Y102.114 E.02568
G1 X82.22 Y101.55 E.02281
G1 X82.611 Y101.023 E.02207
G1 X83.02 Y100.525 E.0217
G1 X83.404 Y100.095 E.01939
G1 X83.758 Y99.726 E.0172
G1 X84.267 Y99.242 E.02361
G1 X85.916 Y97.932 E.07086
G1 X86.509 Y97.566 E.02342
G1 X87.109 Y97.227 E.02318
G1 X87.755 Y96.922 E.02403
G1 X88.422 Y96.634 E.02443
G1 X89.372 Y96.293 E.03395
G1 X90.925 Y95.834 E.05447
G1 X92.033 Y95.555 E.03846
G1 X93.805 Y95.154 E.0611
G1 X96.277 Y94.646 E.08489
G1 X98.768 Y94.167 E.0853
G1 X100.731 Y93.819 E.06707
G1 X100.255 Y94.199 E.0205
G1 X99.88 Y94.601 E.0185
G1 X99.338 Y95.44 E.03358
G1 X99.012 Y96.344 E.03232
G1 X98.924 Y96.862 E.01769
G1 X98.904 Y97.394 E.0179
G1 X99.027 Y98.345 E.03224
G1 X99.196 Y98.866 E.01844
G1 X99.581 Y99.618 E.02842
G1 X99.902 Y100.057 E.0183
G1 X100.701 Y100.789 E.03644
G1 X101.148 Y101.065 E.01768
G1 X101.633 Y101.285 E.01791
G1 X102.56 Y101.528 E.03224
G1 X103.109 Y101.566 E.01851
G1 X103.982 Y101.488 E.02946
G1 X104.476 Y101.36 E.0172
G1 X104.952 Y101.172 E.0172
G1 X105.854 Y100.606 E.03583
G1 X106.225 Y100.263 E.01698
G1 X106.557 Y99.872 E.01724
G1 X106.847 Y99.433 E.0177
G1 X107.08 Y98.955 E.0179
G1 X107.351 Y98.035 E.03224
G1 X107.407 Y97.528 E.01718
G1 X107.396 Y96.978 E.0185
G1 X107.248 Y96.153 E.02819
G1 X107.067 Y95.634 E.01848
G1 X106.805 Y95.124 E.01931
G1 X106.507 Y94.69 E.0177
G1 X106.152 Y94.294 E.0179
G1 X105.401 Y93.698 E.03224
G1 X104.952 Y93.454 E.01718
G1 X104.439 Y93.256 E.01851
G1 X106.031 Y93.056 E.05395
G1 X108.451 Y92.819 E.0818
G1 X114.052 Y92.405 E.18891
G1 X117.04 Y92.238 E.10065
G1 X118.043 Y92.204 E.03378
G1 X120.876 Y92.174 E.09527
G1 X123.488 Y92.206 E.08788
M73 P2 R25
M73 P2 R25
G1 X125.683 Y92.265 E.07386
G1 X127.859 Y92.358 E.07323
G1 X130.091 Y92.499 E.07525
G1 X132.416 Y92.693 E.07847
G1 X135.288 Y92.979 E.09709
G1 X137.835 Y93.264 E.08618
G1 X139.611 Y93.487 E.06022
G1 X142.225 Y93.877 E.0889
G1 X146.589 Y94.59 E.14874
G1 X148.545 Y94.973 E.06704
G1 X148.22 Y95.094 E.01167
G1 X147.385 Y95.565 E.03225
G1 X146.991 Y95.89 E.01718
G1 X146.616 Y96.292 E.0185
G1 X146.074 Y97.13 E.03358
G1 X145.748 Y98.035 E.03232
G1 X145.66 Y98.553 E.01769
G1 X145.639 Y99.085 E.0179
G1 X145.763 Y100.035 E.03224
G1 X145.933 Y100.559 E.01851
G1 X146.379 Y101.407 E.03224
G1 X146.721 Y101.838 E.01851
G1 X147.437 Y102.48 E.03233
G1 X147.884 Y102.756 E.01768
G1 X148.369 Y102.975 E.01791
G1 X149.296 Y103.218 E.03224
G1 X149.845 Y103.257 E.01851
G1 X150.799 Y103.162 E.03224
G1 X151.291 Y103.024 E.01718
G1 X151.796 Y102.807 E.0185
G1 X152.601 Y102.287 E.03225
G1 X152.975 Y101.939 E.01715
G1 X153.403 Y101.399 E.0232
G1 X153.705 Y100.885 E.02005
G1 X153.861 Y100.497 E.01407
G1 X154.086 Y99.726 E.027
G1 X154.143 Y99.218 E.01718
G1 X154.132 Y98.669 E.0185
G1 X153.952 Y97.727 E.03225
G1 X153.77 Y97.25 E.01715
G1 X153.374 Y96.568 E.02654
G1 X153.62 Y96.683 E.00915
G1 X154.813 Y97.342 E.04584
G1 X155.525 Y97.773 E.028
G1 X156.583 Y98.464 E.0425
G1 X157.336 Y99.014 E.03137
G1 X157.746 Y99.339 E.01759
G1 X158.548 Y100.039 E.0358
G1 X159.417 Y100.906 E.0413
G1 X160.164 Y101.748 E.03785
G1 X161.669 Y103.662 E.0819
G1 X162.415 Y104.681 E.04248
G1 X162.86 Y105.419 E.02898
G1 X163.294 Y106.293 E.03284
G1 X163.712 Y107.268 E.03567
G1 X163.499 Y107.119 E.00874
G1 X163.05 Y106.876 E.01719
G1 X162.536 Y106.679 E.0185
G1 X162.008 Y106.568 E.01816
G1 X161.476 Y106.494 E.01806
G1 X160.595 Y106.53 E.02964
G1 X160.082 Y106.643 E.01769
G1 X159.581 Y106.824 E.0179
G1 X158.74 Y107.301 E.03251
G1 X158.352 Y107.621 E.01691
G1 X157.979 Y108.021 E.01841
G1 X157.519 Y108.703 E.02769
G1 X157.398 Y108.962 E.00961
G1 X157.11 Y109.765 E.0287
G1 X157.022 Y110.284 E.01769
G1 X157.001 Y110.815 E.0179
G1 X157.124 Y111.766 E.03224
G1 X157.295 Y112.289 E.01851
G1 X157.741 Y113.138 E.03224
G1 X158.082 Y113.569 E.01851
G1 X158.798 Y114.211 E.03233
G1 X159.246 Y114.487 E.01768
G1 X159.731 Y114.706 E.01791
G1 X160.658 Y114.949 E.03224
G1 X161.207 Y114.988 E.01851
G1 X162.161 Y114.893 E.03224
G1 X162.652 Y114.755 E.01718
G1 X163.158 Y114.538 E.0185
G1 X163.867 Y114.091 E.02819
G1 X164.121 Y113.873 E.01127
G1 X164.605 Y113.358 E.02376
G1 X164.903 Y112.925 E.0177
G1 X165.132 Y112.488 E.01657
G1 X165.312 Y112.014 E.01707
G1 X165.871 Y114.43 E.08342
G1 X166.463 Y117.341 E.0999
G1 X166.831 Y119.491 E.07337
G1 X167.103 Y121.341 E.06289
G1 X167.259 Y122.571 E.04171
G1 X167.506 Y124.999 E.0821
G1 X167.757 Y128.673 E.12388
G1 X167.817 Y129.941 E.04268
G1 X167.865 Y131.603 E.05593
G1 X167.873 Y133.996 E.08049
G1 X167.847 Y135.195 E.04034
G1 X167.802 Y136.358 E.03916
G1 X167.701 Y137.995 E.05517
G1 X167.575 Y139.483 E.0502
G1 X167.382 Y141.316 E.06201
G1 X167.017 Y144.13 E.09545
G1 X166.787 Y145.623 E.05081
G1 X166.499 Y147.261 E.05591
G1 X165.953 Y149.915 E.09115
G1 X165.521 Y151.739 E.06306
G1 X165.051 Y153.566 E.06343
G1 X164.556 Y155.365 E.06277
G1 X164.152 Y156.749 E.04851
G1 X164.042 Y156.243 E.01742
G1 X163.691 Y155.446 E.02931
G1 X163.397 Y154.999 E.01799
G1 X163.08 Y154.623 E.01656
G1 X162.242 Y153.942 E.0363
G1 X161.793 Y153.699 E.01718
G1 X161.279 Y153.502 E.0185
G1 X160.299 Y153.315 E.03358
G1 X159.339 Y153.353 E.03232
G1 X158.825 Y153.467 E.01769
G1 X158.324 Y153.647 E.0179
G1 X157.49 Y154.119 E.03224
G1 X157.096 Y154.444 E.01718
G1 X156.72 Y154.846 E.0185
G1 X156.179 Y155.684 E.03358
G1 X155.853 Y156.588 E.03232
G1 X155.765 Y157.107 E.01769
G1 X155.744 Y157.639 E.0179
G1 X155.868 Y158.589 E.03224
G1 X156.038 Y159.112 E.01851
G1 X156.484 Y159.961 E.03224
G1 X156.905 Y160.465 E.02209
G1 X157.542 Y161.034 E.02872
G1 X157.989 Y161.31 E.01768
G1 X158.474 Y161.529 E.01791
G1 X159.401 Y161.772 E.03224
G1 X159.95 Y161.811 E.0185
G1 X160.904 Y161.716 E.03224
G1 X161.396 Y161.578 E.01718
G1 X161.901 Y161.361 E.0185
G1 X162.61 Y160.914 E.02819
G1 X162.806 Y160.75 E.0086
G1 X162.502 Y161.547 E.02871
G1 X162.12 Y162.465 E.03344
G1 X161.257 Y164.37 E.07035
G1 X160.794 Y165.326 E.03571
G1 X159.844 Y167.189 E.07034
G1 X158.148 Y170.362 E.12102
G1 X157.598 Y171.331 E.0375
G1 X157.327 Y171.598 E.01279
G1 X156.962 Y171.739 E.01316
G1 X155.822 Y171.796 E.03837
G1 X154.52 Y171.795 E.04379
G1 X152.357 Y171.759 E.07278
G1 X149.213 Y171.665 E.10578
G1 X146.102 Y171.528 E.10477
G1 X145.24 Y171.617 E.02913
G1 X144.678 Y171.798 E.01985
G1 X144.027 Y172.142 E.02477
G1 X143.63 Y172.477 E.01747
G1 X143.313 Y172.872 E.01702
G1 X140.84 Y177.089 E.16444
G1 X140.519 Y177.502 E.01758
G1 X140.205 Y177.707 E.01263
G1 X139.646 Y177.804 E.01908
G1 X138.648 Y177.827 E.03357
G1 X133.205 Y177.737 E.18311
G1 X104.326 Y177.434 E.97144
G1 X102.472 Y177.384 E.06236
G1 X101.95 Y177.315 E.01772
G1 X101.64 Y177.2 E.01112
G1 X101.298 Y176.853 E.0164
G1 X100.269 Y174.953 E.07267
G1 X98.752 Y172.033 E.11066
G1 X98.272 Y171.487 E.02446
G1 X97.712 Y171.134 E.02225
G1 X97.444 Y171.482 F24000
;TYPE:Outer wall
G1 F3000
G1 X96.995 Y171.334 E.01591
G1 X96.486 Y171.282 E.0172
G1 X89.829 Y171.214 E.22392
G1 X85.896 Y171.126 E.13231
G1 X85.313 Y171.006 E.02003
G1 X84.874 Y170.766 E.01682
G1 X84.514 Y170.352 E.01844
G1 X84.203 Y169.687 E.02471
G1 X83.418 Y167.132 E.08992
G1 X82.683 Y164.6 E.08868
G1 X82.004 Y162.108 E.08688
G1 X81.38 Y159.654 E.08515
G1 X80.81 Y157.237 E.08352
G1 X80.055 Y153.67 E.12265
G1 X79.417 Y150.153 E.12023
G1 X79.053 Y147.823 E.07931
G1 X78.735 Y145.496 E.07901
G1 X78.463 Y143.168 E.07885
G1 X78.232 Y140.842 E.07859
G1 X78.043 Y138.532 E.07797
G1 X77.832 Y135.143 E.11422
G1 X77.706 Y131.923 E.1084
G1 X77.669 Y129.898 E.06812
G1 X77.668 Y127.963 E.06507
G1 X77.703 Y126.083 E.06325
G1 X77.77 Y124.199 E.0634
G1 X77.871 Y122.247 E.06574
G1 X78.08 Y119.081 E.10674
G1 X78.363 Y115.617 E.1169
G1 X78.597 Y113.229 E.08069
G1 X78.873 Y110.884 E.07942
G1 X79.029 Y109.761 E.03815
G1 X79.289 Y108.163 E.05446
G1 X79.482 Y107.172 E.03396
G1 X79.692 Y106.245 E.03197
G1 X79.921 Y105.384 E.02995
G1 X80.171 Y104.588 E.02808
