; HEADER_BLOCK_START
; generated by OrcaSlicer 2.2.0 on 2024-11-25 at 18:51:41
; total layer number: 125
; filament_density: 1.27
; filament_diameter: 1.75
; max_z_height: 25.00
; HEADER_BLOCK_END

; THUMBNAIL_BLOCK_START

;
; THUMBNAIL_BLOCK_END

; THUMBNAIL_BLOCK_START

;
; THUMBNAIL_BLOCK_END

; external perimeters extrusion width = 0.42mm
; perimeters extrusion width = 0.45mm
; infill extrusion width = 0.45mm
; solid infill extrusion width = 0.45mm
; top infill extrusion width = 0.42mm
; first layer extrusion width = 0.50mm

; EXECUTABLE_BLOCK_START
EXCLUDE_OBJECT_DEFINE NAME=Corps6.stl_id_0_copy_0 CENTER=115,115 POLYGON=[[103,100.5],[127,100.5],[127,124.5],[126.992,124.791],[126.966,125.08],[126.924,125.368],[126.865,125.653],[126.79,125.934],[126.698,126.21],[126.591,126.48],[126.468,126.744],[126.33,127],[126.177,127.248],[126.011,127.486],[125.83,127.714],[125.637,127.931],[125.431,128.137],[125.214,128.33],[124.986,128.511],[124.748,128.677],[124.5,128.83],[124.244,128.968],[123.98,129.091],[123.71,129.198],[123.434,129.29],[123.153,129.365],[122.868,129.424],[122.58,129.466],[122.291,129.492],[122,129.5],[108,129.5],[107.709,129.492],[107.42,129.466],[107.132,129.424],[106.847,129.365],[106.566,129.29],[106.29,129.198],[106.02,129.091],[105.756,128.968],[105.5,128.83],[105.252,128.677],[105.014,128.511],[104.786,128.33],[104.569,128.137],[104.363,127.931],[104.17,127.714],[103.989,127.486],[103.823,127.248],[103.67,127],[103.532,126.744],[103.409,126.48],[103.302,126.21],[103.21,125.934],[103.135,125.653],[103.076,125.368],[103.034,125.08],[103.008,124.791],[103,124.5],[103,100.5]]
M73 P0 R14
;TYPE:Custom
M220 S100
G90 ; use absolute coordinates
M83 ; extruder relative mode
M104 S150 ; set temporary nozzle temp to prevent oozing during homing
M140 S70 ; set final bed temp
G4 S30 ; allow partial nozzle warmup
G28 ; home all axis and restore leveling
BED_MESH_CALIBRATE
G1 Z25 F240
G1 X10.0 Y30 F3000
M104 S245 ; set final nozzle temp
M190 S70 ; wait for bed temp to stabilize
M109 S245 ; wait for nozzle temp to stabilize
G1 Z0.28 F240
G92 E0 ; Move Z Axis up
LINE_PURGE
G92 E0 ; Move Z Axis up
G1 Z2.0 F3000
M73 P1 R14
M117 Start Printing..
G90
G21
M83 ; use relative distances for extrusion
; filament start gcode
M106 S0
;LAYER_CHANGE
;Z:0.2
;HEIGHT:0.2
;BEFORE_LAYER_CHANGE
;0.2
G92 E0

M73 P1 R14
G1 E-.5 F1800
;_SET_FAN_SPEED_CHANGING_LAYER
SET_VELOCITY_LIMIT ACCEL=1000
SET_VELOCITY_LIMIT SQUARE_CORNER_VELOCITY=7
; printing object Corps6.stl id:0 copy 0
EXCLUDE_OBJECT_START NAME=Corps6.stl_id_0_copy_0
G1 Z.4 F24000
G1 X111.757 Y121.257
G1 Z.4
G1 Z.2
G1 E.5 F1800
;TYPE:Inner wall
;WIDTH:0.499999
G1 F3000
G1 X134.243 Y121.257 E.81186
G1 X134.243 Y144.469 E.83809
G1 X134.185 Y145.127 E.02386
G1 X134.067 Y145.702 E.02118
G1 X133.832 Y146.295 E.02304
G1 X133.595 Y146.742 E.01827
G1 X133.255 Y147.219 E.02113
G1 X132.725 Y147.748 E.02705
G1 X132.213 Y148.107 E.02258
G1 X131.771 Y148.349 E.0182
G1 X131.217 Y148.564 E.02146
G1 X130.647 Y148.688 E.02106
G1 X129.989 Y148.743 E.02382
G1 X115.839 Y148.735 E.5109
G1 X115.278 Y148.679 E.02035
G1 X114.549 Y148.484 E.02726
G1 X113.884 Y148.175 E.02648
G1 X113.407 Y147.841 E.02102
G1 X113.015 Y147.505 E.01866
G1 X112.706 Y147.145 E.01711
G1 X112.38 Y146.686 E.02035
G1 X112.059 Y146.053 E.0256
G1 X111.899 Y145.527 E.01986
G1 X111.765 Y144.756 E.02825
G1 X111.757 Y121.297 E.84702
G1 X111.3 Y120.8 F24000
;TYPE:Outer wall
G1 F3000
G1 X134.7 Y120.8 E.84488
G1 X134.7 Y144.489 E.85531
G1 X134.627 Y145.319 E.0301
G1 X134.504 Y145.839 E.0193
G1 X134.198 Y146.612 E.03002
G1 X133.927 Y147.082 E.01959
G1 X133.602 Y147.518 E.01963
G1 X133.156 Y147.964 E.02276
G1 X132.648 Y148.36 E.02326
G1 X132.207 Y148.642 E.01891
G1 X131.738 Y148.86 E.01866
G1 X131.23 Y149.03 E.01935
G1 X130.535 Y149.161 E.02554
G1 X129.996 Y149.2 E.01951
G1 X115.727 Y149.192 E.51519
G1 X115.193 Y149.129 E.01942
G1 X114.392 Y148.916 E.0299
G1 X113.655 Y148.572 E.02937
G1 X113.109 Y148.19 E.02408
G1 X112.701 Y147.838 E.01946
G1 X112.348 Y147.429 E.01951
G1 X111.977 Y146.903 E.02322
G1 X111.61 Y146.157 E.03003
G1 X111.451 Y145.62 E.02021
M73 P2 R14
M73 P2 R14
G1 X111.308 Y144.777 E.03088
G1 X111.3 Y120.84 E.86426
G1 E-.5 F1800
;WIPE_START
G1 F12000
G1 X113.3 Y120.837
;WIPE_END
G1 Z.4 F24000
G1 X130.528 Y138.009 Z.4
G1 Z.2
G1 E.5 F1800
;TYPE:Inner wall
G1 F3000
G1 X130.863 Y138.422 E.01922
G1 X131.344 Y139.255 E.03474
G1 X131.705 Y140.296 E.03975
G1 X131.832 Y141.135 E.03065
G1 X131.818 Y142.004 E.0314
G1 X131.602 Y143.071 E.0393
G1 X131.305 Y143.82 E.0291
G1 X131.024 Y144.32 E.0207
G1 X130.751 Y144.733 E.01789
G1 X130.318 Y145.241 E.02408
G1 X129.907 Y145.619 E.02018
G1 X129.42 Y145.977 E.02182
G1 X128.742 Y146.352 E.02797
G1 X128.214 Y146.564 E.02055
G1 X127.644 Y146.722 E.02136
G1 X127.093 Y146.811 E.02014
G1 X126.503 Y146.842 E.02133
G1 X125.732 Y146.786 E.02792
G1 X125.139 Y146.667 E.02182
G1 X124.61 Y146.5 E.02005
G1 X123.84 Y146.135 E.03076
G1 X122.992 Y145.527 E.03768
G1 X122.578 Y145.863 E.01924
G1 X121.745 Y146.344 E.03474
G1 X120.704 Y146.705 E.03975
G1 X119.865 Y146.832 E.03065
G1 X118.996 Y146.818 E.0314
G1 X117.929 Y146.602 E.0393
G1 X117.111 Y146.277 E.03179
G1 X116.613 Y145.983 E.02085
G1 X116.182 Y145.679 E.01906
G1 X115.759 Y145.318 E.02007
G1 X115.372 Y144.896 E.02067
G1 X115.056 Y144.466 E.01929
G1 X114.751 Y143.952 E.02158
G1 X114.442 Y143.228 E.02842
G1 X114.278 Y142.644 E.02192
G1 X114.189 Y142.093 E.02014
G1 X114.158 Y141.503 E.02133
G1 X114.214 Y140.732 E.02792
G1 X114.333 Y140.139 E.02182
G1 X114.5 Y139.61 E.02005
G1 X114.865 Y138.84 E.03076
G1 X115.473 Y137.992 E.03768
G1 X115.137 Y137.578 E.01924
G1 X114.656 Y136.745 E.03474
G1 X114.295 Y135.704 E.03975
G1 X114.168 Y134.865 E.03065
G1 X114.182 Y133.996 E.0314
G1 X114.398 Y132.929 E.0393
G1 X114.723 Y132.111 E.0318
G1 X115.148 Y131.398 E.02995
G1 X115.504 Y130.948 E.0207
G1 X115.894 Y130.553 E.02005
G1 X116.353 Y130.18 E.02134
G1 X116.817 Y129.877 E.02002
G1 X117.769 Y129.447 E.03772
G1 X118.36 Y129.277 E.02221
G1 X119.166 Y129.168 E.02935
G1 X120.249 Y129.213 E.03914
G1 X121.074 Y129.394 E.03049
G1 X121.644 Y129.603 E.02193
G1 X122.364 Y129.988 E.02949
G1 X123.015 Y130.477 E.0294
G1 X123.535 Y130.06 E.02405
G1 X124.072 Y129.743 E.02254
G1 X125.133 Y129.334 E.04103
G1 X125.638 Y129.225 E.01868
G1 X126.193 Y129.163 E.02017
G1 X127.007 Y129.182 E.0294
G1 X127.823 Y129.326 E.02992
G1 X128.439 Y129.548 E.02365
G1 X128.952 Y129.755 E.01993
G1 X129.6 Y130.147 E.02738
G1 X130.241 Y130.682 E.03012
G1 X130.786 Y131.308 E.02999
G1 X131.228 Y132.009 E.02991
G1 X131.557 Y132.77 E.02993
G1 X131.722 Y133.356 E.022
G1 X131.834 Y134.203 E.03083
G1 X131.815 Y135.032 E.02994
G1 X131.67 Y135.846 E.02985
G1 X131.402 Y136.63 E.02992
G1 X131.093 Y137.216 E.02391
G1 X130.778 Y137.683 E.02035
G1 X130.552 Y137.977 E.01338
G1 X129.904 Y137.996 F24000
;TYPE:Outer wall
G1 F3000
G1 X130.444 Y138.618 E.02973
G1 X130.967 Y139.526 E.03787
G1 X131.271 Y140.44 E.03475
G1 X131.379 Y141.198 E.02764
G1 X131.362 Y141.993 E.02871
G1 X131.155 Y142.976 E.03627
G1 X130.883 Y143.646 E.02613
G1 X130.634 Y144.082 E.01812
G1 X130.403 Y144.437 E.01528
G1 X129.971 Y144.944 E.02408
G1 X129.591 Y145.288 E.0185
G1 X129.152 Y145.606 E.01956
G1 X128.524 Y145.95 E.02588
G1 X128.048 Y146.138 E.01848
G1 X127.524 Y146.281 E.01958
G1 X127.023 Y146.36 E.01832
G1 X126.482 Y146.386 E.01956
G1 X125.768 Y146.331 E.02585
G1 X125.233 Y146.22 E.01973
G1 X124.751 Y146.065 E.01829
G1 X124.039 Y145.723 E.02851
G1 X123.593 Y145.401 E.01986
G1 X123.004 Y144.904 E.02783
G1 X122.382 Y145.444 E.02973
G1 X121.516 Y145.948 E.0362
G1 X120.56 Y146.271 E.03642
G1 X119.802 Y146.379 E.02764
G1 X119.007 Y146.362 E.02871
G1 X118.024 Y146.155 E.03627
G1 X117.285 Y145.854 E.02883
G1 X116.851 Y145.593 E.01827
G1 X116.479 Y145.331 E.01644
G1 X116.056 Y144.971 E.02007
G1 X115.712 Y144.591 E.0185
G1 X115.394 Y144.152 E.01956
G1 X115.141 Y143.713 E.01829
G1 X114.864 Y143.052 E.02587
G1 X114.719 Y142.524 E.01977
G1 X114.64 Y142.023 E.01832
G1 X114.614 Y141.482 E.01956
G1 X114.669 Y140.768 E.02585
G1 X114.78 Y140.233 E.01973
G1 X114.935 Y139.751 E.01829
G1 X115.277 Y139.039 E.02851
G1 X115.599 Y138.593 E.01985
G1 X116.096 Y138.004 E.02783
G1 X115.556 Y137.382 E.02973
G1 X115.033 Y136.474 E.03786
G1 X114.729 Y135.56 E.03475
G1 X114.621 Y134.802 E.02764
G1 X114.638 Y134.007 E.02871
G1 X114.845 Y133.024 E.03627
G1 X115.146 Y132.285 E.02883
G1 X115.538 Y131.636 E.02738
G1 X115.859 Y131.236 E.01853
G1 X116.217 Y130.877 E.0183
G1 X116.639 Y130.537 E.01956
G1 X117.064 Y130.262 E.01829
G1 X117.954 Y129.865 E.03518
G1 X118.477 Y129.719 E.01962
G1 X119.224 Y129.621 E.02719
G1 X120.225 Y129.669 E.0362
G1 X120.97 Y129.839 E.02757
G1 X121.482 Y130.031 E.01975
G1 X122.146 Y130.39 E.02724
G1 X122.757 Y130.855 E.02775
G1 X122.996 Y131.096 E.01223
G1 X123.821 Y130.417 E.03859
G1 X124.299 Y130.14 E.01995
G1 X125.195 Y129.791 E.03473
G1 X125.735 Y129.671 E.01996
G1 X126.24 Y129.618 E.01835
G1 X126.994 Y129.639 E.0272
G1 X127.739 Y129.775 E.02737
G1 X128.277 Y129.976 E.02074
G1 X128.715 Y130.146 E.01694
G1 X129.364 Y130.538 E.02738
G1 X129.944 Y131.03 E.02745
G1 X130.439 Y131.605 E.0274
G1 X130.839 Y132.249 E.02737
G1 X131.136 Y132.947 E.02739
G1 X131.281 Y133.476 E.01979
G1 X131.38 Y134.259 E.02852
G1 X131.358 Y135.017 E.02737
G1 X131.221 Y135.762 E.02734
G1 X130.971 Y136.478 E.02738
G1 X130.691 Y136.997 E.02131
G1 X130.145 Y137.757 E.03379
G1 X129.933 Y137.968 E.01079
G1 E-.5 F1800
;WIPE_START
G1 F12000
G1 X130.444 Y138.618
G1 X130.967 Y139.526
G1 X131.007 Y139.644
;WIPE_END
G1 Z.4 F24000
G1 X134.106 Y122.33
G1 Z.4
G1 Z.2
G1 E.5 F1800
;TYPE:Bottom surface
;WIDTH:0.505398
G1 F5838.115
G1 X133.376 Y121.6 E.0377
G1 X132.722 Y121.6 E.02389
G1 X133.9 Y122.778 E.06087
G1 X133.9 Y123.432 E.02389
G1 X132.068 Y121.6 E.09466
G1 X131.414 Y121.6 E.02389
G1 X133.9 Y124.086 E.12845
G1 X133.9 Y124.74 E.02389
G1 X130.76 Y121.6 E.16224
G1 X130.106 Y121.6 E.02389
G1 X133.9 Y125.394 E.19603
G1 X133.9 Y126.048 E.02389
G1 X129.452 Y121.6 E.22982
G1 X128.798 Y121.6 E.02389
G1 X133.9 Y126.702 E.26361
G1 X133.9 Y127.356 E.02389
G1 X128.144 Y121.6 E.2974
G1 X127.49 Y121.6 E.02389
G1 X133.9 Y128.01 E.33119
G1 X133.9 Y128.664 E.02389
G1 X126.836 Y121.6 E.36498
G1 X126.182 Y121.6 E.02389
G1 X133.9 Y129.318 E.39878
G1 X133.9 Y129.972 E.02389
G1 X125.528 Y121.6 E.43257
G1 X124.874 Y121.6 E.02389
G1 X133.9 Y130.626 E.46636
G1 X133.9 Y131.281 E.02389
G1 X124.219 Y121.6 E.50015
G1 X123.565 Y121.6 E.02389
G1 X133.9 Y131.935 E.53394
G1 X133.9 Y132.589 E.02389
G1 X122.911 Y121.6 E.56773
G1 X122.257 Y121.6 E.02389
G1 X133.9 Y133.243 E.60152
G1 X133.9 Y133.897 E.02389
G1 X121.603 Y121.6 E.63531
G1 X120.949 Y121.6 E.02389
G1 X128.587 Y129.238 E.3946
G1 X128.053 Y129.035 E.02087
G1 X127.648 Y128.952 E.01511
G1 X120.295 Y121.6 E.37987
G1 X119.641 Y121.6 E.02389
G1 X126.886 Y128.845 E.37432
G1 X126.21 Y128.823 E.02473
M73 P3 R14
M73 P3 R14
G1 X118.987 Y121.6 E.37316
G1 X118.333 Y121.6 E.02389
G1 X125.614 Y128.881 E.37615
G1 X125.075 Y128.996 E.02013
G1 X117.679 Y121.6 E.38211
G1 X117.025 Y121.6 E.02389
G1 X124.597 Y129.171 E.39118
G1 X124.121 Y129.35 E.01856
G1 X116.371 Y121.6 E.40039
G1 X115.717 Y121.6 E.02389
G1 X123.69 Y129.573 E.41193
G1 X123.401 Y129.734 E.01209
G1 X123.287 Y129.824 E.00531
G1 X115.063 Y121.6 E.42489
G1 X114.409 Y121.6 E.02389
G1 X122.464 Y129.655 E.41616
G1 X121.886 Y129.338 E.02408
G1 X121.252 Y129.097 E.02477
G1 X113.755 Y121.6 E.38735
G1 X113.101 Y121.6 E.02389
G1 X120.398 Y128.897 E.37701
G1 X120.276 Y128.871 E.00458
G1 X119.687 Y128.841 E.02152
G1 X112.447 Y121.6 E.37408
G1 X112.1 Y121.6 E.01266
G1 X112.1 Y121.908 E.01124
G1 X119.033 Y128.84 E.35817
G1 X118.458 Y128.919 E.0212
G1 X112.101 Y122.562 E.32846
G1 X112.101 Y123.216 E.0239
G1 X117.928 Y129.044 E.30108
G1 X117.66 Y129.12 E.01021
G1 X117.446 Y129.215 E.00855
G1 X112.101 Y123.87 E.27612
G1 X112.101 Y124.525 E.0239
G1 X116.992 Y129.416 E.25269
G1 X116.764 Y129.517 E.00913
G1 X116.565 Y129.642 E.00859
G1 X112.101 Y125.179 E.2306
G1 X112.102 Y125.833 E.0239
G1 X116.164 Y129.895 E.20988
G1 X115.802 Y130.187 E.01699
G1 X112.102 Y126.487 E.19116
G1 X112.102 Y127.142 E.0239
G1 X115.463 Y130.503 E.17364
G1 X115.15 Y130.844 E.01691
G1 X112.102 Y127.796 E.15746
G1 X112.103 Y128.45 E.0239
G1 X114.862 Y131.21 E.14257
G1 X114.614 Y131.615 E.01738
G1 X112.103 Y129.105 E.12973
G1 X112.103 Y129.759 E.0239
G1 X114.389 Y132.045 E.11809
G1 X114.193 Y132.503 E.01821
G1 X112.103 Y130.413 E.10797
G1 X112.104 Y131.067 E.0239
G1 X114.033 Y132.996 E.09967
G1 X113.917 Y133.535 E.02013
G1 X112.104 Y131.722 E.0937
G1 X112.104 Y132.376 E.0239
G1 X113.837 Y134.109 E.08955
G1 X113.829 Y134.755 E.0236
G1 X112.104 Y133.03 E.08912
G1 X112.104 Y133.684 E.0239
G1 X113.909 Y135.489 E.09321
G1 X113.934 Y135.672 E.00677
G1 X114.17 Y136.404 E.02808
G1 X112.105 Y134.339 E.10669
G1 X112.105 Y134.993 E.0239
G1 X114.811 Y137.699 E.13982
G1 X115.038 Y138.004 E.01389
G1 X114.795 Y138.337 E.01507
G1 X112.105 Y135.647 E.13896
G1 X112.105 Y136.302 E.0239
G1 X114.536 Y138.733 E.1256
G1 X114.323 Y139.174 E.01789
G1 X112.106 Y136.956 E.11458
G1 X112.106 Y137.61 E.0239
G1 X114.137 Y139.641 E.10495
G1 X113.983 Y140.141 E.0191
G1 X112.106 Y138.264 E.09696
G1 X112.106 Y138.919 E.0239
G1 X113.875 Y140.687 E.09137
G1 X113.827 Y141.294 E.02223
G1 X112.106 Y139.573 E.08891
G1 X112.107 Y140.227 E.0239
G1 X113.835 Y141.956 E.08931
G1 X113.95 Y142.724 E.02838
G1 X111.901 Y140.676 E.10584
G1 E-.5 F1800
;WIPE_START
G1 F12000
G1 X113.315 Y142.09
;WIPE_END
G1 Z.4 F24000
G1 X131.388 Y132.039 Z.4
G1 Z.2
G1 E.5 F1800
G1 F5838.115
G1 X133.9 Y134.551 E.12977
G1 X133.9 Y135.205 E.02389
G1 X132.073 Y133.378 E.09437
G1 X132.17 Y134.128 E.02764
G1 X133.9 Y135.859 E.0894
G1 X133.9 Y136.513 E.02389
G1 X132.156 Y134.769 E.09009
G1 X132.144 Y135.18 E.01501
G1 X132.107 Y135.374 E.00722
G1 X133.9 Y137.167 E.09262
G1 X133.9 Y137.821 E.02389
G1 X132.003 Y135.924 E.098
G1 X131.838 Y136.412 E.01884
G1 X133.9 Y138.475 E.10656
G1 X133.9 Y139.129 E.02389
G1 X131.653 Y136.882 E.11607
G1 X131.428 Y137.311 E.01769
G1 X133.9 Y139.783 E.12773
G1 X133.9 Y140.437 E.02389
G1 X131.177 Y137.714 E.14069
G1 X130.965 Y138 E.01301
G1 X131.156 Y138.244 E.01131
G1 X131.297 Y138.488 E.01031
G1 X133.9 Y141.091 E.13449
G1 X133.9 Y141.745 E.02389
M73 P4 R14
M73 P4 R14
G1 X131.874 Y139.72 E.10466
G1 X132.032 Y140.193 E.01821
G1 X132.105 Y140.604 E.01526
G1 X133.9 Y142.399 E.09276
G1 X133.9 Y143.053 E.02389
G1 X132.17 Y141.323 E.08939
G1 X132.162 Y141.969 E.0236
G1 X133.9 Y143.707 E.08981
G1 X133.9 Y144.361 E.02389
G1 X132.069 Y142.53 E.09462
G1 X131.953 Y143.069 E.02013
G1 X133.855 Y144.97 E.09824
G1 X133.836 Y145.192 E.00812
G1 X133.757 Y145.526 E.01254
G1 X131.783 Y143.553 E.10195
G1 X131.588 Y144.011 E.01821
G1 X133.579 Y146.003 E.1029
G1 X133.476 Y146.263 E.01024
G1 X133.37 Y146.447 E.00776
G1 X131.354 Y144.431 E.10416
G1 X131.102 Y144.833 E.01733
G1 X133.109 Y146.841 E.10372
G1 X132.995 Y146.994 E.00698
G1 X132.802 Y147.187 E.00999
G1 X130.808 Y145.194 E.10298
G1 X130.5 Y145.539 E.01692
G1 X132.469 Y147.509 E.10177
G1 X132.085 Y147.778 E.01716
G1 X130.155 Y145.849 E.09968
G1 X129.786 Y146.133 E.01704
G1 X131.669 Y148.017 E.09731
G1 X131.202 Y148.204 E.01838
G1 X129.388 Y146.39 E.09372
G1 X128.965 Y146.621 E.01761
G1 X130.677 Y148.339 E.08862
G1 X130.083 Y148.393 E.02177
G1 X128.506 Y146.815 E.08152
G1 X128.333 Y146.885 E.00679
G1 X128.009 Y146.973 E.01228
G1 X129.429 Y148.393 E.07339
G1 X128.775 Y148.393 E.0239
G1 X127.479 Y147.097 E.06696
G1 X126.895 Y147.167 E.02148
G1 X128.121 Y148.393 E.06333
G1 X127.467 Y148.393 E.0239
G1 X126.243 Y147.169 E.06324
G1 X125.698 Y147.127 E.01996
G1 X125.51 Y147.09 E.007
G1 X126.813 Y148.393 E.06731
G1 X126.159 Y148.393 E.0239
G1 X124.622 Y146.856 E.07938
G1 X124.381 Y146.777 E.0093
G1 X123.686 Y146.441 E.02817
G1 X123.263 Y146.151 E.01876
G1 X125.505 Y148.393 E.11582
G1 X124.851 Y148.393 E.0239
G1 X122.666 Y146.208 E.11287
G1 X122.251 Y146.448 E.01749
G1 X124.196 Y148.393 E.1005
G1 X123.542 Y148.393 E.0239
G1 X121.83 Y146.68 E.08846
