; HEADER_BLOCK_START
; generated by OrcaSlicer 2.2.0 on 2024-12-01 at 17:48:59
; total layer number: 100
; filament_density: 1.27
; filament_diameter: 1.75
; max_z_height: 20.00
; HEADER_BLOCK_END

; THUMBNAIL_BLOCK_START

;
; THUMBNAIL_BLOCK_END

; THUMBNAIL_BLOCK_START

;
; THUMBNAIL_BLOCK_END

; external perimeters extrusion width = 0.42mm
; perimeters extrusion width = 0.45mm
; infill extrusion width = 0.45mm
; solid infill extrusion width = 0.45mm
; top infill extrusion width = 0.42mm
; first layer extrusion width = 0.50mm

; EXECUTABLE_BLOCK_START
EXCLUDE_OBJECT_DEFINE NAME=Corps27_id_0_copy_0 CENTER=115,115 POLYGON=[[97.1688,95.2224],[97.1919,94.7519],[97.261,94.286],[97.3755,93.829],[97.5342,93.3855],[97.7356,92.9597],[97.9777,92.5557],[98.2583,92.1773],[98.5747,91.8283],[98.9237,91.512],[99.3021,91.2314],[99.7061,90.9892],[100.132,90.7878],[100.575,90.6291],[101.032,90.5146],[101.498,90.4455],[101.969,90.4224],[132.416,90.4224],[132.831,139.578],[101.969,139.578],[101.498,139.554],[101.032,139.485],[100.575,139.371],[100.132,139.212],[99.7061,139.011],[99.3021,138.769],[98.9237,138.488],[98.5747,138.172],[98.2583,137.823],[97.9777,137.444],[97.7356,137.04],[97.5342,136.614],[97.3755,136.171],[97.261,135.714],[97.1919,135.248],[97.1688,134.778],[97.1688,95.2224]]
M73 P0 R31
;TYPE:Custom
M220 S100
G90 ; use absolute coordinates
M83 ; extruder relative mode
M104 S150 ; set temporary nozzle temp to prevent oozing during homing
M140 S70 ; set final bed temp
G4 S30 ; allow partial nozzle warmup
G28 ; home all axis and restore leveling
BED_MESH_CALIBRATE
G1 Z25 F240
G1 X10.0 Y30 F3000
M104 S245 ; set final nozzle temp
M190 S70 ; wait for bed temp to stabilize
M109 S245 ; wait for nozzle temp to stabilize
G1 Z0.28 F240
G92 E0 ; Move Z Axis up
LINE_PURGE
G92 E0 ; Move Z Axis up
G1 Z2.0 F3000
M117 Start Printing..
G90
G21
M83 ; use relative distances for extrusion
; filament start gcode
M106 S0
;LAYER_CHANGE
;Z:0.2
;HEIGHT:0.2
;BEFORE_LAYER_CHANGE
;0.2
G92 E0

G1 E-.5 F1800
TIMELAPSE_TAKE_FRAME
;_SET_FAN_SPEED_CHANGING_LAYER
SET_VELOCITY_LIMIT ACCEL=1000
SET_VELOCITY_LIMIT SQUARE_CORNER_VELOCITY=7
; printing object Corps27 id:0 copy 0
EXCLUDE_OBJECT_START NAME=Corps27_id_0_copy_0
G1 Z.4 F24000
G1 X137.287 Y134.86
G1 Z.4
G1 Z.2
G1 E.5 F1800
;TYPE:Inner wall
;WIDTH:0.499999
G1 F3000
G1 X137.277 Y134.905 E.00167
G1 X136.667 Y135.528 E.03144
G1 X136.093 Y136.182 E.03144
G1 X135.435 Y137.037 E.03895
G1 X135.055 Y137.58 E.02392
G1 X134.595 Y138.319 E.03144
G1 X134.176 Y139.082 E.03144
G1 X133.8 Y139.867 E.03144
G1 X133.466 Y140.671 E.03144
G1 X133.177 Y141.493 E.03144
G1 X132.933 Y142.329 E.03144
G1 X132.735 Y143.176 E.03144
G1 X132.584 Y144.034 E.03144
G1 X132.48 Y144.898 E.03144
G1 X132.424 Y145.73 E.03009
G1 X132.417 Y146.261 E.01917
G1 X132.431 Y147.066 E.02908
G1 X132.536 Y148.374 E.04739
G1 X132.669 Y149.235 E.03144
G1 X132.848 Y150.087 E.03144
G1 X133.102 Y151.016 E.03479
G1 X133.344 Y151.755 E.02808
G1 X133.762 Y152.793 E.04038
G1 X134.02 Y153.36 E.02249
G1 X134.426 Y154.139 E.03172
G1 X134.865 Y154.881 E.03114
G1 X135.349 Y155.605 E.03144
G1 X135.872 Y156.301 E.03144
G1 X136.432 Y156.968 E.03144
G1 X137.027 Y157.603 E.03144
G1 X137.995 Y158.494 E.04746
G1 X138.416 Y158.839 E.01968
G1 X137.845 Y158.821 E.02063
G1 X110.004 Y158.821 E1.00521
G1 X109.181 Y158.739 E.02988
G1 X108.423 Y158.51 E.02859
G1 X107.725 Y158.136 E.02859
G1 X107.112 Y157.634 E.02859
G1 X106.61 Y157.022 E.02859
G1 X106.237 Y156.323 E.02859
G1 X106.007 Y155.566 E.02859
G1 X105.926 Y154.742 E.02988
G1 X105.926 Y115.258 E1.42562
G1 X106.007 Y114.434 E.02988
G1 X106.237 Y113.677 E.02859
G1 X106.61 Y112.978 E.02859
G1 X107.112 Y112.366 E.02859
G1 X107.725 Y111.864 E.02859
G1 X108.423 Y111.49 E.02859
G1 X109.181 Y111.261 E.02859
G1 X110.004 Y111.179 E.02988
G1 X138.128 Y111.168 E1.01542
G1 X137.598 Y111.612 E.02495
G1 X136.716 Y112.474 E.04452
G1 X136.133 Y113.134 E.0318
G1 X135.601 Y113.805 E.03092
G1 X135.049 Y114.594 E.03475
G1 X134.649 Y115.228 E.02709
G1 X134.362 Y115.74 E.02118
G1 X133.796 Y116.883 E.04606
G1 X133.519 Y117.534 E.02553
G1 X133.134 Y118.647 E.04254
G1 X132.963 Y119.223 E.02169
G1 X132.734 Y120.201 E.03628
G1 X132.57 Y121.163 E.03524
G1 X132.501 Y121.681 E.01884
G1 X132.431 Y122.624 E.03417
G1 X132.418 Y123.657 E.03729
G1 X132.468 Y124.658 E.0362
G1 X132.549 Y125.43 E.02801
G1 X132.645 Y126.083 E.02382
G1 X132.843 Y127.047 E.03554
G1 X132.983 Y127.614 E.02109
G1 X133.233 Y128.433 E.03093
G1 X133.669 Y129.574 E.0441
G1 X133.9 Y130.104 E.02088
G1 X134.378 Y131.044 E.03806
G1 X134.776 Y131.73 E.02865
G1 X135.115 Y132.266 E.0229
G1 X135.612 Y132.965 E.03094
G1 X136.15 Y133.641 E.03122
G1 X136.712 Y134.276 E.03062
G1 X137.259 Y134.832 E.02815
G1 X137.983 Y134.878 F24000
;TYPE:Outer wall
G1 F3000
G1 X137.603 Y135.226 E.0186
G1 X137.011 Y135.829 E.03054
G1 X136.452 Y136.465 E.03054
G1 X135.809 Y137.3 E.03805
G1 X135.443 Y137.822 E.02302
G1 X134.996 Y138.539 E.03054
G1 X134.588 Y139.28 E.03054
G1 X134.222 Y140.043 E.03054
G1 X133.897 Y140.824 E.03054
G1 X133.616 Y141.621 E.03054
G1 X133.378 Y142.433 E.03054
G1 X133.185 Y143.256 E.03054
G1 X133.038 Y144.089 E.03054
G1 X132.936 Y144.929 E.03054
G1 X132.879 Y145.809 E.03186
G1 X132.87 Y146.618 E.02921
G1 X132.91 Y147.508 E.03215
G1 X132.988 Y148.305 E.02892
G1 X133.116 Y149.141 E.03054
G1 X133.29 Y149.969 E.03054
G1 X133.537 Y150.874 E.03389
G1 X133.771 Y151.59 E.02718
G1 X134.179 Y152.604 E.03948
G1 X134.425 Y153.149 E.02159
G1 X134.82 Y153.907 E.03083
G1 X135.246 Y154.627 E.03024
G1 X135.715 Y155.331 E.03054
G1 X136.222 Y156.008 E.03054
G1 X136.766 Y156.656 E.03054
G1 X137.344 Y157.273 E.03054
G1 X138.291 Y158.146 E.04651
G1 X138.949 Y158.659 E.03013
G1 X139.934 Y159.321 E.04284
G1 X139.341 Y159.328 E.0214
G1 X137.845 Y159.278 E.05406
G1 X109.982 Y159.278 E1.00602
G1 X109.091 Y159.19 E.03232
M73 P1 R31
M73 P1 R31
G1 X108.247 Y158.934 E.03184
G1 X107.469 Y158.518 E.03184
G1 X106.788 Y157.959 E.03184
G1 X106.228 Y157.277 E.03184
G1 X105.812 Y156.499 E.03184
G1 X105.556 Y155.655 E.03184
G1 X105.469 Y154.765 E.03231
G1 X105.469 Y115.235 E1.42724
G1 X105.556 Y114.345 E.03232
G1 X105.812 Y113.501 E.03184
G1 X106.228 Y112.723 E.03184
G1 X106.788 Y112.041 E.03184
G1 X107.469 Y111.482 E.03184
G1 X108.247 Y111.066 E.03184
G1 X109.091 Y110.81 E.03184
G1 X109.982 Y110.722 E.03231
G1 X137.425 Y110.722 E.99087
G1 X138.424 Y110.706 E.03608
G1 X138.926 Y110.672 E.01815
G1 X139.584 Y110.68 E.02375
G1 X138.578 Y111.388 E.0444
G1 X137.917 Y111.939 E.03106
G1 X137.048 Y112.789 E.04392
G1 X136.491 Y113.418 E.03034
G1 X135.973 Y114.07 E.03004
G1 X135.435 Y114.838 E.03387
G1 X135.047 Y115.451 E.0262
G1 X134.761 Y115.963 E.02118
G1 X134.216 Y117.062 E.04428
G1 X133.949 Y117.69 E.02464
G1 X133.571 Y118.78 E.04165
G1 X133.407 Y119.332 E.0208
G1 X133.183 Y120.287 E.0354
G1 X133.031 Y121.165 E.0322
G1 X132.957 Y121.718 E.02012
G1 X132.888 Y122.637 E.03329
G1 X132.875 Y123.645 E.0364
G1 X132.923 Y124.622 E.03532
G1 X133.002 Y125.369 E.02712
G1 X133.094 Y125.997 E.02294
G1 X133.287 Y126.938 E.03466
G1 X133.421 Y127.481 E.02021
G1 X133.663 Y128.277 E.03004
G1 X134.09 Y129.395 E.04321
G1 X134.31 Y129.903 E.02
G1 X134.777 Y130.821 E.03718
G1 X135.163 Y131.486 E.02776
G1 X135.488 Y132.002 E.02201
G1 X135.97 Y132.681 E.03004
G1 X136.492 Y133.339 E.03034
G1 X137.038 Y133.956 E.02974
G1 X137.613 Y134.54 E.0296
G1 X137.954 Y134.851 E.01666
G1 E-.5 F1800
;WIPE_START
G1 F12000
G1 X137.603 Y135.226
G1 X137.011 Y135.829
G1 X136.587 Y136.311
;WIPE_END
G1 Z.4 F24000
G1 X123.797 Y145.629 Z.4
G1 Z.2
G1 E.5 F1800
;TYPE:Inner wall
G1 F3000
G1 X123.809 Y145.509 E.00434
G1 X124.8 Y143.821 E.07067
G1 X125.036 Y143.65 E.01053
G1 X125.312 Y143.591 E.0102
G1 X127.011 Y143.591 E.06135
G1 X127.334 Y143.672 E.012
M73 P1 R30
M73 P1 R30
G1 X127.58 Y143.894 E.01197
G1 X128.455 Y145.406 E.06306
G1 X128.546 Y145.757 E.0131
G1 X128.5 Y145.995 E.00878
G1 X127.605 Y147.563 E.06517
G1 X127.397 Y147.787 E.01104
G1 X127.104 Y147.906 E.0114
G1 X125.312 Y147.906 E.06471
G1 X124.919 Y147.782 E.01488
G1 X124.718 Y147.563 E.01072
G1 X123.869 Y146.091 E.06135
G1 X123.779 Y145.805 E.01085
G1 X123.793 Y145.669 E.00494
G1 X124.242 Y145.674 F24000
;TYPE:Outer wall
G1 F3000
G1 X124.984 Y144.387 E.05363
G1 X125.172 Y144.096 E.0125
G1 X125.312 Y144.048 E.00534
G1 X127.011 Y144.048 E.06135
G1 X127.157 Y144.101 E.00559
G1 X128.059 Y145.634 E.06422
G1 X128.074 Y145.831 E.00712
G1 X127.209 Y147.334 E.06262
G1 X127.046 Y147.448 E.0072
G1 X125.312 Y147.448 E.0626
G1 X125.133 Y147.367 E.00712
G1 X124.263 Y145.861 E.06279
G1 X124.246 Y145.713 E.00535
G1 E-.5 F1800
;WIPE_START
G1 F12000
G1 X124.984 Y144.387
G1 X125.172 Y144.096
G1 X125.301 Y144.052
;WIPE_END
G1 Z.4 F24000
G1 X122.417 Y151.915 Z.4
G1 Z.2
G1 E.5 F1800
;TYPE:Inner wall
G1 F3000
G1 X123.911 Y149.327 E.10788
G1 X124.025 Y149.136 E.00804
G1 X124.292 Y148.915 E.01251
G1 X124.582 Y148.851 E.01072
G1 X127.725 Y148.851 E.11346
G1 X128.023 Y148.919 E.01104
G1 X128.318 Y149.193 E.01457
G1 X129.89 Y151.915 E.11346
G1 X129.975 Y152.161 E.0094
G1 X129.932 Y152.512 E.01278
G1 X128.318 Y155.322 E.11699
G1 X128.184 Y155.488 E.0077
G1 X127.822 Y155.665 E.01456
G1 X124.582 Y155.665 E.11698
G1 X124.328 Y155.616 E.00936
G1 X124.122 Y155.488 E.00873
G1 X123.773 Y154.948 E.02321
G1 X122.417 Y152.601 E.09789
;WIDTH:0.538609
G1 X122.377 Y152.543 E.00276
;WIDTH:0.577218
G1 X122.337 Y152.485 E.00297
;WIDTH:0.615828
G1 X122.296 Y152.427 E.00319
;WIDTH:0.654437
G1 X122.256 Y152.369 E.0034
G1 X122.254 Y152.329 E.00193
;WIDTH:0.615828
G1 X122.252 Y152.29 E.0018
;WIDTH:0.577218
G1 X122.249 Y152.25 E.00168
;WIDTH:0.538609
G1 X122.247 Y152.21 E.00156
;WIDTH:0.499999
G1 X122.397 Y151.95 E.01086
G1 X122.813 Y152.143 F24000
;TYPE:Outer wall
G1 F3000
G1 X124.307 Y149.556 E.10788
G1 X124.485 Y149.329 E.01042
G1 X125.312 Y149.308 E.02986
G1 X127.725 Y149.308 E.0871
G1 X127.824 Y149.33 E.00368
G1 X127.923 Y149.422 E.00486
G1 X129.494 Y152.143 E.11346
G1 X129.524 Y152.27 E.00469
G1 X129.201 Y152.879 E.02489
G1 X127.923 Y155.093 E.09233
G1 X127.791 Y155.208 E.0063
G1 X124.582 Y155.208 E.11584
G1 X124.429 Y155.149 E.00593
G1 X122.813 Y152.372 E.116
G1 X122.782 Y152.251 E.00449
G1 X122.802 Y152.182 E.0026
G1 E-.5 F1800
;WIPE_START
G1 F12000
G1 X123.796 Y150.447
;WIPE_END
G1 Z.4 F24000
G1 X115.121 Y152.208 Z.4
G1 Z.2
G1 E.5 F1800
;TYPE:Inner wall
G1 F3000
G1 X115.186 Y152 E.00786
G1 X116.444 Y149.82 E.09089
G1 X116.615 Y149.623 E.00939
G1 X116.77 Y149.532 E.00651
G1 X117.038 Y149.477 E.00987
G1 X119.603 Y149.477 E.09262
G1 X119.896 Y149.543 E.01083
G1 X120.145 Y149.73 E.01124
G1 X121.406 Y151.915 E.09111
;WIDTH:0.537593
G1 X121.466 Y152.021 E.00475
;WIDTH:0.575186
G1 X121.526 Y152.127 E.00512
;WIDTH:0.612779
G1 X121.585 Y152.233 E.00548
;WIDTH:0.650372
G1 X121.646 Y152.362 E.00686
;WIDTH:0.612779
G1 X121.647 Y152.386 E.00105
;WIDTH:0.575186
G1 X121.648 Y152.409 E.00098
;WIDTH:0.537593
G1 X121.649 Y152.432 E.00091
;WIDTH:0.499999
G1 X120.197 Y154.948 E.10489
G1 X120.002 Y155.163 E.01045
G1 X119.697 Y155.291 E.01197
G1 X117.038 Y155.291 E.09601
G1 X116.788 Y155.244 E.00918
G1 X116.585 Y155.12 E.00859
G1 X116.444 Y154.948 E.00803
G1 X115.162 Y152.727 E.09262
G1 X115.07 Y152.374 E.01316
G1 X115.109 Y152.246 E.00484
G1 X115.522 Y152.332 F24000
;TYPE:Outer wall
G1 F3000
G1 X116.84 Y150.048 E.09519
G1 X116.949 Y149.952 E.00524
G1 X117.66 Y149.934 E.02568
G1 X119.603 Y149.934 E.07017
G1 X119.781 Y150.015 E.00706
G1 X121.01 Y152.143 E.08876
G1 X121.114 Y152.391 E.00967
G1 X121.084 Y152.498 E.00405
G1 X119.801 Y154.72 E.09262
G1 X119.66 Y154.834 E.00654
G1 X117.038 Y154.834 E.09469
G1 X116.887 Y154.777 E.00582
G1 X116.527 Y154.178 E.02522
G1 X115.557 Y152.498 E.07004
G1 X115.53 Y152.371 E.00471
G1 E-.5 F1800
;WIPE_START
G1 F12000
G1 X116.513 Y150.629
;WIPE_END
G1 Z.4 F24000
G1 X116.286 Y145.617 Z.4
G1 Z.2
G1 E.5 F1800
;TYPE:Inner wall
G1 F3000
G1 X116.296 Y145.492 E.0045
G1 X117.066 Y144.159 E.05559
G1 X117.245 Y143.956 E.00976
G1 X117.489 Y143.838 E.00981
G1 X119.074 Y143.816 E.05723
G1 X119.319 Y143.863 E.009
G1 X119.603 Y144.054 E.01237
G1 X120.369 Y145.38 E.05529
G1 X120.459 Y145.667 E.01085
G1 X120.434 Y145.915 E.00899
G1 X119.664 Y147.287 E.05682
G1 X119.547 Y147.437 E.00686
G1 X119.168 Y147.63 E.01534
G1 X117.66 Y147.63 E.05447
G1 X117.404 Y147.581 E.00939
G1 X117.176 Y147.43 E.00987
G1 X116.812 Y146.847 E.02483
G1 X116.361 Y146.066 E.03257
G1 X116.272 Y145.792 E.01038
G1 X116.283 Y145.656 E.00492
G1 X116.732 Y145.652 F24000
;TYPE:Outer wall
G1 F3000
G1 X117.462 Y144.387 E.05271
G1 X117.603 Y144.28 E.0064
G1 X119.072 Y144.273 E.05303
G1 X119.246 Y144.349 E.00686
G1 X119.973 Y145.609 E.05254
G1 X119.995 Y145.787 E.00648
G1 X119.268 Y147.059 E.05289
G1 X119.105 Y147.173 E.0072
G1 X117.66 Y147.173 E.05217
G1 X117.498 Y147.107 E.0063
G1 X116.757 Y145.837 E.05308
G1 X116.737 Y145.691 E.00532
G1 E-.5 F1800
;WIPE_START
G1 F12000
G1 X117.462 Y144.387
G1 X117.603 Y144.28
G1 X117.934 Y144.279
;WIPE_END
G1 Z.4 F24000
G1 X112.049 Y144.193 Z.4
G1 Z.2
G1 E.5 F1800
;TYPE:Inner wall
G1 F3000
G1 X112.212 Y144.262 E.00639
G1 X112.414 Y144.496 E.01117
G1 X112.962 Y145.444 E.03952
G1 X113.05 Y145.718 E.01038
G1 X113.031 Y145.962 E.00886
G1 X112.547 Y146.847 E.03641
G1 X112.294 Y147.241 E.01692
G1 X112.041 Y147.403 E.01082
G1 X111.807 Y147.444 E.00859
G1 X110.685 Y147.444 E.0405
G1 X110.422 Y147.391 E.00971
G1 X110.158 Y147.217 E.01139
G1 X109.531 Y146.13 E.04534
G1 X109.439 Y145.787 E.01281
G1 X109.531 Y145.444 E.01281
G1 X110.092 Y144.472 E.0405
G1 X110.29 Y144.255 E.01062
G1 X110.528 Y144.148 E.00943
G1 X111.366 Y144.13 E.03028
G1 X111.92 Y144.139 E.01999
G1 X112.012 Y144.178 E.0036
G1 X111.878 Y144.598 F24000
;TYPE:Outer wall
G1 F3000
G1 X112.005 Y144.701 E.00589
G1 X112.566 Y145.672 E.0405
G1 X112.595 Y145.764 E.00346
G1 X112.566 Y145.901 E.00507
G1 X112.005 Y146.872 E.0405
G1 X111.869 Y146.987 E.00642
G1 X110.685 Y146.987 E.04273
G1 X110.513 Y146.916 E.00673
G1 X109.926 Y145.901 E.04233
G1 X109.896 Y145.726 E.00643
G1 X110.449 Y144.768 E.03994
G1 X110.59 Y144.608 E.0077
G1 X111.366 Y144.587 E.02805
G1 X111.838 Y144.597 E.01704
G1 E-.5 F1800
;WIPE_START
G1 F12000
G1 X112.005 Y144.701
G1 X112.566 Y145.672
G1 X112.595 Y145.764
G1 X112.566 Y145.901
G1 X112.343 Y146.287
;WIPE_END
G1 Z.4 F24000
G1 X116.395 Y137.621 Z.4
G1 Z.2
G1 E.5 F1800
;TYPE:Inner wall
G1 F3000
G1 X116.537 Y137.623 E.00511
G1 X117.072 Y137.727 E.01968
G1 X117.54 Y137.987 E.01935
G1 X117.724 Y138.141 E.00867
G1 X118.061 Y138.557 E.01933
G1 X118.26 Y139.069 E.01983
G1 X118.301 Y139.304 E.0086
G1 X118.29 Y139.852 E.01979
G1 X118.115 Y140.362 E.01949
G1 X117.996 Y140.569 E.0086
G1 X117.72 Y140.897 E.01548
G1 X117.54 Y141.047 E.00844
G1 X117.034 Y141.32 E.02078
G1 X116.532 Y141.414 E.01844
G1 X116.294 Y141.414 E.0086
G1 X115.697 Y141.283 E.02204
G1 X115.222 Y141.006 E.01988
G1 X114.828 Y140.569 E.02124
G1 X114.709 Y140.362 E.0086
G1 X114.534 Y139.852 E.01949
G1 X114.523 Y139.305 E.01976
G1 X114.565 Y139.069 E.00865
G1 X114.766 Y138.552 E.02002
G1 X115.101 Y138.14 E.01918
G1 X115.284 Y137.987 E.0086
G1 X115.752 Y137.727 E.01933
G1 X116.284 Y137.62 E.0196
G1 X116.355 Y137.621 E.00258
G1 X116.382 Y138.084 F24000
;TYPE:Outer wall
G1 F3000
G1 X116.46 Y138.073 E.00283
G1 X116.945 Y138.171 E.01786
G1 X117.373 Y138.434 E.01814
G1 X117.685 Y138.828 E.01815
G1 X117.844 Y139.304 E.01814
G1 X117.83 Y139.807 E.01818
G1 X117.646 Y140.275 E.01815
G1 X117.312 Y140.651 E.01815
G1 X116.87 Y140.89 E.01815
G1 X116.373 Y140.964 E.01814
G1 X115.88 Y140.863 E.01818
G1 X115.492 Y140.637 E.01622
G1 X115.154 Y140.239 E.01884
G1 X114.981 Y139.749 E.01878
G1 X114.994 Y139.226 E.01887
G1 X115.179 Y138.759 E.01815
G1 X115.512 Y138.383 E.01815
G1 X115.954 Y138.143 E.01814
G1 X116.343 Y138.089 E.01416
G1 E-.5 F1800
;WIPE_START
G1 F12000
G1 X116.46 Y138.073
G1 X116.945 Y138.171
G1 X117.373 Y138.434
G1 X117.685 Y138.828
G1 X117.806 Y139.19
;WIPE_END
G1 Z.4 F24000
G1 X109.306 Y137.625 Z.4
G1 Z.2
G1 E.5 F1800
;TYPE:Inner wall
G1 F3000
G1 X109.404 Y137.61 E.00359
G1 X109.946 Y137.693 E.0198
G1 X110.173 Y137.775 E.00872
