; HEADER_BLOCK_START
; generated by OrcaSlicer 2.2.0 on 2024-11-16 at 09:31:17
; total layer number: 30
; filament_density: 1.27
; filament_diameter: 1.75
; max_z_height: 6.00
; HEADER_BLOCK_END

; THUMBNAIL_BLOCK_START

;
; THUMBNAIL_BLOCK_END

; THUMBNAIL_BLOCK_START

;
; THUMBNAIL_BLOCK_END

; external perimeters extrusion width = 0.42mm
; perimeters extrusion width = 0.45mm
; infill extrusion width = 0.45mm
; solid infill extrusion width = 0.45mm
; top infill extrusion width = 0.42mm
; first layer extrusion width = 0.50mm

; EXECUTABLE_BLOCK_START
EXCLUDE_OBJECT_DEFINE NAME=Corps3.stl_id_0_copy_0 CENTER=115,115 POLYGON=[[76.5,108.5],[76.5154,108.108],[76.5616,107.718],[76.6381,107.333],[76.7447,106.955],[76.8806,106.587],[77.045,106.23],[77.2368,105.888],[77.4549,105.561],[77.698,105.253],[77.9645,104.964],[78.2528,104.698],[78.5611,104.455],[78.8875,104.237],[79.23,104.045],[79.5866,103.881],[79.9549,103.745],[80.3328,103.638],[80.7178,103.562],[81.1077,103.515],[81.5,103.5],[148.5,103.5],[148.892,103.515],[149.282,103.562],[149.667,103.638],[150.045,103.745],[150.413,103.881],[150.77,104.045],[151.112,104.237],[151.439,104.455],[151.747,104.698],[152.036,104.964],[152.302,105.253],[152.545,105.561],[152.763,105.888],[152.955,106.23],[153.119,106.587],[153.255,106.955],[153.362,107.333],[153.438,107.718],[153.485,108.108],[153.5,108.5],[153.5,117.5],[138.8,126.5],[91.2,126.5],[76.5,117.5],[76.5,108.5]]
M73 P0 R11
;TYPE:Custom
M220 S100
G90 ; use absolute coordinates
M83 ; extruder relative mode
M104 S150 ; set temporary nozzle temp to prevent oozing during homing
M140 S70 ; set final bed temp
G4 S30 ; allow partial nozzle warmup
G28 ; home all axis and restore leveling
BED_MESH_CALIBRATE PROFILE=adaptive ADAPTIVE=1 ADAPTIVE_MARGIN=0
G1 Z25 F240
G1 X10.0 Y30 F3000
M104 S245 ; set final nozzle temp
M190 S70 ; wait for bed temp to stabilize
M109 S245 ; wait for nozzle temp to stabilize
G1 Z0.28 F240
G92 E0 ; Move Z Axis up
G1 Z2.0 F5000 ; Move to start position
M73 P1 R11
M73 P1 R11
G1 X5 Y30 Z0.28 F300 ; Draw the first line
G1 X5 Y200 Z0.28 F1500 E15 ; Move to side a little
M73 P2 R11
M73 P2 R11
G1 X5.4 Y200 Z0.28 F5000.0 ; Draw the second line
G1 X5.4 Y50 Z0.28 F1500.0 E30 ; Reset Extruder
G92 E0 ; Move Z Axis up
G1 Z2.0 F3000
M73 P3 R11
M117 Start Printing..
G90
G21
M83 ; use relative distances for extrusion
; filament start gcode
M106 S0
;LAYER_CHANGE
;Z:0.2
;HEIGHT:0.2
;BEFORE_LAYER_CHANGE
;0.2
G92 E0

M73 P3 R11
G1 E-.5 F1800
;_SET_FAN_SPEED_CHANGING_LAYER
SET_VELOCITY_LIMIT ACCEL=1000
SET_VELOCITY_LIMIT SQUARE_CORNER_VELOCITY=7
; printing object Corps3.stl id:0 copy 0
EXCLUDE_OBJECT_START NAME=Corps3.stl_id_0_copy_0
G1 Z.4 F24000
G1 X146.043 Y145.743
G1 Z.4
G1 Z.2
G1 E.5 F1800
M73 P4 R11
;TYPE:Inner wall
;WIDTH:0.499999
M73 P4 R11
G1 F3000
G1 X99.957 Y145.743 E1.66397
G1 X99.955 Y142.445 E.11908
G1 X99.893 Y141.653 E.02869
G1 X99.788 Y141.18 E.01746
G1 X100.031 Y141.602 E.01755
G1 X100.539 Y142.25 E.02974
G1 X101.082 Y142.754 E.02676
G1 X101.795 Y143.212 E.03062
G1 X102.589 Y143.541 E.031
G1 X103.417 Y143.719 E.03058
G1 X104.277 Y143.747 E.03106
G1 X105.114 Y143.622 E.03058
G1 X105.929 Y143.346 E.03105
G1 X106.669 Y142.935 E.03059
G1 X107.334 Y142.39 E.03103
G1 X107.882 Y141.745 E.03057
G1 X108.308 Y141.013 E.03058
G1 X108.6 Y140.203 E.03111
G1 X108.741 Y139.356 E.03099
G1 X108.73 Y138.523 E.03007
G1 X108.567 Y137.677 E.0311
G1 X108.254 Y136.877 E.03104
G1 X107.81 Y136.155 E.0306
G1 X107.235 Y135.516 E.03103
G1 X106.567 Y134.997 E.03055
G1 X105.816 Y134.606 E.03058
G1 X104.994 Y134.35 E.03105
G1 X104.153 Y134.248 E.03059
G1 X103.295 Y134.298 E.03104
G1 X102.472 Y134.498 E.0306
G1 X101.687 Y134.846 E.03101
G1 X100.998 Y135.314 E.03006
G1 X100.382 Y135.915 E.0311
G1 X99.885 Y136.617 E.03104
G1 X99.528 Y137.386 E.03059
G1 X99.31 Y138.217 E.03105
G1 X99.245 Y139.061 E.03055
G1 X99.335 Y139.903 E.03055
;WIDTH:0.496184
G1 X99.274 Y139.795 E.00443
;WIDTH:0.499999
G1 X98.824 Y139.073 E.03071
G1 X98.231 Y138.392 E.03261
G1 X97.538 Y137.812 E.03262
G1 X96.764 Y137.347 E.03261
G1 X95.926 Y137.01 E.0326
G1 X95.053 Y136.808 E.03236
G1 X94.201 Y136.743 E.03083
G1 X85.257 Y136.743 E.32294
G1 X85.257 Y128.528 E.2966
G1 X85.311 Y127.837 E.02505
G1 X85.467 Y127.19 E.02402
G1 X85.721 Y126.575 E.02403
G1 X86.069 Y126.007 E.02403
G1 X86.501 Y125.501 E.02403
G1 X87.007 Y125.069 E.02403
G1 X87.575 Y124.721 E.02403
G1 X88.19 Y124.467 E.02403
G1 X88.837 Y124.311 E.02403
G1 X89.528 Y124.257 E.02505
G1 X156.491 Y124.258 E2.41775
G1 X157.163 Y124.311 E.02434
G1 X157.81 Y124.467 E.02404
G1 X158.425 Y124.721 E.02403
G1 X158.993 Y125.069 E.02403
G1 X159.499 Y125.501 E.02403
G1 X159.931 Y126.007 E.02403
G1 X160.279 Y126.575 E.02403
G1 X160.533 Y127.19 E.02403
G1 X160.689 Y127.837 E.02403
G1 X160.743 Y128.703 E.03134
G1 X160.743 Y136.743 E.2903
G1 X151.768 Y136.743 E.32406
G1 X150.821 Y136.83 E.03431
G1 X149.972 Y137.043 E.03163
G1 X149.236 Y137.347 E.02874
G1 X148.375 Y137.875 E.03649
G1 X147.915 Y138.267 E.02182
G1 X147.474 Y138.725 E.02294
G1 X147.113 Y139.16 E.02043
G1 X146.698 Y139.839 E.02874
;WIDTH:0.497586
G1 X146.635 Y140.018 E.00682
;WIDTH:0.469296
G1 X146.571 Y140.197 E.00639
;WIDTH:0.470503
G1 X146.651 Y139.837 E.01246
;WIDTH:0.499999
G1 X146.73 Y139.477 E.01332
G1 X146.73 Y138.523 E.03444
G1 X146.6 Y137.797 E.02661
G1 X146.254 Y136.877 E.03552
G1 X145.882 Y136.255 E.02616
G1 X145.235 Y135.516 E.03547
G1 X144.567 Y134.997 E.03055
G1 X143.816 Y134.606 E.03058
G1 X142.994 Y134.35 E.03105
G1 X142.153 Y134.248 E.03059
G1 X141.295 Y134.298 E.03104
G1 X140.473 Y134.497 E.03056
G1 X139.698 Y134.84 E.03058
G1 X138.986 Y135.322 E.03106
G1 X138.382 Y135.915 E.03058
G1 X137.885 Y136.617 E.03104
G1 X137.528 Y137.386 E.03059
G1 X137.31 Y138.218 E.03105
G1 X137.245 Y139.061 E.03055
G1 X137.332 Y139.903 E.03057
G1 X137.571 Y140.73 E.03106
G1 X137.948 Y141.488 E.03058
G1 X138.463 Y142.177 E.03105
G1 X139.082 Y142.754 E.03055
G1 X139.794 Y143.212 E.03057
G1 X140.589 Y143.541 E.03106
G1 X141.417 Y143.719 E.03058
G1 X142.277 Y143.747 E.03106
G1 X143.114 Y143.622 E.03058
G1 X143.816 Y143.394 E.02662
G1 X144.669 Y142.935 E.03501
G1 X145.334 Y142.39 E.03103
G1 X145.811 Y141.844 E.02617
G1 X146.025 Y141.506 E.01446
G1 X146.272 Y141.035 E.01922
G1 X146.124 Y141.546 E.01924
G1 X146.043 Y142.499 E.03451
G1 X146.043 Y145.703 E.1157
G1 X146.5 Y146.2 F24000
;TYPE:Outer wall
G1 F3000
G1 X99.5 Y146.2 E1.69698
G1 X99.5 Y143.118 E.11128
G1 X99.484 Y142.284 E.03012
G1 X99.396 Y141.505 E.02829
G1 X99.198 Y140.758 E.02793
G1 X98.886 Y140.033 E.02849
G1 X98.476 Y139.37 E.02813
G1 X97.934 Y138.74 E.03003
G1 X97.3 Y138.202 E.03003
G1 X96.589 Y137.77 E.03003
G1 X95.819 Y137.454 E.03003
G1 X95.017 Y137.264 E.02979
G1 X94.201 Y137.2 E.02952
G1 X84.8 Y137.2 E.33945
G1 X84.8 Y128.51 E.31375
G1 X84.859 Y127.765 E.027
G1 X85.031 Y127.048 E.02662
G1 X85.313 Y126.367 E.02663
G1 X85.698 Y125.738 E.02662
G1 X86.177 Y125.177 E.02662
G1 X86.738 Y124.698 E.02662
G1 X87.367 Y124.313 E.02662
G1 X88.048 Y124.031 E.02662
G1 X88.765 Y123.859 E.02662
G1 X89.51 Y123.8 E.027
G1 X156.509 Y123.801 E2.41906
G1 X157.235 Y123.859 E.02629
M73 P5 R11
M73 P5 R11
G1 X157.952 Y124.031 E.02663
G1 X158.633 Y124.313 E.02662
G1 X159.262 Y124.698 E.02662
G1 X159.823 Y125.177 E.02663
G1 X160.302 Y125.738 E.02662
G1 X160.687 Y126.367 E.02662
G1 X160.969 Y127.048 E.02662
G1 X161.141 Y127.765 E.02662
G1 X161.2 Y128.703 E.03393
G1 X161.2 Y137.2 E.3068
G1 X151.789 Y137.2 E.3398
G1 X150.928 Y137.274 E.03119
G1 X150.016 Y137.519 E.0341
G1 X149.379 Y137.786 E.02493
G1 X148.789 Y138.147 E.02498
G1 X148.041 Y138.765 E.03504
G1 X147.503 Y139.399 E.03003
G1 X147.087 Y140.078 E.02874
G1 X146.755 Y140.879 E.03132
G1 X146.569 Y141.653 E.02874
G1 X146.5 Y142.499 E.03063
G1 X146.5 Y146.16 E.1322
G1 E-.5 F1800
;WIPE_START
G1 F12000
G1 X144.5 Y146.162
;WIPE_END
G1 Z.4 F24000
G1 X141.785 Y134.724 Z.4
G1 Z.2
G1 E.5 F1800
G1 F3000
G1 X142.174 Y134.704 E.01408
G1 X142.933 Y134.803 E.02763
G1 X143.674 Y135.04 E.0281
G1 X144.35 Y135.4 E.02763
G1 X144.951 Y135.873 E.02762
G1 X145.373 Y136.35 E.02299
G1 X145.729 Y136.888 E.0233
G1 X145.916 Y137.246 E.01458
G1 X146.139 Y137.838 E.02286
G1 X146.281 Y138.604 E.02811
G1 X146.284 Y139.356 E.02715
G1 X146.139 Y140.162 E.02957
G1 X145.88 Y140.852 E.02662
G1 X145.573 Y141.373 E.02182
G1 X144.96 Y142.118 E.03483
G1 X144.384 Y142.578 E.02661
G1 X143.674 Y142.96 E.02911
G1 X142.973 Y143.188 E.02662
G1 X142.215 Y143.294 E.02763
G1 X141.438 Y143.262 E.0281
G1 X140.691 Y143.095 E.02763
G1 X139.974 Y142.792 E.0281
G1 X139.334 Y142.373 E.02763
G1 X138.778 Y141.847 E.02762
G1 X138.318 Y141.22 E.0281
G1 X137.983 Y140.532 E.02763
G1 X137.773 Y139.782 E.02811
G1 X137.701 Y139.02 E.02762
G1 X137.765 Y138.258 E.02762
G1 X137.968 Y137.507 E.0281
G1 X138.297 Y136.816 E.02763
G1 X138.751 Y136.184 E.02809
G1 X139.302 Y135.653 E.02763
G1 X139.95 Y135.221 E.0281
G1 X140.652 Y134.917 E.02763
G1 X141.397 Y134.743 E.02762
G1 X141.745 Y134.726 E.01256
G1 E-.5 F1800
;WIPE_START
G1 F12000
G1 X142.174 Y134.704
G1 X142.933 Y134.803
G1 X143.674 Y135.04
G1 X143.698 Y135.053
;WIPE_END
G1 Z.4 F24000
G1 X146.571 Y140.197 Z.4
G1 Z.2
G1 E.5 F1800
;TYPE:Inner wall
;WIDTH:0.441006
G1 F3000
G1 X146.384 Y140.687 E.01648
;WIDTH:0.450966
G1 X146.272 Y141.035 E.01177
G1 E-.5 F1800
;WIPE_START
G1 F12000
G1 X146.384 Y140.687
G1 X146.571 Y140.197
;WIPE_END
G1 Z.4 F24000
G1 X106.48 Y135.503 Z.4
G1 Z.2
G1 E.5 F1800
;TYPE:Outer wall
;WIDTH:0.499999
G1 F3000
G1 X106.951 Y135.873 E.02163
G1 X107.466 Y136.456 E.02809
G1 X107.862 Y137.111 E.02764
G1 X108.139 Y137.838 E.02809
G1 X108.281 Y138.604 E.02811
G1 X108.284 Y139.356 E.02715
G1 X108.15 Y140.122 E.02807
G1 X107.88 Y140.852 E.02812
G1 X107.49 Y141.511 E.02763
G1 X106.99 Y142.09 E.02763
G1 X106.384 Y142.578 E.02808
G1 X105.712 Y142.944 E.02763
G1 X104.973 Y143.188 E.0281
G1 X104.215 Y143.294 E.02763
G1 X103.438 Y143.262 E.0281
G1 X102.691 Y143.095 E.02763
G1 X101.976 Y142.792 E.02804
G1 X101.334 Y142.373 E.02768
G1 X100.854 Y141.92 E.02382
G1 X100.4 Y141.333 E.02678
G1 X100.018 Y140.604 E.02973
G1 X99.782 Y139.817 E.02967
G1 X99.701 Y139.02 E.02891
G1 X99.765 Y138.258 E.02762
G1 X99.968 Y137.507 E.0281
G1 X100.297 Y136.816 E.02763
G1 X100.751 Y136.184 E.02809
G1 X101.313 Y135.645 E.02811
G1 X101.938 Y135.228 E.02715
G1 X102.652 Y134.918 E.02808
G1 X103.397 Y134.743 E.02764
G1 X104.174 Y134.704 E.02809
G1 X104.933 Y134.803 E.02763
G1 X105.674 Y135.04 E.0281
G1 X106.35 Y135.4 E.02763
G1 X106.449 Y135.478 E.00455
G1 E-.5 F1800
;WIPE_START
G1 F12000
G1 X106.951 Y135.873
G1 X107.466 Y136.456
G1 X107.768 Y136.955
;WIPE_END
G1 Z.4 F24000
G1 X99.638 Y140.759 Z.4
G1 Z.2
G1 E.5 F1800
;TYPE:Inner wall
;WIDTH:0.447178
G1 F3000
G1 X99.492 Y140.348 E.01393
;WIDTH:0.488956
G1 X99.347 Y139.937 E.01537
;WIDTH:0.494428
G1 X99.335 Y139.903 E.0013
G1 E-.5 F1800
;WIPE_START
G1 F12000
G1 X99.347 Y139.937
G1 X99.492 Y140.348
G1 X99.638 Y140.759
;WIPE_END
G1 Z.4 F24000
G1 X158.348 Y124.838
G1 Z.4
G1 Z.2
G1 E.5 F1800
;TYPE:Bottom surface
;WIDTH:0.502229
G1 F5878.396
G1 X159.259 Y125.749 E.04674
G1 X159.653 Y126.209 E.02197
G1 X159.972 Y126.731 E.02219
G1 X160.222 Y127.361 E.02459
G1 X157.639 Y124.778 E.13252
G1 X157.109 Y124.651 E.01977
G1 X156.841 Y124.63 E.00976
G1 X160.37 Y128.159 E.18108
G1 X160.4 Y128.542 E.01394
G1 X160.4 Y128.838 E.01076
G1 X156.162 Y124.601 E.21744
G1 X155.513 Y124.601 E.02357
G1 X160.4 Y129.488 E.25077
G1 X160.4 Y130.138 E.02357
G1 X154.863 Y124.601 E.2841
G1 X154.214 Y124.601 E.02357
G1 X160.4 Y130.787 E.31743
G1 X160.4 Y131.437 E.02357
G1 X153.564 Y124.601 E.35076
G1 X152.915 Y124.601 E.02357
M73 P6 R11
M73 P6 R11
G1 X160.4 Y132.086 E.38409
G1 X160.4 Y132.736 E.02357
G1 X152.265 Y124.601 E.41742
G1 X151.615 Y124.601 E.02357
G1 X160.4 Y133.385 E.45075
G1 X160.4 Y134.035 E.02357
G1 X150.966 Y124.601 E.48408
G1 X150.316 Y124.601 E.02357
G1 X160.4 Y134.684 E.51741
G1 X160.4 Y135.334 E.02357
G1 X149.667 Y124.601 E.55074
G1 X149.017 Y124.601 E.02357
G1 X160.4 Y135.984 E.58407
G1 X160.4 Y136.4 E.01511
G1 X160.167 Y136.4 E.00846
G1 X148.368 Y124.601 E.60544
G1 X147.718 Y124.601 E.02357
G1 X159.518 Y136.4 E.60544
G1 X158.868 Y136.4 E.02357
G1 X147.068 Y124.601 E.60544
G1 X146.419 Y124.601 E.02357
G1 X158.218 Y136.4 E.60544
G1 X157.569 Y136.4 E.02357
G1 X145.769 Y124.601 E.60544
G1 X145.12 Y124.601 E.02357
G1 X156.919 Y136.4 E.60544
G1 X156.27 Y136.4 E.02357
G1 X144.47 Y124.601 E.60544
G1 X143.821 Y124.601 E.02357
G1 X155.62 Y136.4 E.60545
G1 X154.971 Y136.4 E.02357
G1 X143.171 Y124.601 E.60545
G1 X142.521 Y124.6 E.02357
G1 X154.321 Y136.4 E.60545
G1 X153.671 Y136.4 E.02357
G1 X141.872 Y124.6 E.60545
G1 X141.222 Y124.6 E.02357
G1 X153.022 Y136.4 E.60545
G1 X152.372 Y136.4 E.02357
G1 X140.573 Y124.6 E.60545
G1 X139.923 Y124.6 E.02357
M73 P6 R10
M73 P6 R10
G1 X151.728 Y136.405 E.60572
G1 X151.127 Y136.454 E.02188
G1 X139.274 Y124.6 E.60821
G1 X138.624 Y124.6 E.02357
G1 X150.567 Y136.543 E.61278
G1 X150.047 Y136.673 E.01943
G1 X137.974 Y124.6 E.61946
G1 X137.325 Y124.6 E.02357
G1 X149.565 Y136.84 E.62804
G1 X149.105 Y137.03 E.01804
M73 P7 R10
M73 P7 R10
G1 X136.675 Y124.6 E.63779
G1 X136.026 Y124.6 E.02357
G1 X148.697 Y137.272 E.65018
G1 X148.291 Y137.515 E.01719
G1 X135.376 Y124.6 E.66264
G1 X134.727 Y124.6 E.02357
G1 X147.934 Y137.808 E.6777
G1 X147.58 Y138.103 E.01673
G1 X146.8 Y137.324 E.04
G1 X146.937 Y137.732 E.0156
G1 X147.019 Y138.192 E.01698
G1 X147.418 Y138.591 E.02047
G1 E-.5 F1800
;WIPE_START
G1 F12000
G1 X147.019 Y138.192
G1 X146.937 Y137.732
G1 X146.8 Y137.324
G1 X147.181 Y137.704
;WIPE_END
G1 Z.4 F24000
G1 X145.441 Y142.46 Z.4
G1 Z.2
G1 E.5 F1800
G1 F5878.396
G1 X145.7 Y142.719 E.0133
G1 X145.7 Y143.369 E.02357
G1 X145.245 Y142.914 E.02334
G1 X144.884 Y143.202 E.01677
G1 X145.7 Y144.018 E.04188
G1 X145.7 Y144.668 E.02357
G1 X144.474 Y143.442 E.06291
G1 X144.049 Y143.666 E.01744
G1 X145.7 Y145.317 E.08471
G1 X145.7 Y145.4 E.003
G1 X145.133 Y145.4 E.02056
G1 X143.565 Y143.832 E.08045
G1 X143.069 Y143.985 E.01886
G1 X144.484 Y145.4 E.07261
G1 X143.834 Y145.4 E.02357
G1 X142.497 Y144.063 E.06862
G1 X142.143 Y144.095 E.0129
G1 X141.867 Y144.082 E.01002
G1 X143.185 Y145.4 E.06761
G1 X142.535 Y145.4 E.02357
G1 X141.143 Y144.008 E.07142
G1 X140.508 Y143.874 E.02354
G1 X140.278 Y143.792 E.00888
G1 X142.091 Y145.606 E.09305
G1 E-.5 F1800
;WIPE_START
G1 F12000
G1 X140.677 Y144.192
;WIPE_END
G1 Z.4 F24000
G1 X144.028 Y134.552 Z.4
G1 Z.2
G1 E.5 F1800
G1 F5878.396
G1 X134.077 Y124.6 E.51061
G1 X133.427 Y124.6 E.02357
G1 X142.809 Y133.981 E.48135
G1 X142.189 Y133.904 E.02266
G1 X142.087 Y133.909 E.00371
G1 X132.778 Y124.6 E.47764
G1 X132.128 Y124.6 E.02357
G1 X141.47 Y133.942 E.47931
G1 X141.274 Y133.952 E.0071
G1 X140.913 Y134.034 E.01346
G1 X131.479 Y124.6 E.48406
G1 X130.829 Y124.6 E.02357
G1 X140.399 Y134.17 E.49102
G1 X139.937 Y134.358 E.01808
G1 X130.18 Y124.6 E.50067
G1 X129.53 Y124.6 E.02357
G1 X139.494 Y134.564 E.51124
G1 X139.104 Y134.824 E.017
G1 X128.88 Y124.6 E.52456
G1 X128.231 Y124.6 E.02357
G1 X138.729 Y135.099 E.53867
G1 X138.397 Y135.416 E.01667
G1 X127.581 Y124.6 E.55497
G1 X126.932 Y124.6 E.02357
G1 X138.082 Y135.751 E.57213
G1 X137.809 Y136.127 E.01687
G1 X126.282 Y124.6 E.59144
G1 X125.633 Y124.6 E.02357
G1 X137.554 Y136.522 E.61169
G1 X137.341 Y136.959 E.01763
G1 X124.983 Y124.6 E.63411
G1 X124.333 Y124.6 E.02357
M73 P8 R10
M73 P8 R10
G1 X137.161 Y137.428 E.65819
G1 X137.023 Y137.939 E.01921
G1 X123.684 Y124.6 E.68441
G1 X123.034 Y124.6 E.02357
G1 X136.942 Y138.508 E.71361
G1 X136.904 Y138.913 E.01477
G1 X136.907 Y139.123 E.00761
G1 X122.385 Y124.6 E.74516
G1 X121.735 Y124.6 E.02357
G1 X136.984 Y139.85 E.78245
G1 X136.999 Y139.985 E.00496
G1 X137.2 Y140.715 E.02745
G1 X121.086 Y124.6 E.82685
G1 X120.436 Y124.6 E.02357
G1 X141.236 Y145.4 E1.06725
G1 X140.586 Y145.4 E.02357
G1 X119.787 Y124.6 E1.06726
G1 X119.137 Y124.6 E.02357
G1 X139.937 Y145.4 E1.06726
G1 X139.287 Y145.4 E.02357
G1 X118.487 Y124.6 E1.06726
G1 X117.838 Y124.6 E.02357
G1 X138.638 Y145.4 E1.06726
G1 X137.988 Y145.4 E.02357
G1 X117.188 Y124.6 E1.06726
G1 X116.539 Y124.6 E.02357
