; HEADER_BLOCK_START
; generated by OrcaSlicer 2.0.0 on 2024-06-03 at 18:52:41
; total layer number: 15
; filament_density: 1.27
; filament_diameter: 1.75
; max_z_height: 3.00
; HEADER_BLOCK_END

; THUMBNAIL_BLOCK_START

;
; THUMBNAIL_BLOCK_END

; THUMBNAIL_BLOCK_START

;
; THUMBNAIL_BLOCK_END

; external perimeters extrusion width = 0.40mm
; perimeters extrusion width = 0.42mm
; infill extrusion width = 0.45mm
; solid infill extrusion width = 0.42mm
; top infill extrusion width = 0.40mm
; first layer extrusion width = 0.50mm

; EXECUTABLE_BLOCK_START
EXCLUDE_OBJECT_DEFINE NAME=Corps14.stl_id_0_copy_0 CENTER=115,115 POLYGON=[[11,65],[11.0407,64.4307],[11.162,63.8731],[11.3615,63.3383],[11.635,62.8374],[11.977,62.3806],[12.3806,61.977],[12.8374,61.635],[13.3383,61.3615],[13.8731,61.162],[14.4307,61.0407],[15,61],[215,61],[215.569,61.0407],[216.127,61.162],[216.662,61.3615],[217.163,61.635],[217.619,61.977],[218.023,62.3806],[218.365,62.8374],[218.639,63.3383],[218.838,63.8731],[218.959,64.4307],[219,65],[219,165],[218.959,165.569],[218.838,166.127],[218.639,166.662],[218.365,167.163],[218.023,167.619],[217.619,168.023],[217.163,168.365],[216.662,168.639],[216.127,168.838],[215.569,168.959],[215,169],[15,169],[14.4307,168.959],[13.8731,168.838],[13.3383,168.639],[12.8374,168.365],[12.3806,168.023],[11.977,167.619],[11.635,167.163],[11.3615,166.662],[11.162,166.127],[11.0407,165.569],[11,165],[11,65]]
M73 P0 R108
;TYPE:Custom
M220 S100
G90 ; use absolute coordinates
M83 ; extruder relative mode
M104 S150 ; set temporary nozzle temp to prevent oozing during homing
M140 S70 ; set final bed temp
G4 S30 ; allow partial nozzle warmup
G28 ; home all axis and restore leveling
BED_MESH_CALIBRATE PROFILE=adaptive ADAPTIVE=1 ADAPTIVE_MARGIN=0
G1 Z25 F240
G1 X10.0 Y30 F3000
M104 S245 ; set final nozzle temp
M190 S70 ; wait for bed temp to stabilize
M109 S245 ; wait for nozzle temp to stabilize
G1 Z0.28 F240
G92 E0 ; Move Z Axis up
G1 Z2.0 F5000 ; Move to start position
M73 P0 R107
G1 X5 Y30 Z0.28 F300 ; Draw the first line
G1 X5 Y200 Z0.28 F1500 E15 ; Move to side a little
G1 X5.4 Y200 Z0.28 F5000.0 ; Draw the second line
G1 X5.4 Y50 Z0.28 F1500.0 E30 ; Reset Extruder
G92 E0 ; Move Z Axis up
G1 Z2.0 F3000
M117 Start Printing..
G90
G21
M83 ; use relative distances for extrusion
; filament start gcode
M106 S0
;LAYER_CHANGE
;Z:0.2
;HEIGHT:0.2
;BEFORE_LAYER_CHANGE
;0.2
G92 E0

G1 E-.5 F2400
;_SET_FAN_SPEED_CHANGING_LAYER
SET_VELOCITY_LIMIT ACCEL=500 ACCEL_TO_DECEL=250
SET_VELOCITY_LIMIT SQUARE_CORNER_VELOCITY=7
; printing object Corps14.stl id:0 copy 0
EXCLUDE_OBJECT_START NAME=Corps14.stl_id_0_copy_0
G1 Z.2 F18000
G1 X223.52 Y81.765
G1 Z.2
G1 E.5 F2400
;TYPE:Inner wall
;WIDTH:0.499999
G1 F1800
G1 X224.145 Y81.933 E.02461
G1 X224.775 Y82.239 E.02659
G1 X225.315 Y82.685 E.02665
G1 X225.761 Y83.225 E.02663
G1 X226.068 Y83.856 E.02664
G1 X226.249 Y84.533 E.02663
G1 X226.284 Y85.147 E.02339
G1 X226.284 Y185.123 E3.79972
G1 X226.149 Y185.925 E.03088
G1 X225.874 Y186.569 E.02664
G1 X225.481 Y187.149 E.02664
G1 X224.962 Y187.621 E.02664
G1 X224.364 Y187.986 E.02664
G1 X223.696 Y188.199 E.02664
G1 X222.975 Y188.284 E.0276
G1 X22.876 Y188.284 E7.60499
G1 X22.075 Y188.149 E.03088
G1 X21.431 Y187.874 E.02664
G1 X20.851 Y187.481 E.02664
G1 X20.379 Y186.962 E.02664
G1 X20.014 Y186.364 E.02664
G1 X19.801 Y185.696 E.02664
G1 X19.716 Y184.975 E.0276
G1 X19.716 Y84.876 E3.80436
G1 X19.851 Y84.075 E.03088
G1 X20.126 Y83.431 E.02664
G1 X20.519 Y82.851 E.02664
G1 X21.038 Y82.379 E.02664
G1 X21.636 Y82.014 E.02664
G1 X22.304 Y81.801 E.02664
G1 X23.025 Y81.716 E.0276
G1 X222.864 Y81.727 E7.59514
G1 X223.467 Y81.751 E.02292
G1 X223.481 Y81.755 E.00056
G1 X223.649 Y81.323 F18000
;TYPE:Outer wall
G1 F1800
G1 X224.054 Y81.411 E.01573
G1 X224.554 Y81.597 E.02029
G1 X225.022 Y81.853 E.02028
G1 X225.45 Y82.173 E.02028
G1 X225.827 Y82.55 E.02028
G1 X226.147 Y82.978 E.02028
G1 X226.403 Y83.446 E.02028
G1 X226.589 Y83.946 E.02028
G1 X226.703 Y84.468 E.02028
G1 X226.741 Y85.147 E.02588
G1 X226.741 Y184.991 E3.79469
G1 X226.703 Y185.532 E.02062
G1 X226.589 Y186.054 E.02028
G1 X226.403 Y186.554 E.02028
G1 X226.147 Y187.022 E.02028
G1 X225.827 Y187.45 E.02028
G1 X225.45 Y187.827 E.02028
G1 X225.022 Y188.147 E.02028
G1 X224.554 Y188.403 E.02028
G1 X224.054 Y188.589 E.02028
G1 X223.532 Y188.703 E.02028
G1 X222.991 Y188.741 E.02062
G1 X23.009 Y188.741 E7.60058
G1 X22.468 Y188.703 E.02062
G1 X21.946 Y188.589 E.02028
G1 X21.446 Y188.403 E.02028
G1 X20.978 Y188.147 E.02028
G1 X20.55 Y187.827 E.02028
G1 X20.173 Y187.45 E.02028
G1 X19.853 Y187.022 E.02028
G1 X19.597 Y186.554 E.02028
G1 X19.411 Y186.054 E.02028
G1 X19.297 Y185.532 E.02028
G1 X19.259 Y184.991 E.02062
G1 X19.259 Y85.009 E3.79995
G1 X19.297 Y84.468 E.02062
G1 X19.411 Y83.946 E.02028
G1 X19.597 Y83.446 E.02028
G1 X19.853 Y82.978 E.02028
G1 X20.173 Y82.55 E.02028
G1 X20.55 Y82.173 E.02028
G1 X20.978 Y81.853 E.02028
G1 X21.446 Y81.597 E.02028
G1 X21.946 Y81.411 E.02028
G1 X22.468 Y81.297 E.02028
G1 X23.009 Y81.259 E.02062
G1 X223.027 Y81.27 E7.60196
G1 X223.532 Y81.297 E.01922
M73 P1 R106
G1 X223.61 Y81.314 E.00303
G1 E-.35 F2400
;WIPE_START
G1 F1800
G1 X224.054 Y81.411 E-.06808
G1 X224.554 Y81.597 E-.08006
G1 X224.565 Y81.603 E-.00186
;WIPE_END
G1 Z.4 F18000
G1 X215.637 Y88.627 Z.4
G1 Z.2
G1 E.5 F2400
;TYPE:Inner wall
G1 F1800
G1 X215.716 Y88.608 E.0031
G1 X216.18 Y88.577 E.01767
G1 X216.69 Y88.629 E.01948
G1 X217.159 Y88.765 E.01859
G1 X217.598 Y88.981 E.01858
G1 X217.993 Y89.27 E.01858
G1 X218.331 Y89.623 E.01858
G1 X218.603 Y90.03 E.01858
G1 X218.791 Y90.455 E.01767
G1 X218.916 Y90.952 E.01948
G1 X218.949 Y91.44 E.01859
G1 X218.896 Y91.926 E.01858
G1 X218.759 Y92.395 E.01859
G1 X218.543 Y92.834 E.01858
G1 X218.254 Y93.229 E.01858
G1 X217.919 Y93.551 E.01767
G1 X217.495 Y93.839 E.01948
G1 X217.047 Y94.036 E.01859
G1 X216.572 Y94.152 E.01858
G1 X216.084 Y94.185 E.01858
G1 X215.598 Y94.132 E.01858
G1 X215.129 Y93.995 E.01859
G1 X214.69 Y93.779 E.01858
G1 X214.296 Y93.49 E.01858
G1 X213.957 Y93.137 E.01858
G1 X213.664 Y92.684 E.02052
G1 X213.488 Y92.283 E.01663
G1 X213.372 Y91.808 E.01858
G1 X213.34 Y91.32 E.01858
G1 X213.393 Y90.834 E.01859
G1 X213.529 Y90.365 E.01858
G1 X213.745 Y89.926 E.01858
G1 X214.034 Y89.532 E.01858
G1 X214.387 Y89.193 E.01858
G1 X214.794 Y88.921 E.01858
G1 X215.241 Y88.724 E.01858
G1 X215.598 Y88.637 E.01397
G1 X215.744 Y89.066 F18000
;TYPE:Outer wall
G1 F1800
G1 X215.756 Y89.063 E.00046
G1 X216.144 Y89.032 E.01479
G1 X216.572 Y89.07 E.01632
G1 X216.966 Y89.179 E.01557
G1 X217.336 Y89.356 E.01556
G1 X217.669 Y89.593 E.01556
G1 X217.957 Y89.885 E.01556
G1 X218.189 Y90.223 E.01556
G1 X218.35 Y90.577 E.01479
G1 X218.461 Y90.992 E.01632
G1 X218.493 Y91.4 E.01557
G1 X218.454 Y91.808 E.01556
G1 X218.345 Y92.202 E.01556
G1 X218.169 Y92.572 E.01556
G1 X217.931 Y92.905 E.01556
G1 X217.653 Y93.178 E.01479
G1 X217.302 Y93.425 E.01632
G1 X216.929 Y93.594 E.01557
G1 X216.532 Y93.697 E.01556
G1 X216.124 Y93.729 E.01556
G1 X215.717 Y93.69 E.01556
G1 X215.322 Y93.581 E.01556
G1 X214.952 Y93.405 E.01556
G1 X214.619 Y93.167 E.01556
G1 X214.332 Y92.875 E.01556
G1 X214.078 Y92.491 E.01749
G1 X213.93 Y92.165 E.01361
G1 X213.827 Y91.768 E.01556
G1 X213.795 Y91.36 E.01556
G1 X213.834 Y90.953 E.01556
G1 X213.943 Y90.558 E.01556
G1 X214.12 Y90.188 E.01556
G1 X214.357 Y89.855 E.01556
G1 X214.649 Y89.568 E.01556
G1 X214.987 Y89.336 E.01556
G1 X215.359 Y89.166 E.01556
G1 X215.705 Y89.076 E.01358
G1 E-.35 F2400
;WIPE_START
G1 F1800
G1 X215.756 Y89.063 E-.00782
G1 X216.144 Y89.032 E-.05839
G1 X216.572 Y89.07 E-.06441
G1 X216.696 Y89.105 E-.01938
;WIPE_END
G1 Z.4 F18000
G1 X152.579 Y146.552 Z.4
G1 Z.2
G1 E.5 F2400
;TYPE:Inner wall
G1 F1800
G1 X152.476 Y146.488 E.00458
G1 X152.327 Y146.233 E.01123
G1 X152.293 Y146.021 E.00816
G1 X152.293 Y99.979 E1.74992
G1 X152.356 Y99.692 E.01113
G1 X152.519 Y99.47 E.0105
G1 X152.751 Y99.332 E.01025
G1 X152.979 Y99.293 E.00878
G1 X198.022 Y99.293 E1.71192
G1 X198.302 Y99.353 E.01092
G1 X198.552 Y99.544 E.01193
G1 X198.691 Y99.832 E.01216
G1 X198.707 Y100.854 E.03885
G1 X198.707 Y146.021 E1.71665
G1 X198.665 Y146.259 E.00918
G1 X198.509 Y146.503 E.01099
G1 X198.209 Y146.681 E.01327
G1 X198.021 Y146.707 E.00719
G1 X152.979 Y146.707 E1.71191
G1 X152.783 Y146.679 E.00749
G1 X152.613 Y146.573 E.00764
G1 X152.811 Y146.177 F18000
;TYPE:Outer wall
G1 F1800
G1 X152.75 Y146.021 E.00635
G1 X152.75 Y99.979 E1.74992
G1 X152.813 Y99.821 E.00647
G1 X152.979 Y99.75 E.00683
G1 X198.021 Y99.75 E1.71191
G1 X198.185 Y99.818 E.00672
G1 X198.25 Y99.979 E.00658
G1 X198.25 Y146.021 E1.74992
G1 X198.184 Y146.182 E.0066
G1 X198.021 Y146.25 E.0067
G1 X152.979 Y146.25 E1.71191
G1 X152.848 Y146.193 E.00542
G1 E-.35 F2400
;WIPE_START
G1 F1800
G1 X152.75 Y146.021 E-.02962
G1 X152.75 Y145.219 E-.12038
;WIPE_END
G1 Z.4 F18000
G1 X127.305 Y157.006 Z.4
G1 Z.2
G1 E.5 F2400
;TYPE:Inner wall
G1 F1800
G1 X127.293 Y156.921 E.00323
G1 X127.293 Y151.979 E.18786
G1 X127.354 Y151.695 E.01104
G1 X127.515 Y151.473 E.01041
G1 X127.743 Y151.335 E.01011
G1 X127.979 Y151.293 E.00911
G1 X203.001 Y151.293 E2.85132
G1 X203.607 Y151.34 E.02311
G1 X204.355 Y151.494 E.02902
G1 X205.019 Y151.75 E.02705
G1 X205.521 Y152.035 E.02195
G1 X206.218 Y152.568 E.03334
G1 X206.681 Y153.069 E.02592
G1 X207.08 Y153.657 E.027
G1 X207.387 Y154.3 E.02707
G1 X207.6 Y155.011 E.02823
G1 X207.697 Y155.719 E.02716
G1 X207.689 Y156.38 E.02513
G1 X207.587 Y157.034 E.02515
G1 X207.472 Y157.315 E.01155
G1 X207.266 Y157.508 E.01071
G1 X206.968 Y157.605 E.01188
G1 X127.979 Y157.607 E3.00211
G1 X127.743 Y157.565 E.00911
G1 X127.471 Y157.383 E.01242
G1 X127.322 Y157.12 E.01147
G1 X127.311 Y157.045 E.00289
G1 E-.35 F2400
;WIPE_START
G1 F1800
G1 X127.293 Y156.921 E-.01875
G1 X127.293 Y156.046 E-.13125
;WIPE_END
G1 Z.4 F18000
G1 X38.097 Y157.161 Z.4
G1 Z.2
G1 E.5 F2400
G1 F1800
G1 X38.066 Y157.098 E.00268
G1 X37.965 Y156.545 E.02133
G1 X37.937 Y155.835 E.02703
G1 X38.024 Y155.086 E.02866
G1 X38.205 Y154.426 E.026
G1 X38.492 Y153.777 E.02699
G1 X38.894 Y153.152 E.02822
G1 X39.368 Y152.617 E.02717
G1 X39.892 Y152.18 E.02593
G1 X40.523 Y151.797 E.02807
G1 X41.185 Y151.525 E.0272
G1 X41.849 Y151.363 E.02596
G1 X42.607 Y151.293 E.02892
G1 X118.021 Y151.293 E2.86624
G1 X118.307 Y151.355 E.01112
G1 X118.529 Y151.517 E.01042
G1 X118.678 Y151.78 E.01147
G1 X118.707 Y151.979 E.00764
G1 X118.707 Y156.921 E.18786
G1 X118.646 Y157.205 E.01104
G1 X118.568 Y157.336 E.00577
G1 X118.352 Y157.522 E.01085
G1 X118.113 Y157.607 E.00961
G1 X38.728 Y157.607 E3.01713
G1 X38.425 Y157.536 E.01185
G1 X38.183 Y157.337 E.01189
G1 X38.115 Y157.197 E.00594
G1 X38.503 Y156.962 F18000
;TYPE:Outer wall
G1 F1800
G1 X38.415 Y156.464 E.0192
G1 X38.393 Y155.821 E.02446
G1 X38.477 Y155.144 E.02596
G1 X38.644 Y154.552 E.02337
G1 X38.908 Y153.966 E.02442
G1 X39.275 Y153.403 E.02555
G1 X39.706 Y152.925 E.02448
G1 X40.181 Y152.535 E.02334
G1 X40.757 Y152.19 E.0255
G1 X41.354 Y151.949 E.02449
G1 X41.952 Y151.808 E.02335
G1 X42.628 Y151.75 E.02578
G1 X118.021 Y151.75 E2.86543
G1 X118.183 Y151.817 E.00667
G1 X118.25 Y151.979 E.00663
G1 X118.25 Y156.921 E.18786
G1 X118.204 Y157.06 E.00554
G1 X118.057 Y157.15 E.00656
G1 X38.728 Y157.15 E3.01497
G1 X38.568 Y157.084 E.0066
G1 X38.522 Y156.997 E.00374
G1 E-.35 F2400
;WIPE_START
G1 F1800
G1 X38.415 Y156.464 E-.0815
G1 X38.4 Y156.008 E-.0685
;WIPE_END
G1 Z.4 F18000
G1 X207.646 Y170.617 Z.4
G1 Z.2
G1 E.5 F2400
;TYPE:Inner wall
G1 F1800
G1 X207.606 Y170.919 E.01157
G1 X207.518 Y171.239 E.01262
G1 X207.335 Y171.46 E.01091
G1 X207.077 Y171.586 E.0109
G1 X205.953 Y171.607 E.04273
G1 X127.979 Y171.607 E2.96353
G1 X127.679 Y171.538 E.01168
G1 X127.453 Y171.362 E.01091
G1 X127.328 Y171.139 E.00969
G1 X127.293 Y170.921 E.00839
G1 X127.293 Y165.979 E.18786
G1 X127.354 Y165.695 E.01104
G1 X127.432 Y165.564 E.00577
G1 X127.648 Y165.378 E.01085
G1 X127.927 Y165.293 E.01109
G1 X203.001 Y165.293 E2.85326
G1 X203.691 Y165.347 E.02631
G1 X204.355 Y165.494 E.02584
G1 X205.019 Y165.75 E.02705
G1 X205.637 Y166.103 E.02707
G1 X206.218 Y166.568 E.02827
G1 X206.681 Y167.069 E.02592
G1 X207.08 Y167.657 E.027
G1 X207.387 Y168.3 E.02707
G1 X207.6 Y169.011 E.02823
G1 X207.687 Y169.642 E.02422
G1 X207.691 Y170.277 E.02412
G1 X207.651 Y170.577 E.01152
G1 X207.194 Y170.557 F18000
;TYPE:Outer wall
G1 F1800
G1 X207.155 Y170.843 E.011
G1 X207.079 Y171.075 E.00927
G1 X206.931 Y171.149 E.00631
G1 X127.979 Y171.15 E3.00068
G1 X127.817 Y171.083 E.00663
G1 X127.75 Y170.921 E.00667
G1 X127.75 Y165.979 E.18786
G1 X127.796 Y165.84 E.00554
G1 X127.943 Y165.75 E.00656
G1 X203.001 Y165.75 E2.85265
G1 X203.654 Y165.803 E.02489
G1 X204.252 Y165.939 E.02331
G1 X204.85 Y166.174 E.02444
G1 X205.406 Y166.498 E.02445
G1 X205.928 Y166.922 E.02556
G1 X206.342 Y167.376 E.02334
G1 X206.699 Y167.91 E.02442
G1 X206.972 Y168.492 E.02444
G1 X207.161 Y169.137 E.02555
G1 X207.234 Y169.699 E.02153
G1 X207.234 Y170.266 E.02154
G1 X207.2 Y170.517 E.00964
G1 E-.35 F2400
;WIPE_START
G1 F1800
G1 X207.155 Y170.843 E-.04939
G1 X207.079 Y171.075 E-.03657
G1 X206.931 Y171.149 E-.0249
G1 X206.67 Y171.149 E-.03913
;WIPE_END
G1 Z.4 F18000
G1 X127.75 Y156.94 Z.4
G1 Z.2
G1 E.5 F2400
G1 F1800
G1 X127.75 Y151.979 E.18855
G1 X127.809 Y151.825 E.00627
G1 X127.96 Y151.75 E.0064
G1 X148.021 Y151.75 E.76245
G1 X203.001 Y151.75 E2.08956
G1 X203.57 Y151.796 E.02168
G1 X204.252 Y151.939 E.02649
G1 X204.85 Y152.174 E.02444
G1 X205.29 Y152.429 E.01932
G1 X205.928 Y152.922 E.03064
G1 X206.342 Y153.376 E.02334
G1 X206.699 Y153.91 E.02442
G1 X206.972 Y154.492 E.02444
G1 X207.161 Y155.137 E.02555
G1 X207.243 Y155.776 E.02447
G1 X207.232 Y156.369 E.02256
G1 X207.136 Y156.959 E.0227
G1 X207.042 Y157.108 E.00669
G1 X206.91 Y157.15 E.00526
G1 X127.979 Y157.15 E2.9999
G1 X127.824 Y157.09 E.0063
G1 X127.768 Y156.975 E.00485
G1 E-.35 F2400
;WIPE_START
G1 F1800
G1 X127.764 Y155.975 E-.15
;WIPE_END
G1 Z.4 F18000
G1 X127.316 Y143.025 Z.4
G1 Z.2
G1 E.5 F2400
;TYPE:Inner wall
G1 F1800
G1 X127.293 Y142.888 E.00525
G1 X127.293 Y137.979 E.1866
G1 X127.354 Y137.695 E.01104
G1 X127.515 Y137.473 E.01041
G1 X127.881 Y137.293 E.01549
G1 X148.021 Y137.293 E.76546
G1 X148.336 Y137.369 E.01231
G1 X148.591 Y137.596 E.01297
G1 X148.676 Y137.774 E.0075
G1 X148.707 Y137.979 E.00784
G1 X148.707 Y142.921 E.18786
G1 X148.674 Y143.131 E.00805
G1 X148.585 Y143.312 E.00768
G1 X148.322 Y143.538 E.01319
G1 X148.021 Y143.607 E.01171
G1 X127.979 Y143.607 E.76176
G1 X127.743 Y143.565 E.00911
G1 X127.471 Y143.383 E.01242
G1 X127.34 Y143.172 E.00945
G1 X127.322 Y143.064 E.00415
G1 X127.752 Y142.952 F18000
;TYPE:Outer wall
G1 F1800
G1 X127.75 Y137.979 E.18901
G1 X127.809 Y137.825 E.00627
G1 X127.979 Y137.75 E.00703
G1 X148.021 Y137.75 E.76176
G1 X148.171 Y137.806 E.00607
G1 X148.25 Y137.979 E.00722
G1 X148.25 Y142.921 E.18786
G1 X148.209 Y143.052 E.00518
G1 X148.05 Y143.15 E.00713
G1 X127.979 Y143.15 E.76282
G1 X127.824 Y143.09 E.0063
G1 X127.771 Y142.987 E.0044
G1 E-.35 F2400
;WIPE_START
G1 F1800
G1 X127.766 Y141.987 E-.15
;WIPE_END
G1 Z.4 F18000
G1 X148.697 Y128.989 Z.4
G1 Z.2
M73 P1 R105
G1 E.5 F2400
;TYPE:Inner wall
G1 F1800
G1 X148.676 Y129.126 E.00523
G1 X148.591 Y129.304 E.0075
G1 X148.336 Y129.531 E.01297
G1 X148.021 Y129.607 E.01231
G1 X127.979 Y129.607 E.76176
G1 X127.743 Y129.565 E.00911
M73 P2 R105
G1 X127.471 Y129.383 E.01242
G1 X127.322 Y129.12 E.01147
G1 X127.293 Y128.99 E.00508
G1 X127.293 Y123.979 E.19047
G1 X127.354 Y123.695 E.01104
G1 X127.515 Y123.473 E.01041
G1 X127.743 Y123.335 E.01011
G1 X127.979 Y123.293 E.00911
G1 X148.021 Y123.293 E.76176
G1 X148.336 Y123.369 E.01231
G1 X148.591 Y123.596 E.01297
G1 X148.676 Y123.774 E.0075
G1 X148.707 Y123.979 E.00784
G1 X148.707 Y128.921 E.18786
G1 X148.703 Y128.95 E.00109
G1 X148.25 Y128.921 F18000
;TYPE:Outer wall
G1 F1800
G1 X148.211 Y129.049 E.00506
G1 X148.071 Y129.15 E.00658
G1 X127.979 Y129.15 E.76363
G1 X127.824 Y129.09 E.0063
G1 X127.75 Y128.944 E.00621
G1 X127.75 Y123.979 E.18873
G1 X127.809 Y123.825 E.00627
G1 X127.96 Y123.75 E.0064
G1 X148.021 Y123.75 E.76245
G1 X148.171 Y123.806 E.00607
