; HEADER_BLOCK_START
; generated by OrcaSlicer 2.1.1 on 2024-07-27 at 16:40:59
; total layer number: 25
; filament_density: 1.24
; filament_diameter: 1.75
; max_z_height: 5.00
; HEADER_BLOCK_END

; THUMBNAIL_BLOCK_START

;
; THUMBNAIL_BLOCK_END

; THUMBNAIL_BLOCK_START

;
; THUMBNAIL_BLOCK_END

; external perimeters extrusion width = 0.42mm
; perimeters extrusion width = 0.45mm
; infill extrusion width = 0.45mm
; solid infill extrusion width = 0.45mm
; top infill extrusion width = 0.42mm
; first layer extrusion width = 0.50mm

; external perimeters extrusion width = 0.42mm
; perimeters extrusion width = 0.45mm
; infill extrusion width = 0.45mm
; solid infill extrusion width = 0.45mm
; top infill extrusion width = 0.42mm
; first layer extrusion width = 0.50mm

; external perimeters extrusion width = 0.42mm
; perimeters extrusion width = 0.45mm
; infill extrusion width = 0.45mm
; solid infill extrusion width = 0.45mm
; top infill extrusion width = 0.42mm
; first layer extrusion width = 0.50mm

; external perimeters extrusion width = 0.42mm
; perimeters extrusion width = 0.45mm
; infill extrusion width = 0.45mm
; solid infill extrusion width = 0.45mm
; top infill extrusion width = 0.42mm
; first layer extrusion width = 0.50mm

; EXECUTABLE_BLOCK_START
EXCLUDE_OBJECT_DEFINE NAME=Corps2.stl_id_0_copy_0 CENTER=130.048,130.048 POLYGON=[[116,125.199],[116.014,124.996],[116.044,124.795],[116.09,124.596],[116.152,124.402],[116.23,124.214],[116.323,124.033],[116.431,123.86],[116.552,123.696],[116.686,123.543],[123.543,116.686],[123.696,116.552],[123.86,116.431],[124.033,116.323],[124.214,116.23],[124.402,116.152],[124.596,116.09],[124.795,116.044],[124.996,116.014],[125.199,116],[134.896,116],[135.099,116.014],[135.301,116.044],[135.499,116.09],[135.693,116.152],[135.881,116.23],[136.062,116.323],[136.236,116.431],[136.399,116.552],[136.553,116.686],[143.409,123.543],[143.543,123.696],[143.664,123.86],[143.772,124.033],[143.865,124.214],[143.943,124.402],[144.005,124.596],[144.052,124.795],[144.082,124.996],[144.095,125.199],[144.095,134.896],[144.082,135.099],[144.052,135.301],[144.005,135.499],[143.943,135.693],[143.865,135.881],[143.772,136.062],[143.664,136.236],[143.543,136.399],[143.409,136.553],[136.553,143.409],[136.399,143.543],[136.236,143.664],[136.062,143.772],[135.881,143.865],[135.693,143.943],[135.499,144.005],[135.301,144.052],[135.099,144.082],[134.896,144.095],[125.199,144.095],[124.996,144.082],[124.795,144.052],[124.596,144.005],[124.402,143.943],[124.214,143.865],[124.033,143.772],[123.86,143.664],[123.696,143.543],[123.543,143.409],[116.686,136.553],[116.552,136.399],[116.431,136.236],[116.323,136.062],[116.23,135.881],[116.152,135.693],[116.09,135.499],[116.044,135.301],[116.014,135.099],[116,134.896],[116,125.199]]
EXCLUDE_OBJECT_DEFINE NAME=Corps2.stl_id_1_copy_0 CENTER=130.048,99.9523 POLYGON=[[116,95.1041],[116.014,94.9008],[116.044,94.6993],[116.09,94.5009],[116.152,94.307],[116.23,94.1188],[116.323,93.9375],[116.431,93.7645],[116.552,93.6007],[116.686,93.4474],[123.543,86.5909],[123.696,86.4568],[123.86,86.3355],[124.033,86.2281],[124.214,86.135],[124.402,86.0571],[124.596,85.9947],[124.795,85.9483],[124.996,85.9183],[125.199,85.9047],[134.896,85.9047],[135.099,85.9183],[135.301,85.9483],[135.499,85.9947],[135.693,86.0571],[135.881,86.135],[136.062,86.2281],[136.236,86.3355],[136.399,86.4568],[136.553,86.5909],[143.409,93.4474],[143.543,93.6007],[143.664,93.7645],[143.772,93.9375],[143.865,94.1188],[143.943,94.307],[144.005,94.5009],[144.052,94.6993],[144.082,94.9008],[144.095,95.1041],[144.095,104.801],[144.082,105.004],[144.052,105.205],[144.005,105.404],[143.943,105.598],[143.865,105.786],[143.772,105.967],[143.664,106.14],[143.543,106.304],[143.409,106.457],[136.553,113.314],[136.399,113.448],[136.236,113.569],[136.062,113.677],[135.881,113.77],[135.693,113.848],[135.499,113.91],[135.301,113.956],[135.099,113.986],[134.896,114],[125.199,114],[124.996,113.986],[124.795,113.956],[124.596,113.91],[124.402,113.848],[124.214,113.77],[124.033,113.677],[123.86,113.569],[123.696,113.448],[123.543,113.314],[116.686,106.457],[116.552,106.304],[116.431,106.14],[116.323,105.967],[116.23,105.786],[116.152,105.598],[116.09,105.404],[116.044,105.205],[116.014,105.004],[116,104.801],[116,95.1041]]
EXCLUDE_OBJECT_DEFINE NAME=Corps2.stl_id_2_copy_0 CENTER=99.9523,130.048 POLYGON=[[85.9047,125.199],[85.9183,124.996],[85.9483,124.795],[85.9947,124.596],[86.0571,124.402],[86.135,124.214],[86.2281,124.033],[86.3355,123.86],[86.4568,123.696],[86.5909,123.543],[93.4474,116.686],[93.6007,116.552],[93.7645,116.431],[93.9375,116.323],[94.1188,116.23],[94.307,116.152],[94.5009,116.09],[94.6993,116.044],[94.9008,116.014],[95.1041,116],[104.801,116],[105.004,116.014],[105.205,116.044],[105.404,116.09],[105.598,116.152],[105.786,116.23],[105.967,116.323],[106.14,116.431],[106.304,116.552],[106.457,116.686],[113.314,123.543],[113.448,123.696],[113.569,123.86],[113.677,124.033],[113.77,124.214],[113.848,124.402],[113.91,124.596],[113.956,124.795],[113.986,124.996],[114,125.199],[114,134.896],[113.986,135.099],[113.956,135.301],[113.91,135.499],[113.848,135.693],[113.77,135.881],[113.677,136.062],[113.569,136.236],[113.448,136.399],[113.314,136.553],[106.457,143.409],[106.304,143.543],[106.14,143.664],[105.967,143.772],[105.786,143.865],[105.598,143.943],[105.404,144.005],[105.205,144.052],[105.004,144.082],[104.801,144.095],[95.1041,144.095],[94.9008,144.082],[94.6993,144.052],[94.5009,144.005],[94.307,143.943],[94.1188,143.865],[93.9375,143.772],[93.7645,143.664],[93.6007,143.543],[93.4474,143.409],[86.5909,136.553],[86.4568,136.399],[86.3355,136.236],[86.2281,136.062],[86.135,135.881],[86.0571,135.693],[85.9947,135.499],[85.9483,135.301],[85.9183,135.099],[85.9047,134.896],[85.9047,125.199]]
EXCLUDE_OBJECT_DEFINE NAME=Corps2.stl_id_3_copy_0 CENTER=99.9523,99.9523 POLYGON=[[85.9047,95.1041],[85.9183,94.9008],[85.9483,94.6993],[85.9947,94.5009],[86.0571,94.307],[86.135,94.1188],[86.2281,93.9375],[86.3355,93.7645],[86.4568,93.6007],[86.5909,93.4474],[93.4474,86.5909],[93.6007,86.4568],[93.7645,86.3355],[93.9375,86.2281],[94.1188,86.135],[94.307,86.0571],[94.5009,85.9947],[94.6993,85.9483],[94.9008,85.9183],[95.1041,85.9047],[104.801,85.9047],[105.004,85.9183],[105.205,85.9483],[105.404,85.9947],[105.598,86.0571],[105.786,86.135],[105.967,86.2281],[106.14,86.3355],[106.304,86.4568],[106.457,86.5909],[113.314,93.4474],[113.448,93.6007],[113.569,93.7645],[113.677,93.9375],[113.77,94.1188],[113.848,94.307],[113.91,94.5009],[113.956,94.6993],[113.986,94.9008],[114,95.1041],[114,104.801],[113.986,105.004],[113.956,105.205],[113.91,105.404],[113.848,105.598],[113.77,105.786],[113.677,105.967],[113.569,106.14],[113.448,106.304],[113.314,106.457],[106.457,113.314],[106.304,113.448],[106.14,113.569],[105.967,113.677],[105.786,113.77],[105.598,113.848],[105.404,113.91],[105.205,113.956],[105.004,113.986],[104.801,114],[95.1041,114],[94.9008,113.986],[94.6993,113.956],[94.5009,113.91],[94.307,113.848],[94.1188,113.77],[93.9375,113.677],[93.7645,113.569],[93.6007,113.448],[93.4474,113.314],[86.5909,106.457],[86.4568,106.304],[86.3355,106.14],[86.2281,105.967],[86.135,105.786],[86.0571,105.598],[85.9947,105.404],[85.9483,105.205],[85.9183,105.004],[85.9047,104.801],[85.9047,95.1041]]
M73 P0 R26
;TYPE:Custom
M220 S100
G90 ; use absolute coordinates
M83 ; extruder relative mode
M104 S150 ; set temporary nozzle temp to prevent oozing during homing
M140 S55 ; set final bed temp
G4 S30 ; allow partial nozzle warmup
G28 ; home all axis and restore leveling
BED_MESH_CALIBRATE PROFILE=adaptive ADAPTIVE=1 ADAPTIVE_MARGIN=0
G1 Z25 F240
G1 X10.0 Y30 F3000
M104 S210 ; set final nozzle temp
M190 S55 ; wait for bed temp to stabilize
M109 S210 ; wait for nozzle temp to stabilize
M73 P0 R25
G1 Z0.28 F240
G92 E0 ; Move Z Axis up
G1 Z2.0 F5000 ; Move to start position
G1 X5 Y30 Z0.28 F300 ; Draw the first line
G1 X5 Y200 Z0.28 F1500 E15 ; Move to side a little
G1 X5.4 Y200 Z0.28 F5000.0 ; Draw the second line
M73 P1 R25
G1 X5.4 Y50 Z0.28 F1500.0 E30 ; Reset Extruder
G92 E0 ; Move Z Axis up
G1 Z2.0 F3000
M117 Start Printing..
G90
G21
M83 ; use relative distances for extrusion
; filament start gcode
M106 S0
;LAYER_CHANGE
;Z:0.2
;HEIGHT:0.2
;BEFORE_LAYER_CHANGE
;0.2
G92 E0

G1 E-.5 F1800
;_SET_FAN_SPEED_CHANGING_LAYER
SET_VELOCITY_LIMIT ACCEL=1000
SET_VELOCITY_LIMIT SQUARE_CORNER_VELOCITY=7
; printing object Corps2.stl id:2 copy 0
EXCLUDE_OBJECT_START NAME=Corps2.stl_id_2_copy_0
G1 Z.2 F24000
G1 X119.537 Y152.774
G1 Z.2
G1 E.5 F1800
;TYPE:Inner wall
;WIDTH:0.499999
G1 X119.589 Y152.892 E.00478
G1 X119.869 Y153.114 E.0133
G1 X120.391 Y153.339 E.02117
G1 X120.563 Y153.473 E.00814
G1 X120.91 Y153.81 E.01802
G1 X121.127 Y154.255 E.01842
G1 X121.237 Y154.721 E.01782
G1 X121.173 Y155.294 E.02147
G1 X120.935 Y155.813 E.02127
G1 X120.66 Y156.126 E.01552
G1 X120.3 Y156.376 E.01633
G1 X119.93 Y156.512 E.01468
G1 X119.353 Y156.563 E.02157
G1 X118.926 Y156.473 E.01628
G1 X118.547 Y156.306 E.01542
G1 X118.192 Y156.265 E.0133
G1 X117.978 Y156.335 E.00838
G1 X117.767 Y156.505 E.01011
G1 X117.453 Y156.949 E.02023
G1 X116.953 Y157.589 E.03028
G1 X116.109 Y158.495 E.04609
G1 X115.309 Y159.189 E.03945
G1 X114.348 Y159.921 E.045
G1 X114.201 Y160.163 E.01053
G1 X114.165 Y160.454 E.01092
G1 X114.378 Y161.064 E.02409
G1 X114.468 Y161.434 E.01416
G1 X114.419 Y162.014 E.02166
G1 X114.196 Y162.541 E.02134
G1 X113.946 Y162.839 E.01448
G1 X113.467 Y163.173 E.02176
G1 X112.92 Y163.321 E.02111
G1 X112.353 Y163.291 E.02115
G1 X111.96 Y163.151 E.01553
G1 X111.606 Y162.917 E.0158
G1 X111.235 Y162.467 E.02171
G1 X111.019 Y161.965 E.02038
G1 X110.797 Y161.685 E.0133
G1 X110.596 Y161.583 E.00838
G1 X110.281 Y161.559 E.01177
G1 X109.386 Y161.702 E.03376
G1 X108.574 Y161.773 E.03036
G1 X107.336 Y161.773 E.04609
G1 X106.24 Y161.658 E.04107
G1 X105.663 Y161.566 E.02177
G1 X105.379 Y161.564 E.01057
G1 X105.108 Y161.685 E.01103
G1 X104.886 Y161.964 E.0133
G1 X104.661 Y162.486 E.02117
G1 X104.527 Y162.659 E.00814
G1 X104.19 Y163.006 E.01802
G1 X103.745 Y163.222 E.01842
G1 X103.28 Y163.332 E.01779
G1 X102.702 Y163.267 E.02166
G1 X102.193 Y163.034 E.02087
G1 X102.034 Y162.895 E.00788
G1 X101.709 Y162.542 E.01786
G1 X101.484 Y162.006 E.02166
G1 X101.437 Y161.448 E.02082
G1 X101.527 Y161.021 E.01627
G1 X101.694 Y160.642 E.01542
G1 X101.735 Y160.287 E.0133
G1 X101.665 Y160.073 E.00838
G1 X101.494 Y159.861 E.01016
G1 X101.051 Y159.548 E.02018
G1 X100.411 Y159.048 E.03028
G1 X99.505 Y158.204 E.04609
G1 X98.811 Y157.404 E.03945
G1 X98.08 Y156.444 E.04497
G1 X97.838 Y156.296 E.01055
G1 X97.546 Y156.261 E.01092
G1 X96.936 Y156.473 E.02409
G1 X96.566 Y156.563 E.01416
G1 X95.986 Y156.514 E.02166
G1 X95.459 Y156.292 E.02134
G1 X95.161 Y156.042 E.01448
G1 X94.827 Y155.562 E.02176
G1 X94.679 Y155.015 E.02111
G1 X94.709 Y154.448 E.02115
G1 X94.849 Y154.055 E.01553
G1 X95.083 Y153.702 E.0158
G1 X95.533 Y153.331 E.02171
G1 X96.035 Y153.114 E.02038
G1 X96.315 Y152.892 E.0133
G1 X96.417 Y152.691 E.00838
G1 X96.441 Y152.376 E.01176
G1 X96.298 Y151.481 E.03376
G1 X96.227 Y150.669 E.03036
G1 X96.227 Y149.432 E.04609
G1 X96.357 Y148.195 E.04632
G1 X96.449 Y147.613 E.02197
G1 X96.382 Y147.314 E.0114
G1 X96.201 Y147.083 E.01092
G1 X96.036 Y146.982 E.00723
G1 X95.514 Y146.756 E.02117
G1 X95.341 Y146.622 E.00814
G1 X94.994 Y146.285 E.01802
G1 X94.778 Y145.84 E.01842
G1 X94.668 Y145.375 E.01779
G1 X94.733 Y144.798 E.02166
G1 X94.966 Y144.288 E.02087
G1 X95.105 Y144.129 E.00788
G1 X95.458 Y143.804 E.01786
G1 X95.994 Y143.579 E.02166
G1 X96.552 Y143.533 E.02082
G1 X96.803 Y143.586 E.00956
G1 X97.405 Y143.806 E.02387
G1 X97.713 Y143.83 E.01151
G1 X97.927 Y143.761 E.00838
G1 X98.141 Y143.586 E.0103
G1 X98.452 Y143.147 E.02004
G1 X98.952 Y142.506 E.03028
G1 X99.796 Y141.601 E.04609
G1 X100.73 Y140.789 E.04608
G1 X101.377 Y140.32 E.02979
G1 X101.628 Y140.084 E.01283
G1 X101.735 Y139.808 E.01103
G1 X101.71 Y139.5 E.01151
G1 X101.527 Y139.031 E.01875
G1 X101.437 Y138.661 E.01416
G1 X101.486 Y138.082 E.02166
G1 X101.708 Y137.554 E.02134
G1 X101.958 Y137.256 E.01448
G1 X102.439 Y136.922 E.02179
G1 X102.987 Y136.774 E.02115
G1 X103.545 Y136.803 E.02081
G1 X103.945 Y136.945 E.01581
G1 X104.298 Y137.179 E.01579
G1 X104.669 Y137.628 E.02171
G1 X104.907 Y138.175 E.02222
G1 X105.108 Y138.41 E.01151
G1 X105.308 Y138.512 E.00838
G1 X105.624 Y138.536 E.01177
G1 X106.519 Y138.393 E.03376
G1 X107.331 Y138.322 E.03036
G1 X108.568 Y138.322 E.04609
G1 X109.805 Y138.452 E.04632
G1 X110.398 Y138.545 E.02235
G1 X110.686 Y138.477 E.01102
G1 X110.917 Y138.296 E.01094
G1 X111.317 Y137.491 E.03351
G1 X111.715 Y137.09 E.02103
G1 X112.208 Y136.842 E.02055
G1 X112.781 Y136.765 E.02152
G1 X113.348 Y136.871 E.02151
G1 X113.764 Y137.114 E.01793
G1 X114.123 Y137.448 E.01824
G1 X114.349 Y137.887 E.0184
G1 X114.471 Y138.364 E.01835
G1 X114.426 Y138.91 E.02042
G1 X114.194 Y139.499 E.02358
G1 X114.169 Y139.807 E.01151
G1 X114.239 Y140.022 E.00839
G1 X114.411 Y140.235 E.0102
M73 P2 R25
G1 X114.853 Y140.547 E.02016
G1 X115.494 Y141.047 E.03028
G1 X116.399 Y141.891 E.04609
G1 X117.211 Y142.825 E.04608
G1 X117.661 Y143.446 E.02857
G1 X117.916 Y143.724 E.01404
G1 X118.192 Y143.83 E.01103
G1 X118.5 Y143.806 E.01151
G1 X118.969 Y143.622 E.01875
G1 X119.339 Y143.532 E.01416
G1 X119.918 Y143.581 E.02166
G1 X120.446 Y143.804 E.02134
G1 X120.744 Y144.054 E.01448
G1 X121.077 Y144.533 E.02176
G1 X121.226 Y145.08 E.02111
G1 X121.195 Y145.647 E.02115
G1 X120.982 Y146.166 E.02088
G1 X120.621 Y146.593 E.02085
G1 X120.406 Y146.733 E.00956
G1 X119.825 Y147.003 E.02386
G1 X119.59 Y147.203 E.01151
G1 X119.488 Y147.404 E.00838
G1 X119.464 Y147.719 E.01177
G1 X119.607 Y148.614 E.03376
G1 X119.678 Y149.426 E.03036
G1 X119.678 Y150.664 E.04609
G1 X119.563 Y151.76 E.04107
G1 X119.466 Y152.365 E.02282
G1 X119.469 Y152.621 E.00953
G1 X119.521 Y152.738 E.00476
G1 X119.935 Y152.583 F24000
;TYPE:Outer wall
G1 F1800
G1 X120.05 Y152.694 E.00596
G1 X120.626 Y152.943 E.02334
G1 X121.058 Y153.279 E.02041
G1 X121.362 Y153.675 E.01859
G1 X121.534 Y154.037 E.01493
G1 X121.672 Y154.531 E.01911
G1 X121.671 Y155.075 E.02026
G1 X121.566 Y155.585 E.01937
G1 X121.315 Y156.072 E.02042
G1 X120.967 Y156.469 E.01968
G1 X120.75 Y156.62 E.00984
G1 X120.343 Y156.855 E.01749
G1 X119.846 Y157.002 E.01929
G1 X119.314 Y157.021 E.01985
G1 X118.785 Y156.91 E.02014
G1 X118.386 Y156.734 E.01622
G1 X118.26 Y156.717 E.00474
G1 X118.118 Y156.797 E.00606
G1 X117.821 Y157.221 E.01927
G1 X117.3 Y157.886 E.03147
G1 X116.427 Y158.824 E.04773
G1 X115.459 Y159.664 E.04772
G1 X114.714 Y160.205 E.03429
G1 X114.622 Y160.356 E.00659
G1 X114.898 Y161.235 E.03434
G1 X114.916 Y161.679 E.01655
G1 X114.863 Y162.124 E.01666
G1 X114.706 Y162.535 E.01641
G1 X114.47 Y162.937 E.01736
G1 X114.119 Y163.306 E.01896
G1 X113.66 Y163.591 E.02012
G1 X113.299 Y163.706 E.01412
G1 X112.798 Y163.794 E.01893
G1 X112.252 Y163.74 E.02043
G1 X111.754 Y163.563 E.0197
G1 X111.307 Y163.266 E.01998
G1 X111.126 Y163.069 E.00996
G1 X110.843 Y162.701 E.01732
G1 X110.602 Y162.154 E.02225
G1 X110.525 Y162.053 E.00474
G1 X110.353 Y162.011 E.00659
G1 X109.442 Y162.156 E.03437
G1 X108.594 Y162.231 E.03171
G1 X107.312 Y162.231 E.04773
G1 X106.192 Y162.113 E.04196
G1 X105.583 Y162.016 E.02296
G1 X105.417 Y162.03 E.00622
G1 X105.306 Y162.146 E.00596
G1 X105.057 Y162.721 E.02334
G1 X104.721 Y163.153 E.02041
G1 X104.325 Y163.458 E.01859
G1 X103.963 Y163.63 E.01492
G1 X103.47 Y163.767 E.01907
G1 X102.914 Y163.765 E.0207
G1 X102.415 Y163.662 E.01898
G1 X101.934 Y163.415 E.02015
G1 X101.733 Y163.239 E.00997
G1 X101.422 Y162.92 E.0166
G1 X101.16 Y162.451 E.01998
G1 X100.998 Y161.942 E.01992
G1 X100.979 Y161.409 E.01986
G1 X101.09 Y160.88 E.02013
G1 X101.266 Y160.482 E.01622
G1 X101.283 Y160.355 E.00475
G1 X101.202 Y160.213 E.00608
G1 X100.779 Y159.916 E.01926
G1 X100.114 Y159.396 E.03147
G1 X99.176 Y158.522 E.04773
G1 X98.336 Y157.555 E.04772
G1 X97.795 Y156.809 E.03429
G1 X97.644 Y156.717 E.00659
G1 X96.765 Y156.993 E.03434
G1 X96.321 Y157.011 E.01655
