; HEADER_BLOCK_START
; generated by OrcaSlicer 2.2.0 on 2024-11-15 at 17:39:30
; total layer number: 30
; filament_density: 1.27
; filament_diameter: 1.75
; max_z_height: 6.00
; HEADER_BLOCK_END

; THUMBNAIL_BLOCK_START

;
; THUMBNAIL_BLOCK_END

; THUMBNAIL_BLOCK_START

;
; THUMBNAIL_BLOCK_END

; external perimeters extrusion width = 0.42mm
; perimeters extrusion width = 0.45mm
; infill extrusion width = 0.45mm
; solid infill extrusion width = 0.45mm
; top infill extrusion width = 0.42mm
; first layer extrusion width = 0.50mm

; EXECUTABLE_BLOCK_START
EXCLUDE_OBJECT_DEFINE NAME=Corps1.stl_id_0_copy_0 CENTER=115,115 POLYGON=[[87,94],[143,94],[143,126],[142.986,126.374],[142.944,126.745],[142.875,127.113],[142.778,127.474],[142.654,127.827],[142.505,128.169],[142.33,128.5],[142.131,128.817],[141.909,129.117],[141.665,129.401],[141.401,129.665],[141.117,129.909],[140.817,130.131],[140.5,130.33],[140.169,130.505],[129.868,135.802],[129.661,135.888],[129.445,135.95],[129.224,135.987],[129,136],[101,136],[100.776,135.987],[100.555,135.95],[100.339,135.888],[100.132,135.802],[89.8306,130.505],[89.5,130.33],[89.1834,130.131],[88.8826,129.909],[88.5991,129.665],[88.3347,129.401],[88.0908,129.117],[87.8688,128.817],[87.6699,128.5],[87.4952,128.169],[87.3456,127.827],[87.2221,127.474],[87.1254,127.113],[87.0558,126.745],[87.014,126.374],[87,126],[87,94]]
M73 P0 R14
;TYPE:Custom
M220 S100
G90 ; use absolute coordinates
M83 ; extruder relative mode
M104 S150 ; set temporary nozzle temp to prevent oozing during homing
M140 S70 ; set final bed temp
G4 S30 ; allow partial nozzle warmup
G28 ; home all axis and restore leveling
BED_MESH_CALIBRATE PROFILE=adaptive ADAPTIVE=1 ADAPTIVE_MARGIN=0
G1 Z25 F240
G1 X10.0 Y30 F3000
M104 S245 ; set final nozzle temp
M190 S70 ; wait for bed temp to stabilize
M109 S245 ; wait for nozzle temp to stabilize
G1 Z0.28 F240
G92 E0 ; Move Z Axis up
G1 Z2.0 F5000 ; Move to start position
M73 P1 R14
M73 P1 R14
G1 X5 Y30 Z0.28 F300 ; Draw the first line
G1 X5 Y200 Z0.28 F1500 E15 ; Move to side a little
G1 X5.4 Y200 Z0.28 F5000.0 ; Draw the second line
M73 P2 R14
M73 P2 R14
G1 X5.4 Y50 Z0.28 F1500.0 E30 ; Reset Extruder
G92 E0 ; Move Z Axis up
G1 Z2.0 F3000
M73 P3 R14
M117 Start Printing..
G90
G21
M83 ; use relative distances for extrusion
; filament start gcode
M106 S0
;LAYER_CHANGE
;Z:0.2
;HEIGHT:0.2
;BEFORE_LAYER_CHANGE
;0.2
G92 E0

M73 P3 R14
G1 E-.5 F1800
;_SET_FAN_SPEED_CHANGING_LAYER
SET_VELOCITY_LIMIT ACCEL=1000
SET_VELOCITY_LIMIT SQUARE_CORNER_VELOCITY=7
; printing object Corps1.stl id:0 copy 0
EXCLUDE_OBJECT_START NAME=Corps1.stl_id_0_copy_0
G1 Z.4 F24000
G1 X128.108 Y131.757
G1 Z.4
G1 Z.2
G1 E.5 F1800
;TYPE:Inner wall
;WIDTH:0.499999
G1 F3000
G1 X128.189 Y131.757 E.00292
G1 X128.506 Y131.602 E.01274
G1 X128.69 Y131.367 E.01078
G1 X128.757 Y131.071 E.01093
G1 X128.757 Y114.757 E.58905
G1 X150.243 Y114.757 E.77577
G1 X150.243 Y145.973 E1.12708
G1 X150.194 Y146.632 E.02386
G1 X150.053 Y147.25 E.02288
G1 X149.821 Y147.84 E.02289
G1 X149.504 Y148.389 E.02289
G1 X149.109 Y148.885 E.02289
G1 X148.644 Y149.316 E.02289
G1 X148.121 Y149.672 E.02285
G1 X147.533 Y149.953 E.02354
G1 X146.944 Y150.135 E.02225
G1 X146.54 Y150.195 E.01474
G1 X145.986 Y150.243 E.0201
G1 X138.929 Y150.243 E.25481
G1 X138.712 Y150.278 E.00793
G1 X138.472 Y150.417 E.01001
G1 X138.295 Y150.666 E.01102
G1 X138.243 Y150.929 E.00967
G1 X138.243 Y153.883 E.10669
G1 X138.207 Y154.276 E.01422
G1 X138.042 Y154.654 E.01491
G1 X137.773 Y154.967 E.01491
G1 X137.404 Y155.163 E.01508
G1 X136.96 Y155.243 E.01629
G1 X108.935 Y155.243 E1.01187
G1 X108.463 Y155.116 E.01765
G1 X108.137 Y154.877 E.01459
G1 X107.895 Y154.554 E.01457
G1 X107.757 Y153.979 E.02135
G1 X107.757 Y150.929 E.11013
G1 X107.73 Y150.737 E.00697
G1 X107.603 Y150.496 E.00984
G1 X107.366 Y150.309 E.01091
G1 X107.071 Y150.243 E.0109
G1 X100.027 Y150.243 E.25435
G1 X99.368 Y150.194 E.02386
G1 X98.75 Y150.053 E.02288
G1 X98.16 Y149.821 E.02289
G1 X97.611 Y149.504 E.02289
G1 X97.116 Y149.109 E.02285
G1 X96.674 Y148.63 E.02354
G1 X96.327 Y148.121 E.02225
G1 X96.053 Y147.55 E.02286
G1 X95.862 Y146.927 E.02354
G1 X95.804 Y146.541 E.0141
G1 X95.757 Y145.986 E.0201
G1 X95.757 Y114.757 E1.12754
G1 X117.243 Y114.757 E.77577
M73 P3 R13
M73 P3 R13
G1 X117.243 Y131.071 E.58905
G1 X117.278 Y131.289 E.00797
G1 X117.432 Y131.544 E.01073
G1 X117.637 Y131.692 E.00916
G1 X117.929 Y131.757 E.01077
G1 X128.068 Y131.757 E.36611
G1 X128.071 Y131.3 F24000
;TYPE:Outer wall
G1 F3000
G1 X128.237 Y131.229 E.00653
G1 X128.3 Y131.071 E.0061
G1 X128.3 Y114.3 E.60555
G1 X150.7 Y114.3 E.80877
G1 X150.7 Y145.99 E1.1442
G1 X150.647 Y146.7 E.02572
G1 X150.491 Y147.385 E.02536
G1 X150.234 Y148.039 E.02536
G1 X149.883 Y148.647 E.02536
G1 X149.445 Y149.196 E.02536
G1 X148.93 Y149.674 E.02536
G1 X148.35 Y150.07 E.02535
G1 X147.7 Y150.38 E.02602
G1 X147.046 Y150.581 E.0247
G1 X146.609 Y150.647 E.01596
G1 X145.994 Y150.7 E.02226
G1 X138.929 Y150.7 E.25512
G1 X138.769 Y150.765 E.00621
M73 P4 R13
M73 P4 R13
G1 X138.7 Y150.929 E.00642
G1 X138.7 Y153.883 E.10669
G1 X138.656 Y154.378 E.01793
G1 X138.53 Y154.737 E.01373
G1 X138.328 Y155.059 E.01373
G1 X138.059 Y155.328 E.01372
G1 X137.729 Y155.533 E.01404
G1 X137.378 Y155.656 E.01343
G1 X136.985 Y155.7 E.01428
G1 X109.117 Y155.7 E1.00622
G1 X108.622 Y155.656 E.01793
G1 X108.263 Y155.53 E.01373
G1 X107.941 Y155.328 E.01373
G1 X107.672 Y155.059 E.01373
G1 X107.473 Y154.742 E.0135
G1 X107.371 Y154.387 E.01337
G1 X107.3 Y153.992 E.0145
G1 X107.3 Y150.929 E.11059
G1 X107.238 Y150.772 E.0061
G1 X107.074 Y150.7 E.00645
G1 X100.01 Y150.7 E.25506
G1 X99.3 Y150.647 E.02572
G1 X98.615 Y150.491 E.02536
G1 X97.961 Y150.234 E.02536
G1 X97.353 Y149.883 E.02536
G1 X96.804 Y149.445 E.02535
G1 X96.315 Y148.915 E.02602
G1 X95.93 Y148.35 E.0247
G1 X95.626 Y147.717 E.02535
G1 X95.415 Y147.028 E.02602
G1 X95.352 Y146.608 E.01532
G1 X95.3 Y145.994 E.02224
G1 X95.3 Y114.3 E1.14436
G1 X117.7 Y114.3 E.80877
G1 X117.7 Y131.071 E.60555
G1 X117.763 Y131.229 E.00612
G1 X117.929 Y131.3 E.00651
G1 X128.031 Y131.3 E.36478
G1 E-.5 F1800
;WIPE_START
G1 F12000
G1 X128.237 Y131.229
G1 X128.3 Y131.071
G1 X128.3 Y129.459
;WIPE_END
G1 Z.4 F24000
G1 X141.767 Y132.662 Z.4
G1 Z.2
G1 E.5 F1800
;TYPE:Inner wall
G1 F3000
G1 X141.826 Y132.652 E.00215
G1 X142.334 Y132.666 E.01835
G1 X142.837 Y132.772 E.01856
G1 X143.446 Y133.04 E.02405
G1 X143.989 Y133.454 E.02462
G1 X144.415 Y133.98 E.02444
G1 X144.705 Y134.589 E.02437
G1 X144.843 Y135.25 E.02437
G1 X144.822 Y135.925 E.02437
G1 X144.643 Y136.576 E.02437
G1 X144.317 Y137.166 E.02437
G1 X143.86 Y137.664 E.02437
G1 X143.3 Y138.04 E.02437
G1 X142.667 Y138.275 E.02437
G1 X141.997 Y138.354 E.02437
G1 X141.326 Y138.273 E.02437
G1 X140.702 Y138.041 E.02405
G1 X140.136 Y137.661 E.02462
G1 X139.679 Y137.161 E.02444
G1 X139.354 Y136.569 E.02437
G1 X139.177 Y135.918 E.02437
G1 X139.158 Y135.243 E.02437
G1 X139.295 Y134.591 E.02405
G1 X139.588 Y133.975 E.02462
G1 X140.015 Y133.45 E.02444
G1 X140.552 Y133.041 E.02437
G1 X141.17 Y132.77 E.02437
G1 X141.728 Y132.67 E.02046
G1 X141.849 Y133.111 F24000
;TYPE:Outer wall
G1 F3000
G1 X141.893 Y133.104 E.00164
G1 X142.24 Y133.113 E.0125
G1 X142.743 Y133.219 E.01856
G1 X143.25 Y133.453 E.02018
G1 X143.702 Y133.809 E.02077
G1 X144.052 Y134.257 E.02051
G1 X144.286 Y134.774 E.02049
G1 X144.393 Y135.331 E.02049
G1 X144.366 Y135.898 E.02049
G1 X144.206 Y136.442 E.02049
G1 X143.923 Y136.934 E.02049
G1 X143.532 Y137.346 E.02049
G1 X143.056 Y137.654 E.02049
G1 X142.521 Y137.842 E.02049
G1 X141.956 Y137.898 E.02049
G1 X141.394 Y137.821 E.02049
G1 X140.873 Y137.617 E.02018
G1 X140.401 Y137.288 E.02077
G1 X140.026 Y136.862 E.02051
G1 X139.761 Y136.361 E.02049
G1 X139.621 Y135.811 E.02049
G1 X139.615 Y135.243 E.02049
G1 X139.74 Y134.698 E.02018
G1 X139.995 Y134.183 E.02077
G1 X140.361 Y133.748 E.02051
G1 X140.818 Y133.412 E.02049
G1 X141.342 Y133.193 E.02049
G1 X141.809 Y133.118 E.0171
G1 E-.5 F1800
;WIPE_START
G1 F12000
G1 X141.893 Y133.104
G1 X142.24 Y133.113
G1 X142.743 Y133.219
G1 X143.25 Y133.453
G1 X143.639 Y133.76
;WIPE_END
G1 Z.4 F24000
G1 X103.767 Y132.662 Z.4
G1 Z.2
G1 E.5 F1800
;TYPE:Inner wall
G1 F3000
G1 X103.826 Y132.652 E.00214
G1 X104.334 Y132.666 E.01835
G1 X104.837 Y132.772 E.01856
G1 X105.454 Y133.045 E.02437
G1 X105.99 Y133.455 E.02437
G1 X106.415 Y133.98 E.02437
G1 X106.705 Y134.589 E.02437
G1 X106.843 Y135.25 E.02437
G1 X106.822 Y135.925 E.02437
G1 X106.643 Y136.576 E.02437
G1 X106.317 Y137.166 E.02437
G1 X105.86 Y137.664 E.02437
G1 X105.3 Y138.04 E.02437
G1 X104.667 Y138.275 E.02437
G1 X103.997 Y138.354 E.02437
G1 X103.326 Y138.273 E.02437
G1 X102.694 Y138.037 E.02437
G1 X102.134 Y137.659 E.02437
G1 X101.679 Y137.161 E.02437
G1 X101.354 Y136.569 E.02437
G1 X101.177 Y135.918 E.02437
G1 X101.158 Y135.243 E.02437
G1 X101.295 Y134.591 E.02405
G1 X101.588 Y133.975 E.02462
G1 X102.015 Y133.45 E.02444
G1 X102.552 Y133.041 E.02437
G1 X103.17 Y132.77 E.02437
G1 X103.728 Y132.669 E.02047
G1 X103.849 Y133.111 F24000
;TYPE:Outer wall
G1 F3000
G1 X103.893 Y133.104 E.00162
G1 X104.24 Y133.113 E.0125
G1 X104.743 Y133.219 E.01856
G1 X105.258 Y133.457 E.02049
G1 X105.702 Y133.81 E.02049
G1 X106.052 Y134.257 E.02049
G1 X106.286 Y134.774 E.02049
G1 X106.393 Y135.331 E.02049
G1 X106.366 Y135.898 E.02049
G1 X106.206 Y136.442 E.02049
G1 X105.923 Y136.934 E.02049
G1 X105.532 Y137.346 E.02049
G1 X105.056 Y137.654 E.02049
G1 X104.521 Y137.842 E.02049
G1 X103.956 Y137.898 E.02049
G1 X103.394 Y137.821 E.02049
G1 X102.866 Y137.614 E.02049
G1 X102.401 Y137.288 E.02049
G1 X102.026 Y136.862 E.02049
G1 X101.761 Y136.361 E.02049
G1 X101.621 Y135.811 E.02049
G1 X101.615 Y135.243 E.02049
G1 X101.74 Y134.698 E.02018
G1 X101.995 Y134.183 E.02077
G1 X102.361 Y133.748 E.02051
G1 X102.818 Y133.412 E.02049
G1 X103.342 Y133.193 E.02049
G1 X103.81 Y133.117 E.01712
G1 E-.5 F1800
;WIPE_START
G1 F12000
G1 X103.893 Y133.104
G1 X104.24 Y133.113
G1 X104.743 Y133.219
G1 X105.258 Y133.457
G1 X105.64 Y133.76
;WIPE_END
G1 Z.4 F24000
G1 X149.177 Y114.894
G1 Z.4
G1 Z.2
G1 E.5 F1800
;TYPE:Bottom surface
;WIDTH:0.502479
G1 F5875.198
G1 X149.9 Y115.618 E.03715
G1 X149.9 Y116.268 E.02359
G1 X148.732 Y115.1 E.05995
G1 X148.082 Y115.1 E.02359
G1 X149.9 Y116.918 E.09332
G1 X149.9 Y117.567 E.02359
G1 X147.433 Y115.1 E.12668
G1 X146.783 Y115.1 E.02359
G1 X149.9 Y118.217 E.16005
G1 X149.9 Y118.867 E.02359
G1 X146.133 Y115.1 E.19341
G1 X145.483 Y115.1 E.02359
G1 X149.9 Y119.517 E.22678
G1 X149.9 Y120.167 E.02359
G1 X144.833 Y115.1 E.26015
G1 X144.183 Y115.1 E.02359
G1 X149.9 Y120.817 E.29351
G1 X149.9 Y121.467 E.02359
G1 X143.533 Y115.1 E.32688
G1 X142.883 Y115.1 E.02359
G1 X149.9 Y122.117 E.36024
G1 X149.9 Y122.767 E.02359
G1 X142.233 Y115.1 E.39361
G1 X141.583 Y115.1 E.02359
G1 X149.9 Y123.417 E.42697
G1 X149.9 Y124.067 E.02359
M73 P5 R13
M73 P5 R13
G1 X140.933 Y115.1 E.46034
G1 X140.283 Y115.1 E.02359
G1 X149.9 Y124.717 E.49371
G1 X149.9 Y125.366 E.02359
G1 X139.634 Y115.1 E.52707
G1 X138.984 Y115.1 E.02359
G1 X149.9 Y126.016 E.56044
G1 X149.9 Y126.666 E.02359
G1 X138.334 Y115.1 E.5938
G1 X137.684 Y115.1 E.02359
G1 X149.9 Y127.316 E.62717
G1 X149.9 Y127.966 E.02359
G1 X137.034 Y115.1 E.66053
G1 X136.384 Y115.1 E.02359
G1 X149.9 Y128.616 E.6939
G1 X149.9 Y129.266 E.02359
G1 X135.734 Y115.1 E.72727
G1 X135.084 Y115.1 E.02359
G1 X149.9 Y129.916 E.76063
G1 X149.9 Y130.566 E.02359
G1 X134.434 Y115.1 E.794
G1 X133.784 Y115.1 E.02359
G1 X149.9 Y131.216 E.82736
G1 X149.9 Y131.866 E.02359
G1 X133.134 Y115.1 E.86073
G1 X132.484 Y115.1 E.02359
G1 X149.9 Y132.516 E.89409
G1 X149.9 Y133.165 E.02359
G1 X131.835 Y115.1 E.92746
G1 X131.185 Y115.1 E.02359
G1 X149.9 Y133.815 E.96083
G1 X149.9 Y134.465 E.02359
G1 X130.535 Y115.1 E.99419
G1 X129.885 Y115.1 E.02359
G1 X149.9 Y135.115 E1.02756
G1 X149.9 Y135.765 E.02359
G1 X129.235 Y115.1 E1.06092
G1 X129.1 Y115.1 E.0049
G1 X129.1 Y115.615 E.01869
G1 X149.9 Y136.415 E1.06786
G1 X149.9 Y137.065 E.02359
G1 X129.1 Y116.265 E1.06786
G1 X129.1 Y116.914 E.02359
G1 X149.9 Y137.715 E1.06786
G1 X149.9 Y138.365 E.02359
G1 X129.1 Y117.564 E1.06786
G1 X129.1 Y118.214 E.02359
G1 X149.9 Y139.015 E1.06786
G1 X149.9 Y139.665 E.02359
G1 X145.121 Y134.886 E.24534
G1 X145.197 Y135.366 E.01766
M73 P6 R13
M73 P6 R13
G1 X145.182 Y135.596 E.00837
G1 X149.9 Y140.315 E.24223
G1 X149.9 Y140.964 E.02359
G1 X145.116 Y136.181 E.24559
G1 X144.969 Y136.683 E.01901
G1 X149.9 Y141.614 E.25317
G1 X149.9 Y142.264 E.02359
G1 X144.747 Y137.111 E.26454
G1 X144.608 Y137.347 E.00992
G1 X144.489 Y137.503 E.00714
G1 X149.9 Y142.914 E.2778
G1 X149.9 Y143.564 E.02359
G1 X144.172 Y137.836 E.29409
G1 X143.923 Y138.052 E.01197
G1 X143.81 Y138.124 E.00486
G1 X149.9 Y144.214 E.31266
G1 X149.9 Y144.864 E.02359
G1 X143.405 Y138.368 E.33347
G1 X143.269 Y138.433 E.00546
G1 X142.928 Y138.542 E.01298
G1 X149.9 Y145.514 E.35792
G1 X149.886 Y146.15 E.02308
G1 X142.395 Y138.659 E.38456
G1 X141.933 Y138.7 E.01685
G1 X141.764 Y138.677 E.0062
G1 X149.991 Y146.904 E.42236
G1 E-.5 F1800
;WIPE_START
G1 F12000
G1 X148.577 Y145.49
;WIPE_END
G1 Z.4 F24000
G1 X142.882 Y132.647 Z.4
G1 Z.2
G1 E.5 F1800
G1 F5875.198
G1 X129.1 Y118.864 E.70759
G1 X129.1 Y119.514 E.02359
G1 X141.89 Y132.304 E.65662
G1 X141.321 Y132.385 E.02085
G1 X129.1 Y120.164 E.62743
G1 X129.1 Y120.814 E.02359
G1 X140.828 Y132.542 E.60213
G1 X140.559 Y132.647 E.01047
G1 X140.381 Y132.745 E.00738
G1 X129.099 Y121.464 E.57919
G1 X129.099 Y122.113 E.02359
G1 X140.001 Y133.015 E.55965
G1 X139.759 Y133.221 E.01154
G1 X139.666 Y133.33 E.0052
G1 X129.099 Y122.763 E.5425
G1 X129.099 Y123.413 E.02359
G1 X139.368 Y133.682 E.52717
G1 X139.144 Y134.108 E.01747
G1 X129.099 Y124.063 E.51568
G1 X129.099 Y124.713 E.02359
G1 X138.955 Y134.568 E.50596
G1 X138.829 Y135.092 E.01957
G1 X129.099 Y125.363 E.4995
G1 X129.099 Y126.013 E.02359
G1 X139.046 Y135.96 E.51066
G1 E-.5 F1800
;WIPE_START
G1 F12000
G1 X137.632 Y134.545
;WIPE_END
G1 Z.4 F24000
G1 X128.893 Y126.457 Z.4
G1 Z.2
G1 E.5 F1800
G1 F5875.198
G1 X138.977 Y136.54 E.51767
G1 X139.047 Y136.722 E.00708
G1 X139.36 Y137.31 E.02417
G1 X139.833 Y137.856 E.02623
G1 X140.459 Y138.305 E.02794
G1 X140.944 Y138.508 E.01908
G1 X149.685 Y147.248 E.44874
G1 X149.499 Y147.712 E.01814
G1 X129.099 Y127.312 E1.0473
G1 X129.099 Y127.962 E.02359
G1 X149.261 Y148.124 E1.03509
G1 X148.981 Y148.495 E.01684
G1 X129.099 Y128.612 E1.02073
G1 X129.099 Y129.262 E.02359
G1 X148.665 Y148.828 E1.00451
G1 X148.43 Y149.047 E.01166
G1 X148.313 Y149.126 E.00512
G1 X129.099 Y129.912 E.98644
G1 X129.099 Y130.562 E.02359
M73 P7 R13
M73 P7 R13
G1 X147.924 Y149.387 E.96644
G1 X147.484 Y149.597 E.01769
G1 X129.088 Y131.201 E.9444
G1 X129.016 Y131.48 E.01047
G1 X128.905 Y131.668 E.0079
G1 X146.997 Y149.76 E.9288
G1 X146.868 Y149.799 E.00491
G1 X146.45 Y149.862 E.01535
G1 X128.559 Y131.972 E.91847
G1 X128.453 Y132.027 E.00436
G1 X128.264 Y132.082 E.00713
G1 X128.037 Y132.1 E.00825
G1 X145.838 Y149.9 E.91384
G1 X145.188 Y149.9 E.02359
G1 X127.387 Y132.1 E.91385
G1 X126.737 Y132.1 E.0236
G1 X144.538 Y149.9 E.91385
G1 X143.888 Y149.9 E.02359
G1 X126.087 Y132.099 E.91386
G1 X125.437 Y132.099 E.0236
G1 X143.238 Y149.9 E.91387
G1 X142.588 Y149.9 E.02359
G1 X124.787 Y132.099 E.91388
G1 X124.137 Y132.099 E.0236
G1 X141.938 Y149.9 E.91389
G1 X141.288 Y149.9 E.02359
G1 X123.487 Y132.099 E.91389
G1 X122.837 Y132.099 E.0236
G1 X140.638 Y149.9 E.9139
G1 X139.988 Y149.9 E.02359
G1 X122.187 Y132.099 E.91391
G1 X121.537 Y132.098 E.0236
G1 X139.338 Y149.9 E.91392
G1 X138.906 Y149.9 E.01569
G1 X138.72 Y149.932 E.00686
G1 X120.887 Y132.098 E.91554
G1 X120.237 Y132.098 E.0236
G1 X138.278 Y150.14 E.92624
G1 X138.211 Y150.19 E.00305
G1 X138.063 Y150.372 E.00851
G1 X137.994 Y150.505 E.00545
G1 X119.586 Y132.098 E.94499
G1 X118.936 Y132.098 E.0236
G1 X137.91 Y151.071 E.97407
G1 X137.908 Y151.719 E.02351
G1 X118.081 Y131.892 E1.01789
G1 E-.5 F1800
;WIPE_START
G1 F12000
G1 X119.495 Y133.306
;WIPE_END
G1 Z.4 F24000
G1 X117.106 Y115.319 Z.4
G1 Z.2
G1 E.5 F1800
G1 F5875.198
G1 X116.887 Y115.1 E.01126
G1 X116.237 Y115.1 E.02359
G1 X116.9 Y115.763 E.03406
G1 X116.9 Y116.413 E.02359
