; HEADER_BLOCK_START
; generated by OrcaSlicer 2.1.1 on 2024-09-08 at 19:06:03
; total layer number: 25
; filament_density: 1.24
; filament_diameter: 1.75
; max_z_height: 5.00
; HEADER_BLOCK_END

; THUMBNAIL_BLOCK_START

;
; THUMBNAIL_BLOCK_END

; THUMBNAIL_BLOCK_START

;
; THUMBNAIL_BLOCK_END

; external perimeters extrusion width = 0.42mm
; perimeters extrusion width = 0.45mm
; infill extrusion width = 0.45mm
; solid infill extrusion width = 0.45mm
; top infill extrusion width = 0.42mm
; first layer extrusion width = 0.50mm

; EXECUTABLE_BLOCK_START
EXCLUDE_OBJECT_DEFINE NAME=Corps2.stl_id_0_copy_0 CENTER=115,115 POLYGON=[[96.672,105.806],[96.6766,105.344],[96.7569,104.908],[96.8547,104.476],[96.9699,104.049],[97.1024,103.626],[97.2518,103.209],[97.418,102.798],[97.6007,102.395],[97.7996,101.999],[98.0143,101.612],[98.2445,101.233],[98.4899,100.864],[98.7499,100.506],[99.0243,100.158],[99.3125,99.8215],[99.6141,99.4971],[99.9286,99.1851],[100.255,98.8861],[100.594,98.6006],[100.944,98.329],[129.056,98.329],[129.406,98.6006],[129.745,98.8861],[130.071,99.1851],[130.386,99.4971],[130.687,99.8215],[130.976,100.158],[131.25,100.506],[131.51,100.864],[131.755,101.233],[131.986,101.612],[132.2,101.999],[132.399,102.395],[132.582,102.798],[132.748,103.209],[132.898,103.626],[133.03,104.049],[133.145,104.476],[133.243,104.908],[133.323,105.344],[133.328,105.806],[133.315,106.269],[133.283,106.73],[133.233,107.189],[133.166,107.647],[133.08,108.101],[132.977,108.552],[128.272,128.629],[128.172,128.982],[128.053,129.329],[127.915,129.67],[127.759,130.002],[127.585,130.326],[127.395,130.639],[127.187,130.942],[126.859,131.098],[126.523,131.236],[126.18,131.355],[125.831,131.456],[125.477,131.538],[125.119,131.6],[124.758,131.643],[124.395,131.667],[124.032,131.671],[105.968,131.671],[105.605,131.667],[105.242,131.643],[104.881,131.6],[104.523,131.538],[104.169,131.456],[103.82,131.355],[103.477,131.236],[103.141,131.098],[102.813,130.942],[102.605,130.639],[102.415,130.326],[102.241,130.002],[102.085,129.67],[101.947,129.329],[101.828,128.982],[101.728,128.629],[97.0234,108.552],[96.9201,108.101],[96.8345,107.647],[96.7668,107.189],[96.7171,106.73],[96.6855,106.269],[96.672,105.806]]
M73 P0 R8
;TYPE:Custom
M220 S100
G90 ; use absolute coordinates
M83 ; extruder relative mode
M104 S150 ; set temporary nozzle temp to prevent oozing during homing
M140 S55 ; set final bed temp
G4 S30 ; allow partial nozzle warmup
G28 ; home all axis and restore leveling
BED_MESH_CALIBRATE PROFILE=adaptive ADAPTIVE=1 ADAPTIVE_MARGIN=0
G1 Z25 F240
G1 X10.0 Y30 F3000
M104 S205 ; set final nozzle temp
M190 S55 ; wait for bed temp to stabilize
M109 S205 ; wait for nozzle temp to stabilize
M73 P1 R8
G1 Z0.28 F240
G92 E0 ; Move Z Axis up
G1 Z2.0 F5000 ; Move to start position
M73 P2 R8
G1 X5 Y30 Z0.28 F300 ; Draw the first line
G1 X5 Y200 Z0.28 F1500 E15 ; Move to side a little
G1 X5.4 Y200 Z0.28 F5000.0 ; Draw the second line
M73 P4 R8
G1 X5.4 Y50 Z0.28 F1500.0 E30 ; Reset Extruder
G92 E0 ; Move Z Axis up
G1 Z2.0 F3000
M117 Start Printing..
G90
G21
M83 ; use relative distances for extrusion
; filament start gcode
SET_PRESSURE_ADVANCE ADVANCE=0.052; Override pressure advance value
M106 S0
;LAYER_CHANGE
;Z:0.2
;HEIGHT:0.2
;BEFORE_LAYER_CHANGE
;0.2
G92 E0

M73 P5 R8
G1 E-.5 F1800
;_SET_FAN_SPEED_CHANGING_LAYER
SET_VELOCITY_LIMIT ACCEL=1000
SET_VELOCITY_LIMIT SQUARE_CORNER_VELOCITY=7
; printing object Corps2.stl id:0 copy 0
EXCLUDE_OBJECT_START NAME=Corps2.stl_id_0_copy_0
G1 Z.2 F24000
G1 X132.259 Y141.435
G1 Z.2
G1 E.5 F1800
;TYPE:Inner wall
;WIDTH:0.499999
G1 X132.325 Y141.492 E.00326
G1 X132.997 Y141.882 E.02895
G1 X133.522 Y142.269 E.02427
G1 X134.002 Y142.71 E.0243
G1 X134.432 Y143.201 E.0243
G1 X134.807 Y143.735 E.0243
G1 X135.122 Y144.306 E.0243
G1 X135.374 Y144.908 E.0243
G1 X135.56 Y145.533 E.0243
G1 X135.677 Y146.175 E.0243
G1 X135.725 Y146.825 E.0243
G1 X135.702 Y147.477 E.0243
G1 X135.612 Y148.108 E.02371
G1 X135.487 Y148.604 E.01908
G1 X135.317 Y149.106 E.01973
G1 X135.299 Y148.75 E.01329
G1 X135.066 Y148.202 E.02219
G1 X134.898 Y147.973 E.01057
G1 X134.564 Y147.673 E.01672
G1 X134.318 Y147.532 E.01056
G1 X133.802 Y147.37 E.02014
G1 X133.344 Y147.369 E.01704
G1 X132.866 Y147.497 E.01844
G1 X132.655 Y147.609 E.00889
G1 X132.162 Y148.029 E.02413
G1 X131.899 Y148.512 E.02049
G1 X131.82 Y148.786 E.01062
G1 X131.788 Y149.322 E.02
G1 X131.939 Y149.825 E.01959
G1 X132.102 Y150.155 E.01369
G1 X132.452 Y150.519 E.0188
G1 X132.688 Y150.679 E.01062
G1 X133.077 Y150.836 E.01563
G1 X132.367 Y150.909 E.0266
G1 X131.722 Y150.899 E.02401
G1 X131.091 Y150.821 E.02367
G1 X130.14 Y150.569 E.03666
G1 X129.553 Y150.325 E.02366
G1 X128.988 Y150.015 E.02401
G1 X128.459 Y149.646 E.02401
G1 X127.974 Y149.222 E.02401
G1 X127.537 Y148.749 E.02401
G1 X127.153 Y148.231 E.024
G1 X126.887 Y147.777 E.01961
G1 X126.648 Y147.303 E.01977
G1 X126.515 Y147.116 E.00854
G1 X126.249 Y146.951 E.01167
G1 X125.965 Y146.918 E.01065
G1 X125.754 Y146.973 E.00811
G1 X125.093 Y147.263 E.0269
G1 X124.489 Y147.459 E.02363
G1 X123.91 Y147.588 E.02211
G1 X122.992 Y147.679 E.03437
G1 X122.412 Y147.636 E.02165
G1 X121.74 Y147.503 E.02551
G1 X121.242 Y147.372 E.01919
G1 X120.718 Y147.18 E.02079
G1 X120.129 Y146.933 E.02378
G1 X119.804 Y146.935 E.01208
G1 X119.532 Y147.073 E.01136
G1 X119.361 Y147.288 E.01023
G1 X119.017 Y147.958 E.02805
G1 X118.662 Y148.495 E.02398
G1 X118.251 Y148.992 E.02401
G1 X117.789 Y149.441 E.02401
G1 X117.281 Y149.838 E.02401
G1 X116.741 Y150.173 E.02367
G1 X115.843 Y150.575 E.03666
G1 X115.233 Y150.754 E.02366
G1 X114.608 Y150.866 E.02367
G1 X113.624 Y150.909 E.03667
G1 X112.992 Y150.85 E.02364
G1 X112.36 Y150.722 E.02402
G1 X111.812 Y150.548 E.02141
G1 X111.326 Y150.341 E.01967
G1 X111.073 Y149.949 E.01738
G1 X110.838 Y149.481 E.01951
G1 X110.609 Y148.909 E.02298
G1 X110.436 Y148.303 E.02344
G1 X110.326 Y147.677 E.02368
G1 X110.282 Y147.039 E.02382
G1 X110.306 Y146.397 E.02395
G1 X110.399 Y145.757 E.02405
G1 X110.56 Y145.131 E.02409
G1 X110.787 Y144.523 E.02415
G1 X111.078 Y143.943 E.0242
G1 X111.431 Y143.396 E.02424
G1 X111.841 Y142.889 E.02428
G1 X112.233 Y142.494 E.02072
G1 X112.668 Y142.129 E.02118
G1 X113.209 Y141.762 E.02432
G1 X113.758 Y141.435 E.02381
G1 X113.947 Y141.199 E.01126
G1 X114.015 Y140.95 E.00962
G1 X113.995 Y140.729 E.00826
G1 X113.86 Y140.463 E.01112
G1 X112.102 Y138.332 E.1029
G1 X110.46 Y136.231 E.09932
G1 X108.873 Y134.087 E.09932
G1 X107.348 Y131.911 E.09897
G1 X106.885 Y131.169 E.03258
G1 X106.485 Y130.403 E.03221
G1 X106.139 Y129.585 E.03307
G1 X105.872 Y128.786 E.03138
G1 X105.663 Y127.953 E.03199
G1 X105.472 Y126.663 E.04857
G1 X105.436 Y125.417 E.04641
G1 X105.7 Y124.254 E.04444
G1 X105.96 Y123.479 E.03044
G1 X106.273 Y122.747 E.02967
G1 X106.874 Y121.658 E.04631
G1 X107.614 Y120.634 E.04709
G1 X108.154 Y120.029 E.03018
G1 X109.024 Y119.233 E.04394
G1 X109.945 Y119.727 E.03889
G1 X110.608 Y120.051 E.02751
G1 X112.194 Y120.741 E.06441
G1 X113.378 Y121.189 E.04714
G1 X114.521 Y121.561 E.04479
G1 X115.586 Y121.867 E.04127
G1 X117 Y122.204 E.05414
G1 X117.503 Y122.297 E.01905
;WIDTH:0.500456
G1 X118.486 Y122.478 E.03724
;WIDTH:0.550396
G1 X118.656 Y122.526 E.00731
;WIDTH:0.600336
G1 X118.826 Y122.573 E.00803
;WIDTH:0.650275
G1 X118.996 Y122.621 E.00875
G1 X119.483 Y122.67 E.02422
;WIDTH:0.621889
G1 X119.97 Y122.72 E.02309
;WIDTH:0.593502
G1 X120.353 Y122.731 E.01718
;WIDTH:0.546751
G1 X120.736 Y122.743 E.01572
;WIDTH:0.499999
G1 X122.477 Y122.825 E.06493
G1 X123.036 Y122.831 E.02084
G1 X124.509 Y122.792 E.05488
M73 P6 R8
G1 X125.43 Y122.72 E.03438
;WIDTH:0.548854
G1 X125.699 Y122.72 E.0111
;WIDTH:0.597709
G1 X125.968 Y122.72 E.01218
;WIDTH:0.646564
G1 X126.238 Y122.72 E.01325
G1 X126.917 Y122.629 E.0337
;WIDTH:0.644542
G1 X127.128 Y122.577 E.01066
;WIDTH:0.596361
G1 X127.339 Y122.525 E.0098
;WIDTH:0.54818
G1 X127.55 Y122.472 E.00895
;WIDTH:0.499999
G1 X129.035 Y122.197 E.05626
G1 X130.545 Y121.832 E.05787
G1 X131.622 Y121.513 E.04183
G1 X132.632 Y121.185 E.03956
G1 X134.281 Y120.542 E.06594
G1 X135.476 Y120.011 E.04871
G1 X136.135 Y119.686 E.02736
G1 X136.972 Y119.235 E.03543
G1 X137.244 Y119.455 E.01303
G1 X137.842 Y120.024 E.03073
G1 X138.391 Y120.639 E.03071
G1 X138.871 Y121.274 E.02965
G1 X139.53 Y122.354 E.04712
G1 X140.035 Y123.466 E.04548
G1 X140.234 Y124.058 E.02327
G1 X140.41 Y124.696 E.02465
G1 X140.566 Y125.41 E.02723
G1 X140.558 Y126.225 E.03035
G1 X140.417 Y127.528 E.04882
G1 X140.242 Y128.368 E.03196
G1 X140.001 Y129.192 E.03199
G1 X139.514 Y130.402 E.04856
G1 X138.889 Y131.546 E.04856
G1 X137.898 Y133.002 E.06561
G1 X137.128 Y134.085 E.04949
G1 X135.54 Y136.231 E.09941
G1 X133.898 Y138.332 E.09932
G1 X132.095 Y140.524 E.10573
G1 X131.992 Y140.792 E.01069
G1 X132.011 Y141.091 E.01116
G1 X132.132 Y141.325 E.00983
G1 X132.229 Y141.409 E.00476
G1 X132.554 Y141.097 F24000
;TYPE:Outer wall
G1 F1800
G1 X133.415 Y141.622 E.03754
G1 X133.955 Y142.046 E.02558
G1 X134.483 Y142.566 E.0276
G1 X134.893 Y143.061 E.02395
G1 X135.27 Y143.628 E.02537
G1 X135.616 Y144.303 E.02826
G1 X135.84 Y144.872 E.02279
G1 X136.071 Y145.788 E.03515
G1 X136.153 Y146.416 E.02361
G1 X136.169 Y147.199 E.02917
G1 X136.124 Y147.756 E.0208
G1 X136.045 Y148.268 E.01931
G1 X135.875 Y148.919 E.02506
;WIDTH:0.526331
G1 X135.753 Y149.208 E.01236
;WIDTH:0.552662
G1 X135.631 Y149.497 E.01303
;WIDTH:0.601259
G1 X135.544 Y149.621 E.00686
;WIDTH:0.649856
G1 X135.458 Y149.744 E.00745
G1 X135.244 Y150.174 E.02374
;WIDTH:0.672742
G1 X134.925 Y150.636 E.02881
G1 X134.606 Y150.79 E.01819
;WIDTH:0.645831
G1 X134.374 Y150.906 E.01278
;WIDTH:0.61892
G1 X133.716 Y151.126 E.03256
;WIDTH:0.591391
G1 X133.395 Y151.215 E.01486
;WIDTH:0.545695
G1 X133.075 Y151.303 E.01362
;WIDTH:0.499999
G1 X132.384 Y151.367 E.02585
G1 X131.69 Y151.356 E.02585
G1 X131.004 Y151.27 E.02574
G1 X129.993 Y151.003 E.03896
G1 X129.355 Y150.738 E.02573
G1 X128.747 Y150.404 E.02585
G1 X128.178 Y150.007 E.02585
G1 X127.655 Y149.551 E.02585
G1 X127.184 Y149.041 E.02585
G1 X126.771 Y148.483 E.02584
G1 X126.493 Y148.007 E.02053
G1 X126.236 Y147.501 E.02115
G1 X126.103 Y147.384 E.00661
G1 X125.938 Y147.391 E.00615
G1 X125.256 Y147.691 E.02775
G1 X124.61 Y147.9 E.02529
G1 X123.982 Y148.04 E.02394
G1 X122.997 Y148.138 E.03687
G1 X122.35 Y148.089 E.02417
G1 X121.371 Y147.895 E.03717
G1 X120.745 Y147.691 E.02455
G1 X120.063 Y147.391 E.02774
G1 X119.879 Y147.391 E.00683
G1 X119.767 Y147.496 E.00572
G1 X119.412 Y148.189 E.02898
G1 X119.03 Y148.768 E.02584
G1 X118.588 Y149.302 E.02585
G1 X118.09 Y149.786 E.02585
G1 X117.543 Y150.213 E.02585
G1 X116.956 Y150.578 E.02574
G1 X116.001 Y151.005 E.03896
G1 X115.338 Y151.2 E.02573
G1 X114.658 Y151.322 E.02574
G1 X113.613 Y151.366 E.03897
G1 X112.925 Y151.303 E.02571
G1 X112.245 Y151.165 E.02586
G1 X111.584 Y150.955 E.02585
G1 X111.016 Y150.704 E.02311
G1 X110.675 Y150.177 E.0234
G1 X110.36 Y149.549 E.02614
G1 X110.181 Y149.069 E.01912
G1 X109.993 Y148.417 E.02527
G1 X109.874 Y147.742 E.02552
G1 X109.826 Y147.055 E.02565
G1 X109.851 Y146.363 E.02579
G1 X109.949 Y145.675 E.02589
G1 X110.121 Y145.001 E.02592
G1 X110.365 Y144.347 E.02599
G1 X110.678 Y143.722 E.02603
G1 X111.057 Y143.133 E.02607
G1 X111.497 Y142.588 E.02611
G1 X111.995 Y142.092 E.02615
G1 X112.539 Y141.656 E.02598
G1 X112.98 Y141.367 E.01963
G1 X113.473 Y141.078 E.02131
G1 X113.559 Y140.916 E.00681
G1 X113.507 Y140.754 E.00635
G1 X111.745 Y138.618 E.10312
G1 X110.096 Y136.507 E.09977
G1 X108.502 Y134.354 E.09977
G1 X106.967 Y132.163 E.09964
G1 X106.488 Y131.396 E.03369
G1 X106.071 Y130.598 E.03355
G1 X105.711 Y129.747 E.03441
G1 X105.432 Y128.914 E.0327
G1 X105.214 Y128.042 E.03349
G1 X105.016 Y126.703 E.0504
G1 X104.977 Y125.373 E.04957
G1 X105.259 Y124.13 E.04746
G1 X105.532 Y123.316 E.03199
G1 X105.862 Y122.546 E.0312
G1 X106.487 Y121.413 E.0482
G1 X107.354 Y120.239 E.05436
G1 X107.984 Y119.565 E.03435
G1 X108.955 Y118.676 E.04904
G1 X110.119 Y119.303 E.04921
G1 X110.793 Y119.633 E.02797
G1 X112.363 Y120.316 E.06376
G1 X113.521 Y120.754 E.04611
G1 X114.649 Y121.122 E.0442
G1 X115.698 Y121.424 E.04068
G1 X117.083 Y121.755 E.05303
G1 X118.545 Y122.025 E.05537
G1 X120.016 Y122.218 E.05525
G1 X120.76 Y122.286 E.02781
G1 X121.571 Y122.329 E.03028
G1 X123.024 Y122.374 E.05415
G1 X124.474 Y122.336 E.054
G1 X125.993 Y122.217 E.05675
G1 X127.466 Y122.023 E.05537
G1 X128.928 Y121.752 E.05537
G1 X130.421 Y121.392 E.0572
G1 X131.481 Y121.078 E.04117
G1 X132.469 Y120.758 E.03867
G1 X134.096 Y120.124 E.06504
G1 X135.275 Y119.6 E.04805
G1 X135.918 Y119.284 E.0267
G1 X137.024 Y118.688 E.04678
G1 X137.546 Y119.111 E.02506
G1 X138.17 Y119.706 E.0321
G1 X138.744 Y120.349 E.03209
G1 X139.25 Y121.016 E.03119
G1 X139.935 Y122.14 E.04902
G1 X140.46 Y123.298 E.04738
G1 X140.742 Y124.133 E.0328
G1 X140.926 Y124.877 E.02856
M73 P7 R8
G1 X141.023 Y125.37 E.01874
G1 X141.015 Y126.252 E.03283
G1 X140.869 Y127.599 E.05049
G1 X140.685 Y128.479 E.03346
G1 X140.433 Y129.342 E.03349
G1 X139.929 Y130.597 E.0504
G1 X139.28 Y131.785 E.0504
G1 X138.273 Y133.263 E.06661
G1 X137.498 Y134.354 E.04983
G1 X135.904 Y136.507 E.0998
G1 X134.255 Y138.618 E.09977
G1 X132.465 Y140.797 E.10503
G1 X132.45 Y140.963 E.00621
G1 X132.53 Y141.065 E.00484
G1 E-.5
;WIPE_START
G1 F12000
G1 X133.415 Y141.622
G1 X133.955 Y142.046
G1 X134.146 Y142.234
;WIPE_END
G1 Z.4 F24000
G1 X127.546 Y123.377 Z.4
G1 Z.2
G1 E.5 F1800
;TYPE:Inner wall
G1 X128.145 Y123.588 E.02363
G1 X128.598 Y123.901 E.02052
G1 X128.877 Y124.133 E.01351
G1 X129.283 Y124.615 E.0235
G1 X129.693 Y125.315 E.03018
G1 X129.995 Y126.097 E.03123
G1 X130.184 Y126.912 E.03117
G1 X130.242 Y127.526 E.02295
G1 X130.281 Y128.106 E.02168
G1 X130.238 Y128.82 E.02663
G1 X130.084 Y129.721 E.03407
G1 X129.778 Y130.646 E.03626
G1 X129.46 Y131.266 E.02595
G1 X129.006 Y131.881 E.0285
G1 X128.455 Y132.372 E.02746
G1 X127.814 Y132.707 E.02695
G1 X127.106 Y132.849 E.02689
G1 X126.745 Y132.825 E.01349
G1 X126.208 Y132.718 E.02038
G1 X125.691 Y132.468 E.0214
G1 X125.27 Y132.137 E.01997
G1 X124.994 Y131.881 E.01399
G1 X124.604 Y131.368 E.024
G1 X124.222 Y130.646 E.03044
G1 X123.947 Y129.847 E.03148
G1 X123.778 Y128.992 E.03243
G1 X123.719 Y128.117 E.03269
G1 X123.768 Y127.242 E.03261
G1 X123.923 Y126.392 E.0322
G1 X124.182 Y125.599 E.03107
G1 X124.41 Y125.136 E.01922
G1 X124.604 Y124.781 E.01508
G1 X124.994 Y124.268 E.024
G1 X125.545 Y123.777 E.02746
;WIDTH:0.545989
G1 X125.853 Y123.59 E.01482
;WIDTH:0.591978
G1 X126.162 Y123.402 E.01617
;WIDTH:0.619271
G1 X126.249 Y123.358 E.00454
;WIDTH:0.646564
G1 X126.335 Y123.315 E.00476
G1 X126.932 Y123.228 E.02967
;WIDTH:0.644542
G1 X127.103 Y123.265 E.00858
;WIDTH:0.596361
G1 X127.274 Y123.303 E.00789
;WIDTH:0.54818
G1 X127.445 Y123.341 E.0072
;WIDTH:0.499999
G1 X127.509 Y123.363 E.00253
G1 X127.378 Y123.794 F24000
;TYPE:Outer wall
G1 F1800
G1 X127.408 Y123.796 E.00112
G1 X127.975 Y124.012 E.02258
G1 X128.527 Y124.427 E.02574
G1 X128.934 Y124.91 E.0235
G1 X129.295 Y125.54 E.02704
G1 X129.567 Y126.257 E.02857
G1 X129.738 Y127.012 E.02882
G1 X129.825 Y128.085 E.04011
G1 X129.776 Y128.879 E.02962
G1 X129.634 Y129.636 E.0287
G1 X129.371 Y130.437 E.0314
G1 X129.054 Y131.057 E.02595
G1 X128.642 Y131.604 E.0255
G1 X128.158 Y132.024 E.02386
G1 X127.615 Y132.296 E.02262
G1 X127.035 Y132.397 E.02191
G1 X126.385 Y132.296 E.02452
G1 X125.89 Y132.056 E.02046
G1 X125.391 Y131.639 E.02422
G1 X124.968 Y131.092 E.02579
G1 X124.629 Y130.437 E.02745
G1 X124.38 Y129.702 E.02891
G1 X124.228 Y128.907 E.03014
G1 X124.175 Y128.089 E.03056
G1 X124.224 Y127.27 E.03053
G1 X124.372 Y126.477 E.03006
G1 X124.615 Y125.744 E.02877
G1 X124.851 Y125.278 E.01945
G1 X124.968 Y125.058 E.00928
G1 X125.358 Y124.545 E.024
G1 X125.842 Y124.125 E.02386
G1 X126.382 Y123.854 E.02251
G1 X126.89 Y123.755 E.01928
G1 X127.338 Y123.791 E.01675
G1 E-.5
;WIPE_START
G1 F12000
G1 X127.408 Y123.796
G1 X127.975 Y124.012
G1 X128.527 Y124.427
G1 X128.934 Y124.91
G1 X128.935 Y124.911
;WIPE_END
G1 Z.4 F24000
G1 X125.223 Y135.898 Z.4
G1 Z.2
G1 E.5 F1800
;TYPE:Inner wall
G1 X125.549 Y135.912 E.01215
G1 X125.89 Y136.04 E.01359
