; HEADER_BLOCK_START
; generated by OrcaSlicer 2.1.1 on 2024-08-20 at 12:52:38
; total layer number: 25
; filament_density: 1.27
; filament_diameter: 1.75
; max_z_height: 5.00
; HEADER_BLOCK_END

; THUMBNAIL_BLOCK_START

;
; THUMBNAIL_BLOCK_END

; THUMBNAIL_BLOCK_START

;
; THUMBNAIL_BLOCK_END

; external perimeters extrusion width = 0.42mm
; perimeters extrusion width = 0.45mm
; infill extrusion width = 0.45mm
; solid infill extrusion width = 0.45mm
; top infill extrusion width = 0.42mm
; first layer extrusion width = 0.50mm

; EXECUTABLE_BLOCK_START
EXCLUDE_OBJECT_DEFINE NAME=Corps1.stl_id_0_copy_0 CENTER=115,115 POLYGON=[[112,112.54],[112.001,112.414],[112.008,112.287],[112.019,112.161],[112.036,112.035],[112.058,111.91],[112.086,111.787],[112.119,111.664],[112.157,111.543],[112.2,111.424],[112.247,111.307],[112.3,111.192],[112.358,111.079],[112.42,110.969],[112.487,110.861],[112.559,110.756],[112.635,110.655],[112.715,110.556],[112.799,110.462],[112.887,110.371],[112.979,110.283],[113.074,110.2],[113.173,110.121],[113.275,110.045],[113.38,109.975],[113.488,109.909],[113.599,109.847],[113.712,109.79],[113.828,109.738],[113.946,109.691],[114.065,109.649],[114.187,109.612],[114.309,109.581],[114.433,109.554],[114.558,109.533],[114.684,109.517],[114.81,109.506],[114.937,109.501],[115.063,109.501],[115.19,109.506],[115.316,109.517],[115.442,109.533],[115.567,109.554],[115.691,109.581],[115.813,109.612],[115.935,109.649],[116.054,109.691],[116.172,109.738],[116.288,109.79],[116.401,109.847],[116.512,109.909],[116.62,109.975],[116.725,110.045],[116.827,110.121],[116.926,110.2],[117.021,110.283],[117.113,110.371],[117.201,110.462],[117.285,110.556],[117.365,110.655],[117.441,110.756],[117.513,110.861],[117.58,110.969],[117.642,111.079],[117.7,111.192],[117.753,111.307],[117.8,111.424],[117.843,111.543],[117.881,111.664],[117.914,111.787],[117.942,111.91],[117.964,112.035],[117.981,112.161],[117.992,112.287],[117.999,112.414],[118,112.54],[118,117.46],[117.999,117.586],[117.992,117.713],[117.981,117.839],[117.964,117.965],[117.942,118.09],[117.914,118.213],[117.881,118.336],[117.843,118.457],[117.8,118.576],[117.753,118.693],[117.7,118.808],[117.642,118.921],[117.58,119.031],[117.513,119.139],[117.441,119.244],[117.365,119.345],[117.285,119.444],[117.201,119.538],[117.113,119.629],[117.021,119.717],[116.926,119.8],[116.827,119.879],[116.725,119.955],[116.62,120.025],[116.512,120.091],[116.401,120.153],[116.288,120.21],[116.172,120.262],[116.054,120.309],[115.935,120.351],[115.813,120.388],[115.691,120.419],[115.567,120.446],[115.442,120.467],[115.316,120.483],[115.19,120.494],[115.063,120.499],[114.937,120.499],[114.81,120.494],[114.684,120.483],[114.558,120.467],[114.433,120.446],[114.309,120.419],[114.187,120.388],[114.065,120.351],[113.946,120.309],[113.828,120.262],[113.712,120.21],[113.599,120.153],[113.488,120.091],[113.38,120.025],[113.275,119.955],[113.173,119.879],[113.074,119.8],[112.979,119.717],[112.887,119.629],[112.799,119.538],[112.715,119.444],[112.635,119.345],[112.559,119.244],[112.487,119.139],[112.42,119.031],[112.358,118.921],[112.3,118.808],[112.247,118.693],[112.2,118.576],[112.157,118.457],[112.119,118.336],[112.086,118.213],[112.058,118.09],[112.036,117.965],[112.019,117.839],[112.008,117.713],[112.001,117.586],[112,117.46],[112,112.54]]
M73 P0 R2
;TYPE:Custom
M220 S100
G90 ; use absolute coordinates
M83 ; extruder relative mode
M104 S150 ; set temporary nozzle temp to prevent oozing during homing
M140 S70 ; set final bed temp
G4 S30 ; allow partial nozzle warmup
G28 ; home all axis and restore leveling
BED_MESH_CALIBRATE PROFILE=adaptive ADAPTIVE=1 ADAPTIVE_MARGIN=0
G1 Z25 F240
G1 X10.0 Y30 F3000
M104 S245 ; set final nozzle temp
M190 S70 ; wait for bed temp to stabilize
M109 S245 ; wait for nozzle temp to stabilize
M73 P3 R2
G1 Z0.28 F240
G92 E0 ; Move Z Axis up
M73 P4 R2
G1 Z2.0 F5000 ; Move to start position
M73 P7 R2
G1 X5 Y30 Z0.28 F300 ; Draw the first line
G1 X5 Y200 Z0.28 F1500 E15 ; Move to side a little
M73 P8 R2
G1 X5.4 Y200 Z0.28 F5000.0 ; Draw the second line
M73 P12 R2
G1 X5.4 Y50 Z0.28 F1500.0 E30 ; Reset Extruder
G92 E0 ; Move Z Axis up
G1 Z2.0 F3000
M117 Start Printing..
G90
G21
M83 ; use relative distances for extrusion
; filament start gcode
SET_PRESSURE_ADVANCE ADVANCE=0.076; Override pressure advance value
M106 S0
;LAYER_CHANGE
;Z:0.2
;HEIGHT:0.2
;BEFORE_LAYER_CHANGE
;0.2
G92 E0

;_SET_FAN_SPEED_CHANGING_LAYER
SET_VELOCITY_LIMIT ACCEL=1000
SET_VELOCITY_LIMIT SQUARE_CORNER_VELOCITY=7
; printing object Corps1.stl id:0 copy 0
M73 P15 R2
G1 E-.5 F1800
EXCLUDE_OBJECT_START NAME=Corps1.stl_id_0_copy_0
M73 P16 R2
G1 Z.2 F24000
G1 X124.083 Y135.337
G1 Z.2
G1 E.5 F1800
;TYPE:Inner wall
;WIDTH:0.499999
G1 F1214
G1 X124.073 Y135.412 E.00285
G1 X124.518 Y135.828 E.02316
G1 X124.894 Y136.305 E.02308
G1 X125.099 Y136.723 E.01768
G1 X125.227 Y137.281 E.02178
G1 X125.21 Y137.846 E.02149
G1 X125.049 Y138.401 E.02196
G1 X124.902 Y138.66 E.01132
G1 X124.588 Y139.079 E.0199
G1 X124.127 Y139.432 E.02205
G1 X123.6 Y139.656 E.02179
G1 X123.361 Y139.697 E.00922
G1 X122.922 Y139.725 E.01672
G1 X122.472 Y139.669 E.01722
G1 X121.947 Y139.478 E.02123
G1 X121.615 Y139.252 E.01529
G1 X121.238 Y138.884 E.02
G1 X120.967 Y138.433 E.02001
G1 X120.803 Y137.94 E.01973
G1 X120.773 Y137.346 E.0226
G1 X120.866 Y136.818 E.02038
G1 X121.086 Y136.349 E.01969
G1 X121.391 Y135.952 E.01903
G1 X121.892 Y135.455 E.02681
G1 X121.894 Y135.323 E.00503
G1 X122.245 Y135.471 E.01451
G1 X122.768 Y135.569 E.02019
G1 X123.274 Y135.566 E.01925
G1 X123.803 Y135.456 E.02052
G1 X124.046 Y135.353 E.01004
G1 X124.489 Y134.956 F24000
;TYPE:Outer wall
;WIDTH:0.463783
G1 F1214
M73 P17 R2
G1 X124.464 Y135.047 E.00331
;WIDTH:0.499999
G1 X124.439 Y135.138 E.00359
G1 X124.853 Y135.514 E.02124
G1 X125.283 Y136.06 E.02642
G1 X125.533 Y136.569 E.02154
G1 X125.685 Y137.236 E.02602
G1 X125.666 Y137.918 E.02593
G1 X125.473 Y138.58 E.02621
G1 X125.195 Y139.07 E.02141
G1 X124.904 Y139.412 E.01706
G1 X124.36 Y139.83 E.0261
G1 X123.729 Y140.098 E.02603
G1 X123.171 Y140.193 E.02153
G1 X122.843 Y140.179 E.01247
G1 X122.367 Y140.114 E.01827
G1 X121.892 Y139.951 E.01906
G1 X121.45 Y139.71 E.01914
G1 X120.985 Y139.288 E.02386
G1 X120.622 Y138.776 E.02386
G1 X120.426 Y138.279 E.0203
G1 X120.325 Y137.78 E.01938
G1 X120.327 Y137.123 E.02496
G1 X120.502 Y136.502 E.02453
G1 X120.748 Y136.026 E.02035
G1 X121.054 Y135.644 E.0186
G1 X121.549 Y135.152 E.02653
G1 X121.535 Y135.066 E.00332
;WIDTH:0.458721
G1 X121.521 Y134.98 E.00302
;WIDTH:0.417443
G1 X121.506 Y134.894 E.00272
;WIDTH:0.376164
G1 X121.473 Y134.873 E.00108
;WIDTH:0.363046
G1 X120.892 Y134.365 E.02055
;WIDTH:0.363181
G1 X120.492 Y133.777 E.01894
;WIDTH:0.364847
G1 X120.262 Y133.147 E.01796
G1 X120.229 Y132.938 E.00566
;WIDTH:0.364738
G1 X120.187 Y132.398 E.01448
;WIDTH:0.366695
G1 X120.263 Y131.845 E.01505
G1 X120.424 Y131.363 E.01367
;WIDTH:0.363079
G1 X120.718 Y130.85 E.01575
;WIDTH:0.362327
G1 X121.091 Y130.427 E.01497
;WIDTH:0.370087
G1 X121.467 Y130.142 E.01283
G1 X121.861 Y129.931 E.01216
;WIDTH:0.352543
G1 X122.415 Y129.752 E.01498
;WIDTH:0.354858
G1 X122.933 Y129.687 E.01354
;WIDTH:0.356443
G1 X123.461 Y129.722 E.01382
;WIDTH:0.357814
G1 X123.96 Y129.851 E.01348
;WIDTH:0.367082
G1 X124.302 Y130.004 E.01011
G1 X124.727 Y130.273 E.01356
;WIDTH:0.362206
G1 X125.122 Y130.655 E.01459
;WIDTH:0.357361
G1 X125.461 Y131.126 E.01518
;WIDTH:0.365338
G1 X125.666 Y131.593 E.01365
G1 X125.76 Y131.933 E.00946
;WIDTH:0.362433
G1 X125.818 Y132.438 E.0135
;WIDTH:0.358686
G1 X125.741 Y133.128 E.01824
;WIDTH:0.359949
G1 X125.508 Y133.785 E.01837
;WIDTH:0.366593
G1 X125.254 Y134.186 E.01279
G1 X124.92 Y134.561 E.01352
;WIDTH:0.39135
G1 X124.514 Y134.865 E.01467
;WIDTH:0.427567
G1 X124.5 Y134.917 E.00174
G1 X123.886 Y134.91 F24000
;WIDTH:0.499999
G1 F1214
G1 X123.768 Y134.987 E.00538
G1 X123.223 Y135.111 E.02124
G1 X122.728 Y135.107 E.01879
G1 X122.286 Y135.006 E.01723
G1 X122.09 Y134.887 E.00871
;WIDTH:0.458721
G1 X121.894 Y134.768 E.00792
;WIDTH:0.417443
G1 X121.698 Y134.65 E.00714
;WIDTH:0.376164
G1 X121.291 Y134.323 E.01446
;WIDTH:0.347661
G1 X120.951 Y133.931 E.01315
;WIDTH:0.349256
G1 X120.699 Y133.477 E.01323
;WIDTH:0.350084
G1 X120.529 Y132.882 E.01581
;WIDTH:0.35254
M73 P18 R2
G1 X120.51 Y132.26 E.01602
;WIDTH:0.354125
G1 X120.646 Y131.652 E.01611
G1 X120.9 Y131.141 E.01476
;WIDTH:0.359672
G1 X121.329 Y130.636 E.01746
G1 X121.945 Y130.233 E.01938
;WIDTH:0.351868
G1 X122.443 Y130.062 E.01353
;WIDTH:0.362146
G1 X123.051 Y130.002 E.01623
G1 X123.462 Y130.042 E.01094
;WIDTH:0.36094
G1 X123.91 Y130.168 E.01232
;WIDTH:0.357755
G1 X124.425 Y130.443 E.0153
;WIDTH:0.355174
G1 X124.854 Y130.819 E.01479
;WIDTH:0.35763
G1 X125.189 Y131.285 E.01503
G1 X125.421 Y131.862 E.01627
;WIDTH:0.356499
G1 X125.5 Y132.38 E.01366
;WIDTH:0.356188
G1 X125.452 Y132.998 E.01616
;WIDTH:0.359949
G1 X125.213 Y133.669 E.01877
G1 X124.846 Y134.189 E.01679
;WIDTH:0.355125
G1 X124.454 Y134.537 E.01358
;WIDTH:0.403417
G1 X124.225 Y134.687 E.00821
;WIDTH:0.451708
G1 X123.997 Y134.837 E.00931
;WIDTH:0.499999
G1 X123.919 Y134.888 E.00351
G1 E-.5 F1800
G1 Z.4 F24000
G1 X124.971 Y136.778
G1 Z.4
G1 Z.2
G1 E.5 F1800
;TYPE:Bottom surface
;WIDTH:0.517096
G1 F1214
G1 X123.941 Y135.765 E.05698
G1 X123.411 Y135.889 E.02147
G1 X124.881 Y137.359 E.082
G1 X124.869 Y137.793 E.01709
G1 X124.818 Y137.967 E.00715
G1 X122.759 Y135.908 E.11481
G1 X122.664 Y135.906 E.00376
G1 X122.049 Y135.771 E.02481
G1 X121.996 Y135.815 E.00274
G1 X124.628 Y138.448 E.1468
G1 X124.537 Y138.61 E.00736
G1 X124.344 Y138.834 E.01164
G1 X121.668 Y136.157 E.14924
G1 X121.485 Y136.358 E.01069
G1 X121.374 Y136.534 E.00822
M73 P19 R2
G1 X123.965 Y139.125 E.14446
G1 X123.496 Y139.326 E.02013
G1 X121.175 Y137.006 E.12941
G1 X121.122 Y137.235 E.00928
G1 X121.111 Y137.612 E.01489
G1 X122.879 Y139.38 E.09857
G1 X122.71 Y139.373 E.00666
G1 X122.409 Y139.302 E.0122
G1 X122.104 Y139.173 E.01306
G1 X121.918 Y139.059 E.0086
G1 X121.724 Y138.896 E.00997
G1 X121.019 Y138.191 E.03935
; stop printing object Corps1.stl id:0 copy 0
;LAYER_CHANGE
;Z:0.4
;HEIGHT:0.2
;BEFORE_LAYER_CHANGE
;0.4
G92 E0

EXCLUDE_OBJECT_END NAME=Corps1.stl_id_0_copy_0
;_SET_FAN_SPEED_CHANGING_LAYER
SET_VELOCITY_LIMIT ACCEL=5000
M104 S240 ; set nozzle temperature
M140 S70 ; set bed temperature
; printing object Corps1.stl id:0 copy 0
G1 E-.5 F1800
EXCLUDE_OBJECT_START NAME=Corps1.stl_id_0_copy_0
G1 Z.4 F24000
G1 X124.125 Y135.271 Z.4
G1 E.5 F1800
;TYPE:Inner wall
;WIDTH:0.449999
G1 F1210
G1 X124.136 Y135.316 E.00158
G1 X124.245 Y135.441 E.0056
G1 X124.781 Y135.902 E.02394
G1 X125.125 Y136.399 E.02046
G1 X125.333 Y136.967 E.02048
G1 X125.393 Y137.58 E.02086
G1 X125.347 Y137.979 E.01359
G1 X125.197 Y138.452 E.01679
G1 X125.042 Y138.726 E.01067
G1 X124.691 Y139.196 E.01985
G1 X124.289 Y139.519 E.01745
G1 X123.928 Y139.708 E.0138
G1 X123.453 Y139.851 E.01678
G1 X123.126 Y139.879 E.01112
G1 X122.559 Y139.854 E.0192
G1 X121.961 Y139.658 E.02131
G1 X121.504 Y139.366 E.01837
G1 X121.107 Y138.97 E.01897
G1 X120.847 Y138.531 E.01726
G1 X120.651 Y137.971 E.0201
G1 X120.617 Y137.353 E.02095
G1 X120.718 Y136.771 E.01998
G1 X120.969 Y136.245 E.01972
G1 X121.252 Y135.874 E.01579
G1 X121.737 Y135.455 E.02172
G1 X121.92 Y135.204 E.01049
G1 X121.934 Y135.048 E.0053
G1 X122.463 Y135.215 E.01879
G1 X122.961 Y135.262 E.01693
G1 X123.487 Y135.217 E.01787
G1 X124.07 Y135.046 E.02056
G1 X124.115 Y135.232 E.00648
G1 X123.949 Y134.671 F24000
SET_VELOCITY_LIMIT ACCEL=2000
;TYPE:Outer wall
;WIDTH:0.423399
G1 F1210
G1 X123.434 Y134.828 E.01703
;WIDTH:0.419999
G1 X122.899 Y134.864 E.01681
G1 X122.566 Y134.837 E.01048
G1 X122.197 Y134.737 E.01199
;WIDTH:0.439472
M73 P20 R2
G1 X121.733 Y134.522 E.01686
;WIDTH:0.441691
G1 X121.234 Y134.091 E.02186
G1 X120.882 Y133.588 E.02036
;WIDTH:0.43886
G1 X120.683 Y133.06 E.01858
;WIDTH:0.43409
G1 X120.618 Y132.53 E.01737
;WIDTH:0.437548
G1 X120.661 Y132.036 E.01627
;WIDTH:0.440492
G1 X120.812 Y131.563 E.01641
;WIDTH:0.441257
G1 X121.059 Y131.125 E.01666
G1 X121.396 Y130.741 E.01692
;WIDTH:0.441725
G1 X121.706 Y130.504 E.01294
G1 X122.158 Y130.276 E.01679
G1 X122.649 Y130.146 E.01684
;WIDTH:0.441937
G1 X123.058 Y130.122 E.01359
G1 X123.428 Y130.156 E.01233
;WIDTH:0.442342
G1 X124.023 Y130.354 E.02083
G1 X124.366 Y130.548 E.01309
;WIDTH:0.439923
G1 X124.621 Y130.751 E.01076
;WIDTH:0.436906
G1 X124.946 Y131.123 E.01618
;WIDTH:0.441055
G1 X125.218 Y131.636 E.01922
G1 X125.337 Y132.023 E.0134
;WIDTH:0.437661
G1 X125.384 Y132.418 E.01306
G1 X125.361 Y132.836 E.01374
;WIDTH:0.437217
G1 X125.246 Y133.298 E.01561
;WIDTH:0.434662
G1 X125.032 Y133.745 E.01614
;WIDTH:0.441032
G1 X124.633 Y134.231 E.02082
;WIDTH:0.447093
G1 X124.251 Y134.524 E.01618
G1 X124.011 Y134.653 E.00916
;WIDTH:0.423399
G1 X123.987 Y134.66 E.00079
SET_VELOCITY_LIMIT ACCEL=5000
G1 X124.434 Y134.982 F24000
SET_VELOCITY_LIMIT ACCEL=2000
G1 F1210
M106 S0
G1 X124.5 Y135.143 E.00552
;WIDTH:0.419999
G1 X125.075 Y135.637 E.02376
G1 X125.476 Y136.217 E.0221
G1 X125.718 Y136.879 E.0221
G1 X125.788 Y137.584 E.02221
G1 X125.732 Y138.061 E.01507
G1 X125.559 Y138.609 E.01801
G1 X125.269 Y139.123 E.0185
G1 X124.966 Y139.478 E.01465
G1 X124.505 Y139.848 E.01853
G1 X124.077 Y140.072 E.01514
G1 X123.527 Y140.239 E.018
G1 X122.94 Y140.288 E.0185
G1 X122.477 Y140.239 E.01459
G1 X121.8 Y140.017 E.02234
G1 X121.258 Y139.672 E.02014
G1 X120.8 Y139.214 E.02031
G1 X120.517 Y138.751 E.01701
G1 X120.334 Y138.286 E.01568
G1 X120.24 Y137.825 E.01476
G1 X120.224 Y137.357 E.01466
G1 X120.287 Y136.895 E.01464
G1 X120.427 Y136.45 E.01461
G1 X120.665 Y135.993 E.01617
G1 X121.089 Y135.468 E.02115
G1 X121.553 Y135.066 E.01925
;WIDTH:0.439238
G1 X121.524 Y134.867 E.00663
;WIDTH:0.439472
G1 X121.074 Y134.485 E.01947
;WIDTH:0.428994
G1 X120.725 Y134.069 E.01742
;WIDTH:0.42989
G1 X120.469 Y133.619 E.01664
;WIDTH:0.435282
G1 X120.284 Y133.065 E.01908
G1 X120.23 Y132.532 E.01745
;WIDTH:0.434792
G1 X120.266 Y132.024 E.0166
G1 X120.416 Y131.492 E.01802
;WIDTH:0.434096
G1 X120.671 Y130.997 E.01811
;WIDTH:0.432936
G1 X120.993 Y130.591 E.01681
;WIDTH:0.434212
G1 X121.386 Y130.245 E.01703
G1 X121.884 Y129.964 E.01862
;WIDTH:0.432275
M73 P21 R2
G1 X122.38 Y129.801 E.01689
;WIDTH:0.433657
G1 X122.914 Y129.729 E.01751
;WIDTH:0.439216
G1 X123.521 Y129.77 E.02005
G1 X124.014 Y129.926 E.01704
;WIDTH:0.433541
G1 X124.48 Y130.154 E.01685
;WIDTH:0.436906
G1 X124.913 Y130.486 E.01786
G1 X125.279 Y130.916 E.0185
;WIDTH:0.435479
G1 X125.552 Y131.41 E.01842
;WIDTH:0.43746
G1 X125.722 Y131.938 E.01819
;WIDTH:0.437671
G1 X125.778 Y132.437 E.01649
G1 X125.758 Y132.823 E.0127
;WIDTH:0.438792
G1 X125.652 Y133.329 E.01703
;WIDTH:0.441894
G1 X125.473 Y133.763 E.01555
;WIDTH:0.442974
G1 X125.225 Y134.16 E.01559
G1 X124.904 Y134.524 E.01615
;WIDTH:0.445554
G1 X124.498 Y134.843 E.01725
G1 X124.451 Y134.946 E.00381
G1 E-.5 F1800
SET_VELOCITY_LIMIT ACCEL=5000
G1 Z.6 F24000
G1 X123.84 Y139.607
G1 Z.6
G1 Z.4
G1 E.5 F1800
;TYPE:Internal solid infill
;WIDTH:0.460929
G1 F1210
G1 X124.515 Y138.932 E.03315
G1 X124.694 Y138.721 E.00963
G1 X124.916 Y138.329 E.01565
G1 X125.047 Y137.915 E.01512
G1 X125.061 Y137.795 E.00417
G1 X123.298 Y139.558 E.08665
G1 X122.947 Y139.588 E.01224
G1 X122.703 Y139.562 E.00853
G1 X125.051 Y137.214 E.1154
G1 X125.033 Y137.035 E.00625
G1 X124.927 Y136.747 E.01069
G1 X122.244 Y139.429 E.13187
G1 X122.087 Y139.378 E.00575
G1 X121.846 Y139.237 E.00972
G1 X124.725 Y136.358 E.14153
G1 X124.552 Y136.108 E.01056
G1 X124.462 Y136.03 E.00415
G1 X121.523 Y138.969 E.14447
G1 X121.347 Y138.779 E.00898
M73 P22 R2
G1 X121.256 Y138.644 E.00566
G1 X124.144 Y135.756 E.14196
G1 X124.04 Y135.667 E.00475
G1 X123.872 Y135.475 E.00888
G1 X123.865 Y135.444 E.00109
G1 X121.053 Y138.256 E.13822
G1 X120.951 Y137.911 E.01252
G1 X120.937 Y137.781 E.00452
G1 X123.154 Y135.564 E.10897
G1 X123.081 Y135.574 E.00255
G1 X122.587 Y135.54 E.01719
G1 X120.738 Y137.389 E.09092
; stop printing object Corps1.stl id:0 copy 0
;LAYER_CHANGE
;Z:0.6
;HEIGHT:0.2
;BEFORE_LAYER_CHANGE
;0.6
G92 E0

