; HEADER_BLOCK_START
; generated by OrcaSlicer 2.2.0 on 2024-12-01 at 16:40:24
; total layer number: 100
; filament_density: 1.27
; filament_diameter: 1.75
; max_z_height: 20.00
; HEADER_BLOCK_END

; THUMBNAIL_BLOCK_START

;
; THUMBNAIL_BLOCK_END

; THUMBNAIL_BLOCK_START

;
; THUMBNAIL_BLOCK_END

; external perimeters extrusion width = 0.42mm
; perimeters extrusion width = 0.45mm
; infill extrusion width = 0.45mm
; solid infill extrusion width = 0.45mm
; top infill extrusion width = 0.42mm
; first layer extrusion width = 0.50mm

; EXECUTABLE_BLOCK_START
EXCLUDE_OBJECT_DEFINE NAME=Corps27_id_0_copy_0 CENTER=115,115 POLYGON=[[97.1688,95.2224],[97.1919,94.7519],[97.261,94.286],[97.3755,93.829],[97.5342,93.3855],[97.7356,92.9597],[97.9777,92.5557],[98.2583,92.1773],[98.5747,91.8283],[98.9237,91.512],[99.3021,91.2314],[99.7061,90.9892],[100.132,90.7878],[100.575,90.6291],[101.032,90.5146],[101.498,90.4455],[101.969,90.4224],[132.416,90.4224],[132.831,139.578],[101.969,139.578],[101.498,139.554],[101.032,139.485],[100.575,139.371],[100.132,139.212],[99.7061,139.011],[99.3021,138.769],[98.9237,138.488],[98.5747,138.172],[98.2583,137.823],[97.9777,137.444],[97.7356,137.04],[97.5342,136.614],[97.3755,136.171],[97.261,135.714],[97.1919,135.248],[97.1688,134.778],[97.1688,95.2224]]
M73 P0 R28
;TYPE:Custom
M220 S100
G90 ; use absolute coordinates
M83 ; extruder relative mode
M104 S150 ; set temporary nozzle temp to prevent oozing during homing
M140 S70 ; set final bed temp
G4 S30 ; allow partial nozzle warmup
G28 ; home all axis and restore leveling
BED_MESH_CALIBRATE
G1 Z25 F240
G1 X10.0 Y30 F3000
M73 P0 R27
M104 S245 ; set final nozzle temp
M190 S70 ; wait for bed temp to stabilize
M109 S245 ; wait for nozzle temp to stabilize
M73 P0 R27
G1 Z0.28 F240
G92 E0 ; Move Z Axis up
LINE_PURGE
G92 E0 ; Move Z Axis up
G1 Z2.0 F3000
M117 Start Printing..
G90
G21
M83 ; use relative distances for extrusion
; filament start gcode
M106 S0
;LAYER_CHANGE
;Z:0.2
;HEIGHT:0.2
;BEFORE_LAYER_CHANGE
;0.2
G92 E0

G1 E-.5 F1800
TIMELAPSE_TAKE_FRAME
;_SET_FAN_SPEED_CHANGING_LAYER
SET_VELOCITY_LIMIT ACCEL=1000
SET_VELOCITY_LIMIT SQUARE_CORNER_VELOCITY=7
; printing object Corps27 id:0 copy 0
EXCLUDE_OBJECT_START NAME=Corps27_id_0_copy_0
G1 Z.4 F24000
G1 X137.287 Y134.86
G1 Z.4
G1 Z.2
G1 E.5 F1800
;TYPE:Inner wall
;WIDTH:0.499999
G1 F3000
G1 X137.277 Y134.905 E.00167
G1 X136.667 Y135.528 E.03144
G1 X136.093 Y136.182 E.03144
G1 X135.344 Y137.168 E.0447
G1 X135.055 Y137.58 E.01816
G1 X134.595 Y138.319 E.03144
G1 X134.176 Y139.082 E.03144
G1 X133.8 Y139.867 E.03144
G1 X133.466 Y140.671 E.03144
G1 X133.177 Y141.493 E.03144
G1 X132.933 Y142.329 E.03144
G1 X132.735 Y143.176 E.03144
G1 X132.584 Y144.034 E.03144
G1 X132.456 Y145.249 E.0441
G1 X132.42 Y145.956 E.02557
G1 X132.413 Y146.638 E.02463
G1 X132.452 Y147.516 E.03172
G1 X132.536 Y148.374 E.03114
G1 X132.669 Y149.235 E.03144
G1 X132.848 Y150.087 E.03144
G1 X133.073 Y150.928 E.03144
;WIDTH:0.541365
G1 X133.41 Y151.981 E.04355
G1 X133.695 Y152.643 E.02837
;WIDTH:0.499999
G1 X134.02 Y153.36 E.02842
G1 X134.426 Y154.139 E.03172
G1 X134.865 Y154.881 E.03114
G1 X135.349 Y155.605 E.03144
G1 X135.872 Y156.301 E.03144
G1 X136.432 Y156.968 E.03144
G1 X137.027 Y157.603 E.03144
G1 X137.995 Y158.494 E.04746
G1 X138.416 Y158.839 E.01968
G1 X137.845 Y158.821 E.02063
G1 X130.338 Y158.821 E.27103
;WIDTH:0.537186
G1 X129.768 Y158.802 E.0223
;WIDTH:0.574354
G1 X129.197 Y158.783 E.02397
G1 X123.11 Y158.783 E.25553
G1 X122.539 Y158.802 E.02397
;WIDTH:0.537177
G1 X121.968 Y158.821 E.02229
;WIDTH:0.499999
G1 X110.004 Y158.821 E.43198
G1 X109.181 Y158.739 E.02988
G1 X108.423 Y158.51 E.02859
G1 X107.725 Y158.136 E.02859
G1 X107.112 Y157.634 E.02859
G1 X106.61 Y157.022 E.02859
G1 X106.237 Y156.323 E.02859
G1 X106.007 Y155.566 E.02859
G1 X105.926 Y154.742 E.02988
G1 X105.926 Y143.432 E.40836
;WIDTH:0.50475
G1 X105.928 Y140.809 E.09569
;WIDTH:0.552248
G1 X105.952 Y140.682 E.0052
;WIDTH:0.599746
G1 X105.976 Y140.555 E.00568
;WIDTH:0.647244
G1 X105.999 Y140.428 E.00617
G1 X105.995 Y140.245 E.00876
;WIDTH:0.639262
G1 X105.972 Y140.057 E.00893
;WIDTH:0.592841
G1 X105.949 Y139.868 E.00824
;WIDTH:0.54642
G1 X105.926 Y139.68 E.00754
;WIDTH:0.499999
G1 X105.926 Y132.201 E.27003
;WIDTH:0.549853
G1 X105.951 Y132.102 E.00413
;WIDTH:0.599707
G1 X105.976 Y132.002 E.00453
;WIDTH:0.649561
G1 X106.001 Y131.902 E.00494
;WIDTH:0.699415
G1 X106.026 Y131.802 E.00534
G1 X106.021 Y131.609 E.00998
;WIDTH:0.691041
G1 X105.998 Y131.461 E.00768
;WIDTH:0.643281
G1 X105.974 Y131.313 E.00711
;WIDTH:0.59552
G1 X105.95 Y131.165 E.00655
;WIDTH:0.54776
G1 X105.926 Y131.017 E.00598
;WIDTH:0.499999
G1 X105.926 Y115.258 E.569
G1 X106.007 Y114.434 E.02988
G1 X106.237 Y113.677 E.02859
G1 X106.61 Y112.978 E.02859
G1 X107.112 Y112.366 E.02859
G1 X107.725 Y111.864 E.02859
G1 X108.423 Y111.49 E.02859
G1 X109.181 Y111.261 E.02859
G1 X110.004 Y111.179 E.02988
G1 X138.128 Y111.168 E1.01542
G1 X137.598 Y111.612 E.02495
M73 P1 R27
M73 P1 R27
G1 X136.716 Y112.474 E.04452
G1 X136.133 Y113.134 E.0318
G1 X135.601 Y113.805 E.03092
G1 X135.111 Y114.497 E.03062
G1 X134.513 Y115.471 E.04127
G1 X134.231 Y115.976 E.02089
G1 X133.763 Y116.959 E.0393
G1 X133.519 Y117.534 E.02254
G1 X133.133 Y118.649 E.04264
G1 X132.979 Y119.158 E.0192
G1 X132.725 Y120.248 E.0404
G1 X132.615 Y120.832 E.02144
G1 X132.535 Y121.427 E.02169
G1 X132.48 Y121.944 E.01877
G1 X132.423 Y122.906 E.03477
G1 X132.416 Y123.584 E.0245
G1 X132.442 Y124.335 E.02713
G1 X132.537 Y125.345 E.03661
G1 X132.62 Y125.949 E.02203
G1 X132.778 Y126.782 E.03062
G1 X132.983 Y127.614 E.03093
G1 X133.233 Y128.433 E.03093
G1 X133.598 Y129.408 E.03758
G1 X133.865 Y130.034 E.02457
G1 X134.239 Y130.795 E.03062
G1 X134.658 Y131.542 E.03092
G1 X135.115 Y132.266 E.03093
G1 X135.612 Y132.965 E.03094
G1 X136.15 Y133.641 E.03122
G1 X136.712 Y134.276 E.03062
G1 X137.259 Y134.832 E.02815
G1 X137.983 Y134.878 F24000
;TYPE:Outer wall
G1 F3000
G1 X137.603 Y135.226 E.0186
G1 X137.011 Y135.829 E.03054
G1 X136.452 Y136.465 E.03054
G1 X135.929 Y137.129 E.03054
G1 X135.443 Y137.822 E.03054
G1 X134.996 Y138.539 E.03054
G1 X134.588 Y139.28 E.03054
G1 X134.222 Y140.043 E.03054
G1 X133.897 Y140.824 E.03054
G1 X133.616 Y141.621 E.03054
G1 X133.378 Y142.433 E.03054
G1 X133.185 Y143.256 E.03054
G1 X133.038 Y144.089 E.03054
G1 X132.912 Y145.279 E.0432
G1 X132.877 Y145.961 E.02467
G1 X132.87 Y146.618 E.02372
G1 X132.907 Y147.472 E.03083
G1 X132.988 Y148.305 E.03024
G1 X133.116 Y149.141 E.03054
G1 X133.29 Y149.969 E.03054
G1 X133.508 Y150.786 E.03054
G1 X133.855 Y151.809 E.039
G1 X134.111 Y152.455 E.0251
G1 X134.425 Y153.149 E.02751
G1 X134.82 Y153.907 E.03083
G1 X135.246 Y154.627 E.03024
G1 X135.715 Y155.331 E.03054
G1 X136.222 Y156.008 E.03054
G1 X136.766 Y156.656 E.03054
G1 X137.344 Y157.273 E.03054
G1 X138.291 Y158.146 E.04651
G1 X138.949 Y158.659 E.03013
G1 X139.934 Y159.321 E.04284
G1 X139.341 Y159.328 E.0214
G1 X137.845 Y159.278 E.05406
G1 X109.982 Y159.278 E1.00602
G1 X109.091 Y159.19 E.03232
G1 X108.247 Y158.934 E.03184
G1 X107.469 Y158.518 E.03184
G1 X106.788 Y157.959 E.03184
G1 X106.228 Y157.277 E.03184
G1 X105.812 Y156.499 E.03184
G1 X105.556 Y155.655 E.03184
G1 X105.469 Y154.765 E.03231
G1 X105.469 Y115.235 E1.42724
G1 X105.556 Y114.345 E.03232
G1 X105.812 Y113.501 E.03184
G1 X106.228 Y112.723 E.03184
G1 X106.788 Y112.041 E.03184
G1 X107.469 Y111.482 E.03184
G1 X108.247 Y111.066 E.03184
G1 X109.091 Y110.81 E.03184
G1 X109.982 Y110.722 E.03231
G1 X137.425 Y110.722 E.99087
G1 X138.424 Y110.706 E.03608
G1 X138.926 Y110.672 E.01815
G1 X139.584 Y110.68 E.02375
G1 X138.578 Y111.388 E.0444
G1 X137.917 Y111.939 E.03106
G1 X137.048 Y112.789 E.04392
G1 X136.491 Y113.418 E.03034
G1 X135.973 Y114.07 E.03004
G1 X135.497 Y114.741 E.02973
G1 X134.912 Y115.694 E.04038
G1 X134.641 Y116.178 E.02
G1 X134.184 Y117.138 E.03841
G1 X133.949 Y117.69 E.02166
G1 X133.766 Y118.193 E.01934
G1 X133.423 Y119.268 E.04073
G1 X133.174 Y120.334 E.03951
G1 X133.056 Y120.982 E.02379
G1 X132.936 Y121.981 E.03634
G1 X132.88 Y122.918 E.03389
G1 X132.873 Y123.572 E.02362
G1 X132.898 Y124.299 E.02624
G1 X132.99 Y125.284 E.03572
G1 X133.069 Y125.864 E.02115
G1 X133.222 Y126.673 E.02974
G1 X133.421 Y127.481 E.03004
G1 X133.663 Y128.277 E.03004
G1 X134.019 Y129.229 E.03669
G1 X134.276 Y129.833 E.02369
G1 X134.638 Y130.572 E.02974
G1 X135.044 Y131.298 E.03004
G1 X135.488 Y132.002 E.03004
G1 X135.97 Y132.681 E.03004
G1 X136.492 Y133.339 E.03034
G1 X137.038 Y133.956 E.02974
G1 X137.613 Y134.54 E.0296
G1 X137.954 Y134.851 E.01666
G1 E-.5 F1800
;WIPE_START
G1 F12000
G1 X137.603 Y135.226
G1 X137.011 Y135.829
G1 X136.587 Y136.311
;WIPE_END
G1 Z.4 F24000
G1 X132.869 Y152.432 Z.4
G1 Z.2
G1 E.5 F1800
;TYPE:Inner wall
;WIDTH:0.541365
G1 F3000
G1 X132.834 Y152.601 E.00678
;WIDTH:0.499999
G1 X129.791 Y157.872 E.21978
;WIDTH:0.537186
G1 X129.552 Y158.062 E.01191
;WIDTH:0.574373
G1 X129.313 Y158.252 E.01281
G1 X123.11 Y158.252 E.26043
G1 X122.813 Y158.062 E.0148
;WIDTH:0.537177
G1 X122.516 Y157.872 E.01376
;WIDTH:0.499999
G1 X119.473 Y152.601 E.21978
G1 X119.381 Y152.258 E.01281
G1 X119.473 Y151.915 E.01281
G1 X122.516 Y146.643 E.21978
G1 X122.687 Y146.447 E.0094
G1 X122.885 Y146.338 E.00817
G1 X123.171 Y146.301 E.01039
G1 X129.197 Y146.301 E.21758
G1 X129.467 Y146.356 E.00995
G1 X129.735 Y146.562 E.01223
G1 X132.43 Y151.215 E.19413
;WIDTH:0.536356
G1 X132.85 Y151.906 E.03152
;WIDTH:0.541365
G1 X132.933 Y152.12 E.00905
G1 X132.877 Y152.393 E.01096
G1 X132.451 Y152.346 F24000
;TYPE:Outer wall
;WIDTH:0.499999
G1 F3000
G1 X129.395 Y157.643 E.22083
G1 X129.197 Y157.758 E.00825
G1 X123.11 Y157.758 E.21978
G1 X122.912 Y157.643 E.00825
G1 X119.868 Y152.372 E.21978
G1 X119.832 Y152.207 E.00611
G1 X122.912 Y146.872 E.22242
G1 X123.035 Y146.77 E.00576
G1 X129.197 Y146.758 E.22248
G1 X129.343 Y146.811 E.00561
G1 X129.717 Y147.43 E.02613
G1 X132.438 Y152.143 E.19651
G1 X132.449 Y152.306 E.00588
G1 E-.5 F1800
;WIPE_START
G1 F12000
G1 X131.455 Y154.042
;WIPE_END
G1 Z.4 F24000
G1 X115.962 Y136.848 Z.4
G1 Z.2
G1 E.5 F1800
;TYPE:Inner wall
G1 F3000
G1 X116.102 Y136.794 E.00541
G1 X119.392 Y136.788 E.1188
G1 X119.644 Y136.836 E.00927
G1 X119.941 Y137.052 E.01325
G1 X121.586 Y139.902 E.11882
G1 X121.678 Y140.245 E.01281
G1 X121.586 Y140.588 E.01281
G1 X119.986 Y143.359 E.11555
G1 X119.815 Y143.556 E.0094
G1 X119.506 Y143.702 E.01236
G1 X116.192 Y143.702 E.11965
G1 X115.93 Y143.65 E.00965
G1 X115.748 Y143.539 E.00767
G1 X115.598 Y143.359 E.00846
G1 X113.998 Y140.588 E.11555
;WIDTH:0.542684
G1 X113.931 Y140.416 E.00727
;WIDTH:0.585369
G1 X113.864 Y140.245 E.00789
G1 X113.931 Y140.073 E.00789
;WIDTH:0.542684
G1 X113.998 Y139.902 E.00727
;WIDTH:0.499999
G1 X115.598 Y137.131 E.11555
G1 X115.8 Y136.911 E.01075
G1 X115.925 Y136.862 E.00486
G1 X116.121 Y137.256 F24000
;TYPE:Outer wall
G1 F3000
G1 X119.392 Y137.245 E.11812
G1 X119.554 Y137.297 E.00615
G1 X121.19 Y140.131 E.11813
G1 X121.227 Y140.296 E.00611
G1 X119.77 Y142.819 E.10519
G1 X119.533 Y143.196 E.01608
G1 X119.392 Y143.245 E.00539
G1 X116.192 Y143.245 E.11555
G1 X116.044 Y143.191 E.00569
G1 X114.394 Y140.359 E.11833
G1 X114.357 Y140.194 E.00611
G1 X115.994 Y137.359 E.11819
G1 X116.09 Y137.281 E.00445
G1 E-.5 F1800
;WIPE_START
G1 F12000
G1 X118.09 Y137.259
;WIPE_END
G1 Z.4 F24000
G1 X111.71 Y137.457 Z.4
G1 Z.2
G1 E.5 F1800
;TYPE:Inner wall
G1 F3000
G1 X111.822 Y137.538 E.00498
G1 X113.187 Y139.902 E.09855
;WIDTH:0.542684
G1 X113.254 Y140.073 E.00727
;WIDTH:0.585369
G1 X113.321 Y140.245 E.00789
G1 X113.254 Y140.416 E.00789
;WIDTH:0.542684
G1 X113.187 Y140.588 E.00727
;WIDTH:0.499999
G1 X111.875 Y142.859 E.0947
G1 X111.631 Y143.106 E.01254
G1 X111.372 Y143.202 E.00997
G1 X108.659 Y143.202 E.09797
G1 X108.414 Y143.157 E.00899
G1 X108.228 Y143.05 E.00773
G1 X108.065 Y142.859 E.00906
;WIDTH:0.50475
G1 X106.751 Y140.589 E.09569
;WIDTH:0.552248
G1 X106.701 Y140.518 E.00351
;WIDTH:0.599746
G1 X106.65 Y140.447 E.00383
;WIDTH:0.647244
G1 X106.599 Y140.376 E.00416
G1 X106.592 Y140.245 E.00627
;WIDTH:0.639262
G1 X106.646 Y140.131 E.00595
;WIDTH:0.592841
G1 X106.699 Y140.016 E.00549
;WIDTH:0.54642
G1 X106.753 Y139.902 E.00502
;WIDTH:0.499999
G1 X108.065 Y137.631 E.0947
G1 X108.216 Y137.449 E.00853
G1 X108.532 Y137.288 E.01279
G1 X111.281 Y137.288 E.09928
G1 X111.554 Y137.344 E.01005
G1 X111.678 Y137.434 E.00551
G1 X111.453 Y137.813 F24000
;TYPE:Outer wall
G1 F3000
G1 X112.791 Y140.131 E.09663
G1 X112.827 Y140.296 E.00611
G1 X111.479 Y142.631 E.09734
G1 X111.332 Y142.745 E.00673
G1 X108.659 Y142.745 E.09653
G1 X108.493 Y142.686 E.00635
G1 X107.149 Y140.359 E.09702
G1 X107.119 Y140.245 E.00427
G1 X107.149 Y140.131 E.00427
G1 X108.461 Y137.859 E.0947
G1 X108.612 Y137.745 E.00685
G1 X111.281 Y137.745 E.09638
G1 X111.415 Y137.798 E.00521
G1 E-.5 F1800
;WIPE_START
G1 F12000
G1 X112.431 Y139.521
;WIPE_END
G1 Z.4 F24000
G1 X118.25 Y131.881 Z.4
G1 Z.2
G1 E.5 F1800
;TYPE:Inner wall
G1 F3000
G1 X117.986 Y132.19 E.01466
G1 X117.498 Y132.494 E.02075
G1 X117.277 Y132.575 E.00852
G1 X116.729 Y132.663 E.02002
G1 X116.192 Y132.579 E.01963
G1 X115.968 Y132.498 E.0086
G1 X115.56 Y132.26 E.01707
G1 X115.146 Y131.808 E.02212
G1 X115.027 Y131.602 E.0086
G1 X114.851 Y131.087 E.01964
G1 X114.84 Y130.543 E.01964
G1 X114.881 Y130.309 E.0086
G1 X115.057 Y129.839 E.01812
G1 X115.418 Y129.379 E.02113
G1 X115.601 Y129.226 E.0086
G1 X116.069 Y128.966 E.01933
G1 X116.601 Y128.859 E.0196
G1 X116.857 Y128.862 E.00924
G1 X117.392 Y128.967 E.01967
G1 X117.858 Y129.226 E.01924
G1 X118.04 Y129.379 E.0086
G1 X118.393 Y129.824 E.02052
G1 X118.577 Y130.309 E.01873
G1 X118.618 Y130.711 E.01459
G1 X118.596 Y131.141 E.01555
G1 X118.432 Y131.601 E.01765
G1 X118.313 Y131.807 E.0086
G1 X118.276 Y131.851 E.00207
G1 X117.9 Y131.584 F24000
;TYPE:Outer wall
G1 F3000
G1 X117.629 Y131.889 E.01473
G1 X117.195 Y132.125 E.01785
G1 X116.69 Y132.203 E.01847
G1 X116.197 Y132.102 E.01815
G1 X115.769 Y131.839 E.01815
G1 X115.456 Y131.445 E.01813
G1 X115.297 Y130.968 E.01818
G1 X115.311 Y130.465 E.01815
G1 X115.494 Y129.999 E.01808
G1 X115.829 Y129.621 E.01823
G1 X116.271 Y129.382 E.01814
G1 X116.78 Y129.312 E.01854
G1 X117.271 Y129.415 E.01811
G1 X117.69 Y129.672 E.01776
G1 X118.002 Y130.066 E.01815
G1 X118.161 Y130.543 E.01815
G1 X118.148 Y131.046 E.01815
G1 X117.963 Y131.513 E.01815
G1 X117.927 Y131.554 E.00196
G1 E-.5 F1800
;WIPE_START
G1 F12000
G1 X117.629 Y131.889
G1 X117.195 Y132.125
G1 X116.69 Y132.203
G1 X116.197 Y132.102
G1 X116.16 Y132.079
;WIPE_END
G1 Z.4 F24000
G1 X110.65 Y134.044 Z.4
G1 Z.2
G1 E.5 F1800
;TYPE:Inner wall
G1 F3000
G1 X110.519 Y134.066 E.0048
G1 X108.473 Y134.066 E.07385
G1 X108.257 Y134.031 E.00792
G1 X108.057 Y133.926 E.00816
G1 X107.88 Y133.723 E.00971
G1 X106.857 Y131.952 E.07385
;WIDTH:0.549853
G1 X106.812 Y131.9 E.00275
;WIDTH:0.599707
G1 X106.767 Y131.848 E.00302
;WIDTH:0.649561
G1 X106.722 Y131.797 E.00329
;WIDTH:0.699415
G1 X106.677 Y131.745 E.00356
G1 X106.675 Y131.707 E.00198
;WIDTH:0.649561
G1 X106.673 Y131.669 E.00183
;WIDTH:0.599707
G1 X106.671 Y131.631 E.00168
;WIDTH:0.549853
G1 X106.669 Y131.593 E.00153
;WIDTH:0.499999
G1 X107.88 Y129.495 E.08745
G1 X108.044 Y129.303 E.00912
G1 X108.332 Y129.167 E.01149
G1 X109.101 Y129.152 E.02777
G1 X110.519 Y129.152 E.05121
G1 X110.735 Y129.187 E.00792
G1 X111.006 Y129.355 E.01151
G1 X111.377 Y129.952 E.02536
G1 X112.136 Y131.267 E.05481
G1 X112.225 Y131.56 E.01106
G1 X112.135 Y131.952 E.01454
G1 X111.113 Y133.723 E.07385
G1 X110.98 Y133.888 E.00763
G1 X110.74 Y134.029 E.01005
G1 X110.69 Y134.038 E.00186
G1 X110.578 Y133.609 F24000
;TYPE:Outer wall
G1 F3000
G1 X108.659 Y133.609 E.0693
G1 X108.401 Y133.597 E.0093
G1 X108.275 Y133.495 E.00586
G1 X107.253 Y131.723 E.07385
G1 X107.222 Y131.609 E.00427
G1 X107.253 Y131.495 E.00427
G1 X108.275 Y129.723 E.07386
G1 X108.426 Y129.614 E.00672
G1 X110.519 Y129.609 E.07556
G1 X110.681 Y129.677 E.00635
G1 X111.74 Y131.495 E.07596
G1 X111.77 Y131.616 E.0045
G1 X111.455 Y132.217 E.0245
G1 X110.717 Y133.495 E.05329
G1 X110.609 Y133.584 E.00505
G1 E-.5 F1800
;WIPE_START
G1 F12000
G1 X108.659 Y133.609
