; HEADER_BLOCK_START
; generated by OrcaSlicer 2.2.0 on 2024-12-03 at 16:14:51
; total layer number: 400
; filament_density: 1.27
; filament_diameter: 1.75
; max_z_height: 80.05
; HEADER_BLOCK_END

; THUMBNAIL_BLOCK_START

;
; THUMBNAIL_BLOCK_END

; THUMBNAIL_BLOCK_START

;
; THUMBNAIL_BLOCK_END

; external perimeters extrusion width = 0.42mm
; perimeters extrusion width = 0.45mm
; infill extrusion width = 0.45mm
; solid infill extrusion width = 0.45mm
; top infill extrusion width = 0.42mm
; first layer extrusion width = 0.50mm

; EXECUTABLE_BLOCK_START
EXCLUDE_OBJECT_DEFINE NAME=Corps31_id_0_copy_0 CENTER=115,115 POLYGON=[[91.4369,106.669],[91.4457,106.4],[91.4865,106.134],[91.9559,105.564],[92.4538,105.019],[92.979,104.5],[93.5301,104.009],[94.1057,103.546],[94.7042,103.114],[95.3241,102.713],[95.9637,102.344],[96.6213,102.009],[97.2953,101.707],[97.9839,101.441],[98.6852,101.21],[99.3974,101.016],[100.119,100.858],[100.847,100.738],[101.581,100.655],[102.318,100.609],[103.056,100.602],[126.944,100.602],[127.682,100.609],[128.419,100.655],[129.153,100.738],[129.881,100.858],[130.603,101.016],[131.315,101.21],[132.016,101.441],[132.705,101.707],[133.379,102.009],[134.036,102.344],[134.676,102.713],[135.296,103.114],[135.894,103.546],[136.47,104.009],[137.021,104.5],[137.546,105.019],[138.044,105.564],[138.513,106.134],[138.554,106.4],[138.563,106.669],[138.563,123.331],[138.554,123.6],[138.513,123.866],[138.044,124.436],[137.546,124.981],[137.021,125.5],[136.47,125.991],[135.894,126.454],[135.296,126.886],[134.676,127.287],[134.036,127.656],[133.379,127.991],[132.705,128.293],[132.016,128.559],[131.315,128.79],[130.603,128.984],[129.881,129.142],[129.153,129.262],[128.419,129.345],[127.682,129.391],[126.944,129.398],[103.056,129.398],[102.318,129.391],[101.581,129.345],[100.847,129.262],[100.119,129.142],[99.3974,128.984],[98.6852,128.79],[97.9839,128.559],[97.2953,128.293],[96.6213,127.991],[95.9637,127.656],[95.3241,127.287],[94.7042,126.886],[94.1057,126.454],[93.5301,125.991],[92.979,125.5],[92.4538,124.981],[91.9559,124.436],[91.4865,123.866],[91.4457,123.6],[91.4369,123.331],[91.4369,106.669]]
M73 P0 R47
;TYPE:Custom
M220 S100
G90 ; use absolute coordinates
M83 ; extruder relative mode
M104 S150 ; set temporary nozzle temp to prevent oozing during homing
M140 S65 ; set final bed temp
G4 S30 ; allow partial nozzle warmup
G28 ; home all axis and restore leveling
BED_MESH_CALIBRATE
G1 Z25 F240
G1 X10.0 Y30 F3000
M104 S245 ; set final nozzle temp
M190 S65 ; wait for bed temp to stabilize
M109 S245 ; wait for nozzle temp to stabilize
G1 Z0.28 F240
G92 E0 ; Move Z Axis up
LINE_PURGE
G92 E0 ; Move Z Axis up
G1 Z2.0 F3000
M117 Start Printing..
G90
G21
M83 ; use relative distances for extrusion
; filament start gcode
M106 S0
;LAYER_CHANGE
;Z:0.25
;HEIGHT:0.25
;BEFORE_LAYER_CHANGE
;0.25
G92 E0

G1 E-.5 F1800
TIMELAPSE_TAKE_FRAME
;_SET_FAN_SPEED_CHANGING_LAYER
SET_VELOCITY_LIMIT ACCEL=1000
SET_VELOCITY_LIMIT SQUARE_CORNER_VELOCITY=7
; printing object Corps31 id:0 copy 0
EXCLUDE_OBJECT_START NAME=Corps31_id_0_copy_0
G1 Z.45 F24000
G1 X145.413 Y142.246
G1 Z.45
G1 Z.25
G1 E.5 F1800
;TYPE:Inner wall
;WIDTH:0.499999
G1 F3000
G1 X144.86 Y142.977 E.04039
G1 X144.418 Y143.486 E.0297
G1 X143.949 Y143.97 E.0297
G1 X143.455 Y144.428 E.0297
G1 X142.937 Y144.859 E.0297
G1 X142.397 Y145.262 E.0297
G1 X141.836 Y145.635 E.0297
G1 X140.813 Y146.208 E.05167
G1 X140.212 Y146.491 E.02924
G1 X139.597 Y146.742 E.02929
G1 X138.971 Y146.959 E.0292
G1 X138.316 Y147.148 E.03004
G1 X137.679 Y147.295 E.02885
G1 X137.021 Y147.412 E.02942
G1 X136.358 Y147.493 E.02945
G1 X135.691 Y147.538 E.02947
G1 X135.022 Y147.548 E.02949
G1 X134.353 Y147.523 E.0295
G1 X133.686 Y147.462 E.02952
G1 X133.023 Y147.365 E.02953
G1 X132.366 Y147.233 E.02955
G1 X131.716 Y147.065 E.02956
G1 X131.076 Y146.864 E.02957
G1 X130.448 Y146.628 E.02958
G1 X129.833 Y146.359 E.02959
G1 X129.233 Y146.057 E.0296
G1 X128.649 Y145.724 E.02961
G1 X128.085 Y145.36 E.02961
G1 X127.54 Y144.966 E.02962
G1 X127.018 Y144.543 E.02963
G1 X126.611 Y144.18 E.02401
G1 X125.491 Y143.07 E.06951
G1 X124.782 Y142.592 E.03769
G1 X123.985 Y142.282 E.03768
G1 X123.138 Y142.157 E.03773
G1 X122.277 Y142.223 E.03805
G1 X121.47 Y142.472 E.03723
G1 X120.807 Y142.837 E.03336
G1 X120.414 Y143.151 E.02216
G1 X119.389 Y144.18 E.06403
G1 X118.883 Y144.627 E.02976
G1 X118.353 Y145.046 E.02976
G1 X117.802 Y145.436 E.02977
G1 X117.23 Y145.796 E.02978
G1 X116.64 Y146.125 E.02978
G1 X116.032 Y146.422 E.02979
G1 X115.409 Y146.685 E.0298
G1 X114.773 Y146.915 E.02981
G1 X114.125 Y147.11 E.02982
G1 X113.468 Y147.27 E.02983
G1 X112.802 Y147.394 E.02985
G1 X112.13 Y147.482 E.02986
G1 X111.454 Y147.534 E.02988
G1 X110.776 Y147.549 E.0299
G1 X110.219 Y147.534 E.02454
G1 X109.642 Y147.493 E.02551
G1 X108.979 Y147.412 E.02945
G1 X108.321 Y147.295 E.02942
G1 X107.669 Y147.144 E.02951
G1 X106.936 Y146.928 E.03366
G1 X106.403 Y146.742 E.02491
G1 X105.788 Y146.491 E.02929
G1 X105.187 Y146.208 E.02924
G1 X104.604 Y145.895 E.02919
G1 X104.038 Y145.552 E.02915
G1 X103.477 Y145.168 E.02995
G1 X102.97 Y144.782 E.02812
G1 X102.469 Y144.358 E.02892
G1 X101.992 Y143.909 E.02883
G1 X101.541 Y143.439 E.02873
G1 X101.117 Y142.947 E.02862
G1 X100.587 Y142.246 E.03872
G1 X100.747 Y141.938 E.01529
G1 X101.137 Y141.062 E.04225
G1 X101.373 Y140.467 E.02822
G1 X101.583 Y139.852 E.02866
G1 X101.915 Y138.653 E.05482
G1 X102.167 Y137.374 E.05747
G1 X102.256 Y136.676 E.03099
G1 X102.333 Y135.544 E.05002
G1 X102.346 Y134.983 E.02472
G1 X102.29 Y133.714 E.05596
G1 X102.235 Y133.161 E.02452
G1 X102.164 Y132.607 E.02459
G1 X102.028 Y131.839 E.03441
G1 X101.915 Y131.348 E.02221
G1 X101.583 Y130.149 E.05483
G1 X101.332 Y129.428 E.03363
G1 X100.947 Y128.501 E.04422
G1 X100.587 Y127.754 E.03656
G1 X101.14 Y127.023 E.04039
G1 X101.582 Y126.514 E.0297
G1 X102.051 Y126.03 E.0297
G1 X102.545 Y125.572 E.0297
G1 X103.063 Y125.141 E.0297
G1 X103.603 Y124.738 E.0297
G1 X104.164 Y124.365 E.0297
G1 X105.187 Y123.792 E.05167
G1 X105.788 Y123.509 E.02924
G1 X106.403 Y123.258 E.02929
G1 X107.029 Y123.041 E.0292
G1 X107.684 Y122.852 E.03003
G1 X108.321 Y122.705 E.02885
G1 X108.979 Y122.588 E.02942
G1 X109.642 Y122.507 E.02945
G1 X110.309 Y122.462 E.02947
G1 X110.978 Y122.452 E.02949
G1 X111.647 Y122.477 E.0295
G1 X112.314 Y122.538 E.02952
G1 X112.977 Y122.635 E.02953
G1 X113.634 Y122.767 E.02955
G1 X114.284 Y122.935 E.02956
G1 X114.924 Y123.136 E.02957
G1 X115.552 Y123.372 E.02958
G1 X116.167 Y123.641 E.02959
G1 X116.767 Y123.943 E.0296
G1 X117.351 Y124.276 E.02961
G1 X117.915 Y124.64 E.02961
G1 X118.46 Y125.034 E.02962
G1 X118.982 Y125.457 E.02963
G1 X119.389 Y125.82 E.02401
G1 X120.509 Y126.93 E.06951
G1 X121.218 Y127.408 E.03769
G1 X122.015 Y127.718 E.03767
G1 X122.86 Y127.844 E.03767
G1 X123.713 Y127.779 E.03767
G1 X124.53 Y127.528 E.03767
G1 X125.193 Y127.163 E.03336
G1 X125.586 Y126.849 E.02217
G1 X126.611 Y125.82 E.06403
G1 X127.117 Y125.373 E.02976
G1 X127.647 Y124.954 E.02976
G1 X128.198 Y124.564 E.02977
G1 X128.77 Y124.204 E.02978
G1 X129.36 Y123.875 E.02978
G1 X129.968 Y123.578 E.02979
G1 X130.591 Y123.315 E.0298
G1 X131.227 Y123.085 E.02981
G1 X131.875 Y122.89 E.02983
G1 X132.532 Y122.73 E.02983
G1 X133.198 Y122.606 E.02985
G1 X133.87 Y122.518 E.02986
G1 X134.542 Y122.466 E.02972
G1 X135.237 Y122.451 E.03063
G1 X135.902 Y122.472 E.02934
G1 X136.579 Y122.53 E.02994
G1 X137.252 Y122.625 E.02996
G1 X137.92 Y122.756 E.03
G1 X138.58 Y122.924 E.03002
G1 X139.597 Y123.258 E.04717
G1 X140.212 Y123.509 E.02929
G1 X140.813 Y123.792 E.02924
G1 X141.396 Y124.105 E.02919
G1 X141.962 Y124.448 E.02915
G1 X142.523 Y124.832 E.02999
G1 X143.03 Y125.218 E.02809
G1 X143.532 Y125.643 E.02898
G1 X144.013 Y126.097 E.02913
G1 X144.459 Y126.561 E.02837
G1 X144.883 Y127.053 E.02862
G1 X145.413 Y127.754 E.03872
G1 X145.253 Y128.062 E.01529
G1 X144.863 Y128.938 E.04225
G1 X144.627 Y129.533 E.02821
G1 X144.417 Y130.149 E.02868
G1 X144.085 Y131.348 E.05483
G1 X143.94 Y132.02 E.03033
G1 X143.832 Y132.635 E.0275
G1 X143.744 Y133.324 E.03062
G1 X143.667 Y134.456 E.05002
G1 X143.654 Y135.017 E.02471
G1 X143.673 Y135.783 E.03376
G1 X143.764 Y136.835 E.04658
G1 X143.839 Y137.413 E.02566
G1 X143.973 Y138.165 E.03367
G1 X144.085 Y138.653 E.02206
G1 X144.417 Y139.851 E.05482
G1 X144.668 Y140.572 E.03362
G1 X145.052 Y141.498 E.0442
G1 X145.395 Y142.21 E.03481
G1 X145.933 Y142.279 F24000
;TYPE:Outer wall
G1 F3000
G1 X145.633 Y142.71 E.02312
G1 X145.205 Y143.261 E.03076
G1 X144.747 Y143.787 E.03076
G1 X144.261 Y144.289 E.03076
G1 X143.75 Y144.763 E.03076
G1 X143.214 Y145.21 E.03076
G1 X142.654 Y145.627 E.03076
G1 X142.073 Y146.014 E.03075
G1 X141.472 Y146.368 E.03076
G1 X140.853 Y146.69 E.03076
G1 X140.397 Y146.897 E.02207
G1 X139.759 Y147.157 E.03034
G1 X139.111 Y147.383 E.03026
G1 X138.433 Y147.578 E.03111
G1 X137.772 Y147.732 E.02989
G1 X137.091 Y147.852 E.03048
G1 X136.404 Y147.937 E.0305
G1 X135.713 Y147.984 E.03053
G1 X135.02 Y147.995 E.03055
G1 X134.328 Y147.968 E.03056
G1 X133.637 Y147.905 E.03058
G1 X132.95 Y147.805 E.03059
G1 X132.269 Y147.668 E.03061
G1 X131.596 Y147.495 E.03062
G1 X130.933 Y147.287 E.03063
G1 X130.282 Y147.043 E.03064
G1 X129.645 Y146.764 E.03065
G1 X129.024 Y146.452 E.03065
G1 X128.42 Y146.107 E.03066
G1 X127.835 Y145.73 E.03067
G1 X127.271 Y145.322 E.03067
G1 X126.73 Y144.884 E.03069
G1 X126.305 Y144.505 E.02507
G1 X125.234 Y143.435 E.06673
G1 X124.612 Y143.005 E.03333
G1 X123.911 Y142.722 E.03332
G1 X123.164 Y142.602 E.03334
G1 X122.4 Y142.652 E.03373
G1 X121.685 Y142.863 E.03289
G1 X121.065 Y143.203 E.03114
G1 X120.734 Y143.462 E.01853
G1 X119.997 Y144.221 E.04664
G1 X119.488 Y144.7 E.03081
G1 X118.955 Y145.151 E.03076
G1 X118.398 Y145.572 E.03076
G1 X117.82 Y145.963 E.03076
G1 X117.222 Y146.322 E.03076
G1 X116.605 Y146.648 E.03076
G1 X115.971 Y146.941 E.03076
G1 X115.323 Y147.2 E.03076
G1 X114.662 Y147.423 E.03076
G1 X113.99 Y147.611 E.03076
G1 X113.309 Y147.762 E.03076
G1 X112.62 Y147.877 E.03076
G1 X111.927 Y147.954 E.03076
G1 X111.23 Y147.994 E.03075
G1 X110.532 Y147.996 E.03076
G1 X109.835 Y147.961 E.03076
G1 X109.141 Y147.889 E.03076
G1 X108.452 Y147.78 E.03075
G1 X107.769 Y147.634 E.03076
G1 X107.086 Y147.448 E.03119
G1 X106.433 Y147.232 E.03032
G1 X105.783 Y146.979 E.03076
G1 X105.147 Y146.69 E.03076
G1 X104.528 Y146.368 E.03076
G1 X103.927 Y146.014 E.03076
G1 X103.346 Y145.627 E.03075
G1 X102.786 Y145.21 E.03076
G1 X102.25 Y144.763 E.03076
G1 X101.739 Y144.289 E.03076
G1 X101.253 Y143.787 E.03076
G1 X100.795 Y143.261 E.03076
G1 X100.367 Y142.71 E.03076
G1 X100.067 Y142.279 E.02312
G1 X100.341 Y141.752 E.02618
G1 X100.723 Y140.897 E.04127
G1 X100.951 Y140.323 E.02723
G1 X101.16 Y139.708 E.02866
G1 X101.48 Y138.552 E.05284
G1 X101.725 Y137.317 E.05548
G1 X101.813 Y136.62 E.03099
G1 X101.887 Y135.532 E.04804
G1 X101.9 Y134.994 E.02372
G1 X101.844 Y133.748 E.05497
G1 X101.792 Y133.217 E.02353
G1 X101.724 Y132.682 E.02376
G1 X101.48 Y131.448 E.05544
G1 X101.16 Y130.292 E.05285
G1 X100.918 Y129.593 E.03264
G1 X100.663 Y128.953 E.03036
G1 X100.336 Y128.237 E.03467
G1 X100.067 Y127.721 E.02567
G1 X100.367 Y127.29 E.02312
G1 X100.795 Y126.739 E.03076
G1 X101.253 Y126.213 E.03076
G1 X101.739 Y125.711 E.03076
G1 X102.25 Y125.237 E.03076
G1 X102.786 Y124.79 E.03076
G1 X103.346 Y124.373 E.03076
G1 X103.927 Y123.986 E.03075
G1 X104.528 Y123.632 E.03076
G1 X105.147 Y123.31 E.03076
G1 X105.603 Y123.103 E.02207
G1 X106.241 Y122.843 E.03034
G1 X106.889 Y122.617 E.03026
G1 X107.567 Y122.422 E.0311
G1 X108.228 Y122.268 E.02989
G1 X108.909 Y122.148 E.03048
G1 X109.596 Y122.063 E.0305
G1 X110.287 Y122.016 E.03053
G1 X110.98 Y122.005 E.03055
G1 X111.672 Y122.032 E.03056
G1 X112.363 Y122.095 E.03058
G1 X113.05 Y122.195 E.03059
G1 X113.731 Y122.332 E.03061
G1 X114.404 Y122.505 E.03061
G1 X115.067 Y122.713 E.03063
G1 X115.718 Y122.957 E.03064
G1 X116.355 Y123.236 E.03065
G1 X116.976 Y123.548 E.03065
G1 X117.58 Y123.893 E.03066
G1 X118.165 Y124.27 E.03067
G1 X118.729 Y124.678 E.03067
G1 X119.271 Y125.116 E.03069
G1 X119.695 Y125.495 E.02507
G1 X120.766 Y126.565 E.06673
G1 X121.388 Y126.995 E.03333
G1 X122.089 Y127.278 E.03332
G1 X122.835 Y127.398 E.03332
G1 X123.59 Y127.35 E.03332
G1 X124.315 Y127.137 E.03332
G1 X124.935 Y126.797 E.03114
G1 X125.266 Y126.538 E.01853
G1 X126.003 Y125.779 E.04664
G1 X126.512 Y125.3 E.03081
G1 X127.045 Y124.849 E.03076
G1 X127.602 Y124.428 E.03076
G1 X128.18 Y124.037 E.03076
G1 X128.778 Y123.678 E.03076
G1 X129.395 Y123.352 E.03076
G1 X130.029 Y123.059 E.03076
G1 X130.677 Y122.8 E.03076
G1 X131.338 Y122.577 E.03076
G1 X132.01 Y122.389 E.03076
G1 X132.691 Y122.238 E.03076
G1 X133.38 Y122.123 E.03076
G1 X134.073 Y122.046 E.03076
G1 X134.77 Y122.006 E.03075
G1 X135.478 Y122.004 E.0312
G1 X136.165 Y122.039 E.03032
G1 X136.859 Y122.111 E.03076
G1 X137.548 Y122.22 E.03075
G1 X138.231 Y122.366 E.03076
G1 X138.904 Y122.549 E.03076
G1 X139.567 Y122.768 E.03076
G1 X140.217 Y123.021 E.03076
G1 X140.853 Y123.31 E.03076
G1 X141.472 Y123.632 E.03076
G1 X142.073 Y123.986 E.03076
G1 X142.654 Y124.373 E.03075
G1 X143.214 Y124.79 E.03076
G1 X143.75 Y125.236 E.03075
G1 X144.268 Y125.718 E.03119
G1 X144.747 Y126.213 E.03033
G1 X145.205 Y126.739 E.03076
G1 X145.633 Y127.29 E.03076
G1 X145.933 Y127.721 E.02312
G1 X145.659 Y128.248 E.02618
G1 X145.277 Y129.103 E.04127
G1 X145.049 Y129.676 E.02721
G1 X144.84 Y130.292 E.02868
G1 X144.52 Y131.448 E.05284
G1 X144.274 Y132.691 E.05585
G1 X144.187 Y133.38 E.03061
G1 X144.113 Y134.468 E.04803
G1 X144.1 Y135.006 E.02372
G1 X144.156 Y136.252 E.05498
G1 X144.207 Y136.779 E.02335
G1 X144.278 Y137.332 E.02457
G1 X144.52 Y138.552 E.05483
G1 X144.84 Y139.708 E.05283
G1 X145.082 Y140.407 E.03263
G1 X145.341 Y141.056 E.03077
G1 X145.664 Y141.763 E.03425
G1 X145.915 Y142.244 E.02391
G1 E-.5 F1800
;WIPE_START
G1 F12000
G1 X145.633 Y142.71
G1 X145.205 Y143.261
G1 X144.747 Y143.787
G1 X144.705 Y143.83
;WIPE_END
TIMELAPSE_TAKE_FRAME
G1 Z.45 F24000
G1 X145.239 Y127.795
G1 Z.45
G1 Z.25
G1 E.5 F1800
;TYPE:Bottom surface
;WIDTH:0.501397
G1 F5360.17
G1 X143.708 Y126.264 E.09576
G1 X143.234 Y125.823 E.02862
G1 X142.73 Y125.404 E.02898
G1 X142.204 Y125.012 E.02901
G1 X141.658 Y124.648 E.02899
G1 X141.173 Y124.362 E.02489
G1 X144.886 Y128.075 E.23215
G1 X144.684 Y128.506 E.02105
G1 X139.923 Y123.746 E.29765
G1 X139.303 Y123.503 E.02947
G1 X138.922 Y123.377 E.01774
G1 X144.497 Y128.953 E.3486
G1 X144.317 Y129.406 E.02157
G1 X138.034 Y123.123 E.39284
G1 X137.24 Y122.962 E.03583
G1 X144.156 Y129.878 E.43241
G1 X144.003 Y130.359 E.02229
G1 X136.504 Y122.859 E.4689
G1 X135.815 Y122.803 E.03057
G1 X143.863 Y130.851 E.50321
G1 X143.739 Y131.361 E.02317
G1 X135.165 Y122.786 E.53611
G1 X134.547 Y122.801 E.02733
G1 X143.625 Y131.88 E.56762
G1 X143.53 Y132.418 E.02415
G1 X133.957 Y122.845 E.59851
G1 X133.392 Y122.913 E.02516
G1 X143.451 Y132.973 E.62894
G1 X143.389 Y133.543 E.02537
G1 X132.849 Y123.004 E.65897
G1 X132.331 Y123.118 E.02348
G1 X143.343 Y134.131 E.68855
G1 X143.325 Y134.746 E.02722
G1 X131.83 Y123.25 E.71877
G1 X131.345 Y123.399 E.02242
G1 X143.329 Y135.383 E.74929
G1 X143.357 Y136.044 E.02925
G1 X130.875 Y123.562 E.78042
G1 X130.422 Y123.743 E.02155
G1 X143.414 Y136.735 E.81231
G1 X143.508 Y137.462 E.0324
G1 X129.985 Y123.939 E.84547
G1 X129.561 Y124.148 E.02092
G1 X143.646 Y138.232 E.88063
G1 X143.837 Y139.057 E.03742
G1 X129.148 Y124.368 E.91843
G1 X128.757 Y124.61 E.02033
G1 X144.098 Y139.951 E.95915
G1 X144.455 Y140.941 E.04654
G1 X128.367 Y124.854 E1.00587
G1 X127.992 Y125.112 E.02013
G1 X144.958 Y142.077 E1.06075
G1 X145.022 Y142.215 E.00673
G1 X144.779 Y142.532 E.01766
G1 X127.632 Y125.385 E1.07212
G1 X127.284 Y125.67 E.01989
G1 X144.497 Y142.884 E1.07625
G1 X144.203 Y143.222 E.01984
G1 X126.945 Y125.965 E1.07901
G1 X126.619 Y126.272 E.0198
G1 X143.893 Y143.546 E1.08005
G1 X143.575 Y143.86 E.0198
G1 X126.303 Y126.589 E1.07988
G1 X125.99 Y126.909 E.0198
M73 P1 R47
M73 P1 R47
G1 X143.246 Y144.165 E1.07894
G1 X142.901 Y144.454 E.01987
G1 X125.666 Y127.218 E1.07764
G1 X125.3 Y127.485 E.02003
G1 X142.547 Y144.733 E1.07836
