; HEADER_BLOCK_START
; generated by OrcaSlicer 2.1.1 on 2024-09-19 at 19:03:49
; total layer number: 37
; filament_density: 1.24
; filament_diameter: 1.75
; max_z_height: 7.40
; HEADER_BLOCK_END

; THUMBNAIL_BLOCK_START

;
; THUMBNAIL_BLOCK_END

; THUMBNAIL_BLOCK_START

;
; THUMBNAIL_BLOCK_END

; external perimeters extrusion width = 0.42mm
; perimeters extrusion width = 0.45mm
; infill extrusion width = 0.45mm
; solid infill extrusion width = 0.45mm
; top infill extrusion width = 0.42mm
; first layer extrusion width = 0.50mm

; external perimeters extrusion width = 0.42mm
; perimeters extrusion width = 0.45mm
; infill extrusion width = 0.45mm
; solid infill extrusion width = 0.45mm
; top infill extrusion width = 0.42mm
; first layer extrusion width = 0.50mm

; external perimeters extrusion width = 0.42mm
; perimeters extrusion width = 0.45mm
; infill extrusion width = 0.45mm
; solid infill extrusion width = 0.45mm
; top infill extrusion width = 0.42mm
; first layer extrusion width = 0.50mm

; EXECUTABLE_BLOCK_START
EXCLUDE_OBJECT_DEFINE NAME=Corps1.stl_id_0_copy_0 CENTER=126,124.525 POLYGON=[[116,124.525],[116.006,124.183],[116.023,123.842],[116.052,123.502],[116.093,123.163],[116.145,122.826],[116.209,122.49],[116.284,122.157],[116.371,121.827],[116.469,121.5],[116.577,121.176],[116.697,120.856],[116.828,120.541],[116.969,120.23],[117.121,119.924],[117.283,119.624],[117.456,119.329],[117.638,119.04],[117.83,118.758],[118.032,118.482],[118.243,118.214],[118.463,117.953],[118.692,117.699],[118.929,117.454],[119.174,117.216],[119.428,116.988],[119.689,116.768],[119.958,116.557],[120.233,116.355],[120.515,116.163],[120.804,115.981],[121.099,115.808],[121.399,115.646],[121.705,115.494],[122.016,115.353],[122.331,115.222],[122.651,115.102],[122.975,114.993],[123.302,114.896],[123.632,114.809],[123.965,114.734],[124.301,114.67],[124.638,114.618],[124.977,114.577],[125.318,114.548],[125.659,114.531],[126,114.525],[126.341,114.531],[126.682,114.548],[127.023,114.577],[127.362,114.618],[127.699,114.67],[128.035,114.734],[128.368,114.809],[128.698,114.896],[129.025,114.993],[129.349,115.102],[129.669,115.222],[129.984,115.353],[130.295,115.494],[130.601,115.646],[130.901,115.808],[131.196,115.981],[131.484,116.163],[131.767,116.355],[132.042,116.557],[132.311,116.768],[132.572,116.988],[132.826,117.216],[133.071,117.454],[133.308,117.699],[133.537,117.953],[133.757,118.214],[133.968,118.482],[134.17,118.758],[134.362,119.04],[134.544,119.329],[134.717,119.624],[134.879,119.924],[135.031,120.23],[135.172,120.541],[135.303,120.856],[135.423,121.176],[135.531,121.5],[135.629,121.827],[135.716,122.157],[135.791,122.49],[135.855,122.826],[135.907,123.163],[135.948,123.502],[135.977,123.842],[135.994,124.183],[136,124.525],[135.994,124.866],[135.977,125.207],[135.948,125.547],[135.907,125.886],[135.855,126.224],[135.791,126.559],[135.716,126.892],[135.629,127.223],[135.531,127.55],[135.423,127.874],[135.303,128.193],[135.172,128.509],[135.031,128.82],[134.879,129.125],[134.717,129.426],[134.544,129.721],[134.362,130.009],[134.17,130.292],[133.968,130.567],[133.757,130.836],[133.537,131.097],[133.308,131.35],[133.071,131.596],[132.826,131.833],[132.572,132.062],[132.311,132.282],[132.042,132.493],[131.767,132.694],[131.485,132.887],[131.196,133.069],[130.901,133.241],[130.601,133.404],[130.295,133.556],[129.984,133.697],[129.669,133.828],[129.349,133.947],[129.025,134.056],[128.698,134.154],[128.368,134.24],[128.035,134.316],[127.699,134.379],[127.362,134.432],[127.023,134.472],[126.682,134.501],[126.341,134.519],[126,134.525],[125.659,134.519],[125.318,134.501],[124.977,134.472],[124.638,134.432],[124.301,134.379],[123.965,134.316],[123.632,134.24],[123.302,134.154],[122.975,134.056],[122.651,133.947],[122.331,133.828],[122.016,133.697],[121.705,133.556],[121.399,133.404],[121.099,133.241],[120.804,133.069],[120.516,132.887],[120.233,132.695],[119.958,132.493],[119.689,132.282],[119.428,132.062],[119.174,131.833],[118.929,131.596],[118.692,131.35],[118.463,131.097],[118.243,130.836],[118.032,130.567],[117.83,130.292],[117.638,130.009],[117.456,129.721],[117.283,129.426],[117.121,129.125],[116.969,128.82],[116.828,128.509],[116.697,128.193],[116.577,127.874],[116.469,127.55],[116.371,127.223],[116.284,126.892],[116.209,126.559],[116.145,126.224],[116.093,125.886],[116.052,125.547],[116.023,125.207],[116.006,124.866],[116,124.525]]
EXCLUDE_OBJECT_DEFINE NAME=Corps1.stl_id_1_copy_0 CENTER=104,124.525 POLYGON=[[94,124.525],[94.0058,124.183],[94.0233,123.842],[94.0524,123.502],[94.0931,123.163],[94.1454,122.826],[94.2092,122.49],[94.2843,122.157],[94.3708,121.827],[94.4686,121.5],[94.5774,121.176],[94.6972,120.856],[94.8279,120.541],[94.9693,120.23],[95.1211,119.924],[95.2834,119.624],[95.4558,119.329],[95.6382,119.04],[95.8303,118.758],[96.0319,118.482],[96.2429,118.214],[96.4629,117.953],[96.6916,117.699],[96.9289,117.454],[97.1745,117.216],[97.428,116.988],[97.6891,116.768],[97.9576,116.557],[98.2332,116.355],[98.5155,116.163],[98.8042,115.981],[99.0989,115.808],[99.3994,115.646],[99.7052,115.494],[100.016,115.353],[100.331,115.222],[100.651,115.102],[100.975,114.993],[101.302,114.896],[101.632,114.809],[101.965,114.734],[102.301,114.67],[102.638,114.618],[102.977,114.577],[103.318,114.548],[103.659,114.531],[104,114.525],[104.341,114.531],[104.682,114.548],[105.023,114.577],[105.362,114.618],[105.699,114.67],[106.035,114.734],[106.368,114.809],[106.698,114.896],[107.025,114.993],[107.349,115.102],[107.669,115.222],[107.984,115.353],[108.295,115.494],[108.601,115.646],[108.901,115.808],[109.196,115.981],[109.485,116.163],[109.767,116.355],[110.042,116.557],[110.311,116.768],[110.572,116.988],[110.826,117.216],[111.071,117.454],[111.308,117.699],[111.537,117.953],[111.757,118.214],[111.968,118.482],[112.17,118.758],[112.362,119.04],[112.544,119.329],[112.717,119.624],[112.879,119.924],[113.031,120.23],[113.172,120.541],[113.303,120.856],[113.423,121.176],[113.531,121.5],[113.629,121.827],[113.716,122.157],[113.791,122.49],[113.855,122.826],[113.907,123.163],[113.948,123.502],[113.977,123.842],[113.994,124.183],[114,124.525],[113.994,124.866],[113.977,125.207],[113.948,125.547],[113.907,125.886],[113.855,126.224],[113.791,126.559],[113.716,126.892],[113.629,127.223],[113.531,127.55],[113.423,127.874],[113.303,128.193],[113.172,128.509],[113.031,128.82],[112.879,129.125],[112.717,129.426],[112.544,129.721],[112.362,130.009],[112.17,130.292],[111.968,130.567],[111.757,130.836],[111.537,131.097],[111.308,131.35],[111.071,131.596],[110.826,131.833],[110.572,132.062],[110.311,132.282],[110.042,132.493],[109.767,132.694],[109.485,132.887],[109.196,133.069],[108.901,133.241],[108.601,133.404],[108.295,133.556],[107.984,133.697],[107.669,133.828],[107.349,133.947],[107.025,134.056],[106.698,134.154],[106.368,134.24],[106.035,134.316],[105.699,134.379],[105.362,134.432],[105.023,134.472],[104.682,134.501],[104.341,134.519],[104,134.525],[103.659,134.519],[103.318,134.501],[102.977,134.472],[102.638,134.432],[102.301,134.379],[101.965,134.316],[101.632,134.24],[101.302,134.154],[100.975,134.056],[100.651,133.947],[100.331,133.828],[100.016,133.697],[99.7052,133.556],[99.3994,133.404],[99.0989,133.241],[98.8042,133.069],[98.5155,132.887],[98.2332,132.694],[97.9576,132.493],[97.6891,132.282],[97.428,132.062],[97.1745,131.833],[96.9289,131.596],[96.6916,131.35],[96.4629,131.097],[96.2429,130.836],[96.0319,130.567],[95.8303,130.292],[95.6382,130.009],[95.4558,129.721],[95.2834,129.426],[95.1211,129.125],[94.9693,128.82],[94.8279,128.509],[94.6972,128.193],[94.5774,127.874],[94.4686,127.55],[94.3708,127.223],[94.2843,126.892],[94.2092,126.559],[94.1454,126.224],[94.0931,125.886],[94.0524,125.547],[94.0233,125.207],[94.0058,124.866],[94,124.525]]
EXCLUDE_OBJECT_DEFINE NAME=Corps1.stl_id_2_copy_0 CENTER=115,105.475 POLYGON=[[105,105.475],[105.006,105.134],[105.023,104.793],[105.052,104.453],[105.093,104.114],[105.145,103.776],[105.209,103.441],[105.284,103.108],[105.371,102.777],[105.469,102.45],[105.577,102.126],[105.697,101.807],[105.828,101.491],[105.969,101.18],[106.121,100.875],[106.283,100.574],[106.456,100.279],[106.638,99.9907],[106.83,99.7084],[107.032,99.4328],[107.243,99.1643],[107.463,98.9032],[107.692,98.6497],[107.929,98.4041],[108.174,98.1668],[108.428,97.9381],[108.689,97.7181],[108.958,97.5071],[109.233,97.3055],[109.515,97.1134],[109.804,96.931],[110.099,96.7586],[110.399,96.5963],[110.705,96.4445],[111.016,96.3031],[111.331,96.1724],[111.651,96.0526],[111.975,95.9438],[112.302,95.846],[112.632,95.7595],[112.965,95.6844],[113.301,95.6206],[113.638,95.5683],[113.977,95.5276],[114.318,95.4985],[114.659,95.481],[115,95.4752],[115.341,95.481],[115.682,95.4985],[116.023,95.5276],[116.362,95.5683],[116.699,95.6206],[117.035,95.6844],[117.368,95.7595],[117.698,95.846],[118.025,95.9438],[118.349,96.0526],[118.669,96.1724],[118.984,96.3031],[119.295,96.4445],[119.601,96.5963],[119.901,96.7586],[120.196,96.931],[120.485,97.1134],[120.767,97.3055],[121.042,97.5071],[121.311,97.7181],[121.572,97.9381],[121.826,98.1668],[122.071,98.4041],[122.308,98.6497],[122.537,98.9032],[122.757,99.1643],[122.968,99.4328],[123.17,99.7084],[123.362,99.9907],[123.544,100.279],[123.717,100.574],[123.879,100.875],[124.031,101.18],[124.172,101.491],[124.303,101.807],[124.423,102.126],[124.531,102.45],[124.629,102.777],[124.716,103.108],[124.791,103.441],[124.855,103.776],[124.907,104.114],[124.948,104.453],[124.977,104.793],[124.994,105.134],[125,105.475],[124.994,105.817],[124.977,106.158],[124.948,106.498],[124.907,106.837],[124.855,107.174],[124.791,107.51],[124.716,107.843],[124.629,108.173],[124.531,108.5],[124.423,108.824],[124.303,109.144],[124.172,109.459],[124.031,109.77],[123.879,110.076],[123.717,110.376],[123.544,110.671],[123.362,110.96],[123.17,111.242],[122.968,111.518],[122.757,111.786],[122.537,112.047],[122.308,112.301],[122.071,112.546],[121.826,112.784],[121.572,113.012],[121.311,113.232],[121.042,113.443],[120.767,113.645],[120.485,113.837],[120.196,114.019],[119.901,114.192],[119.601,114.354],[119.295,114.506],[118.984,114.647],[118.669,114.778],[118.349,114.898],[118.025,115.007],[117.698,115.104],[117.368,115.191],[117.035,115.266],[116.699,115.33],[116.362,115.382],[116.023,115.423],[115.682,115.452],[115.341,115.469],[115,115.475],[114.659,115.469],[114.318,115.452],[113.977,115.423],[113.638,115.382],[113.301,115.33],[112.965,115.266],[112.632,115.191],[112.302,115.104],[111.975,115.007],[111.651,114.898],[111.331,114.778],[111.016,114.647],[110.705,114.506],[110.399,114.354],[110.099,114.192],[109.804,114.019],[109.515,113.837],[109.233,113.645],[108.958,113.443],[108.689,113.232],[108.428,113.012],[108.174,112.784],[107.929,112.546],[107.692,112.301],[107.463,112.047],[107.243,111.786],[107.032,111.518],[106.83,111.242],[106.638,110.96],[106.456,110.671],[106.283,110.376],[106.121,110.076],[105.969,109.77],[105.828,109.459],[105.697,109.144],[105.577,108.824],[105.469,108.5],[105.371,108.173],[105.284,107.843],[105.209,107.51],[105.145,107.174],[105.093,106.837],[105.052,106.498],[105.023,106.158],[105.006,105.817],[105,105.475]]
M73 P0 R14
;TYPE:Custom
M220 S100
G90 ; use absolute coordinates
M83 ; extruder relative mode
M104 S150 ; set temporary nozzle temp to prevent oozing during homing
M140 S75 ; set final bed temp
G4 S30 ; allow partial nozzle warmup
G28 ; home all axis and restore leveling
BED_MESH_CALIBRATE PROFILE=adaptive ADAPTIVE=1 ADAPTIVE_MARGIN=0
G1 Z25 F240
G1 X10.0 Y30 F3000
M104 S257 ; set final nozzle temp
M190 S75 ; wait for bed temp to stabilize
M109 S257 ; wait for nozzle temp to stabilize
G1 Z0.28 F240
G92 E0 ; Move Z Axis up
G1 Z2.0 F5000 ; Move to start position
M73 P1 R14
G1 X5 Y30 Z0.28 F300 ; Draw the first line
G1 X5 Y200 Z0.28 F1500 E15 ; Move to side a little
G1 X5.4 Y200 Z0.28 F5000.0 ; Draw the second line
M73 P2 R14
G1 X5.4 Y50 Z0.28 F1500.0 E30 ; Reset Extruder
G92 E0 ; Move Z Axis up
G1 Z2.0 F3000
M117 Start Printing..
G90
G21
M83 ; use relative distances for extrusion
; filament start gcode
M106 S0
;LAYER_CHANGE
;Z:0.2
;HEIGHT:0.2
;BEFORE_LAYER_CHANGE
;0.2
G92 E0

M73 P3 R14
G1 E-.5 F1800
;_SET_FAN_SPEED_CHANGING_LAYER
SET_VELOCITY_LIMIT ACCEL=1000
SET_VELOCITY_LIMIT SQUARE_CORNER_VELOCITY=7
; printing object Corps1.stl id:1 copy 0
EXCLUDE_OBJECT_START NAME=Corps1.stl_id_1_copy_0
G1 Z.2 F24000
G1 X116.53 Y136.469
G1 Z.2
G1 E.5 F1800
;TYPE:Inner wall
;WIDTH:0.499999
G1 X117.335 Y136.978 E.03547
G1 X117.735 Y137.281 E.01872
G1 X118.194 Y137.682 E.02271
G1 X118.756 Y138.217 E.02889
G1 X119.364 Y138.94 E.03519
G1 X119.897 Y139.723 E.03525
G1 X120.349 Y140.561 E.03547
G1 X120.596 Y141.129 E.02305
G1 X120.899 Y142.031 E.03548
G1 X121.108 Y142.954 E.03525
G1 X121.223 Y144.034 E.04044
G1 X121.237 Y144.84 E.03004
G1 X121.156 Y145.783 E.03525
G1 X120.979 Y146.713 E.03525
G1 X120.707 Y147.625 E.03546
G1 X120.474 Y148.214 E.02358
G1 X119.915 Y149.287 E.04505
G1 X119.55 Y149.856 E.02519
G1 X118.966 Y150.599 E.03519
G1 X118.304 Y151.284 E.03548
G1 X117.837 Y151.69 E.02306
G1 X117.069 Y152.253 E.03547
G1 X116.252 Y152.731 E.03525
G1 X115.39 Y153.122 E.03525
G1 X114.493 Y153.424 E.03525
G1 X113.57 Y153.632 E.03525
G1 X112.631 Y153.745 E.03525
G1 X111.684 Y153.761 E.03525
G1 X110.742 Y153.681 E.03525
G1 X109.812 Y153.504 E.03525
G1 X108.905 Y153.233 E.03525
G1 X108.031 Y152.871 E.03525
G1 X107.198 Y152.421 E.03525
G1 X106.416 Y151.889 E.03525
G1 X105.687 Y151.275 E.03546
G1 X105.301 Y150.889 E.02036
G1 X104.635 Y150.108 E.03823
G1 X104.104 Y149.327 E.03519
G1 X103.651 Y148.489 E.03548
G1 X103.404 Y147.921 E.02305
G1 X103.101 Y147.018 E.03548
G1 X102.892 Y146.095 E.03525
G1 X102.78 Y145.155 E.03525
G1 X102.763 Y144.209 E.03525
G1 X102.844 Y143.266 E.03525
G1 X103.021 Y142.337 E.03525
G1 X103.292 Y141.43 E.03525
G1 X103.654 Y140.556 E.03525
G1 X104.103 Y139.723 E.03525
G1 X104.636 Y138.94 E.03525
G1 X105.249 Y138.212 E.03546
G1 X105.697 Y137.765 E.02358
G1 X106.416 Y137.161 E.03496
G1 X107.198 Y136.628 E.03525
G1 X108.036 Y136.176 E.03547
G1 X108.604 Y135.929 E.02305
G1 X109.507 Y135.626 E.03548
G1 X110.43 Y135.417 E.03525
G1 X111.369 Y135.304 E.03525
G1 X112.316 Y135.288 E.03525
G1 X113.264 Y135.369 E.03547
G1 X113.874 Y135.475 E.02306
G1 X114.796 Y135.716 E.03547
G1 X115.682 Y136.048 E.03525
G1 X116.494 Y136.451 E.03376
G1 X116.754 Y136.07 F24000
;TYPE:Outer wall
G1 F1800
G1 X117.595 Y136.602 E.03707
G1 X118.12 Y136.999 E.02452
G1 X119.095 Y137.911 E.04974
G1 X119.729 Y138.664 E.03663
G1 X120.288 Y139.485 E.037
G1 X120.761 Y140.361 E.03707
G1 X121.023 Y140.964 E.02451
G1 X121.34 Y141.908 E.03708
G1 X121.559 Y142.877 E.03699
G1 X121.68 Y144.026 E.04305
G1 X121.694 Y144.856 E.03091
G1 X121.609 Y145.846 E.03699
G1 X121.424 Y146.821 E.037
G1 X121.139 Y147.775 E.03707
G1 X120.892 Y148.4 E.02504
G1 X120.306 Y149.524 E.04722
G1 X119.919 Y150.126 E.02666
G1 X119.311 Y150.899 E.03663
G1 X118.619 Y151.615 E.03708
G1 X118.123 Y152.048 E.02451
G1 X117.32 Y152.635 E.03707
G1 X116.463 Y153.137 E.03699
G1 X115.558 Y153.548 E.03699
G1 X114.617 Y153.865 E.037
G1 X113.648 Y154.083 E.03699
G1 X112.662 Y154.202 E.03699
G1 X111.669 Y154.219 E.03699
G1 X110.679 Y154.134 E.03699
G1 X109.703 Y153.949 E.037
G1 X108.752 Y153.664 E.03699
G1 X107.834 Y153.284 E.037
G1 X106.96 Y152.812 E.03699
G1 X106.139 Y152.254 E.03699
G1 X105.378 Y151.612 E.03707
G1 X104.978 Y151.211 E.02109
G1 X104.61 Y150.8 E.02058
G1 X104.265 Y150.378 E.02028
G1 X103.712 Y149.565 E.03663
G1 X103.239 Y148.689 E.03708
G1 X102.977 Y148.085 E.02451
G1 X102.66 Y147.142 E.03708
G1 X102.441 Y146.173 E.03699
G1 X102.323 Y145.187 E.03699
G1 X102.306 Y144.194 E.03699
G1 X102.391 Y143.204 E.03699
G1 X102.576 Y142.228 E.037
G1 X102.86 Y141.277 E.03699
G1 X103.24 Y140.359 E.037
G1 X103.712 Y139.485 E.03699
G1 X104.271 Y138.664 E.03699
G1 X104.912 Y137.903 E.03707
G1 X105.388 Y137.428 E.02504
G1 X106.139 Y136.796 E.03655
G1 X106.96 Y136.237 E.037
G1 X107.836 Y135.764 E.03707
G1 X108.44 Y135.502 E.02451
G1 X109.383 Y135.185 E.03708
G1 X110.352 Y134.966 E.03699
