; HEADER_BLOCK_START
; generated by OrcaSlicer 2.0.0 on 2024-05-19 at 08:56:04
; total layer number: 275
; filament_density: 1.24
; filament_diameter: 1.75
; max_z_height: 55.00
; HEADER_BLOCK_END

; THUMBNAIL_BLOCK_START

;
; THUMBNAIL_BLOCK_END

; THUMBNAIL_BLOCK_START

;
; THUMBNAIL_BLOCK_END

; external perimeters extrusion width = 0.40mm
; perimeters extrusion width = 0.42mm
; infill extrusion width = 0.45mm
; solid infill extrusion width = 0.42mm
; top infill extrusion width = 0.40mm
; first layer extrusion width = 0.50mm

; EXECUTABLE_BLOCK_START
EXCLUDE_OBJECT_DEFINE NAME=Corps1.stl_id_0_copy_0 CENTER=110,110 POLYGON=[[70,50],[148,50],[148.347,50.0304],[148.684,50.1206],[149,50.2679],[149.286,50.4679],[149.532,50.7144],[149.732,51],[149.879,51.316],[149.97,51.6527],[150,52],[150,168],[149.97,168.347],[149.879,168.684],[149.732,169],[149.532,169.286],[149.286,169.532],[149,169.732],[148.684,169.879],[148.347,169.97],[148,170],[70,170],[70,50]]
M73 P0 R98
;TYPE:Custom
M220 S100
G90 ; use absolute coordinates
M83 ; extruder relative mode
M104 S150 ; set temporary nozzle temp to prevent oozing during homing
M140 S55 ; set final bed temp
G4 S30 ; allow partial nozzle warmup
G28 ; home all axis and restore leveling
G1 Z25 F240
G1 X10.0 Y30 F3000
M104 S210 ; set final nozzle temp
M190 S55 ; wait for bed temp to stabilize
M109 S210 ; wait for nozzle temp to stabilize
G1 Z0.28 F240
G92 E0 ; Move Z Axis up
G1 Z2.0 F5000 ; Move to start position
G1 X10 Y30 Z0.28 F300 ; Draw the first line
G1 X10 Y200 Z0.28 F1500 E15 ; Move to side a little
G1 X10.4 Y200 Z0.28 F5000.0 ; Draw the second line
G1 X10.4 Y50 Z0.28 F1500.0 E30 ; Reset Extruder
G92 E0 ; Move Z Axis up
G1 Z2.0 F3000
M117 Start Printing..
G90
G21
M83 ; use relative distances for extrusion
; filament start gcode
M106 S0
;LAYER_CHANGE
;Z:0.2
;HEIGHT:0.2
;BEFORE_LAYER_CHANGE
;0.2
G92 E0

G1 E-.5 F2400
;_SET_FAN_SPEED_CHANGING_LAYER
SET_VELOCITY_LIMIT ACCEL=500 ACCEL_TO_DECEL=250
SET_VELOCITY_LIMIT SQUARE_CORNER_VELOCITY=7
G1 Z.2 F18000
G1 X75.479 Y68.538
G1 Z.2
G1 E.5 F2400
;TYPE:Skirt
;WIDTH:0.5
G1 F3000
G1 X76.552 Y67.471 E.05638
G1 X78 Y67.086 E.0558
G1 X156.006 Y67.086 E2.90542
G1 X157.102 Y67.216 E.04109
G1 X157.916 Y67.479 E.03188
G1 X158.957 Y68.081 E.04479
G1 X159.593 Y68.654 E.03188
G1 X160.119 Y69.329 E.03188
G1 X160.52 Y70.084 E.03187
G1 X160.784 Y70.899 E.03188
G1 X160.914 Y72 E.04131
G1 X160.914 Y188 E4.32056
G1 X160.694 Y189.438 E.05419
G1 X160.119 Y190.671 E.05068
G1 X159.346 Y191.593 E.04479
G1 X158.232 Y192.373 E.05068
G1 X157.101 Y192.784 E.0448
G1 X156 Y192.914 E.04131
G1 X78 Y192.914 E2.9052
G1 X76.538 Y192.521 E.05638
G1 X75.471 Y191.448 E.05638
G1 X75.086 Y190 E.0558
G1 X75.086 Y70 E4.46954
G1 X75.469 Y68.577 E.05489
G1 X75.923 Y68.71 F18000
G1 F3000
G1 X75.935 Y68.669 E.00162
G1 X76.985 Y67.762 E.05169
G1 X78 Y67.543 E.03866
G1 X156.006 Y67.543 E2.90542
G1 X156.983 Y67.657 E.03665
G1 X157.722 Y67.894 E.02891
G1 X158.695 Y68.455 E.04182
G1 X159.27 Y68.977 E.02891
G1 X159.745 Y69.591 E.02891
G1 X160.106 Y70.278 E.02891
G1 X160.343 Y71.017 E.02891
G1 X160.457 Y72 E.03687
G1 X160.457 Y188 E4.32056
G1 X160.253 Y189.32 E.04975
G1 X159.745 Y190.409 E.04477
G1 X159.023 Y191.27 E.04182
G1 X158.038 Y191.959 E.04477
G1 X156.983 Y192.343 E.04183
G1 X156 Y192.457 E.03687
G1 X78 Y192.457 E2.9052
G1 X76.669 Y192.065 E.05169
G1 X75.762 Y191.015 E.05169
G1 X75.543 Y190 E.03866
G1 X75.543 Y70 E4.46954
G1 X75.911 Y68.749 E.04858
; printing object Corps1.stl id:0 copy 0
G1 E-.35 F2400
;WIPE_START
G1 F3000
G1 X75.935 Y68.669 E-.01252
G1 X76.629 Y68.07 E-.13748
;WIPE_END
EXCLUDE_OBJECT_START NAME=Corps1.stl_id_0_copy_0
G1 Z.4 F18000
G1 X78.707 Y70.707 Z.4
G1 Z.2
G1 E.5 F2400
;TYPE:Inner wall
;WIDTH:0.499999
G1 F1800
G1 X155.975 Y70.708 E2.87793
G1 X156.441 Y70.788 E.01762
M73 P0 R97
G1 X156.829 Y71.012 E.01669
G1 X157.117 Y71.355 E.01669
G1 X157.242 Y71.667 E.01252
G1 X157.293 Y72.091 E.01591
G1 X157.293 Y188.163 E4.32322
G1 X157.117 Y188.645 E.01912
G1 X156.829 Y188.988 E.01669
G1 X156.437 Y189.214 E.01686
G1 X155.969 Y189.293 E.01766
G1 X78.707 Y189.293 E2.87771
G1 X78.707 Y70.747 E4.41538
G1 X78.25 Y70.25 F18000
;TYPE:Outer wall
G1 F1800
G1 X156.038 Y70.251 E2.89729
G1 X156.598 Y70.356 E.02125
M73 P1 R97
G1 X156.999 Y70.573 E.01698
G1 X157.34 Y70.876 E.01698
G1 X157.579 Y71.264 E.01698
G1 X157.722 Y71.696 E.01698
G1 X157.75 Y72.091 E.01475
G1 X157.75 Y187.989 E4.31675
G1 X157.683 Y188.451 E.01738
G1 X157.515 Y188.875 E.01698
G1 X157.232 Y189.232 E.01696
G1 X156.875 Y189.515 E.01698
G1 X156.449 Y189.683 E.01704
G1 X155.989 Y189.75 E.01733
G1 X78.25 Y189.75 E2.89548
G1 X78.25 Y70.29 E4.44942
G1 E-.35 F2400
;WIPE_START
G1 F1800
G1 X79.25 Y70.289 E-.15
;WIPE_END
G1 Z.4 F18000
G1 X123.066 Y79.693 Z.4
G1 Z.2
G1 E.5 F2400
;TYPE:Inner wall
G1 F1800
G1 X123.626 Y79.554 E.0215
G1 X124.212 Y79.441 E.02225
G1 X124.801 Y79.36 E.02213
G1 X125.42 Y79.309 E.02314
G1 X125.981 Y79.293 E.02091
G1 X126.572 Y79.308 E.02201
G1 X127.162 Y79.356 E.02206
G1 X127.751 Y79.435 E.02214
G1 X128.339 Y79.546 E.02227
G1 X128.924 Y79.69 E.02244
G1 X129.506 Y79.864 E.02264
G1 X130.085 Y80.07 E.02289
G1 X130.66 Y80.308 E.02317
G1 X131.231 Y80.575 E.02348
G1 X131.798 Y80.873 E.02384
G1 X132.359 Y81.201 E.02421
G1 X132.915 Y81.559 E.02462
G1 X133.465 Y81.946 E.02506
G1 X134.01 Y82.361 E.02552
G1 X134.548 Y82.805 E.026
G1 X135.093 Y83.289 E.02715
G1 X136.132 Y84.313 E.0543
G1 X137.147 Y85.448 E.05673
G1 X138.121 Y86.674 E.05833
G1 X138.435 Y87.115 E.02014
G1 X139.087 Y88.031 E.04188
G1 X140.008 Y89.472 E.06371
G1 X140.894 Y91.009 E.06607
G1 X141.743 Y92.638 E.06841
G1 X142.555 Y94.354 E.07072
G1 X143.326 Y96.155 E.07296
G1 X144.056 Y98.035 E.07513
G1 X144.743 Y99.991 E.07721
G1 X145.385 Y102.018 E.07919
G1 X145.982 Y104.111 E.08105
G1 X146.531 Y106.265 E.0828
G1 X147.031 Y108.475 E.08441
G1 X147.482 Y110.736 E.08588
G1 X147.883 Y113.043 E.08721
G1 X148.232 Y115.39 E.08838
G1 X148.528 Y117.772 E.08939
G1 X148.772 Y120.182 E.09024
G1 X148.962 Y122.616 E.09093
G1 X149.098 Y125.068 E.09145
G1 X149.18 Y127.531 E.09179
G1 X149.207 Y130 E.09197
G1 X149.18 Y132.469 E.09197
G1 X149.098 Y134.932 E.09179
G1 X148.962 Y137.384 E.09145
G1 X148.772 Y139.818 E.09093
G1 X148.528 Y142.228 E.09025
G1 X148.232 Y144.61 E.08939
G1 X147.883 Y146.957 E.08838
G1 X147.482 Y149.264 E.08721
G1 X147.031 Y151.525 E.08588
G1 X146.531 Y153.735 E.08441
G1 X145.982 Y155.889 E.0828
G1 X145.385 Y157.982 E.08105
G1 X144.743 Y160.009 E.07919
G1 X144.056 Y161.965 E.07721
G1 X143.326 Y163.845 E.07513
G1 X142.555 Y165.646 E.07296
G1 X141.743 Y167.362 E.07072
G1 X140.894 Y168.991 E.06841
G1 X140.008 Y170.528 E.06607
G1 X139.087 Y171.969 E.06371
G1 X138.133 Y173.311 E.06134
G1 X137.147 Y174.552 E.05901
G1 X136.132 Y175.687 E.05673
G1 X135.106 Y176.698 E.05364
G1 X134.567 Y177.178 E.02689
G1 X134.03 Y177.623 E.02596
G1 X133.487 Y178.038 E.02547
G1 X132.938 Y178.425 E.02501
G1 X132.384 Y178.783 E.02458
G1 X131.824 Y179.112 E.02417
G1 X131.259 Y179.411 E.02379
G1 X130.69 Y179.679 E.02344
G1 X130.116 Y179.917 E.02313
G1 X129.539 Y180.125 E.02285
G1 X128.958 Y180.301 E.02261
G1 X128.374 Y180.446 E.02241
G1 X127.788 Y180.559 E.02225
G1 X127.199 Y180.64 E.02213
G1 X126.609 Y180.69 E.02205
G1 X126.019 Y180.707 E.02201
G1 X125.428 Y180.692 E.02201
G1 X124.838 Y180.644 E.02206
G1 X124.249 Y180.565 E.02214
G1 X123.661 Y180.454 E.02227
G1 X123.076 Y180.31 E.02244
G1 X122.494 Y180.136 E.02264
G1 X121.915 Y179.93 E.02289
G1 X121.34 Y179.692 E.02317
G1 X120.769 Y179.425 E.02348
G1 X120.203 Y179.127 E.02383
G1 X119.641 Y178.799 E.02421
G1 X119.085 Y178.441 E.02462
G1 X118.535 Y178.054 E.02506
G1 X117.99 Y177.639 E.02552
G1 X117.452 Y177.195 E.026
G1 X116.907 Y176.711 E.02715
G1 X115.868 Y175.687 E.0543
G1 X114.853 Y174.552 E.05673
G1 X113.867 Y173.311 E.05901
G1 X112.913 Y171.969 E.06134
G1 X111.992 Y170.528 E.06371
G1 X111.106 Y168.991 E.06607
G1 X110.257 Y167.362 E.06841
G1 X109.44 Y165.634 E.07119
G1 X108.674 Y163.845 E.07249
G1 X107.944 Y161.965 E.07513
G1 X107.257 Y160.009 E.07721
G1 X106.615 Y157.982 E.07919
G1 X106.018 Y155.889 E.08105
G1 X105.469 Y153.735 E.0828
G1 X104.969 Y151.525 E.08441
G1 X104.518 Y149.264 E.08588
G1 X104.117 Y146.957 E.08721
G1 X103.768 Y144.61 E.08838
G1 X103.472 Y142.228 E.08939
G1 X103.228 Y139.818 E.09024
G1 X103.038 Y137.384 E.09093
G1 X102.902 Y134.932 E.09145
G1 X102.82 Y132.469 E.0918
G1 X102.793 Y130 E.09197
G1 X102.82 Y127.531 E.09197
G1 X102.902 Y125.068 E.09179
G1 X103.038 Y122.616 E.09145
G1 X103.228 Y120.182 E.09093
G1 X103.472 Y117.772 E.09025
G1 X103.768 Y115.39 E.08939
G1 X104.117 Y113.043 E.08838
G1 X104.518 Y110.736 E.08721
G1 X104.969 Y108.475 E.08588
G1 X105.469 Y106.265 E.08441
G1 X106.018 Y104.111 E.0828
G1 X106.615 Y102.018 E.08105
G1 X107.257 Y99.991 E.07919
G1 X107.944 Y98.035 E.07721
G1 X108.674 Y96.155 E.07513
G1 X109.44 Y94.366 E.07249
G1 X110.257 Y92.638 E.07118
G1 X111.106 Y91.009 E.06841
G1 X111.992 Y89.472 E.06607
G1 X112.913 Y88.031 E.06371
G1 X113.867 Y86.689 E.06134
G1 X114.853 Y85.448 E.05901
G1 X115.868 Y84.313 E.05673
G1 X116.894 Y83.302 E.05364
G1 X117.433 Y82.822 E.02689
G1 X117.97 Y82.377 E.02596
G1 X118.513 Y81.962 E.02547
G1 X119.062 Y81.575 E.02502
G1 X119.616 Y81.217 E.02458
G1 X120.176 Y80.888 E.02417
G1 X120.741 Y80.589 E.02379
G1 X121.31 Y80.321 E.02345
G1 X121.884 Y80.083 E.02313
G1 X122.461 Y79.875 E.02285
G1 X123.027 Y79.703 E.02204
G1 X123.176 Y80.136 F18000
;TYPE:Outer wall
G1 F1800
G1 X123.735 Y79.998 E.02147
G1 X124.298 Y79.89 E.02135
G1 X124.863 Y79.812 E.02122
G1 X125.456 Y79.765 E.02218
G1 X125.994 Y79.75 E.02003
G1 X126.56 Y79.765 E.02108
G1 X127.125 Y79.811 E.02113
G1 X127.69 Y79.888 E.02122
G1 X128.253 Y79.995 E.02136
G1 X128.815 Y80.133 E.02154
G1 X129.374 Y80.302 E.02177
G1 X129.931 Y80.501 E.02203
G1 X130.486 Y80.73 E.02234
G1 X131.037 Y80.989 E.02268
G1 X131.584 Y81.278 E.02305
G1 X132.128 Y81.596 E.02346
G1 X132.667 Y81.943 E.0239
G1 X133.202 Y82.319 E.02436
G1 X133.732 Y82.724 E.02485
G1 X134.257 Y83.158 E.02536
G1 X134.781 Y83.623 E.02611
G1 X135.801 Y84.628 E.05332
G1 X136.798 Y85.743 E.05569
G1 X137.763 Y86.959 E.05783
G1 X138.063 Y87.379 E.01923
G1 X138.708 Y88.287 E.04146
G1 X139.617 Y89.71 E.0629
G1 X140.493 Y91.229 E.06533
G1 X141.334 Y92.841 E.06772
G1 X142.138 Y94.542 E.07007
G1 X142.903 Y96.328 E.07235
G1 X143.627 Y98.194 E.07456
G1 X144.309 Y100.136 E.07667
G1 X144.947 Y102.149 E.07868
G1 X145.54 Y104.23 E.08056
G1 X146.086 Y106.372 E.08233
G1 X146.584 Y108.57 E.08396
G1 X147.033 Y110.82 E.08545
G1 X147.432 Y113.116 E.08679
G1 X147.779 Y115.452 E.08797
G1 X148.074 Y117.823 E.08899
G1 X148.317 Y120.223 E.08985
G1 X148.506 Y122.647 E.09055
G1 X148.641 Y125.088 E.09107
G1 X148.723 Y127.541 E.09141
G1 X148.75 Y130 E.09159
G1 X148.723 Y132.459 E.09159
G1 X148.641 Y134.912 E.09141
G1 X148.506 Y137.353 E.09107
G1 X148.317 Y139.777 E.09054
G1 X148.074 Y142.177 E.08985
G1 X147.779 Y144.548 E.08899
G1 X147.432 Y146.884 E.08797
G1 X147.033 Y149.18 E.08679
G1 X146.584 Y151.43 E.08545
G1 X146.086 Y153.628 E.08396
G1 X145.54 Y155.77 E.08233
G1 X144.948 Y157.85 E.08056
G1 X144.309 Y159.864 E.07868
G1 X143.627 Y161.806 E.07667
G1 X142.903 Y163.672 E.07456
G1 X142.138 Y165.458 E.07236
G1 X141.334 Y167.159 E.07007
G1 X140.493 Y168.771 E.06772
G1 X139.617 Y170.29 E.06533
G1 X138.708 Y171.713 E.0629
G1 X137.767 Y173.037 E.06047
G1 X136.798 Y174.257 E.05806
G1 X135.801 Y175.372 E.05569
G1 X134.785 Y176.372 E.0531
G1 X134.263 Y176.837 E.02602
G1 X133.739 Y177.27 E.02534
G1 X133.209 Y177.675 E.02483
G1 X132.675 Y178.052 E.02435
G1 X132.136 Y178.399 E.02388
G1 X131.593 Y178.718 E.02345
G1 X131.046 Y179.006 E.02304
G1 X130.496 Y179.266 E.02266
G1 X129.942 Y179.495 E.02233
G1 X129.385 Y179.694 E.02202
G1 X128.826 Y179.863 E.02176
G1 X128.265 Y180.002 E.02154
G1 X127.702 Y180.11 E.02135
G1 X127.137 Y180.188 E.02122
G1 X126.572 Y180.234 E.02113
G1 X126.006 Y180.25 E.02108
G1 X125.44 Y180.235 E.02108
G1 X124.875 Y180.189 E.02113
G1 X124.31 Y180.112 E.02122
G1 X123.747 Y180.005 E.02136
G1 X123.185 Y179.867 E.02154
G1 X122.626 Y179.698 E.02177
G1 X122.069 Y179.499 E.02203
G1 X121.514 Y179.27 E.02234
G1 X120.963 Y179.011 E.02268
G1 X120.416 Y178.722 E.02305
G1 X119.872 Y178.404 E.02346
G1 X119.333 Y178.057 E.0239
G1 X118.798 Y177.681 E.02436
G1 X118.268 Y177.276 E.02485
G1 X117.743 Y176.842 E.02536
G1 X117.219 Y176.377 E.02611
G1 X116.199 Y175.372 E.05332
G1 X115.202 Y174.257 E.05569
G1 X114.233 Y173.037 E.05806
G1 X113.292 Y171.713 E.06047
G1 X112.383 Y170.29 E.0629
G1 X111.507 Y168.771 E.06532
G1 X110.666 Y167.159 E.06772
G1 X109.862 Y165.458 E.07007
G1 X109.097 Y163.672 E.07235
G1 X108.373 Y161.806 E.07456
G1 X107.691 Y159.864 E.07667
G1 X107.053 Y157.851 E.07868
G1 X106.46 Y155.77 E.08056
G1 X105.914 Y153.628 E.08233
G1 X105.416 Y151.43 E.08396
G1 X104.967 Y149.18 E.08545
G1 X104.568 Y146.884 E.08679
G1 X104.221 Y144.548 E.08797
G1 X103.926 Y142.177 E.08899
G1 X103.683 Y139.777 E.08985
G1 X103.494 Y137.353 E.09055
G1 X103.359 Y134.912 E.09107
G1 X103.277 Y132.459 E.09142
G1 X103.25 Y130 E.09159
G1 X103.277 Y127.541 E.09159
G1 X103.359 Y125.088 E.09141
G1 X103.494 Y122.647 E.09107
G1 X103.683 Y120.223 E.09054
G1 X103.926 Y117.823 E.08986
G1 X104.221 Y115.452 E.08899
G1 X104.568 Y113.116 E.08797
G1 X104.967 Y110.82 E.08679
G1 X105.416 Y108.57 E.08545
G1 X105.914 Y106.372 E.08396
G1 X106.46 Y104.23 E.08233
G1 X107.052 Y102.149 E.08057
G1 X107.691 Y100.136 E.07868
G1 X108.373 Y98.194 E.07667
G1 X109.097 Y96.328 E.07456
G1 X109.862 Y94.542 E.07235
G1 X110.666 Y92.841 E.07007
G1 X111.507 Y91.229 E.06772
G1 X112.383 Y89.71 E.06533
G1 X113.292 Y88.287 E.0629
G1 X114.233 Y86.963 E.06047
G1 X115.202 Y85.743 E.05806
G1 X116.199 Y84.628 E.05569
G1 X117.215 Y83.628 E.0531
G1 X117.737 Y83.163 E.02602
G1 X118.261 Y82.73 E.02534
G1 X118.791 Y82.325 E.02483
G1 X119.325 Y81.948 E.02435
G1 X119.864 Y81.601 E.02388
G1 X120.407 Y81.282 E.02345
G1 X120.954 Y80.994 E.02304
G1 X121.504 Y80.734 E.02266
G1 X122.058 Y80.505 E.02233
G1 X122.615 Y80.306 E.02202
G1 X123.137 Y80.148 E.02033
G1 E-.35 F2400
;WIPE_START
G1 F1800
G1 X123.735 Y79.998 E-.09246
G1 X124.112 Y79.926 E-.05754
;WIPE_END
G1 Z.4 F18000
G1 X157.135 Y71.803
G1 Z.4
G1 Z.2
G1 E.5 F2400
;TYPE:Bottom surface
;WIDTH:0.500353
G1 F3600
G1 X156.607 Y71.274 E.02785
G1 X156.473 Y71.181 E.0061
G1 X156.324 Y71.111 E.00615
G1 X156.164 Y71.068 E.00615
G1 X155.736 Y71.05 E.01598
G1 X156.95 Y72.264 E.064
G1 X156.95 Y72.911 E.02411
G1 X155.089 Y71.05 E.0981
G1 X154.442 Y71.05 E.02411
G1 X156.95 Y73.558 E.1322
G1 X156.95 Y74.205 E.02411
G1 X153.795 Y71.05 E.1663
G1 X153.148 Y71.05 E.02411
G1 X156.95 Y74.852 E.20041
G1 X156.95 Y75.499 E.02411
G1 X152.502 Y71.05 E.23451
G1 X151.855 Y71.05 E.02411
G1 X156.95 Y76.146 E.26861
G1 X156.95 Y76.793 E.02411
G1 X151.208 Y71.05 E.30271
G1 X150.561 Y71.05 E.02411
G1 X156.95 Y77.44 E.33681
G1 X156.95 Y78.087 E.02411
G1 X149.914 Y71.05 E.37092
G1 X149.267 Y71.05 E.02411
G1 X156.95 Y78.734 E.40502
G1 X156.95 Y79.38 E.02411
G1 X148.62 Y71.05 E.43912
G1 X147.973 Y71.05 E.02411
G1 X156.95 Y80.027 E.47322
G1 X156.95 Y80.674 E.02411
G1 X147.326 Y71.05 E.50732
G1 X146.679 Y71.05 E.02411
G1 X156.95 Y81.321 E.54142
G1 X156.95 Y81.968 E.02411
G1 X146.032 Y71.05 E.57553
G1 X145.385 Y71.05 E.02411
G1 X156.95 Y82.615 E.60963
G1 X156.95 Y83.262 E.02411
G1 X144.739 Y71.05 E.64373
G1 X144.092 Y71.05 E.02411
G1 X156.95 Y83.909 E.67783
G1 X156.95 Y84.556 E.02411
G1 X143.445 Y71.05 E.71193
G1 X142.798 Y71.05 E.02411
G1 X156.95 Y85.203 E.74604
G1 X156.95 Y85.85 E.02411
G1 X142.151 Y71.05 E.78014
G1 X141.504 Y71.05 E.02411
G1 X156.95 Y86.496 E.81424
G1 X156.95 Y87.143 E.02411
G1 X140.857 Y71.05 E.84834
G1 X140.21 Y71.05 E.02411
G1 X156.95 Y87.79 E.88244
G1 X156.95 Y88.437 E.02411
G1 X139.563 Y71.05 E.91654
G1 X138.916 Y71.05 E.02411
G1 X156.95 Y89.084 E.95065
G1 X156.95 Y89.731 E.02411
G1 X138.269 Y71.05 E.98475
G1 X137.623 Y71.05 E.02411
G1 X156.95 Y90.378 E1.01885
G1 X156.95 Y91.025 E.02411
G1 X136.976 Y71.05 E1.05295
G1 X136.329 Y71.05 E.02411
G1 X156.95 Y91.672 E1.08705
G1 X156.95 Y92.319 E.02411
