; HEADER_BLOCK_START
; generated by OrcaSlicer 2.2.0 on 2024-11-25 at 19:49:41
; total layer number: 150
; filament_density: 1.27
; filament_diameter: 1.75
; max_z_height: 30.00
; HEADER_BLOCK_END

; THUMBNAIL_BLOCK_START

;
; THUMBNAIL_BLOCK_END

; THUMBNAIL_BLOCK_START

;
; THUMBNAIL_BLOCK_END

; external perimeters extrusion width = 0.42mm
; perimeters extrusion width = 0.45mm
; infill extrusion width = 0.45mm
; solid infill extrusion width = 0.45mm
; top infill extrusion width = 0.42mm
; first layer extrusion width = 0.50mm

; EXECUTABLE_BLOCK_START
EXCLUDE_OBJECT_DEFINE NAME=Corps6.stl_id_0_copy_0 CENTER=115,115 POLYGON=[[103,100.5],[127,100.5],[127,124.5],[126.991,124.802],[126.964,125.103],[126.918,125.401],[126.855,125.697],[126.774,125.988],[126.675,126.273],[126.559,126.552],[126.427,126.824],[126.279,127.087],[126.115,127.34],[125.936,127.584],[125.743,127.816],[125.536,128.036],[125.316,128.243],[125.084,128.436],[124.84,128.615],[124.587,128.779],[124.324,128.927],[124.052,129.059],[123.773,129.175],[123.488,129.274],[123.197,129.355],[122.901,129.418],[122.603,129.464],[122.302,129.491],[122,129.5],[108,129.5],[107.698,129.491],[107.397,129.464],[107.099,129.418],[106.803,129.355],[106.512,129.274],[106.227,129.175],[105.948,129.059],[105.676,128.927],[105.413,128.779],[105.16,128.615],[104.916,128.436],[104.684,128.243],[104.464,128.036],[104.257,127.816],[104.064,127.584],[103.885,127.34],[103.721,127.087],[103.573,126.824],[103.441,126.552],[103.325,126.273],[103.226,125.988],[103.145,125.697],[103.082,125.401],[103.036,125.103],[103.009,124.802],[103,124.5],[103,100.5]]
M73 P0 R17
;TYPE:Custom
M220 S100
G90 ; use absolute coordinates
M83 ; extruder relative mode
M104 S150 ; set temporary nozzle temp to prevent oozing during homing
M140 S70 ; set final bed temp
G4 S30 ; allow partial nozzle warmup
G28 ; home all axis and restore leveling
BED_MESH_CALIBRATE
G1 Z25 F240
G1 X10.0 Y30 F3000
M73 P0 R16
M104 S245 ; set final nozzle temp
M190 S70 ; wait for bed temp to stabilize
M109 S245 ; wait for nozzle temp to stabilize
M73 P0 R16
G1 Z0.28 F240
G92 E0 ; Move Z Axis up
LINE_PURGE
G92 E0 ; Move Z Axis up
G1 Z2.0 F3000
M73 P1 R16
M117 Start Printing..
G90
G21
M83 ; use relative distances for extrusion
; filament start gcode
M106 S0
;LAYER_CHANGE
;Z:0.2
;HEIGHT:0.2
;BEFORE_LAYER_CHANGE
;0.2
G92 E0

M73 P1 R16
G1 E-.5 F1800
;_SET_FAN_SPEED_CHANGING_LAYER
SET_VELOCITY_LIMIT ACCEL=1000
SET_VELOCITY_LIMIT SQUARE_CORNER_VELOCITY=7
; printing object Corps6.stl id:0 copy 0
EXCLUDE_OBJECT_START NAME=Corps6.stl_id_0_copy_0
G1 Z.4 F24000
G1 X111.757 Y121.257
G1 Z.4
G1 Z.2
G1 E.5 F1800
;TYPE:Inner wall
;WIDTH:0.499999
G1 F3000
G1 X134.243 Y121.257 E.81186
G1 X134.243 Y144.478 E.83841
G1 X134.211 Y145.011 E.01929
G1 X134.12 Y145.505 E.01813
G1 X133.863 Y146.25 E.02846
G1 X133.63 Y146.694 E.0181
G1 X133.345 Y147.108 E.01814
G1 X132.811 Y147.674 E.02808
G1 X132.193 Y148.129 E.02771
G1 X131.494 Y148.469 E.02808
G1 X130.905 Y148.634 E.02209
G1 X129.989 Y148.743 E.03331
G1 X115.754 Y148.734 E.51395
G1 X114.985 Y148.617 E.02809
G1 X114.25 Y148.363 E.02808
G1 X113.805 Y148.13 E.01813
G1 X113.384 Y147.839 E.01847
G1 X113.008 Y147.506 E.01814
G1 X112.612 Y147.03 E.02236
G1 X112.34 Y146.607 E.01816
G1 X112.082 Y146.092 E.0208
G1 X111.857 Y145.381 E.02692
G1 X111.766 Y144.767 E.02242
G1 X111.757 Y121.297 E.84739
G1 X111.3 Y120.8 F24000
;TYPE:Outer wall
G1 F3000
G1 X134.7 Y120.8 E.84488
G1 X134.7 Y144.492 E.85541
G1 X134.665 Y145.066 E.02079
G1 X134.564 Y145.622 E.02038
G1 X134.284 Y146.432 E.03096
G1 X134.022 Y146.931 E.02034
G1 X133.701 Y147.396 E.02039
G1 X133.116 Y148.017 E.03083
G1 X132.689 Y148.332 E.01915
G1 X132.254 Y148.608 E.0186
G1 X131.512 Y148.942 E.0294
G1 X130.974 Y149.085 E.0201
G1 X129.996 Y149.2 E.03556
G1 X115.72 Y149.191 E.51545
G1 X114.875 Y149.062 E.03084
G1 X114.068 Y148.784 E.03083
G1 X113.568 Y148.522 E.02038
G1 X113.102 Y148.2 E.02047
G1 X112.679 Y147.825 E.02039
G1 X112.133 Y147.169 E.03083
G1 X111.812 Y146.601 E.02355
G1 X111.65 Y146.241 E.01427
G1 X111.407 Y145.463 E.02941
G1 X111.309 Y144.787 E.02466
G1 X111.3 Y120.84 E.86465
G1 E-.5 F1800
;WIPE_START
G1 F12000
G1 X113.3 Y120.837
;WIPE_END
G1 Z.4 F24000
G1 X130.53 Y138.005 Z.4
G1 Z.2
G1 E.5 F1800
;TYPE:Inner wall
G1 F3000
G1 X130.919 Y138.522 E.02336
G1 X131.153 Y138.883 E.01552
G1 X131.551 Y139.766 E.03499
G1 X131.769 Y140.608 E.0314
G1 X131.835 Y141.165 E.02025
G1 X131.819 Y142.001 E.03018
G1 X131.674 Y142.824 E.03018
G1 X131.496 Y143.388 E.02134
G1 X131.274 Y143.898 E.02007
G1 X130.855 Y144.597 E.02945
G1 X130.325 Y145.233 E.02989
G1 X129.893 Y145.63 E.02118
G1 X128.887 Y146.282 E.0433
G1 X128.214 Y146.563 E.02631
G1 X127.641 Y146.723 E.02149
G1 X127.088 Y146.812 E.02021
G1 X126.513 Y146.843 E.02079
G1 X125.719 Y146.784 E.02875
G1 X125.158 Y146.672 E.02065
G1 X124.609 Y146.499 E.02077
G1 X124.097 Y146.275 E.02021
G1 X123.396 Y145.851 E.02956
G1 X122.994 Y145.531 E.01857
G1 X122.547 Y145.872 E.0203
G1 X122.117 Y146.153 E.01853
G1 X121.234 Y146.551 E.03499
G1 X120.392 Y146.769 E.0314
G1 X119.835 Y146.835 E.02025
G1 X118.999 Y146.819 E.03018
G1 X118.176 Y146.674 E.03018
G1 X117.612 Y146.496 E.02134
G1 X117.102 Y146.274 E.02007
G1 X116.314 Y145.791 E.03338
G1 X115.759 Y145.318 E.02633
G1 X115.37 Y144.893 E.02081
G1 X114.718 Y143.887 E.0433
G1 X114.437 Y143.214 E.02631
G1 X114.277 Y142.641 E.02149
G1 X114.188 Y142.088 E.02021
G1 X114.157 Y141.513 E.02079
G1 X114.216 Y140.719 E.02875
G1 X114.328 Y140.158 E.02065
G1 X114.5 Y139.609 E.02077
G1 X114.725 Y139.097 E.02021
G1 X115.149 Y138.396 E.02956
G1 X115.469 Y137.994 E.01857
G1 X115.128 Y137.547 E.0203
G1 X114.847 Y137.117 E.01853
G1 X114.449 Y136.234 E.03499
G1 X114.231 Y135.392 E.03141
G1 X114.165 Y134.835 E.02025
G1 X114.181 Y133.999 E.03018
G1 X114.326 Y133.176 E.03018
G1 X114.504 Y132.612 E.02134
G1 X114.726 Y132.102 E.02007
G1 X115.145 Y131.402 E.02946
G1 X115.503 Y130.95 E.02083
G1 X115.896 Y130.552 E.02019
G1 X116.762 Y129.912 E.03887
G1 X117.301 Y129.628 E.02203
G1 X117.821 Y129.424 E.02017
G1 X118.361 Y129.277 E.02018
G1 X118.912 Y129.188 E.02015
G1 X119.728 Y129.163 E.02948
G1 X120.316 Y129.22 E.02136
G1 X121.094 Y129.4 E.02881
G1 X121.649 Y129.605 E.02138
G1 X122.334 Y129.972 E.02806
G1 X123.005 Y130.47 E.03017
G1 X123.522 Y130.067 E.02366
G1 X124.605 Y129.506 E.04403
G1 X125.082 Y129.348 E.01815
G1 X125.627 Y129.226 E.02017
G1 X126.184 Y129.163 E.02023
G1 X127.262 Y129.214 E.03897
G1 X128.109 Y129.408 E.0314
G1 X129.095 Y129.832 E.03874
G1 X129.612 Y130.154 E.02196
G1 X130.241 Y130.682 E.02966
G1 X130.79 Y131.313 E.0302
G1 X131.234 Y132.019 E.03011
G1 X131.563 Y132.786 E.03013
G1 X131.722 Y133.359 E.02148
G1 X131.832 Y134.172 E.02961
G1 X131.815 Y135.024 E.03078
G1 X131.676 Y135.826 E.0294
G1 X131.401 Y136.632 E.03075
G1 X130.948 Y137.462 E.03414
G1 X130.554 Y137.974 E.0233
G1 X129.896 Y138.005 F24000
;TYPE:Outer wall
G1 F3000
G1 X130.281 Y138.406 E.02008
G1 X130.7 Y139.012 E.0266
G1 X131.134 Y139.954 E.03746
G1 X131.326 Y140.717 E.02841
G1 X131.382 Y141.238 E.01891
G1 X131.362 Y141.989 E.02712
G1 X131.224 Y142.74 E.02758
G1 X131.062 Y143.247 E.01922
G1 X130.856 Y143.712 E.01836
G1 X130.465 Y144.36 E.02733
M73 P2 R16
M73 P2 R16
G1 X129.977 Y144.936 E.02727
G1 X129.588 Y145.29 E.019
G1 X128.71 Y145.86 E.03777
G1 X128.038 Y146.141 E.02631
G1 X127.523 Y146.281 E.01928
G1 X127.018 Y146.36 E.01843
G1 X126.492 Y146.386 E.01904
G1 X125.755 Y146.329 E.02667
G1 X125.252 Y146.225 E.01857
G1 X124.75 Y146.064 E.01903
G1 X124.283 Y145.858 E.01843
G1 X123.636 Y145.462 E.02739
G1 X123.231 Y145.135 E.01878
G1 X122.995 Y144.896 E.01214
G1 X122.594 Y145.281 E.02008
G1 X121.965 Y145.716 E.02762
G1 X121.046 Y146.134 E.03645
G1 X120.283 Y146.326 E.02841
G1 X119.762 Y146.382 E.01892
G1 X119.011 Y146.362 E.02711
G1 X118.26 Y146.224 E.02757
G1 X117.753 Y146.062 E.01922
G1 X117.288 Y145.856 E.01836
G1 X116.64 Y145.465 E.02733
G1 X116.102 Y145.009 E.02547
G1 X115.71 Y144.588 E.02079
G1 X115.14 Y143.71 E.03777
G1 X114.859 Y143.038 E.02631
G1 X114.719 Y142.523 E.01928
G1 X114.64 Y142.018 E.01843
G1 X114.614 Y141.492 E.01904
G1 X114.671 Y140.755 E.02667
G1 X114.775 Y140.252 E.01857
G1 X114.936 Y139.75 E.01903
G1 X115.142 Y139.283 E.01843
G1 X115.538 Y138.636 E.02739
G1 X115.865 Y138.231 E.01878
G1 X116.104 Y137.995 E.01214
G1 X115.719 Y137.594 E.02008
G1 X115.284 Y136.965 E.02762
G1 X114.866 Y136.046 E.03645
G1 X114.674 Y135.283 E.02841
G1 X114.618 Y134.762 E.01891
G1 X114.638 Y134.011 E.02712
G1 X114.776 Y133.26 E.02757
G1 X114.938 Y132.753 E.01922
G1 X115.144 Y132.288 E.01836
G1 X115.535 Y131.64 E.02734
G1 X115.858 Y131.237 E.01865
G1 X116.219 Y130.875 E.01843
G1 X117.03 Y130.282 E.0363
G1 X117.509 Y130.035 E.01945
G1 X117.985 Y129.851 E.01842
G1 X118.478 Y129.719 E.01843
G1 X118.981 Y129.64 E.0184
G1 X119.738 Y129.62 E.02735
G1 X120.268 Y129.675 E.01922
G1 X120.988 Y129.844 E.02671
G1 X121.486 Y130.033 E.01923
G1 X122.115 Y130.373 E.02584
G1 X122.536 Y130.685 E.0189
G1 X123.005 Y131.104 E.02272
G1 X123.406 Y130.719 E.02009
G1 X123.823 Y130.414 E.01866
G1 X124.748 Y129.94 E.03752
G1 X125.225 Y129.782 E.01815
G1 X125.723 Y129.673 E.01841
G1 X126.232 Y129.618 E.01846
G1 X127.236 Y129.671 E.03633
G1 X128.002 Y129.853 E.0284
G1 X128.911 Y130.25 E.03582
G1 X129.365 Y130.538 E.01942
G1 X129.944 Y131.03 E.02743
G1 X130.442 Y131.609 E.02759
G1 X130.844 Y132.258 E.02756
G1 X131.141 Y132.962 E.02758
G1 X131.281 Y133.477 E.01927
G1 X131.379 Y134.23 E.0274
G1 X131.359 Y135.01 E.0282
G1 X131.226 Y135.743 E.02689
G1 X130.97 Y136.48 E.02819
G1 X130.704 Y136.973 E.0202
G1 X130.33 Y137.516 E.02381
G1 X129.922 Y137.975 E.02218
G1 E-.5 F1800
;WIPE_START
G1 F12000
G1 X130.281 Y138.406
G1 X130.7 Y139.012
G1 X130.994 Y139.65
;WIPE_END
G1 Z.4 F24000
G1 X134.106 Y122.33
G1 Z.4
G1 Z.2
G1 E.5 F1800
;TYPE:Bottom surface
;WIDTH:0.505416
G1 F5837.888
G1 X133.376 Y121.6 E.03771
G1 X132.722 Y121.6 E.0239
G1 X133.9 Y122.778 E.06087
G1 X133.9 Y123.432 E.0239
G1 X132.068 Y121.6 E.09467
G1 X131.414 Y121.6 E.0239
G1 X133.9 Y124.086 E.12846
G1 X133.9 Y124.74 E.0239
G1 X130.76 Y121.6 E.16225
G1 X130.106 Y121.6 E.0239
G1 X133.9 Y125.394 E.19605
G1 X133.9 Y126.048 E.0239
G1 X129.452 Y121.6 E.22984
G1 X128.798 Y121.6 E.0239
G1 X133.9 Y126.702 E.26363
G1 X133.9 Y127.357 E.0239
G1 X128.143 Y121.6 E.29743
G1 X127.489 Y121.6 E.0239
G1 X133.9 Y128.011 E.33122
G1 X133.9 Y128.665 E.0239
G1 X126.835 Y121.6 E.36501
G1 X126.181 Y121.6 E.0239
G1 X133.9 Y129.319 E.39881
G1 X133.9 Y129.973 E.0239
G1 X125.527 Y121.6 E.4326
G1 X124.873 Y121.6 E.0239
G1 X133.9 Y130.627 E.46639
G1 X133.9 Y131.281 E.0239
G1 X124.219 Y121.6 E.50019
G1 X123.565 Y121.6 E.0239
G1 X133.9 Y131.935 E.53398
G1 X133.9 Y132.589 E.0239
G1 X122.911 Y121.6 E.56777
G1 X122.257 Y121.6 E.0239
G1 X133.9 Y133.243 E.60157
G1 X133.9 Y133.897 E.0239
G1 X121.603 Y121.6 E.63536
G1 X120.949 Y121.6 E.0239
G1 X128.577 Y129.229 E.39415
G1 X128.195 Y129.076 E.01502
G1 X127.635 Y128.941 E.02105
G1 X120.295 Y121.6 E.37927
G1 X119.641 Y121.6 E.0239
G1 X126.896 Y128.855 E.37484
G1 X126.211 Y128.824 E.02504
G1 X118.987 Y121.6 E.37325
G1 X118.332 Y121.6 E.0239
G1 X125.614 Y128.881 E.37619
G1 X125.074 Y128.995 E.02017
G1 X117.678 Y121.6 E.38208
G1 X117.024 Y121.6 E.0239
G1 X124.58 Y129.155 E.39035
G1 X124.44 Y129.2 E.00537
G1 X124.129 Y129.359 E.01274
G1 X116.37 Y121.6 E.40089
G1 X115.716 Y121.6 E.0239
G1 X123.697 Y129.58 E.41233
G1 X123.416 Y129.724 E.01151
G1 X123.283 Y129.821 E.00602
G1 X115.062 Y121.6 E.42474
G1 X114.408 Y121.6 E.0239
G1 X122.461 Y129.653 E.41608
G1 X121.826 Y129.308 E.02641
G1 X121.247 Y129.093 E.02257
G1 X113.754 Y121.6 E.38713
G1 X113.1 Y121.6 E.0239
G1 X120.391 Y128.891 E.37671
G1 X119.668 Y128.822 E.02655
G1 X112.446 Y121.6 E.37313
G1 X112.1 Y121.6 E.01262
G1 X112.1 Y121.909 E.01128
G1 X119.029 Y128.837 E.35796
G1 X118.455 Y128.918 E.02115
G1 X112.101 Y122.563 E.32833
G1 X112.101 Y123.217 E.0239
G1 X117.925 Y129.041 E.30092
G1 X117.704 Y129.102 E.00839
G1 X117.437 Y129.207 E.01047
G1 X112.101 Y123.871 E.27567
G1 X112.101 Y124.526 E.0239
G1 X116.984 Y129.408 E.25226
G1 X116.558 Y129.636 E.01765
G1 X112.102 Y125.18 E.23025
G1 X112.102 Y125.834 E.0239
G1 X116.179 Y129.912 E.21066
G1 X115.8 Y130.187 E.01711
G1 X112.102 Y126.489 E.19108
G1 X112.102 Y127.143 E.0239
M73 P3 R16
M73 P3 R16
G1 X115.464 Y130.504 E.17366
G1 X115.306 Y130.656 E.00798
G1 X115.15 Y130.845 E.00896
G1 X112.103 Y127.797 E.15747
G1 X112.103 Y128.452 E.0239
G1 X114.866 Y131.215 E.14277
G1 X114.615 Y131.618 E.01735
G1 X112.103 Y129.106 E.1298
G1 X112.103 Y129.76 E.0239
G1 X114.385 Y132.042 E.11789
G1 X114.183 Y132.494 E.01808
G1 X112.104 Y130.415 E.10741
G1 X112.104 Y131.069 E.0239
G1 X114.026 Y132.992 E.09934
G1 X113.991 Y133.107 E.00441
G1 X113.916 Y133.535 E.01588
G1 X112.104 Y131.723 E.09362
G1 X112.104 Y132.378 E.0239
G1 X113.836 Y134.11 E.08949
G1 X113.825 Y134.752 E.02349
G1 X112.105 Y133.032 E.0889
G1 X112.105 Y133.686 E.0239
G1 X113.902 Y135.483 E.09285
G1 X114.077 Y136.202 E.02704
G1 X114.134 Y136.37 E.00646
G1 X112.105 Y134.34 E.10484
G1 X112.105 Y134.995 E.0239
G1 X114.849 Y137.739 E.14177
G1 X115.027 Y137.997 E.01145
G1 X114.788 Y138.332 E.01503
G1 X112.106 Y135.649 E.13859
G1 X112.106 Y136.303 E.0239
G1 X114.542 Y138.74 E.12587
G1 X114.414 Y138.951 E.00902
G1 X114.319 Y139.171 E.00875
G1 X112.106 Y136.958 E.11433
G1 X112.106 Y137.612 E.0239
G1 X114.132 Y139.638 E.10468
G1 X113.981 Y140.141 E.01919
G1 X112.107 Y138.266 E.09687
G1 X112.107 Y138.921 E.0239
G1 X113.874 Y140.688 E.09132
G1 X113.828 Y141.296 E.02226
G1 X112.107 Y139.575 E.08891
G1 X112.107 Y140.229 E.0239
G1 X113.835 Y141.957 E.08928
G1 X113.924 Y142.626 E.02466
G1 X113.952 Y142.728 E.00386
G1 X111.902 Y140.678 E.10593
G1 E-.5 F1800
;WIPE_START
G1 F12000
G1 X113.316 Y142.092
;WIPE_END
G1 Z.4 F24000
G1 X131.39 Y132.041 Z.4
G1 Z.2
G1 E.5 F1800
G1 F5837.888
G1 X133.9 Y134.551 E.12969
G1 X133.9 Y135.205 E.0239
G1 X132.069 Y133.374 E.09462
G1 X132.173 Y134.132 E.02797
G1 X133.9 Y135.859 E.08923
G1 X133.9 Y136.513 E.0239
G1 X132.156 Y134.769 E.09012
G1 X132.144 Y135.174 E.0148
G1 X132.105 Y135.373 E.00739
G1 X133.9 Y137.168 E.09274
G1 X133.9 Y137.822 E.0239
G1 X131.997 Y135.919 E.09832
G1 X131.974 Y136.035 E.00434
G1 X131.84 Y136.416 E.01474
G1 X133.9 Y138.476 E.10643
G1 X133.9 Y139.13 E.0239
G1 X131.653 Y136.883 E.11609
G1 X131.427 Y137.311 E.01768
G1 X133.9 Y139.784 E.12777
G1 X133.9 Y140.438 E.0239
G1 X131.177 Y137.715 E.1407
G1 X130.968 Y137.997 E.01283
G1 X131.331 Y138.523 E.02337
G1 X133.9 Y141.092 E.13273
G1 X133.9 Y141.746 E.0239
G1 X131.908 Y139.754 E.1029
G1 X132.114 Y140.614 E.03228
G1 X133.9 Y142.4 E.09229
G1 X133.9 Y143.054 E.0239
G1 X132.173 Y141.328 E.08921
G1 X132.162 Y141.97 E.02349
G1 X133.9 Y143.708 E.08979
G1 X133.9 Y144.362 E.0239
G1 X132.072 Y142.534 E.09446
G1 X132.009 Y142.893 E.01332
G1 X131.954 Y143.07 E.00679
G1 X133.867 Y144.984 E.09884
G1 X133.788 Y145.418 E.01613
G1 X133.752 Y145.522 E.00403
G1 X131.792 Y143.563 E.10124
G1 X131.59 Y144.014 E.01808
G1 X133.584 Y146.008 E.10303
G1 X133.547 Y146.114 E.00408
G1 X133.371 Y146.45 E.01385
G1 X131.353 Y144.431 E.10427
G1 X131.102 Y144.834 E.01734
G1 X133.111 Y146.843 E.10379
G1 X133.077 Y146.891 E.00214
G1 X132.8 Y147.186 E.01479
G1 X130.808 Y145.194 E.10291
G1 X130.498 Y145.539 E.01692
G1 X132.464 Y147.504 E.10156
G1 X132.087 Y147.781 E.01709
G1 X130.157 Y145.851 E.09972
G1 X130.076 Y145.925 E.004
G1 X129.774 Y146.123 E.01318
G1 X131.659 Y148.008 E.09736
G1 X131.367 Y148.149 E.01184
G1 X131.199 Y148.202 E.00644
G1 X129.38 Y146.382 E.09401
G1 X129.179 Y146.514 E.00876
G1 X128.964 Y146.621 E.00877
G1 X130.666 Y148.323 E.08794
G1 X130.206 Y148.393 E.01702
G1 X130.082 Y148.393 E.00452
G1 X128.503 Y146.814 E.08161
G1 X128.339 Y146.882 E.00647
G1 X128.007 Y146.972 E.01258
G1 X129.428 Y148.393 E.07341
G1 X128.774 Y148.393 E.0239
G1 X127.478 Y147.097 E.06695
G1 X126.894 Y147.168 E.02148
G1 X128.12 Y148.393 E.0633
G1 X127.466 Y148.393 E.0239
G1 X126.241 Y147.168 E.06328
G1 X125.685 Y147.126 E.02036
G1 X125.51 Y147.091 E.00653
G1 X126.811 Y148.393 E.06725
