; HEADER_BLOCK_START
; generated by OrcaSlicer 2.0.0 on 2024-05-19 at 19:42:31
; total layer number: 15
; filament_density: 1.24
; filament_diameter: 1.75
; max_z_height: 3.00
; HEADER_BLOCK_END

; THUMBNAIL_BLOCK_START

;
; THUMBNAIL_BLOCK_END

; THUMBNAIL_BLOCK_START

;
; THUMBNAIL_BLOCK_END

; external perimeters extrusion width = 0.40mm
; perimeters extrusion width = 0.42mm
; infill extrusion width = 0.45mm
; solid infill extrusion width = 0.42mm
; top infill extrusion width = 0.40mm
; first layer extrusion width = 0.50mm

; EXECUTABLE_BLOCK_START
EXCLUDE_OBJECT_DEFINE NAME=Corps1.stl_id_0_copy_0 CENTER=110,110 POLYGON=[[50,100],[50.0233,99.3176],[50.0931,98.6383],[50.2092,97.9654],[50.3708,97.302],[50.5774,96.6512],[50.8279,96.016],[51.1211,95.3993],[51.4558,94.8042],[51.8303,94.2332],[52.2429,93.6891],[52.6916,93.1745],[53.1745,92.6916],[53.6891,92.2429],[54.2332,91.8303],[54.8042,91.4558],[55.3993,91.1211],[56.016,90.8279],[56.6512,90.5774],[57.302,90.3708],[57.9654,90.2092],[58.6383,90.0931],[59.3176,90.0233],[60,90],[160,90],[160.682,90.0233],[161.362,90.0931],[162.035,90.2092],[162.698,90.3708],[163.349,90.5774],[163.984,90.8279],[164.601,91.1211],[165.196,91.4558],[165.767,91.8303],[166.311,92.2429],[166.826,92.6916],[167.308,93.1745],[167.757,93.6891],[168.17,94.2332],[168.544,94.8042],[168.879,95.3993],[169.172,96.016],[169.423,96.6512],[169.629,97.302],[169.791,97.9654],[169.907,98.6383],[169.977,99.3176],[170,100],[170,120],[169.977,120.682],[169.907,121.362],[169.791,122.035],[169.629,122.698],[169.423,123.349],[169.172,123.984],[168.879,124.601],[168.544,125.196],[168.17,125.767],[167.757,126.311],[167.308,126.826],[166.826,127.308],[166.311,127.757],[165.767,128.17],[165.196,128.544],[164.601,128.879],[163.984,129.172],[163.349,129.423],[162.698,129.629],[162.035,129.791],[161.362,129.907],[160.682,129.977],[160,130],[60,130],[59.3176,129.977],[58.6383,129.907],[57.9654,129.791],[57.302,129.629],[56.6512,129.423],[56.016,129.172],[55.3993,128.879],[54.8042,128.544],[54.2332,128.17],[53.6891,127.757],[53.1745,127.308],[52.6916,126.826],[52.2429,126.311],[51.8303,125.767],[51.4558,125.196],[51.1211,124.601],[50.8279,123.984],[50.5774,123.349],[50.3708,122.698],[50.2092,122.035],[50.0931,121.362],[50.0233,120.682],[50,120],[50,100]]
M73 P0 R23
;TYPE:Custom
M220 S100
G90 ; use absolute coordinates
M83 ; extruder relative mode
M104 S150 ; set temporary nozzle temp to prevent oozing during homing
M140 S55 ; set final bed temp
G4 S30 ; allow partial nozzle warmup
G28 ; home all axis and restore leveling
G1 Z25 F240
G1 X10.0 Y30 F3000
M104 S210 ; set final nozzle temp
M190 S55 ; wait for bed temp to stabilize
M109 S210 ; wait for nozzle temp to stabilize
G1 Z0.28 F240
G92 E0 ; Move Z Axis up
G1 Z2.0 F5000 ; Move to start position
G1 X10 Y30 Z0.28 F300 ; Draw the first line
G1 X10 Y200 Z0.28 F1500 E15 ; Move to side a little
G1 X10.4 Y200 Z0.28 F5000.0 ; Draw the second line
M73 P1 R23
G1 X10.4 Y50 Z0.28 F1500.0 E30 ; Reset Extruder
G92 E0 ; Move Z Axis up
G1 Z2.0 F3000
M117 Start Printing..
G90
G21
M83 ; use relative distances for extrusion
; filament start gcode
M106 S0
;LAYER_CHANGE
;Z:0.2
;HEIGHT:0.2
;BEFORE_LAYER_CHANGE
;0.2
G92 E0

G1 E-.5 F2400
;_SET_FAN_SPEED_CHANGING_LAYER
SET_VELOCITY_LIMIT ACCEL=500 ACCEL_TO_DECEL=250
SET_VELOCITY_LIMIT SQUARE_CORNER_VELOCITY=7
G1 Z.2 F18000
G1 X61.206 Y109.019
G1 Z.2
G1 E.5 F2400
;TYPE:Skirt
;WIDTH:0.5
G1 F3000
G1 X62.148 Y108.489 E.04025
G1 X63.77 Y107.8 E.06564
G1 X64.612 Y107.54 E.03284
G1 X66.143 Y107.221 E.05825
G1 X68 Y107.086 E.06934
G1 X168.1 Y107.088 E3.72833
G1 X169.66 Y107.194 E.05825
M73 P2 R23
G1 X170.725 Y107.378 E.04025
G1 X171.58 Y107.593 E.03284
G1 X173.053 Y108.117 E.05825
G1 X174.794 Y109.019 E.07304
G1 X176.017 Y109.88 E.05571
G1 X176.741 Y110.495 E.03538
G1 X177.505 Y111.259 E.04025
G1 X178.45 Y112.418 E.05571
G1 X179.511 Y114.148 E.07557
G1 X180.134 Y115.582 E.05825
G1 X180.46 Y116.612 E.04025
G1 X180.779 Y118.143 E.05825
G1 X180.876 Y119.02 E.03284
G1 X180.914 Y140 E.78144
G1 X180.806 Y141.66 E.06195
G1 X180.46 Y143.388 E.06564
G1 X179.883 Y145.053 E.06564
G1 X179.084 Y146.624 E.06564
G1 X178.492 Y147.528 E.04025
G1 X177.369 Y148.886 E.06564
G1 X176.072 Y150.079 E.06564
G1 X174.794 Y150.981 E.05825
G1 X173.852 Y151.511 E.04025
G1 X172.23 Y152.2 E.06564
G1 X171.388 Y152.46 E.03284
G1 X169.857 Y152.779 E.05825
G1 X168 Y152.914 E.06934
G1 X67.02 Y152.876 E3.76114
G1 X65.275 Y152.622 E.06564
G1 X63.582 Y152.134 E.06564
G1 X61.971 Y151.419 E.06564
G1 X60.692 Y150.644 E.0557
G1 X59.928 Y150.079 E.03538
G1 X58.631 Y148.886 E.06564
G1 X57.508 Y147.528 E.06564
G1 X56.581 Y146.029 E.06564
G1 X55.8 Y144.23 E.07304
G1 X55.54 Y143.388 E.03284
G1 X55.221 Y141.857 E.05825
G1 X55.086 Y140 E.06934
G1 X55.086 Y120 E.74492
G1 X55.194 Y118.34 E.06195
G1 X55.378 Y117.275 E.04025
G1 X55.8 Y115.77 E.05825
G1 X56.489 Y114.148 E.06564
G1 X57.394 Y112.635 E.06564
G1 X58.495 Y111.259 E.06564
G1 X59.774 Y110.046 E.06564
G1 X61.173 Y109.042 E.06415
G1 X61.439 Y109.414 F18000
G1 F3000
G1 X61.457 Y109.401 E.00079
G1 X62.344 Y108.902 E.03792
G1 X63.908 Y108.235 E.06332
G1 X64.72 Y107.984 E.03168
G1 X66.221 Y107.672 E.05708
G1 X68 Y107.543 E.06644
G1 X168.084 Y107.544 E3.72775
G1 X169.613 Y107.649 E.05708
G1 X170.616 Y107.822 E.03792
G1 X171.441 Y108.029 E.03168
G1 X172.885 Y108.542 E.05708
G1 X174.543 Y109.401 E.06955
G1 X175.741 Y110.244 E.05454
G1 X176.44 Y110.84 E.03422
G1 X177.16 Y111.56 E.03792
G1 X178.086 Y112.694 E.05454
G1 X179.098 Y114.344 E.07208
G1 X179.708 Y115.75 E.05708
G1 X180.016 Y116.72 E.03792
G1 X180.328 Y118.221 E.05708
G1 X180.421 Y119.066 E.03168
G1 X180.457 Y140 E.7797
G1 X180.351 Y141.613 E.0602
G1 X180.016 Y143.28 E.06332
G1 X179.458 Y144.885 E.06332
G1 X178.686 Y146.4 E.06332
G1 X178.128 Y147.251 E.03792
G1 X177.046 Y148.563 E.06332
G1 X175.926 Y149.609 E.05708
G1 X174.543 Y150.599 E.06332
G1 X173.656 Y151.098 E.03792
G1 X172.092 Y151.765 E.06332
G1 X171.28 Y152.016 E.03168
G1 X169.779 Y152.328 E.05708
G1 X168 Y152.457 E.06644
G1 X67.234 Y152.432 E3.75316
G1 X65.548 Y152.212 E.06332
G1 X63.75 Y151.708 E.06955
G1 X62.195 Y151.021 E.06332
G1 X60.943 Y150.262 E.05454
G1 X60.204 Y149.715 E.03422
G1 X58.954 Y148.563 E.06332
G1 X57.872 Y147.251 E.06332
G1 X56.979 Y145.805 E.06332
G1 X56.235 Y144.092 E.06955
G1 X55.984 Y143.28 E.03168
G1 X55.672 Y141.779 E.05708
G1 X55.543 Y140 E.06644
G1 X55.543 Y120 E.74492
G1 X55.649 Y118.387 E.06021
G1 X55.822 Y117.384 E.03792
G1 X56.292 Y115.75 E.06332
G1 X56.979 Y114.195 E.06332
G1 X57.872 Y112.749 E.06332
G1 X58.84 Y111.56 E.05708
G1 X60.074 Y110.391 E.06332
G1 X61.407 Y109.437 E.06104
; printing object Corps1.stl id:0 copy 0
G1 E-.35 F2400
;WIPE_START
G1 F3000
G1 X61.457 Y109.401 E-.0092
G1 X62.275 Y108.941 E-.1408
;WIPE_END
EXCLUDE_OBJECT_START NAME=Corps1.stl_id_0_copy_0
G1 Z.4 F18000
G1 X62.134 Y147.207 Z.4
G1 Z.2
G1 E.5 F2400
;TYPE:Inner wall
;WIDTH:0.499999
G1 F1800
G1 X61.657 Y146.791 E.02355
G1 X61.209 Y146.343 E.02363
G1 X60.792 Y145.864 E.02363
G1 X60.408 Y145.359 E.02363
G1 X60.06 Y144.828 E.02363
G1 X59.749 Y144.275 E.02363
G1 X59.505 Y143.762 E.02117
G1 X59.243 Y143.11 E.02617
G1 X59.052 Y142.507 E.02355
G1 X58.902 Y141.891 E.02363
G1 X58.794 Y141.265 E.02363
G1 X58.729 Y140.634 E.02363
G1 X58.707 Y139.988 E.02408
G1 X58.707 Y120.012 E.74402
G1 X58.729 Y119.366 E.02408
G1 X58.794 Y118.735 E.02363
G1 X58.902 Y118.109 E.02363
G1 X59.052 Y117.493 E.02363
G1 X59.244 Y116.888 E.02363
G1 X59.477 Y116.298 E.02363
G1 X59.749 Y115.725 E.02363
G1 X60.06 Y115.172 E.02363
G1 X60.408 Y114.641 E.02363
G1 X60.792 Y114.136 E.02363
G1 X61.209 Y113.657 E.02363
G1 X61.657 Y113.209 E.02363
G1 X62.136 Y112.792 E.02363
G1 X62.641 Y112.408 E.02363
G1 X63.172 Y112.06 E.02363
G1 X63.725 Y111.749 E.02363
G1 X64.298 Y111.477 E.02363
G1 X64.888 Y111.244 E.02363
G1 X65.493 Y111.052 E.02363
G1 X66.109 Y110.902 E.02363
G1 X66.735 Y110.794 E.02363
G1 X67.366 Y110.729 E.02363
G1 X68.012 Y110.707 E.02408
G1 X168.056 Y110.709 E3.72626
G1 X168.634 Y110.729 E.02154
M73 P3 R23
G1 X169.265 Y110.794 E.02363
G1 X169.891 Y110.902 E.02363
G1 X170.507 Y111.052 E.02363
G1 X171.112 Y111.244 E.02363
G1 X171.702 Y111.477 E.02363
G1 X172.275 Y111.749 E.02363
G1 X172.828 Y112.06 E.02363
G1 X173.359 Y112.408 E.02363
G1 X173.812 Y112.752 E.02117
G1 X174.344 Y113.21 E.02617
G1 X174.791 Y113.657 E.02355
G1 X175.208 Y114.136 E.02363
G1 X175.552 Y114.589 E.02117
G1 X175.941 Y115.174 E.02617
G1 X176.251 Y115.725 E.02355
G1 X176.523 Y116.298 E.02363
G1 X176.756 Y116.888 E.02363
G1 X176.948 Y117.493 E.02363
G1 X177.098 Y118.109 E.02363
G1 X177.206 Y118.735 E.02363
G1 X177.271 Y119.366 E.02363
G1 X177.293 Y120.174 E.0301
G1 X177.293 Y139.988 E.738
G1 X177.271 Y140.634 E.02408
G1 X177.206 Y141.265 E.02363
G1 X177.098 Y141.891 E.02363
G1 X176.948 Y142.507 E.02363
G1 X176.756 Y143.112 E.02363
G1 X176.523 Y143.702 E.02363
G1 X176.251 Y144.275 E.02363
G1 X175.94 Y144.828 E.02363
G1 X175.592 Y145.359 E.02363
G1 X175.208 Y145.864 E.02363
G1 X174.791 Y146.343 E.02363
G1 X174.343 Y146.791 E.02363
G1 X173.864 Y147.208 E.02363
G1 X173.359 Y147.592 E.02363
G1 X172.828 Y147.94 E.02363
G1 X172.275 Y148.251 E.02363
G1 X171.702 Y148.523 E.02363
G1 X171.112 Y148.756 E.02363
G1 X170.507 Y148.948 E.02363
G1 X169.891 Y149.098 E.02363
G1 X169.265 Y149.206 E.02363
G1 X168.634 Y149.271 E.02363
G1 X167.988 Y149.293 E.02408
G1 X68.012 Y149.293 E3.72371
G1 X67.366 Y149.271 E.02408
M73 P3 R22
G1 X66.735 Y149.206 E.02363
G1 X66.109 Y149.098 E.02363
G1 X65.493 Y148.948 E.02363
G1 X64.888 Y148.756 E.02363
G1 X64.298 Y148.523 E.02363
G1 X63.725 Y148.251 E.02363
G1 X63.172 Y147.94 E.02363
G1 X62.696 Y147.628 E.02117
G1 X62.166 Y147.231 E.02468
G1 X61.846 Y147.563 F18000
;TYPE:Outer wall
G1 F1800
G1 X61.345 Y147.126 E.02477
G1 X60.874 Y146.655 E.0248
G1 X60.437 Y146.153 E.0248
G1 X60.035 Y145.623 E.0248
G1 X59.67 Y145.066 E.0248
G1 X59.343 Y144.486 E.0248
G1 X59.086 Y143.945 E.02228
G1 X58.813 Y143.264 E.02733
G1 X58.612 Y142.63 E.02477
G1 X58.454 Y141.984 E.0248
G1 X58.341 Y141.328 E.0248
G1 X58.273 Y140.665 E.0248
G1 X58.25 Y139.996 E.02496
G1 X58.25 Y120.004 E.7446
G1 X58.273 Y119.335 E.02496
G1 X58.341 Y118.672 E.0248
G1 X58.454 Y118.016 E.0248
G1 X58.612 Y117.37 E.0248
G1 X58.813 Y116.735 E.02479
G1 X59.057 Y116.116 E.0248
G1 X59.343 Y115.514 E.0248
G1 X59.67 Y114.934 E.0248
G1 X60.035 Y114.377 E.0248
G1 X60.437 Y113.847 E.0248
G1 X60.874 Y113.345 E.0248
G1 X61.345 Y112.874 E.0248
G1 X61.847 Y112.437 E.0248
G1 X62.377 Y112.035 E.0248
G1 X62.934 Y111.67 E.0248
G1 X63.514 Y111.343 E.0248
G1 X64.116 Y111.057 E.0248
G1 X64.735 Y110.813 E.0248
G1 X65.37 Y110.612 E.02479
G1 X66.016 Y110.454 E.0248
G1 X66.672 Y110.341 E.0248
G1 X67.335 Y110.273 E.0248
G1 X68.004 Y110.25 E.02496
G1 X167.829 Y110.252 E3.71808
G1 X168.333 Y110.262 E.01879
G1 X168.997 Y110.307 E.02478
G1 X169.656 Y110.398 E.02479
G1 X170.308 Y110.533 E.02479
G1 X170.949 Y110.713 E.02479
G1 X171.576 Y110.936 E.0248
G1 X172.188 Y111.202 E.02483
G1 X172.781 Y111.509 E.0249
G1 X173.361 Y111.863 E.02528
G1 X173.872 Y112.224 E.02333
G1 X174.392 Y112.649 E.02501
G1 X174.901 Y113.12 E.02583
G1 X175.357 Y113.611 E.02496
G1 X175.752 Y114.097 E.02333
G1 X176.139 Y114.646 E.02501
G1 X176.501 Y115.237 E.02583
G1 X176.802 Y115.82 E.02442
G1 X177.066 Y116.428 E.02469
G1 X177.288 Y117.054 E.02474
G1 X177.467 Y117.694 E.02476
G1 X177.603 Y118.345 E.02477
G1 X177.693 Y119.004 E.02478
G1 X177.739 Y119.674 E.02499
G1 X177.75 Y120.174 E.01863
G1 X177.75 Y139.996 E.73829
G1 X177.727 Y140.665 E.02496
G1 X177.659 Y141.328 E.0248
M73 P4 R22
G1 X177.546 Y141.984 E.0248
G1 X177.388 Y142.63 E.0248
G1 X177.187 Y143.265 E.02479
G1 X176.943 Y143.884 E.0248
G1 X176.657 Y144.486 E.0248
G1 X176.33 Y145.066 E.0248
G1 X175.965 Y145.623 E.0248
G1 X175.563 Y146.153 E.0248
G1 X175.126 Y146.655 E.0248
G1 X174.655 Y147.126 E.0248
G1 X174.153 Y147.563 E.0248
G1 X173.623 Y147.965 E.0248
G1 X173.066 Y148.33 E.0248
G1 X172.486 Y148.657 E.0248
G1 X171.884 Y148.943 E.0248
G1 X171.265 Y149.187 E.0248
G1 X170.63 Y149.388 E.02479
G1 X169.984 Y149.546 E.0248
G1 X169.328 Y149.659 E.0248
G1 X168.665 Y149.727 E.0248
G1 X167.996 Y149.75 E.02496
G1 X68.004 Y149.75 E3.7243
G1 X67.335 Y149.727 E.02496
G1 X66.672 Y149.659 E.0248
G1 X66.016 Y149.546 E.0248
G1 X65.37 Y149.388 E.0248
G1 X64.735 Y149.187 E.02479
G1 X64.116 Y148.943 E.0248
G1 X63.514 Y148.657 E.0248
G1 X62.934 Y148.33 E.0248
G1 X62.434 Y148.002 E.02228
G1 X61.878 Y147.587 E.02584
G1 E-.35 F2400
;WIPE_START
G1 F1800
G1 X61.345 Y147.126 E-.10573
G1 X61.137 Y146.917 E-.04427
;WIPE_END
G1 Z.4 F18000
G1 X172.956 Y112.308
G1 Z.4
G1 Z.2
G1 E.5 F2400
;TYPE:Bottom surface
;WIDTH:0.501579
G1 F3600
G1 X174.549 Y113.901 E.08418
G1 X174.942 Y114.352 E.02238
G1 X175.272 Y114.787 E.02041
G1 X175.648 Y115.353 E.02539
G1 X176.004 Y116.005 E.02777
G1 X171.995 Y111.996 E.21192
G1 X171.565 Y111.791 E.01777
G1 X170.881 Y111.53 E.02738
G1 X176.47 Y117.119 E.29538
G1 X176.618 Y117.585 E.0183
G1 X176.724 Y118.022 E.01679
G1 X169.978 Y111.276 E.35657
G1 X169.184 Y111.13 E.03019
G1 X176.87 Y118.816 E.40626
G1 X176.933 Y119.529 E.02673
G1 X168.471 Y111.067 E.44727
G1 X167.808 Y111.052 E.02479
G1 X176.95 Y120.194 E.4832
G1 X176.95 Y120.843 E.02424
G1 X167.16 Y111.052 E.51749
G1 X166.511 Y111.052 E.02424
G1 X176.95 Y121.491 E.55177
G1 X176.95 Y122.14 E.02424
G1 X165.862 Y111.052 E.58606
G1 X165.214 Y111.052 E.02424
G1 X176.95 Y122.789 E.62034
G1 X176.95 Y123.437 E.02424
G1 X164.565 Y111.052 E.65463
G1 X163.916 Y111.052 E.02424
G1 X176.95 Y124.086 E.68891
G1 X176.95 Y124.735 E.02424
G1 X163.268 Y111.052 E.7232
G1 X162.619 Y111.052 E.02424
G1 X176.95 Y125.383 E.75748
G1 X176.95 Y126.032 E.02424
G1 X161.97 Y111.052 E.79177
G1 X161.322 Y111.052 E.02424
G1 X176.95 Y126.68 E.82606
G1 X176.95 Y127.329 E.02424
G1 X160.673 Y111.052 E.86034
G1 X160.024 Y111.052 E.02424
G1 X176.95 Y127.978 E.89463
G1 X176.95 Y128.626 E.02424
G1 X159.376 Y111.052 E.92891
G1 X158.727 Y111.052 E.02424
G1 X176.95 Y129.275 E.9632
G1 X176.95 Y129.924 E.02424
G1 X158.078 Y111.052 E.99748
G1 X157.43 Y111.052 E.02424
G1 X176.95 Y130.572 E1.03177
M73 P5 R22
G1 X176.95 Y131.221 E.02424
G1 X156.781 Y111.052 E1.06605
G1 X156.132 Y111.052 E.02424
G1 X176.95 Y131.87 E1.10034
G1 X176.95 Y132.518 E.02424
G1 X155.484 Y111.052 E1.13462
G1 X154.835 Y111.052 E.02424
G1 X176.95 Y133.167 E1.16891
G1 X176.95 Y133.816 E.02424
G1 X154.187 Y111.052 E1.2032
G1 X153.538 Y111.052 E.02424
G1 X176.95 Y134.464 E1.23748
G1 X176.95 Y135.113 E.02424
G1 X152.889 Y111.052 E1.27177
G1 X152.241 Y111.052 E.02424
G1 X176.95 Y135.761 E1.30605
G1 X176.95 Y136.41 E.02424
G1 X151.592 Y111.052 E1.34034
G1 X150.943 Y111.052 E.02424
G1 X176.95 Y137.059 E1.37462
G1 X176.95 Y137.707 E.02424
G1 X150.295 Y111.052 E1.40891
G1 X149.646 Y111.052 E.02424
G1 X176.95 Y138.356 E1.44319
G1 X176.95 Y139.005 E.02424
G1 X148.997 Y111.052 E1.47748
G1 X148.349 Y111.052 E.02424
G1 X176.95 Y139.653 E1.51176
G1 X176.94 Y140.291 E.02385
G1 X147.7 Y111.052 E1.54549
G1 X147.051 Y111.052 E.02424
G1 X176.899 Y140.899 E1.57763
G1 X176.823 Y141.472 E.02158
G1 X146.403 Y111.052 E1.60788
G1 X145.754 Y111.052 E.02424
G1 X176.715 Y142.013 E1.6365
G1 X176.582 Y142.528 E.01988
G1 X145.105 Y111.052 E1.66371
G1 X144.457 Y111.052 E.02424
M73 P6 R22
G1 X176.424 Y143.019 E1.68967
G1 X176.241 Y143.484 E.01869
G1 X143.808 Y111.052 E1.71426
G1 X143.159 Y111.052 E.02424
G1 X176.036 Y143.928 E1.73773
G1 X175.813 Y144.354 E.01796
G1 X142.511 Y111.052 E1.76023
G1 X141.862 Y111.052 E.02424
G1 X175.573 Y144.762 E1.78182
G1 X175.316 Y145.154 E.01751
G1 X141.213 Y111.052 E1.80253
G1 X140.565 Y111.052 E.02424
G1 X175.037 Y145.523 E1.82205
G1 X174.742 Y145.878 E.01721
G1 X139.916 Y111.052 E1.84076
G1 X139.267 Y111.052 E.02424
G1 X174.432 Y146.217 E1.85869
G1 X174.108 Y146.541 E.01714
G1 X138.619 Y111.052 E1.87583
G1 X137.97 Y111.052 E.02424
G1 X173.762 Y146.843 E1.8918
G1 X173.4 Y147.13 E.01725
G1 X137.321 Y111.052 E1.90698
G1 X136.673 Y111.051 E.02424
G1 X173.023 Y147.402 E1.92134
G1 X172.63 Y147.658 E.01752
G1 X136.024 Y111.051 E1.93486
