; HEADER_BLOCK_START
; generated by OrcaSlicer 2.1.1 on 2024-08-06 at 17:23:57
; total layer number: 150
; filament_density: 1.24
; filament_diameter: 1.75
; max_z_height: 30.00
; HEADER_BLOCK_END

; THUMBNAIL_BLOCK_START

;
; THUMBNAIL_BLOCK_END

; THUMBNAIL_BLOCK_START

;
; THUMBNAIL_BLOCK_END

; external perimeters extrusion width = 0.42mm
; perimeters extrusion width = 0.45mm
; infill extrusion width = 0.45mm
; solid infill extrusion width = 0.45mm
; top infill extrusion width = 0.42mm
; first layer extrusion width = 0.50mm

; EXECUTABLE_BLOCK_START
EXCLUDE_OBJECT_DEFINE NAME=Corps2.stl_id_0_copy_0 CENTER=115,115 POLYGON=[[77.5,94.0005],[152.5,94.0005],[152.5,100.058],[152.497,100.33],[152.489,100.615],[152.482,100.791],[152.475,100.911],[152.454,101.218],[152.428,101.522],[152.39,101.86],[152.339,102.25],[152.294,102.533],[152.232,102.878],[152.214,102.972],[152.161,103.227],[152.081,103.581],[152.054,103.687],[151.99,103.936],[151.89,104.291],[151.86,104.394],[151.781,104.647],[151.662,105.002],[151.631,105.09],[151.534,105.354],[151.368,105.775],[151.266,106.016],[151.072,106.445],[150.967,106.664],[150.744,107.101],[150.637,107.298],[150.384,107.739],[150.278,107.915],[149.994,108.36],[149.889,108.515],[149.573,108.96],[149.473,109.095],[149.124,109.539],[149.029,109.654],[148.647,110.096],[148.559,110.192],[148.143,110.628],[148.064,110.707],[147.614,111.135],[147.545,111.198],[147.061,111.616],[147.003,111.664],[146.485,112.07],[146.44,112.103],[145.888,112.494],[145.856,112.515],[145.27,112.889],[145.254,112.899],[144.634,113.253],[107.012,133.594],[106.262,133.979],[105.496,134.333],[104.716,134.653],[103.923,134.941],[103.119,135.195],[102.305,135.415],[101.482,135.6],[100.652,135.751],[99.8166,135.866],[98.977,135.946],[98.1348,135.99],[97.2915,135.999],[96.4485,135.973],[95.6074,135.911],[94.7697,135.813],[93.9368,135.681],[93.1103,135.513],[92.2916,135.31],[91.4821,135.074],[90.6833,134.803],[89.8967,134.499],[89.1235,134.162],[88.3653,133.793],[87.6233,133.392],[86.8989,132.96],[86.1933,132.498],[85.5079,132.006],[84.8437,131.487],[84.2021,130.939],[83.5841,130.365],[82.9909,129.766],[82.4234,129.142],[81.8828,128.495],[81.3699,127.825],[80.8858,127.135],[80.4311,126.424],[80.0068,125.695],[79.6137,124.949],[79.2523,124.187],[78.9234,123.411],[78.6275,122.621],[78.3652,121.819],[78.1368,121.007],[77.943,120.187],[77.7839,119.358],[77.6599,118.524],[77.5711,117.685],[77.5178,116.844],[77.5,116.001],[77.5,94.0005]]
M73 P0 R109
;TYPE:Custom
M220 S100
G90 ; use absolute coordinates
M83 ; extruder relative mode
M104 S150 ; set temporary nozzle temp to prevent oozing during homing
M140 S80 ; set final bed temp
G4 S30 ; allow partial nozzle warmup
G28 ; home all axis and restore leveling
BED_MESH_CALIBRATE PROFILE=adaptive ADAPTIVE=1 ADAPTIVE_MARGIN=0
G1 Z25 F240
G1 X10.0 Y30 F3000
M104 S253 ; set final nozzle temp
M190 S80 ; wait for bed temp to stabilize
M109 S253 ; wait for nozzle temp to stabilize
G1 Z0.28 F240
G92 E0 ; Move Z Axis up
G1 Z2.0 F5000 ; Move to start position
G1 X5 Y30 Z0.28 F300 ; Draw the first line
G1 X5 Y200 Z0.28 F1500 E15 ; Move to side a little
G1 X5.4 Y200 Z0.28 F5000.0 ; Draw the second line
G1 X5.4 Y50 Z0.28 F1500.0 E30 ; Reset Extruder
G92 E0 ; Move Z Axis up
G1 Z2.0 F3000
M117 Start Printing..
G90
G21
M83 ; use relative distances for extrusion
; filament start gcode
M106 S0
;LAYER_CHANGE
;Z:0.2
;HEIGHT:0.2
;BEFORE_LAYER_CHANGE
;0.2
G92 E0

G1 E-1.5 F1800
;_SET_FAN_SPEED_CHANGING_LAYER
SET_VELOCITY_LIMIT ACCEL=500
SET_VELOCITY_LIMIT SQUARE_CORNER_VELOCITY=7
G1 Z.2 F18000
G1 X84.052 Y111.471
G1 Z.2
G1 E1.5 F1800
;TYPE:Skirt
;WIDTH:0.5
G1 F3000
G1 X85.5 Y111.086 E.05124
G1 X160.5 Y111.086 E2.56543
G1 X161.962 Y111.48 E.05178
G1 X163.029 Y112.553 E.05178
G1 X163.414 Y114.001 E.05124
G1 X163.395 Y120.865 E.2348
G1 X163.098 Y123.404 E.08743
G1 X162.388 Y126.035 E.09322
G1 X161.322 Y128.459 E.09056
G1 X159.907 Y130.706 E.09084
G1 X158.142 Y132.749 E.09235
G1 X156.172 Y134.446 E.08895
G1 X154.082 Y135.782 E.08485
G1 X116.398 Y156.157 E1.46536
G1 X114.717 Y156.979 E.06399
G1 X112.801 Y157.72 E.07029
G1 X110.122 Y158.443 E.0949
G1 X108.215 Y158.753 E.06609
G1 X106.166 Y158.904 E.07029
G1 X103.393 Y158.817 E.0949
G1 X101.357 Y158.537 E.07029
G1 X99.473 Y158.107 E.06609
G1 X96.846 Y157.217 E.0949
G1 X94.98 Y156.356 E.07029
G1 X92.597 Y154.936 E.0949
G1 X90.952 Y153.704 E.07029
G1 X89.513 Y152.415 E.06609
G1 X88.187 Y151.01 E.06609
G1 X86.5 Y148.808 E.0949
G1 X85.429 Y147.054 E.07029
G1 X84.569 Y145.324 E.06609
G1 X83.596 Y142.726 E.0949
G1 X83.081 Y140.736 E.07029
G1 X82.746 Y138.684 E.07113
G1 X82.586 Y136.062 E.08985
G1 X82.586 Y114.001 E.75463
G1 X82.979 Y112.539 E.05178
G1 X84.024 Y111.5 E.05041
G1 X84.351 Y111.879 F18000
G1 F3000
G1 X84.485 Y111.763 E.00607
G1 X85.5 Y111.543 E.03551
G1 X160.5 Y111.543 E2.56543
G1 X161.831 Y111.935 E.04747
G1 X162.738 Y112.986 E.04747
G1 X162.957 Y114.001 E.03551
G1 X162.938 Y120.854 E.23442
G1 X162.603 Y123.55 E.09295
G1 X161.935 Y125.943 E.08496
G1 X160.859 Y128.354 E.09034
G1 X160.029 Y129.736 E.05512
G1 X159.061 Y131.05 E.05584
G1 X157.319 Y132.905 E.08702
G1 X155.907 Y134.073 E.06271
G1 X153.802 Y135.415 E.08536
G1 X116.18 Y155.755 E1.46293
G1 X114.431 Y156.605 E.06654
G1 X111.859 Y157.538 E.09358
G1 X109.92 Y158.018 E.06831
G1 X107.21 Y158.392 E.09358
G1 X105.318 Y158.456 E.06477
G1 X103.324 Y158.351 E.0683
G1 X101.448 Y158.089 E.06478
G1 X99.602 Y157.669 E.06477
G1 X97.011 Y156.791 E.09358
G1 X95.197 Y155.954 E.06831
G1 X92.847 Y154.553 E.09358
G1 X91.249 Y153.356 E.06831
G1 X89.838 Y152.094 E.06477
G1 X88.538 Y150.717 E.06477
G1 X86.874 Y148.545 E.09358
G1 X85.883 Y146.931 E.06477
G1 X84.99 Y145.145 E.06831
G1 X84.03 Y142.584 E.09358
G1 X83.53 Y140.65 E.06831
G1 X83.201 Y138.636 E.06981
G1 X83.043 Y136.052 E.08854
G1 X83.043 Y114.001 E.7543
G1 X83.435 Y112.669 E.04747
G1 X84.321 Y111.905 E.04003
; printing object Corps2.stl id:0 copy 0
G1 E-1.5 F1800
;WIPE_START
G1 F12000
G1 X84.485 Y111.763
G1 X85.5 Y111.543
G1 X86.245 Y111.543
;WIPE_END
EXCLUDE_OBJECT_START NAME=Corps2.stl_id_0_copy_0
G1 Z.4 F18000
G1 X87.171 Y115.672 Z.4
G1 Z.2
G1 E1.5 F1800
;TYPE:Inner wall
;WIDTH:0.499999
G1 X158.829 Y115.672 E2.45109
G1 X158.829 Y120.038 E.14934
G1 X158.812 Y120.711 E.02304
G1 X158.764 Y121.366 E.02244
G1 X158.685 Y122.004 E.02201
G1 X158.576 Y122.638 E.022
G1 X158.433 Y123.281 E.02253
G1 X158.26 Y123.908 E.02225
G1 X158.054 Y124.536 E.02259
G1 X157.82 Y125.143 E.02226
G1 X157.557 Y125.739 E.02227
G1 X157.273 Y126.305 E.02168
G1 X156.946 Y126.888 E.02286
G1 X156.599 Y127.438 E.02224
G1 X156.225 Y127.971 E.02226
G1 X155.826 Y128.485 E.02226
G1 X155.403 Y128.979 E.02226
G1 X154.955 Y129.452 E.02227
G1 X154.498 Y129.891 E.02168
G1 X153.994 Y130.33 E.02287
G1 X153.483 Y130.732 E.02224
G1 X152.952 Y131.109 E.02226
G1 X152.418 Y131.45 E.02168
G1 X151.82 Y131.793 E.02357
G1 X114.233 Y152.115 E1.46159
G1 X113.529 Y152.477 E.02704
G1 X112.828 Y152.8 E.02644
G1 X112.113 Y153.094 E.02643
G1 X111.386 Y153.358 E.02644
G1 X110.649 Y153.591 E.02644
G1 X109.903 Y153.792 E.02644
G1 X109.15 Y153.962 E.02641
G1 X108.369 Y154.103 E.02716
G1 X107.623 Y154.206 E.02575
G1 X106.854 Y154.279 E.02644
G1 X106.082 Y154.32 E.02644
G1 X105.309 Y154.328 E.02643
G1 X104.537 Y154.304 E.02641
G1 X103.745 Y154.244 E.02716
G1 X102.998 Y154.157 E.02575
G1 X102.235 Y154.036 E.02644
G1 X101.477 Y153.882 E.02644
G1 X100.727 Y153.697 E.02644
G1 X99.985 Y153.48 E.02644
G1 X99.254 Y153.232 E.02641
G1 X98.514 Y152.945 E.02716
G1 X97.824 Y152.644 E.02574
G1 X97.129 Y152.306 E.02644
G1 X96.449 Y151.938 E.02644
G1 X95.785 Y151.542 E.02644
G1 X95.138 Y151.119 E.02644
G1 X94.511 Y150.669 E.02641
G1 X93.886 Y150.179 E.02716
G1 X93.314 Y149.691 E.02574
G1 X92.747 Y149.165 E.02644
G1 X92.204 Y148.615 E.02644
G1 X91.684 Y148.044 E.02644
G1 X91.188 Y147.45 E.02644
G1 X90.718 Y146.837 E.02644
G1 X90.274 Y146.204 E.02644
G1 X89.858 Y145.554 E.02641
G1 X89.459 Y144.867 E.02716
G1 X89.109 Y144.201 E.02575
G1 X88.777 Y143.503 E.02644
G1 X88.476 Y142.791 E.02644
G1 X88.205 Y142.067 E.02644
G1 X87.965 Y141.334 E.02641
G1 X87.751 Y140.569 E.02716
G1 X87.578 Y139.837 E.02574
G1 X87.432 Y139.079 E.02641
G1 X87.316 Y138.293 E.02716
G1 X87.237 Y137.545 E.02575
G1 X87.188 Y136.773 E.02644
G1 X87.171 Y135.983 E.02704
G1 X87.171 Y115.712 E.69339
G1 X86.714 Y115.215 F18000
G1 F1800
G1 X159.286 Y115.215 E2.48236
G1 X159.286 Y120.043 E.16517
G1 X159.269 Y120.734 E.02362
G1 X159.219 Y121.41 E.02321
G1 X159.138 Y122.071 E.02277
G1 X159.025 Y122.727 E.02276
G1 X158.876 Y123.391 E.02329
G1 X158.698 Y124.04 E.02303
G1 X158.484 Y124.689 E.02336
G1 X158.243 Y125.317 E.02302
G1 X157.971 Y125.933 E.02304
G1 X157.677 Y126.52 E.02243
G1 X157.338 Y127.122 E.02363
G1 X156.98 Y127.691 E.02301
G1 X156.593 Y128.242 E.02303
G1 X156.181 Y128.774 E.02303
G1 X155.742 Y129.285 E.02303
G1 X155.28 Y129.774 E.02303
G1 X154.806 Y130.228 E.02243
G1 X154.285 Y130.682 E.02364
G1 X153.756 Y131.098 E.02301
G1 X153.208 Y131.488 E.02303
G1 X152.655 Y131.841 E.02244
G1 X152.043 Y132.193 E.02415
G1 X114.446 Y152.52 E1.46196
G1 X113.73 Y152.888 E.02753
G1 X113.01 Y153.22 E.0271
G1 X112.278 Y153.521 E.02709
G1 X111.533 Y153.791 E.0271
G1 X110.778 Y154.03 E.0271
G1 X110.013 Y154.236 E.0271
G1 X109.241 Y154.41 E.02708
G1 X108.44 Y154.554 E.02782
G1 X107.676 Y154.66 E.0264
G1 X106.887 Y154.735 E.0271
G1 X106.096 Y154.777 E.0271
G1 X105.304 Y154.785 E.02709
G1 X104.513 Y154.76 E.02708
G1 X103.702 Y154.699 E.02782
G1 X102.935 Y154.61 E.0264
G1 X102.153 Y154.486 E.0271
G1 X101.377 Y154.328 E.0271
G1 X100.608 Y154.138 E.0271
G1 X99.847 Y153.916 E.0271
G1 X99.098 Y153.662 E.02707
G1 X98.34 Y153.367 E.02782
G1 X97.632 Y153.059 E.0264
G1 X96.92 Y152.712 E.0271
G1 X96.223 Y152.336 E.0271
G1 X95.543 Y151.93 E.0271
G1 X94.88 Y151.496 E.0271
G1 X94.237 Y151.035 E.02708
G1 X93.597 Y150.533 E.02782
G1 X93.01 Y150.032 E.0264
G1 X92.429 Y149.493 E.0271
G1 X91.872 Y148.93 E.02709
G1 X91.339 Y148.344 E.0271
G1 X90.831 Y147.736 E.0271
G1 X90.349 Y147.107 E.0271
G1 X89.895 Y146.458 E.0271
G1 X89.468 Y145.792 E.02707
G1 X89.06 Y145.089 E.02782
G1 X88.7 Y144.406 E.0264
G1 X88.36 Y143.69 E.0271
G1 X88.051 Y142.961 E.0271
G1 X87.773 Y142.219 E.0271
G1 X87.527 Y141.467 E.02707
G1 X87.308 Y140.683 E.02782
G1 X87.131 Y139.932 E.0264
G1 X86.981 Y139.155 E.02708
G1 X86.862 Y138.351 E.02782
G1 X86.781 Y137.583 E.0264
G1 X86.731 Y136.793 E.0271
G1 X86.714 Y135.988 E.02753
G1 X86.714 Y115.255 E.70919
G1 X86.257 Y114.758 F18000
G1 F1800
G1 X159.743 Y114.758 E2.51363
G1 X159.743 Y120.049 E.181
G1 X159.726 Y120.756 E.0242
G1 X159.674 Y121.455 E.02397
G1 X159.59 Y122.138 E.02353
G1 X159.473 Y122.815 E.02352
G1 X159.32 Y123.502 E.02406
G1 X159.136 Y124.173 E.0238
G1 X158.915 Y124.843 E.02413
G1 X158.666 Y125.492 E.02379
G1 X158.385 Y126.128 E.0238
G1 X158.081 Y126.734 E.02319
G1 X157.731 Y127.356 E.0244
G1 X157.36 Y127.944 E.02378
G1 X156.961 Y128.514 E.02379
G1 X156.535 Y129.063 E.02379
G1 X156.082 Y129.591 E.02379
G1 X155.604 Y130.096 E.0238
G1 X155.115 Y130.566 E.02319
G1 X154.577 Y131.034 E.0244
G1 X154.03 Y131.464 E.02378
G1 X153.463 Y131.867 E.02379
G1 X152.892 Y132.232 E.02319
G1 X152.265 Y132.592 E.02472
G1 X114.659 Y152.924 E1.46232
G1 X113.93 Y153.298 E.02803
G1 X113.193 Y153.639 E.02776
G1 X112.443 Y153.947 E.02775
G1 X111.68 Y154.224 E.02776
G1 X110.906 Y154.468 E.02776
G1 X110.123 Y154.68 E.02776
G1 X109.331 Y154.858 E.02774
G1 X108.512 Y155.006 E.02848
G1 X107.729 Y155.114 E.02705
G1 X106.921 Y155.191 E.02776
G1 X106.111 Y155.234 E.02776
G1 X105.299 Y155.242 E.02775
G1 X104.489 Y155.217 E.02774
G1 X103.659 Y155.155 E.02848
G1 X102.873 Y155.063 E.02705
M73 P0 R108
G1 X102.072 Y154.935 E.02776
G1 X101.277 Y154.774 E.02776
G1 X100.489 Y154.579 E.02776
G1 X99.71 Y154.352 E.02776
G1 X98.942 Y154.091 E.02774
G1 X98.166 Y153.79 E.02848
G1 X97.441 Y153.474 E.02705
G1 X96.711 Y153.119 E.02776
G1 X95.997 Y152.733 E.02776
G1 X95.3 Y152.318 E.02776
G1 X94.621 Y151.873 E.02776
G1 X93.962 Y151.401 E.02774
G1 X93.307 Y150.887 E.02848
G1 X92.706 Y150.374 E.02705
G1 X92.111 Y149.821 E.02776
G1 X91.54 Y149.245 E.02775
G1 X90.994 Y148.644 E.02776
G1 X90.474 Y148.022 E.02776
G1 X89.981 Y147.377 E.02776
G1 X89.515 Y146.713 E.02776
G1 X89.078 Y146.03 E.02774
G1 X88.66 Y145.31 E.02848
G1 X88.291 Y144.61 E.02705
G1 X87.943 Y143.877 E.02776
G1 X87.627 Y143.13 E.02775
G1 X87.342 Y142.37 E.02776
G1 X87.09 Y141.599 E.02774
G1 X86.865 Y140.798 E.02848
G1 X86.683 Y140.028 E.02705
G1 X86.53 Y139.232 E.02774
G1 X86.409 Y138.408 E.02848
G1 X86.326 Y137.622 E.02705
G1 X86.274 Y136.812 E.02776
G1 X86.257 Y135.993 E.02803
G1 X86.257 Y114.798 E.72499
G1 X85.8 Y114.301 F18000
;TYPE:Outer wall
G1 F1800
G1 X160.2 Y114.301 E2.5449
G1 X160.2 Y120.055 E.19682
G1 X160.182 Y120.779 E.02477
G1 X160.129 Y121.5 E.02473
G1 X160.042 Y122.205 E.02429
G1 X159.922 Y122.904 E.02428
G1 X159.764 Y123.612 E.02482
G1 X159.573 Y124.305 E.02457
G1 X159.346 Y124.996 E.0249
G1 X159.088 Y125.666 E.02455
G1 X158.798 Y126.323 E.02456
G1 X158.485 Y126.949 E.02395
G1 X158.124 Y127.59 E.02516
G1 X157.741 Y128.197 E.02455
G1 X157.329 Y128.785 E.02456
G1 X156.889 Y129.352 E.02456
G1 X156.422 Y129.897 E.02455
G1 X155.928 Y130.419 E.02456
G1 X155.423 Y130.903 E.02395
G1 X154.868 Y131.386 E.02517
G1 X154.304 Y131.83 E.02455
G1 X153.719 Y132.246 E.02455
G1 X153.129 Y132.623 E.02395
G1 X152.488 Y132.991 E.02529
G1 X114.872 Y153.328 E1.46269
G1 X114.13 Y153.709 E.02852
G1 X113.376 Y154.058 E.02842
G1 X112.608 Y154.374 E.02841
G1 X111.827 Y154.657 E.02842
G1 X111.035 Y154.907 E.02841
G1 X110.233 Y155.124 E.02842
G1 X109.422 Y155.306 E.02841
G1 X108.584 Y155.457 E.02914
G1 X107.782 Y155.568 E.0277
G1 X106.955 Y155.647 E.02842
G1 X106.125 Y155.691 E.02842
G1 X105.295 Y155.699 E.02841
G1 X104.464 Y155.673 E.02841
G1 X103.615 Y155.61 E.02914
G1 X102.811 Y155.516 E.0277
G1 X101.99 Y155.385 E.02841
G1 X101.176 Y155.22 E.02841
G1 X100.37 Y155.021 E.02842
G1 X99.572 Y154.788 E.02841
G1 X98.786 Y154.521 E.02841
G1 X97.992 Y154.213 E.02914
G1 X97.249 Y153.889 E.0277
G1 X96.502 Y153.526 E.02842
G1 X95.772 Y153.131 E.02841
G1 X95.058 Y152.705 E.02841
G1 X94.363 Y152.25 E.02842
G1 X93.688 Y151.766 E.02841
G1 X93.018 Y151.241 E.02914
G1 X92.402 Y150.715 E.0277
G1 X91.793 Y150.15 E.02842
G1 X91.209 Y149.559 E.02841
G1 X90.65 Y148.945 E.02842
G1 X90.117 Y148.307 E.02841
G1 X89.612 Y147.648 E.02842
G1 X89.135 Y146.968 E.02842
G1 X88.687 Y146.268 E.02841
G1 X88.26 Y145.531 E.02914
G1 X87.882 Y144.815 E.0277
G1 X87.526 Y144.064 E.02842
G1 X87.202 Y143.299 E.02841
G1 X86.911 Y142.521 E.02842
G1 X86.652 Y141.732 E.02841
G1 X86.423 Y140.912 E.02914
G1 X86.236 Y140.124 E.0277
G1 X86.08 Y139.308 E.02841
G1 X85.955 Y138.465 E.02914
G1 X85.87 Y137.66 E.0277
G1 X85.818 Y136.831 E.02842
G1 X85.8 Y135.997 E.02852
G1 X85.8 Y114.341 E.74079
G1 E-1.5
;WIPE_START
G1 F12000
G1 X87.8 Y114.339
;WIPE_END
G1 Z.4 F18000
G1 X102.238 Y128.941 Z.4
G1 Z.2
G1 E1.5 F1800
;TYPE:Inner wall
G1 X102.501 Y128.84 E.00961
G1 X102.838 Y128.804 E.0116
G1 X108.162 Y128.804 E.18211
G1 X108.661 Y128.884 E.0173
G1 X108.959 Y129.017 E.01114
G1 X109.781 Y129.489 E.03241
G1 X110.705 Y130.201 E.03994
G1 X111.513 Y131.043 E.03989
G1 X112.185 Y131.996 E.03989
G1 X112.712 Y133.049 E.04027
M73 P1 R108
G1 X112.959 Y133.791 E.02676
G1 X113.108 Y134.3 E.01813
G1 X113.261 Y135.298 E.03455
G1 X113.279 Y136.464 E.03989
G1 X113.123 Y137.62 E.0399
G1 X112.796 Y138.74 E.03989
G1 X112.305 Y139.798 E.03989
G1 X111.662 Y140.771 E.03989
G1 X110.881 Y141.637 E.0399
G1 X109.98 Y142.377 E.03989
G1 X109.147 Y142.876 E.03322
G1 X108.637 Y143.125 E.01937
G1 X108.162 Y143.197 E.01645
G1 X102.838 Y143.197 E.18211
G1 X102.425 Y143.143 E.01423
G1 X102.041 Y142.984 E.01422
G1 X101.216 Y142.51 E.03256
G1 X100.514 Y141.973 E.03023
G1 X100.112 Y141.63 E.01807
G1 X99.487 Y140.957 E.03141
G1 X99.011 Y140.293 E.02795
G1 X98.722 Y139.851 E.01805
G1 X98.336 Y139.054 E.03029
G1 X98.052 Y138.245 E.02935
G1 X97.902 Y137.749 E.01772
G1 X97.76 Y136.844 E.03135
G1 X97.721 Y135.927 E.03137
G1 X97.739 Y135.298 E.02153
