; HEADER_BLOCK_START
; generated by OrcaSlicer 2.2.0 on 2024-11-29 at 12:44:34
; total layer number: 131
; filament_density: 1.27
; filament_diameter: 1.75
; max_z_height: 26.20
; HEADER_BLOCK_END

; THUMBNAIL_BLOCK_START

;
; THUMBNAIL_BLOCK_END

; THUMBNAIL_BLOCK_START

;
; THUMBNAIL_BLOCK_END

; external perimeters extrusion width = 0.42mm
; perimeters extrusion width = 0.45mm
; infill extrusion width = 0.45mm
; solid infill extrusion width = 0.45mm
; top infill extrusion width = 0.42mm
; first layer extrusion width = 0.50mm

; EXECUTABLE_BLOCK_START
EXCLUDE_OBJECT_DEFINE NAME=Corps3.stl_id_0_copy_0 CENTER=115,115 POLYGON=[[61.0054,115.001],[61.0184,114.354],[61.0573,113.709],[61.1215,113.066],[61.2108,112.425],[61.3247,111.788],[61.4628,111.153],[61.6248,110.523],[61.8102,109.897],[62.0187,109.276],[62.2499,108.66],[62.5033,108.051],[62.7787,107.447],[63.0755,106.851],[63.3935,106.262],[63.7322,105.68],[64.0912,105.107],[64.4428,104.582],[64.8106,104.063],[65.1945,103.551],[65.5943,103.045],[66.0097,102.547],[66.4405,102.055],[66.8865,101.571],[67.3476,101.093],[67.8233,100.622],[68.3137,100.158],[68.8184,99.7011],[69.3372,99.2511],[69.87,98.808],[70.4164,98.372],[70.9763,97.9429],[71.5495,97.5209],[72.1358,97.106],[72.7348,96.6981],[73.3466,96.2973],[73.9707,95.9036],[74.607,95.517],[75.2553,95.1376],[75.9153,94.7653],[76.5869,94.4002],[77.2698,94.0423],[77.9639,93.6916],[78.6688,93.3481],[79.3844,93.0118],[80.8469,92.3611],[82.3495,91.7395],[83.1567,91.424],[83.9747,91.117],[84.8031,90.8185],[85.6417,90.5285],[86.49,90.2471],[87.3479,89.9743],[89.0909,89.4547],[90.8683,88.9701],[92.6775,88.5208],[94.5163,88.1072],[96.3819,87.7296],[98.2722,87.3883],[100.184,87.0837],[102.116,86.816],[104.065,86.5858],[106.029,86.3932],[108.005,86.2386],[109.991,86.1224],[111.984,86.0448],[114.001,86.0061],[116.019,86.0071],[118.036,86.0475],[120.048,86.1271],[122.053,86.2456],[124.049,86.4029],[126.033,86.5985],[128.001,86.8323],[129.952,87.104],[131.884,87.4134],[133.792,87.7602],[135.675,88.1441],[137.529,88.5648],[139.353,89.0222],[141.144,89.516],[142.026,89.7764],[142.899,90.0459],[144.334,90.5153],[145.742,91.0088],[147.121,91.526],[148.469,92.0669],[149.787,92.6313],[151.071,93.219],[152.323,93.8298],[153.539,94.4636],[154.72,95.1202],[155.863,95.7995],[156.968,96.5012],[158.035,97.2252],[159.06,97.9713],[160.044,98.7394],[160.986,99.5293],[161.883,100.341],[162.434,100.872],[162.967,101.412],[163.48,101.962],[163.974,102.521],[164.448,103.089],[164.902,103.666],[165.334,104.251],[165.746,104.845],[166.135,105.447],[166.502,106.057],[166.845,106.676],[167.166,107.302],[167.462,107.936],[167.734,108.577],[167.981,109.226],[168.203,109.883],[168.382,110.487],[168.539,111.096],[168.672,111.709],[168.782,112.326],[168.87,112.945],[168.934,113.567],[168.976,114.19],[168.995,114.813],[168.99,115.438],[168.963,116.061],[168.912,116.684],[168.839,117.304],[168.742,117.923],[168.623,118.538],[168.48,119.149],[168.314,119.756],[168.093,120.456],[167.843,121.147],[167.565,121.83],[167.259,122.505],[166.927,123.171],[166.567,123.829],[166.182,124.478],[165.772,125.117],[165.336,125.747],[164.877,126.368],[164.394,126.979],[163.888,127.58],[163.359,128.171],[162.809,128.752],[162.238,129.322],[161.645,129.882],[161.098,130.374],[160.535,130.858],[159.955,131.334],[159.36,131.802],[158.749,132.262],[158.123,132.714],[157.482,133.157],[156.827,133.593],[156.157,134.02],[155.472,134.439],[154.774,134.85],[154.062,135.252],[153.337,135.646],[152.598,136.032],[151.847,136.409],[151.083,136.778],[150.307,137.138],[149.518,137.489],[148.718,137.832],[147.906,138.166],[147.083,138.491],[146.249,138.808],[145.405,139.116],[144.549,139.414],[143.684,139.704],[142.808,139.985],[141.923,140.257],[141.029,140.52],[140.125,140.773],[139.212,141.018],[137.361,141.48],[136.388,141.704],[135.406,141.919],[134.417,142.123],[133.42,142.316],[131.406,142.672],[129.367,142.985],[127.306,143.257],[125.227,143.486],[123.132,143.673],[121.025,143.817],[118.91,143.919],[116.788,143.978],[114.664,143.994],[112.54,143.967],[110.42,143.896],[108.307,143.783],[106.204,143.625],[104.114,143.424],[102.209,143.202],[100.322,142.943],[98.4533,142.648],[96.6062,142.319],[94.7825,141.954],[92.9843,141.555],[91.2139,141.122],[89.4732,140.655],[87.7645,140.155],[86.0898,139.621],[84.4513,139.055],[83.6462,138.76],[82.851,138.457],[82.0659,138.146],[81.2912,137.827],[80.527,137.501],[79.7738,137.166],[79.0318,136.824],[78.3011,136.473],[77.5822,136.116],[76.8752,135.75],[75.9873,135.271],[75.1193,134.78],[74.2718,134.276],[73.445,133.76],[72.6397,133.232],[71.8562,132.692],[71.095,132.14],[70.3567,131.575],[69.6417,130.998],[68.9505,130.41],[68.2836,129.809],[67.6414,129.196],[67.0245,128.571],[66.4333,127.933],[65.8684,127.284],[65.3302,126.623],[64.915,126.079],[64.5183,125.527],[64.1404,124.967],[63.7818,124.399],[63.4429,123.824],[63.1241,123.242],[62.8259,122.652],[62.5488,122.057],[62.293,121.455],[62.0591,120.847],[61.8475,120.234],[61.6587,119.616],[61.4929,118.993],[61.3508,118.366],[61.2327,117.734],[61.139,117.099],[61.0807,116.576],[61.0389,116.051],[61.0138,115.526],[61.0054,115.001]]
M73 P0 R31
;TYPE:Custom
M220 S100
G90 ; use absolute coordinates
M83 ; extruder relative mode
M104 S150 ; set temporary nozzle temp to prevent oozing during homing
M140 S70 ; set final bed temp
G4 S30 ; allow partial nozzle warmup
G28 ; home all axis and restore leveling
BED_MESH_CALIBRATE
G1 Z25 F240
G1 X10.0 Y30 F3000
M104 S245 ; set final nozzle temp
M190 S70 ; wait for bed temp to stabilize
M109 S245 ; wait for nozzle temp to stabilize
G1 Z0.28 F240
G92 E0 ; Move Z Axis up
LINE_PURGE
G92 E0 ; Move Z Axis up
G1 Z2.0 F3000
M117 Start Printing..
G90
G21
M83 ; use relative distances for extrusion
; filament start gcode
M106 S0
;LAYER_CHANGE
;Z:0.2
;HEIGHT:0.2
;BEFORE_LAYER_CHANGE
;0.2
G92 E0

G1 E-.5 F1800
;_SET_FAN_SPEED_CHANGING_LAYER
SET_VELOCITY_LIMIT ACCEL=1000
SET_VELOCITY_LIMIT SQUARE_CORNER_VELOCITY=7
; printing object Corps3.stl id:0 copy 0
EXCLUDE_OBJECT_START NAME=Corps3.stl_id_0_copy_0
G1 Z.4 F24000
G1 X110.213 Y107.567
G1 Z.4
G1 Z.2
G1 E.5 F1800
;TYPE:Inner wall
;WIDTH:0.499999
G1 F3000
G1 X112.147 Y107.338 E.07032
G1 X114.095 Y107.147 E.07069
G1 X116.057 Y106.994 E.07103
G1 X118.028 Y106.879 E.07128
G1 X120.006 Y106.802 E.07147
G1 X122.008 Y106.763 E.07231
G1 X123.433 Y106.764 E.05145
G1 X126.015 Y106.804 E.09322
G1 X128.011 Y106.883 E.07212
G1 X130.001 Y107.001 E.072
G1 X131.982 Y107.157 E.07174
G1 X133.951 Y107.351 E.07143
G1 X135.904 Y107.583 E.07103
G1 X137.84 Y107.853 E.07057
G1 X139.756 Y108.16 E.07004
G1 X141.648 Y108.504 E.06945
G1 X143.515 Y108.884 E.06879
G1 X145.353 Y109.301 E.06806
G1 X147.159 Y109.754 E.06719
G1 X149.808 Y110.501 E.09938
G1 X152.094 Y111.233 E.08666
G1 X153.484 Y111.72 E.05319
G1 X154.847 Y112.232 E.05257
G1 X156.179 Y112.766 E.05183
G1 X157.48 Y113.324 E.05109
G1 X158.748 Y113.903 E.05033
G1 X159.982 Y114.506 E.04957
G1 X161.18 Y115.13 E.0488
G1 X162.342 Y115.777 E.04801
G1 X163.467 Y116.445 E.04723
G1 X164.553 Y117.134 E.04645
G1 X165.599 Y117.845 E.04566
G1 X166.604 Y118.576 E.04489
G1 X167.568 Y119.328 E.04413
G1 X168.488 Y120.1 E.04338
G1 X169.366 Y120.894 E.04275
G1 X169.898 Y121.407 E.02668
G1 X170.923 Y122.475 E.05344
G1 X171.397 Y123.011 E.02582
G1 X172.303 Y124.129 E.05197
G1 X172.715 Y124.687 E.02506
G1 X173.495 Y125.852 E.05063
G1 X174.177 Y127.032 E.0492
G1 X174.486 Y127.635 E.02444
G1 X174.771 Y128.244 E.02429
G1 X175.032 Y128.86 E.02416
G1 X175.269 Y129.482 E.02404
G1 X175.481 Y130.112 E.02398
G1 X175.651 Y130.682 E.0215
G1 X175.93 Y131.863 E.0438
G1 X176.034 Y132.439 E.02114
G1 X176.145 Y133.348 E.03306
G1 X176.2 Y133.928 E.02106
G1 X176.223 Y134.511 E.02106
G1 X176.233 Y135.418 E.03274
G1 X176.158 Y136.615 E.0433
G1 X176.089 Y137.195 E.02108
G1 X175.881 Y138.386 E.04365
G1 X175.746 Y138.963 E.02142
G1 X175.588 Y139.542 E.02167
G1 X175.376 Y140.213 E.02539
G1 X175.136 Y140.876 E.02544
G1 X174.869 Y141.531 E.02556
G1 X174.576 Y142.18 E.0257
G1 X174.256 Y142.821 E.02587
G1 X173.909 Y143.454 E.02606
G1 X173.538 Y144.08 E.02627
G1 X173.141 Y144.698 E.0265
G1 X172.721 Y145.307 E.02674
G1 X172.276 Y145.908 E.027
G1 X171.316 Y147.084 E.0548
G1 X170.806 Y147.655 E.02764
G1 X169.709 Y148.78 E.05671
G1 X168.598 Y149.805 E.05462
G1 X167.478 Y150.746 E.0528
G1 X166.901 Y151.2 E.02649
G1 X165.686 Y152.095 E.0545
G1 X164.414 Y152.958 E.05552
G1 X163.08 Y153.792 E.05678
G1 X162.398 Y154.193 E.02855
G1 X160.981 Y154.978 E.05852
G1 X159.512 Y155.73 E.05955
G1 X157.993 Y156.449 E.06068
G1 X156.425 Y157.134 E.06179
G1 X154.81 Y157.785 E.06288
G1 X153.15 Y158.402 E.06393
G1 X151.448 Y158.985 E.06496
G1 X149.705 Y159.532 E.06595
G1 X147.927 Y160.043 E.06682
G1 X145.183 Y160.744 E.10226
G1 X144.226 Y160.965 E.03545
G1 X141.278 Y161.572 E.10867
G1 X139.283 Y161.925 E.07317
G1 X137.26 Y162.236 E.07389
G1 X135.215 Y162.505 E.07447
G1 X133.152 Y162.733 E.07496
G1 X131.073 Y162.918 E.07537
G1 X128.981 Y163.061 E.07568
G1 X126.881 Y163.162 E.07593
G1 X124.775 Y163.221 E.07607
G1 X122.666 Y163.237 E.07615
G1 X120.557 Y163.21 E.07613
G1 X118.453 Y163.14 E.07602
G1 X116.356 Y163.027 E.07584
G1 X114.268 Y162.871 E.07557
G1 X112.194 Y162.672 E.07523
G1 X110.305 Y162.45 E.06868
G1 X108.432 Y162.194 E.06825
G1 X106.579 Y161.902 E.06774
G1 X104.747 Y161.575 E.06719
G1 X102.939 Y161.213 E.06657
G1 X101.156 Y160.818 E.06592
G1 X99.402 Y160.388 E.06521
G1 X97.678 Y159.926 E.06446
G1 X95.986 Y159.431 E.06365
G1 X94.328 Y158.903 E.06281
G1 X92.707 Y158.343 E.06192
G1 X91.125 Y157.752 E.06097
G1 X89.584 Y157.129 E.06001
G1 X88.086 Y156.476 E.059
G1 X86.633 Y155.793 E.05796
G1 X85.23 Y155.081 E.05683
G1 X83.496 Y154.123 E.07152
G1 X82.669 Y153.632 E.03474
G1 X81.059 Y152.602 E.06901
G1 X80.297 Y152.077 E.03341
G1 X78.821 Y150.977 E.06646
G1 X77.449 Y149.84 E.06432
G1 X76.798 Y149.253 E.03164
G1 X76.172 Y148.656 E.03125
G1 X75.572 Y148.047 E.03088
G1 X74.997 Y147.427 E.03052
G1 X74.448 Y146.797 E.03018
G1 X73.928 Y146.158 E.02972
G1 X73.14 Y145.095 E.04779
G1 X72.425 Y144 E.04719
G1 X72.104 Y143.455 E.02285
G1 X71.505 Y142.316 E.04646
G1 X71.243 Y141.754 E.02238
G1 X70.768 Y140.582 E.04566
G1 X70.57 Y140.006 E.02199
G1 X70.227 Y138.806 E.04507
G1 X69.981 Y137.615 E.04392
G1 X69.835 Y136.502 E.04051
G1 X69.763 Y135.002 E.05422
G1 X69.775 Y134.385 E.02231
G1 X69.812 Y133.77 E.02225
G1 X69.959 Y132.544 E.04456
G1 X70.2 Y131.328 E.04476
G1 X70.353 Y130.731 E.02226
G1 X70.734 Y129.524 E.04571
G1 X70.952 Y128.945 E.02234
G1 X71.465 Y127.768 E.04635
G1 X71.745 Y127.204 E.02272
G1 X72.383 Y126.067 E.04709
G1 X72.724 Y125.523 E.02318
G1 X73.425 Y124.505 E.04463
G1 X73.792 Y124.016 E.02205
G1 X74.588 Y123.035 E.04562
G1 X75.001 Y122.564 E.02262
G1 X75.886 Y121.625 E.04661
G1 X76.828 Y120.714 E.04731
G1 X77.83 Y119.826 E.04834
G1 X78.345 Y119.397 E.0242
G1 X79.431 Y118.548 E.04976
G1 X80.568 Y117.728 E.05061
G1 X81.759 Y116.932 E.05171
G1 X82.367 Y116.549 E.02596
G1 X83.633 Y115.794 E.05322
G1 X84.944 Y115.068 E.0541
M73 P1 R31
M73 P1 R31
G1 X86.301 Y114.37 E.05511
G1 X87.702 Y113.699 E.05608
G1 X89.143 Y113.058 E.05698
G1 X91.427 Y112.131 E.089
G1 X93.887 Y111.245 E.09439
G1 X95.573 Y110.697 E.06401
G1 X97.299 Y110.183 E.06502
G1 X99.059 Y109.703 E.06588
G1 X100.852 Y109.258 E.0667
G1 X102.674 Y108.848 E.06744
G1 X104.524 Y108.473 E.06815
G1 X106.399 Y108.135 E.06878
G1 X108.296 Y107.833 E.06935
G1 X110.173 Y107.572 E.06842
G1 X110.154 Y107.114 F24000
;TYPE:Outer wall
G1 F3000
G1 X112.098 Y106.884 E.07065
G1 X114.055 Y106.692 E.07102
G1 X116.025 Y106.538 E.07135
G1 X118.005 Y106.422 E.07161
G1 X119.992 Y106.345 E.0718
G1 X122.004 Y106.306 E.07264
G1 X123.437 Y106.307 E.05174
G1 X126.027 Y106.347 E.09354
G1 X128.033 Y106.427 E.07248
G1 X130.033 Y106.545 E.07232
G1 X132.022 Y106.702 E.07207
G1 X134 Y106.897 E.07175
G1 X135.963 Y107.13 E.07136
G1 X137.908 Y107.401 E.07091
G1 X139.833 Y107.709 E.07039
G1 X141.735 Y108.055 E.0698
G1 X143.611 Y108.437 E.06914
G1 X145.46 Y108.857 E.06843
G1 X147.276 Y109.312 E.06762
G1 X149.939 Y110.064 E.09991
G1 X152.239 Y110.8 E.08717
G1 X153.64 Y111.291 E.05359
G1 X155.012 Y111.806 E.05293
G1 X156.354 Y112.344 E.05221
G1 X157.665 Y112.906 E.05149
G1 X158.943 Y113.49 E.05074
G1 X160.187 Y114.098 E.05
G1 X161.397 Y114.728 E.04924
G1 X162.57 Y115.38 E.04847
G1 X163.706 Y116.055 E.04771
G1 X164.804 Y116.752 E.04695
G1 X165.862 Y117.471 E.04619
G1 X166.88 Y118.211 E.04543
G1 X167.855 Y118.973 E.0447
G1 X168.789 Y119.756 E.04398
G1 X169.678 Y120.56 E.04331
G1 X170.222 Y121.084 E.02726
G1 X171.259 Y122.165 E.0541
G1 X171.746 Y122.715 E.02651
G1 X172.664 Y123.849 E.05269
G1 X173.089 Y124.424 E.02581
G1 X173.881 Y125.607 E.05141
G1 X174.581 Y126.817 E.05045
G1 X174.896 Y127.434 E.02502
G1 X175.188 Y128.058 E.02488
G1 X175.456 Y128.69 E.02476
G1 X175.699 Y129.328 E.02466
G1 X175.917 Y129.973 E.0246
G1 X176.093 Y130.565 E.02227
G1 X176.378 Y131.77 E.04471
G1 X176.486 Y132.371 E.02205
G1 X176.599 Y133.292 E.03352
G1 X176.656 Y133.898 E.02197
G1 X176.68 Y134.506 E.02197
G1 X176.69 Y135.43 E.03335
G1 X176.613 Y136.656 E.04436
G1 X176.542 Y137.261 E.022
G1 X176.329 Y138.477 E.04457
G1 X176.189 Y139.076 E.02219
G1 X176.026 Y139.672 E.0223
G1 X175.809 Y140.359 E.02605
G1 X175.563 Y141.039 E.02611
G1 X175.289 Y141.712 E.02621
G1 X174.989 Y142.376 E.02633
G1 X174.661 Y143.032 E.02649
G1 X174.307 Y143.681 E.02666
G1 X173.927 Y144.32 E.02686
G1 X173.522 Y144.951 E.02707
G1 X173.092 Y145.573 E.02729
G1 X172.639 Y146.186 E.02754
G1 X171.661 Y147.384 E.05582
G1 X171.14 Y147.967 E.02825
G1 X170.028 Y149.107 E.0575
G1 X168.9 Y150.149 E.05544
G1 X167.766 Y151.101 E.05345
G1 X167.178 Y151.563 E.02701
G1 X165.95 Y152.469 E.05508
G1 X164.663 Y153.341 E.05615
G1 X163.317 Y154.183 E.05731
G1 X162.625 Y154.59 E.02898
G1 X161.196 Y155.382 E.059
G1 X159.714 Y156.14 E.06008
G1 X158.182 Y156.865 E.06119
G1 X156.602 Y157.555 E.06227
G1 X154.975 Y158.212 E.06334
G1 X153.304 Y158.833 E.06438
G1 X151.59 Y159.419 E.06538
G1 X149.837 Y159.97 E.06636
G1 X148.046 Y160.484 E.06727
G1 X145.291 Y161.188 E.10269
G1 X144.324 Y161.411 E.03583
G1 X141.364 Y162.021 E.1091
G1 X139.357 Y162.376 E.07359
G1 X137.324 Y162.688 E.07425
G1 X135.27 Y162.959 E.07482
G1 X133.197 Y163.187 E.0753
G1 X131.108 Y163.374 E.07571
G1 X129.008 Y163.518 E.07602
G1 X126.898 Y163.619 E.07626
G1 X124.783 Y163.678 E.07641
G1 X122.664 Y163.694 E.07649
G1 X120.547 Y163.667 E.07646
G1 X118.433 Y163.597 E.07636
G1 X116.326 Y163.483 E.07618
G1 X114.229 Y163.326 E.07592
G1 X112.146 Y163.126 E.07558
G1 X110.247 Y162.904 E.06902
G1 X108.365 Y162.646 E.06858
G1 X106.503 Y162.352 E.06808
G1 X104.662 Y162.024 E.06753
G1 X102.844 Y161.66 E.06692
G1 X101.053 Y161.263 E.06627
G1 X99.288 Y160.831 E.06557
G1 X97.554 Y160.366 E.06483
G1 X95.852 Y159.868 E.06403
G1 X94.184 Y159.337 E.0632
G1 X92.553 Y158.773 E.06233
G1 X90.96 Y158.178 E.0614
G1 X89.407 Y157.551 E.06045
G1 X87.898 Y156.893 E.05946
G1 X86.433 Y156.204 E.05844
G1 X85.016 Y155.485 E.05737
G1 X83.269 Y154.52 E.07207
G1 X82.429 Y154.021 E.03527
G1 X80.806 Y152.983 E.06956
G1 X80.031 Y152.448 E.034
G1 X78.541 Y151.338 E.06708
G1 X77.833 Y150.767 E.03283
G1 X77.148 Y150.184 E.03249
G1 X76.488 Y149.589 E.03211
G1 X75.852 Y148.982 E.03174
G1 X75.241 Y148.363 E.03138
G1 X74.656 Y147.733 E.03104
G1 X74.098 Y147.091 E.03072
G1 X73.567 Y146.439 E.03037
G1 X72.765 Y145.356 E.04866
G1 X72.037 Y144.241 E.04806
G1 X71.705 Y143.678 E.02363
G1 X71.095 Y142.52 E.04726
G1 X70.824 Y141.937 E.02321
G1 X70.34 Y140.743 E.04652
G1 X70.134 Y140.144 E.02287
G1 X69.784 Y138.919 E.04598
G1 X69.529 Y137.687 E.04545
G1 X69.379 Y136.547 E.04151
G1 X69.314 Y135.515 E.03733
G1 X69.305 Y135.001 E.01854
G1 X69.318 Y134.366 E.02294
G1 X69.356 Y133.733 E.0229
G1 X69.419 Y133.102 E.02291
G1 X69.507 Y132.473 E.02294
G1 X69.619 Y131.846 E.02298
G1 X69.755 Y131.223 E.02304
G1 X69.913 Y130.605 E.02302
G1 X70.302 Y129.375 E.0466
G1 X70.528 Y128.773 E.02321
G1 X71.05 Y127.575 E.0472
G1 X71.341 Y126.991 E.02355
G1 X71.99 Y125.834 E.0479
G1 X72.342 Y125.272 E.02394
