; HEADER_BLOCK_START
; generated by OrcaSlicer 2.2.0 on 2024-11-11 at 09:35:31
; total layer number: 20
; filament_density: 1.24
; filament_diameter: 1.75
; max_z_height: 4.00
; HEADER_BLOCK_END

; THUMBNAIL_BLOCK_START

;
; THUMBNAIL_BLOCK_END

; THUMBNAIL_BLOCK_START

;
; THUMBNAIL_BLOCK_END

; external perimeters extrusion width = 0.42mm
; perimeters extrusion width = 0.45mm
; infill extrusion width = 0.45mm
; solid infill extrusion width = 0.45mm
; top infill extrusion width = 0.42mm
; first layer extrusion width = 0.50mm

; external perimeters extrusion width = 0.42mm
; perimeters extrusion width = 0.45mm
; infill extrusion width = 0.45mm
; solid infill extrusion width = 0.45mm
; top infill extrusion width = 0.42mm
; first layer extrusion width = 0.50mm

; external perimeters extrusion width = 0.42mm
; perimeters extrusion width = 0.45mm
; infill extrusion width = 0.45mm
; solid infill extrusion width = 0.45mm
; top infill extrusion width = 0.42mm
; first layer extrusion width = 0.50mm

; external perimeters extrusion width = 0.42mm
; perimeters extrusion width = 0.45mm
; infill extrusion width = 0.45mm
; solid infill extrusion width = 0.45mm
; top infill extrusion width = 0.42mm
; first layer extrusion width = 0.50mm

; EXECUTABLE_BLOCK_START
EXCLUDE_OBJECT_DEFINE NAME=Corps13.stl_id_0_copy_0 CENTER=127,121 POLYGON=[[122,113],[132,113],[132,129],[122,129],[122,113]]
EXCLUDE_OBJECT_DEFINE NAME=Corps13.stl_id_1_copy_0 CENTER=115,121 POLYGON=[[110,113],[120,113],[120,129],[110,129],[110,113]]
EXCLUDE_OBJECT_DEFINE NAME=Corps13.stl_id_2_copy_0 CENTER=103,121 POLYGON=[[98,113],[108,113],[108,129],[98,129],[98,113]]
EXCLUDE_OBJECT_DEFINE NAME=Corps13.stl_id_3_copy_0 CENTER=115,106 POLYGON=[[107,101],[120,101],[123,101],[123,111],[110,111],[107,111],[107,101]]
M73 P0 R8
;TYPE:Custom
M220 S100
G90 ; use absolute coordinates
M83 ; extruder relative mode
M104 S150 ; set temporary nozzle temp to prevent oozing during homing
M140 S75 ; set final bed temp
G4 S30 ; allow partial nozzle warmup
G28 ; home all axis and restore leveling
BED_MESH_CALIBRATE PROFILE=adaptive ADAPTIVE=1 ADAPTIVE_MARGIN=0
G1 Z25 F240
G1 X10.0 Y30 F3000
M73 P1 R7
M104 S257 ; set final nozzle temp
M190 S75 ; wait for bed temp to stabilize
M109 S257 ; wait for nozzle temp to stabilize
M73 P1 R7
G1 Z0.28 F240
G92 E0 ; Move Z Axis up
G1 Z2.0 F5000 ; Move to start position
M73 P2 R7
M73 P2 R7
G1 X5 Y30 Z0.28 F300 ; Draw the first line
G1 X5 Y200 Z0.28 F1500 E15 ; Move to side a little
G1 X5.4 Y200 Z0.28 F5000.0 ; Draw the second line
M73 P4 R7
M73 P4 R7
G1 X5.4 Y50 Z0.28 F1500.0 E30 ; Reset Extruder
G92 E0 ; Move Z Axis up
G1 Z2.0 F3000
M73 P5 R7
M117 Start Printing..
G90
G21
M83 ; use relative distances for extrusion
; filament start gcode
M106 S0
;LAYER_CHANGE
;Z:0.2
;HEIGHT:0.2
;BEFORE_LAYER_CHANGE
;0.2
G92 E0

M73 P5 R7
G1 E-.5 F1800
;_SET_FAN_SPEED_CHANGING_LAYER
SET_VELOCITY_LIMIT ACCEL=1000
SET_VELOCITY_LIMIT SQUARE_CORNER_VELOCITY=7
; printing object Corps13.stl id:2 copy 0
EXCLUDE_OBJECT_START NAME=Corps13.stl_id_2_copy_0
G1 Z.4 F24000
G1 X115.243 Y137.687
G1 Z.4
G1 Z.2
G1 E.5 F1800
;TYPE:Inner wall
;WIDTH:0.499999
G1 F3000
G1 X115.243 Y139.545 E.06921
G1 X115.26 Y140.37 E.03072
;WIDTH:0.465461
G1 X115.271 Y141.188 E.02819
;WIDTH:0.492409
G1 X115.247 Y142.04 E.03122
;WIDTH:0.499999
G1 X115.243 Y148.243 E.23102
G1 X106.757 Y148.243 E.31606
G1 X106.755 Y141.938 E.23484
;WIDTH:0.495106
G1 X106.741 Y141.528 E.01509
;WIDTH:0.468512
G1 X106.728 Y141.119 E.01421
;WIDTH:0.471535
G1 X106.743 Y140.296 E.02875
;WIDTH:0.499999
G1 X106.757 Y139.649 E.02409
G1 X106.757 Y133.757 E.21946
G1 X115.243 Y133.757 E.31606
G1 X115.243 Y137.647 E.14488
M73 P6 R7
M73 P6 R7
G1 E-.5 F1800
;WIPE_START
G1 F12000
G1 X115.243 Y139.545
G1 X115.245 Y139.647
;WIPE_END
G1 Z.4 F24000
G1 X111.755 Y137.179 Z.4
G1 Z.2
G1 E.5 F1800
G1 F3000
G1 X112.234 Y137.296 E.01836
G1 X112.949 Y137.617 E.02919
G1 X113.586 Y138.075 E.0292
G1 X114.221 Y138.796 E.0358
G1 X114.604 Y139.499 E.02982
G1 X114.822 Y140.252 E.02918
;WIDTH:0.4809
G1 X114.875 Y141.032 E.0279
;WIDTH:0.483918
G1 X114.812 Y141.807 E.02797
;WIDTH:0.499999
G1 X114.505 Y142.717 E.03574
G1 X114.082 Y143.397 E.02983
G1 X113.541 Y143.964 E.02919
G1 X112.898 Y144.412 E.02919
G1 X112.179 Y144.722 E.02919
G1 X111.411 Y144.883 E.02919
G1 X110.628 Y144.887 E.02919
G1 X109.859 Y144.734 E.02919
G1 X109.136 Y144.431 E.02919
G1 X108.489 Y143.99 E.02919
G1 X107.942 Y143.428 E.02919
G1 X107.519 Y142.768 E.02919
G1 X107.237 Y142.037 E.02919
;WIDTH:0.498121
G1 X107.184 Y141.649 E.01453
;WIDTH:0.47219
G1 X107.131 Y141.261 E.0137
;WIDTH:0.458173
G1 X107.151 Y140.483 E.02634
;WIDTH:0.499999
G1 X107.312 Y139.719 E.02906
G1 X107.642 Y139.008 E.0292
G1 X108.232 Y138.249 E.0358
G1 X108.85 Y137.741 E.02982
G1 X109.531 Y137.384 E.02863
G1 X110.297 Y137.159 E.02974
G1 X111.078 Y137.096 E.02918
G1 X111.606 Y137.143 E.01974
G1 X111.716 Y137.17 E.00423
G1 X111.647 Y137.623 F24000
;TYPE:Outer wall
G1 F3000
G1 X112.126 Y137.74 E.01836
G1 X112.755 Y138.031 E.02579
G1 X113.312 Y138.441 E.0258
G1 X113.872 Y139.092 E.03198
G1 X114.198 Y139.709 E.02599
G1 X114.392 Y140.374 E.02578
G1 X114.448 Y141.064 E.02579
G1 X114.366 Y141.751 E.02579
G1 X114.076 Y142.559 E.03198
G1 X113.699 Y143.147 E.02601
G1 X113.216 Y143.643 E.02579
G1 X112.644 Y144.032 E.02579
G1 X112.005 Y144.299 E.02579
G1 X111.326 Y144.434 E.02579
G1 X110.634 Y144.429 E.02578
G1 X109.956 Y144.287 E.02579
G1 X109.321 Y144.012 E.02579
G1 X108.753 Y143.616 E.02578
G1 X108.276 Y143.115 E.02579
G1 X107.908 Y142.528 E.02579
G1 X107.665 Y141.88 E.02579
G1 X107.557 Y141.196 E.02578
G1 X107.587 Y140.505 E.02579
G1 X107.754 Y139.833 E.02579
G1 X108.053 Y139.208 E.0258
G1 X108.587 Y138.536 E.03198
G1 X109.133 Y138.1 E.02599
G1 X109.736 Y137.793 E.02522
G1 X110.416 Y137.601 E.02634
G1 X111.107 Y137.553 E.02578
G1 X111.498 Y137.587 E.01462
G1 X111.608 Y137.614 E.00423
G1 E-.5 F1800
;WIPE_START
G1 F12000
G1 X112.126 Y137.74
G1 X112.755 Y138.031
G1 X113.312 Y138.441
G1 X113.366 Y138.503
;WIPE_END
G1 Z.4 F24000
G1 X115.7 Y148.7 Z.4
G1 Z.2
G1 E.5 F1800
G1 F3000
G1 X106.3 Y148.7 E.35011
G1 X106.3 Y133.3 E.57359
G1 X115.7 Y133.3 E.35011
G1 X115.7 Y148.66 E.5721
G1 E-.5 F1800
;WIPE_START
G1 F12000
G1 X113.7 Y148.669
;WIPE_END
G1 Z.4 F24000
G1 X114.548 Y142.933
G1 Z.4
G1 Z.2
G1 E.5 F1800
;TYPE:Bottom surface
;WIDTH:0.509681
G1 F6300
G1 X114.906 Y143.291 E.01927
G1 X114.905 Y143.951 E.02508
G1 X114.436 Y143.482 E.02524
G1 X114.244 Y143.741 E.01228
G1 X114.14 Y143.846 E.00561
G1 X114.904 Y144.61 E.04112
G1 X114.904 Y145.269 E.02508
G1 X113.812 Y144.178 E.05872
G1 X113.631 Y144.333 E.00908
G1 X113.437 Y144.463 E.00887
G1 X114.903 Y145.929 E.07883
G1 X114.902 Y146.588 E.02508
G1 X113.038 Y144.724 E.10024
G1 X112.581 Y144.927 E.01902
G1 X114.901 Y147.247 E.12478
G1 X114.9 Y147.9 E.02484
G1 X112.095 Y145.101 E.15072
G1 X111.541 Y145.207 E.02147
G1 X114.234 Y147.9 E.14487
G1 X113.574 Y147.9 E.02511
G1 X110.907 Y145.233 E.14347
G1 X110.618 Y145.229 E.01099
G1 X110.165 Y145.151 E.01749
G1 X112.914 Y147.9 E.14788
G1 X112.254 Y147.9 E.02511
M73 P7 R7
M73 P7 R7
G1 X109.177 Y144.823 E.16551
G1 X108.823 Y144.646 E.01503
G1 X108.286 Y144.266 E.02503
G1 X108.139 Y144.138 E.00742
G1 X107.689 Y143.658 E.02503
G1 X107.57 Y143.503 E.00742
G1 X107.224 Y142.943 E.02503
G1 X107.156 Y142.802 E.00597
G1 X107.097 Y142.763 E.00269
G1 X107.097 Y143.404 E.02439
G1 X111.594 Y147.9 E.24185
G1 X110.933 Y147.9 E.02511
G1 X107.098 Y144.064 E.20632
G1 X107.098 Y144.725 E.02512
G1 X110.273 Y147.9 E.17079
G1 X109.613 Y147.9 E.02511
G1 X107.098 Y145.385 E.13527
G1 X107.099 Y146.046 E.02512
G1 X108.953 Y147.9 E.09974
G1 X108.293 Y147.9 E.02511
G1 X107.099 Y146.706 E.06422
G1 X107.1 Y147.367 E.02512
G1 X107.839 Y148.106 E.03976
G1 E-.5 F1800
;WIPE_START
G1 F12000
G1 X107.1 Y147.367
G1 X107.099 Y146.706
G1 X107.307 Y146.914
;WIPE_END
G1 Z.4 F24000
G1 X114.164 Y133.894 Z.4
G1 Z.2
G1 E.5 F1800
;WIDTH:0.508469
G1 F6300
G1 X114.9 Y134.63 E.0395
G1 X114.9 Y135.289 E.02498
G1 X113.711 Y134.1 E.06379
G1 X113.053 Y134.1 E.02498
G1 X114.9 Y135.947 E.09911
G1 X114.9 Y136.606 E.02498
G1 X112.394 Y134.1 E.13443
G1 X111.736 Y134.1 E.02498
G1 X114.9 Y137.264 E.16975
G1 X114.9 Y137.922 E.02498
G1 X111.078 Y134.1 E.20508
G1 X110.419 Y134.1 E.02498
G1 X114.9 Y138.581 E.2404
G1 X114.9 Y139.239 E.02498
G1 X114.808 Y139.147 E.00493
G1 X114.609 Y138.761 E.01648
G1 X114.486 Y138.579 E.00832
G1 X113.956 Y137.954 E.03111
G1 X113.796 Y137.804 E.00832
G1 X113.268 Y137.41 E.025
G1 X112.855 Y137.194 E.01767
G1 X109.761 Y134.1 E.16599
G1 X109.102 Y134.1 E.02498
G1 X111.853 Y136.85 E.14756
G1 X111.679 Y136.808 E.00677
G1 X111.098 Y136.754 E.02216
G1 X108.444 Y134.1 E.14238
G1 X107.786 Y134.1 E.02498
G1 X110.481 Y136.795 E.14461
G1 X110.299 Y136.808 E.00691
G1 X109.932 Y136.905 E.01441
G1 X107.127 Y134.1 E.15049
G1 X107.1 Y134.1 E.00104
G1 X107.1 Y134.731 E.02394
G1 X109.426 Y137.057 E.12479
G1 X108.985 Y137.274 E.01865
G1 X107.1 Y135.389 E.10114
G1 X107.1 Y136.048 E.02498
G1 X108.574 Y137.522 E.07909
G1 X108.205 Y137.812 E.01779
G1 X107.1 Y136.706 E.05931
G1 X107.1 Y137.364 E.02498
G1 X107.878 Y138.142 E.04172
G1 X107.584 Y138.507 E.01776
G1 X107.1 Y138.023 E.02596
G1 X107.1 Y138.681 E.02498
G1 X107.469 Y139.05 E.01981
; stop printing object Corps13.stl id:2 copy 0
; printing object Corps13.stl id:1 copy 0
G1 E-.5 F1800
;WIPE_START
G1 F12000
G1 X107.1 Y138.681
G1 X107.1 Y138.023
G1 X107.584 Y138.507
G1 X107.669 Y138.401
;WIPE_END
EXCLUDE_OBJECT_END NAME=Corps13.stl_id_2_copy_0
EXCLUDE_OBJECT_START NAME=Corps13.stl_id_1_copy_0
G1 Z.4 F24000
G1 X127.243 Y137.687 Z.4
G1 Z.2
G1 E.5 F1800
;TYPE:Inner wall
;WIDTH:0.499999
G1 F3000
G1 X127.243 Y139.545 E.06921
G1 X127.26 Y140.37 E.03072
M73 P8 R7
;WIDTH:0.465461
M73 P8 R7
G1 X127.271 Y141.188 E.02819
;WIDTH:0.492409
G1 X127.247 Y142.04 E.03122
;WIDTH:0.499999
G1 X127.243 Y148.243 E.23102
G1 X118.757 Y148.243 E.31606
G1 X118.755 Y141.938 E.23484
;WIDTH:0.495106
G1 X118.741 Y141.528 E.01509
;WIDTH:0.468512
G1 X118.728 Y141.119 E.01421
;WIDTH:0.471535
G1 X118.743 Y140.296 E.02875
;WIDTH:0.499999
G1 X118.757 Y139.649 E.02409
G1 X118.757 Y133.757 E.21946
G1 X127.243 Y133.757 E.31606
G1 X127.243 Y137.647 E.14488
G1 E-.5 F1800
;WIPE_START
G1 F12000
G1 X127.243 Y139.545
G1 X127.245 Y139.647
;WIPE_END
G1 Z.4 F24000
G1 X123.755 Y137.179 Z.4
G1 Z.2
G1 E.5 F1800
G1 F3000
G1 X124.234 Y137.296 E.01836
G1 X124.949 Y137.617 E.02919
G1 X125.586 Y138.075 E.0292
G1 X126.221 Y138.796 E.0358
G1 X126.604 Y139.499 E.02982
G1 X126.822 Y140.252 E.02918
;WIDTH:0.4809
G1 X126.875 Y141.032 E.0279
;WIDTH:0.483918
G1 X126.812 Y141.807 E.02797
;WIDTH:0.499999
G1 X126.505 Y142.717 E.03574
G1 X126.082 Y143.397 E.02983
G1 X125.541 Y143.964 E.02919
G1 X124.898 Y144.412 E.02919
G1 X124.179 Y144.722 E.02919
G1 X123.411 Y144.883 E.02919
G1 X122.628 Y144.887 E.02919
G1 X121.859 Y144.734 E.02919
G1 X121.136 Y144.431 E.02919
G1 X120.489 Y143.99 E.02919
G1 X119.942 Y143.428 E.02919
G1 X119.519 Y142.768 E.02919
G1 X119.237 Y142.037 E.02919
;WIDTH:0.498121
G1 X119.184 Y141.649 E.01453
;WIDTH:0.47219
G1 X119.131 Y141.261 E.0137
;WIDTH:0.458173
G1 X119.151 Y140.483 E.02634
;WIDTH:0.499999
G1 X119.312 Y139.719 E.02906
G1 X119.642 Y139.008 E.0292
G1 X120.232 Y138.249 E.0358
G1 X120.85 Y137.741 E.02982
G1 X121.531 Y137.384 E.02863
G1 X122.297 Y137.159 E.02974
G1 X123.078 Y137.096 E.02918
G1 X123.606 Y137.143 E.01974
G1 X123.716 Y137.17 E.00423
G1 X123.647 Y137.623 F24000
;TYPE:Outer wall
G1 F3000
G1 X124.126 Y137.74 E.01836
G1 X124.755 Y138.031 E.02579
G1 X125.312 Y138.441 E.0258
G1 X125.872 Y139.092 E.03198
G1 X126.198 Y139.709 E.02599
G1 X126.392 Y140.374 E.02578
G1 X126.448 Y141.064 E.02579
G1 X126.366 Y141.751 E.02579
G1 X126.076 Y142.559 E.03198
G1 X125.699 Y143.147 E.02601
G1 X125.216 Y143.643 E.02579
G1 X124.644 Y144.032 E.02579
G1 X124.005 Y144.299 E.02579
G1 X123.326 Y144.434 E.02579
G1 X122.634 Y144.429 E.02578
G1 X121.956 Y144.287 E.02579
G1 X121.321 Y144.012 E.02579
G1 X120.753 Y143.616 E.02578
G1 X120.276 Y143.115 E.02579
G1 X119.908 Y142.528 E.02579
G1 X119.665 Y141.88 E.02579
G1 X119.557 Y141.196 E.02578
G1 X119.587 Y140.505 E.02579
G1 X119.754 Y139.833 E.02579
G1 X120.053 Y139.208 E.0258
G1 X120.587 Y138.536 E.03198
G1 X121.133 Y138.1 E.02599
G1 X121.736 Y137.793 E.02522
G1 X122.416 Y137.601 E.02634
G1 X123.107 Y137.553 E.02578
G1 X123.498 Y137.587 E.01462
G1 X123.608 Y137.614 E.00423
G1 E-.5 F1800
;WIPE_START
G1 F12000
G1 X124.126 Y137.74
G1 X124.755 Y138.031
G1 X125.312 Y138.441
G1 X125.366 Y138.503
;WIPE_END
G1 Z.4 F24000
G1 X127.7 Y148.7 Z.4
G1 Z.2
G1 E.5 F1800
G1 F3000
G1 X118.3 Y148.7 E.35011
G1 X118.3 Y133.3 E.57359
G1 X127.7 Y133.3 E.35011
G1 X127.7 Y148.66 E.5721
G1 E-.5 F1800
;WIPE_START
G1 F12000
G1 X125.7 Y148.669
;WIPE_END
G1 Z.4 F24000
G1 X126.548 Y142.933 Z.4
G1 Z.2
G1 E.5 F1800
;TYPE:Bottom surface
;WIDTH:0.509681
G1 F6300
G1 X126.906 Y143.291 E.01927
G1 X126.905 Y143.951 E.02508
G1 X126.436 Y143.482 E.02524
G1 X126.244 Y143.741 E.01228
G1 X126.14 Y143.846 E.00561
G1 X126.904 Y144.61 E.04112
G1 X126.904 Y145.269 E.02508
G1 X125.812 Y144.178 E.05872
G1 X125.631 Y144.333 E.00908
G1 X125.437 Y144.463 E.00887
G1 X126.903 Y145.929 E.07883
G1 X126.902 Y146.588 E.02508
M73 P9 R7
M73 P9 R7
G1 X125.038 Y144.724 E.10024
G1 X124.581 Y144.927 E.01902
G1 X126.901 Y147.247 E.12478
G1 X126.9 Y147.9 E.02484
G1 X124.095 Y145.101 E.15072
G1 X123.541 Y145.207 E.02147
G1 X126.234 Y147.9 E.14487
G1 X125.574 Y147.9 E.02511
G1 X122.907 Y145.233 E.14347
G1 X122.618 Y145.229 E.01099
G1 X122.165 Y145.151 E.01749
G1 X124.914 Y147.9 E.14788
G1 X124.254 Y147.9 E.02511
G1 X121.177 Y144.823 E.16551
G1 X120.823 Y144.646 E.01503
G1 X120.286 Y144.266 E.02503
G1 X120.139 Y144.138 E.00742
G1 X119.689 Y143.658 E.02503
G1 X119.57 Y143.503 E.00742
G1 X119.224 Y142.943 E.02503
G1 X119.156 Y142.802 E.00597
G1 X119.097 Y142.763 E.00269
G1 X119.097 Y143.404 E.02439
G1 X123.594 Y147.9 E.24185
G1 X122.933 Y147.9 E.02511
G1 X119.098 Y144.064 E.20632
G1 X119.098 Y144.725 E.02512
G1 X122.273 Y147.9 E.17079
G1 X121.613 Y147.9 E.02511
G1 X119.098 Y145.385 E.13527
G1 X119.099 Y146.046 E.02512
G1 X120.953 Y147.9 E.09974
G1 X120.293 Y147.9 E.02511
G1 X119.099 Y146.706 E.06422
G1 X119.1 Y147.367 E.02512
G1 X119.839 Y148.106 E.03976
G1 E-.5 F1800
;WIPE_START
G1 F12000
G1 X119.1 Y147.367
G1 X119.099 Y146.706
G1 X119.307 Y146.914
;WIPE_END
G1 Z.4 F24000
G1 X126.164 Y133.894 Z.4
G1 Z.2
G1 E.5 F1800
;WIDTH:0.508469
G1 F6300
G1 X126.9 Y134.63 E.0395
G1 X126.9 Y135.289 E.02498
G1 X125.711 Y134.1 E.06379
G1 X125.053 Y134.1 E.02498
G1 X126.9 Y135.947 E.09911
G1 X126.9 Y136.606 E.02498
G1 X124.394 Y134.1 E.13443
G1 X123.736 Y134.1 E.02498
G1 X126.9 Y137.264 E.16975
G1 X126.9 Y137.922 E.02498
G1 X123.078 Y134.1 E.20508
G1 X122.419 Y134.1 E.02498
G1 X126.9 Y138.581 E.2404
G1 X126.9 Y139.239 E.02498
G1 X126.808 Y139.147 E.00493
G1 X126.609 Y138.761 E.01648
G1 X126.486 Y138.579 E.00832
G1 X125.956 Y137.954 E.03111
G1 X125.796 Y137.804 E.00832
G1 X125.268 Y137.41 E.025
G1 X124.855 Y137.194 E.01767
G1 X121.761 Y134.1 E.16599
G1 X121.102 Y134.1 E.02498
G1 X123.853 Y136.85 E.14756
G1 X123.679 Y136.808 E.00677
G1 X123.098 Y136.754 E.02216
G1 X120.444 Y134.1 E.14238
G1 X119.786 Y134.1 E.02498
G1 X122.481 Y136.795 E.14461
G1 X122.299 Y136.808 E.00691
G1 X121.932 Y136.905 E.01441
G1 X119.127 Y134.1 E.15049
G1 X119.1 Y134.1 E.00104
G1 X119.1 Y134.731 E.02394
G1 X121.426 Y137.057 E.12479
G1 X120.985 Y137.274 E.01865
G1 X119.1 Y135.389 E.10114
G1 X119.1 Y136.048 E.02498
G1 X120.574 Y137.522 E.07909
G1 X120.205 Y137.812 E.01779
G1 X119.1 Y136.706 E.05931
G1 X119.1 Y137.364 E.02498
M73 P10 R7
M73 P10 R7
G1 X119.878 Y138.142 E.04172
G1 X119.584 Y138.507 E.01776
G1 X119.1 Y138.023 E.02596
G1 X119.1 Y138.681 E.02498
G1 X119.469 Y139.05 E.01981
; stop printing object Corps13.stl id:1 copy 0
; printing object Corps13.stl id:0 copy 0
G1 E-.5 F1800
;WIPE_START
G1 F12000
G1 X119.1 Y138.681
G1 X119.1 Y138.023
G1 X119.584 Y138.507
G1 X119.669 Y138.401
;WIPE_END
EXCLUDE_OBJECT_END NAME=Corps13.stl_id_1_copy_0
