; HEADER_BLOCK_START
; generated by OrcaSlicer 2.0.0 on 2024-05-18 at 18:42:44
; total layer number: 70
; filament_density: 1.24
; filament_diameter: 1.75
; max_z_height: 14.00
; HEADER_BLOCK_END

; THUMBNAIL_BLOCK_START

;
; THUMBNAIL_BLOCK_END

; THUMBNAIL_BLOCK_START

;
; THUMBNAIL_BLOCK_END

; external perimeters extrusion width = 0.40mm
; perimeters extrusion width = 0.42mm
; infill extrusion width = 0.45mm
; solid infill extrusion width = 0.42mm
; top infill extrusion width = 0.40mm
; first layer extrusion width = 0.50mm

; EXECUTABLE_BLOCK_START
EXCLUDE_OBJECT_DEFINE NAME=Corps35.stl_id_0_copy_0 CENTER=106.929,105.022 POLYGON=[[73.0573,63.8183],[80.718,61.3179],[80.9739,61.2347],[81.317,61.1258],[81.68,61.0139],[82.0886,60.8913],[82.4603,60.7841],[82.8749,60.668],[83.3038,60.5522],[83.4719,60.5078],[83.7458,60.4374],[84.1994,60.3246],[84.6632,60.2145],[84.8665,60.1676],[85.1352,60.1079],[85.6132,60.0051],[86.0952,59.9067],[86.271,59.871],[86.579,59.813],[87.0624,59.7246],[87.5435,59.6418],[87.6841,59.6185],[88.0199,59.5651],[89.1044,59.4101],[89.4615,59.3649],[90.5305,59.2462],[90.9086,59.2103],[91.961,59.1269],[92.36,59.1016],[93.3945,59.0522],[93.814,59.0388],[94.8297,59.0223],[95.2693,59.0221],[96.2651,59.0372],[96.7244,59.0515],[97.6993,59.0969],[98.1778,59.1268],[99.131,59.2013],[99.6282,59.2481],[100.559,59.3504],[101.074,59.4152],[101.981,59.5439],[102.514,59.628],[103.397,59.7817],[103.946,59.8862],[104.804,60.0635],[105.369,60.1896],[106.202,60.3892],[106.783,60.5379],[107.59,60.7583],[108.184,60.9307],[108.965,61.1705],[109.572,61.3676],[110.326,61.6254],[110.946,61.8483],[111.673,62.1225],[112.304,62.3721],[113.003,62.6615],[113.644,62.9387],[114.316,63.2417],[114.966,63.5474],[115.61,63.8626],[116.268,64.1975],[116.885,64.5235],[117.549,64.8886],[118.138,65.2239],[118.808,65.6198],[119.368,65.9631],[120.042,66.3905],[120.575,66.7403],[121.252,67.1999],[121.757,67.5547],[122.435,68.0471],[122.913,68.4057],[123.591,68.9313],[124.042,69.2923],[124.719,69.8516],[125.143,70.2137],[125.816,70.8072],[126.214,71.169],[126.883,71.797],[127.255,72.1573],[127.919,72.82],[128.265,73.1776],[128.921,73.8753],[129.243,74.2289],[129.889,74.9618],[130.187,75.3101],[130.823,76.0784],[131.097,76.4203],[131.72,77.2239],[131.972,77.5584],[132.581,78.3973],[132.811,78.7232],[133.405,79.5973],[133.613,79.9136],[134.19,80.8228],[134.378,81.1285],[134.936,82.0725],[135.104,82.3666],[135.642,83.3451],[135.791,83.6268],[136.307,84.6395],[136.439,84.9078],[136.932,85.9542],[137.046,86.2085],[137.514,87.2881],[137.613,87.5274],[138.054,88.6397],[138.138,88.8634],[138.55,90.0077],[138.621,90.2151],[138.705,90.4642],[138.857,90.928],[139.004,91.397],[139.062,91.5812],[139.148,91.869],[139.286,92.3417],[139.419,92.813],[139.46,92.9604],[139.546,93.2807],[139.665,93.7426],[139.778,94.1964],[139.815,94.3514],[139.883,94.6405],[139.98,95.073],[140.071,95.4925],[140.126,95.7527],[140.155,95.8973],[140.232,96.2857],[140.302,96.6561],[140.366,97.0069],[140.393,97.1631],[140.423,97.3392],[140.476,97.6589],[140.525,97.9647],[140.569,98.2546],[140.609,98.527],[140.616,98.5811],[140.644,98.7801],[140.675,99.0121],[140.702,99.2211],[140.725,99.4056],[140.745,99.5653],[140.761,99.7001],[140.774,99.8103],[140.783,99.8958],[140.79,99.9568],[140.794,99.9933],[140.795,100.005],[140.801,109.983],[140.8,109.995],[140.796,110.031],[140.79,110.092],[140.78,110.178],[140.767,110.288],[140.751,110.423],[140.732,110.582],[140.709,110.767],[140.682,110.976],[140.651,111.208],[140.624,111.407],[140.616,111.461],[140.577,111.734],[140.533,112.024],[140.485,112.329],[140.433,112.649],[140.403,112.825],[140.376,112.981],[140.312,113.332],[140.243,113.703],[140.166,114.091],[140.137,114.236],[140.083,114.496],[139.992,114.916],[139.895,115.348],[139.828,115.638],[139.791,115.792],[139.679,116.246],[139.56,116.708],[139.475,117.029],[139.434,117.176],[139.302,117.648],[139.164,118.121],[139.078,118.409],[139.021,118.593],[138.874,119.062],[138.723,119.526],[138.639,119.775],[138.569,119.983],[138.158,121.127],[138.074,121.35],[137.634,122.464],[137.536,122.702],[137.069,123.783],[136.956,124.035],[136.463,125.085],[136.334,125.35],[135.817,126.367],[135.67,126.645],[135.131,127.628],[134.966,127.917],[134.407,128.866],[134.223,129.167],[133.644,130.082],[133.44,130.393],[132.843,131.274],[132.618,131.594],[132.005,132.439],[131.76,132.767],[131.132,133.578],[130.864,133.913],[130.223,134.69],[129.933,135.031],[129.281,135.772],[128.967,136.118],[128.304,136.825],[127.966,137.174],[127.296,137.846],[126.933,138.198],[126.256,138.836],[125.869,139.189],[125.186,139.792],[124.773,140.145],[124.086,140.715],[123.648,141.067],[122.959,141.603],[122.494,141.952],[121.804,142.455],[121.313,142.801],[120.623,143.271],[120.105,143.612],[119.417,144.05],[118.872,144.384],[118.187,144.79],[117.616,145.117],[116.935,145.492],[116.337,145.81],[115.662,146.155],[115.037,146.462],[114.368,146.777],[113.717,147.072],[113.056,147.359],[112.378,147.641],[111.726,147.9],[111.022,148.167],[110.38,148.398],[109.65,148.649],[109.019,148.855],[108.263,149.089],[107.645,149.269],[106.864,149.484],[106.258,149.64],[105.452,149.834],[104.861,149.967],[104.03,150.14],[103.454,150.251],[102.599,150.401],[102.038,150.49],[101.161,150.616],[100.616,150.686],[99.7162,150.786],[99.1888,150.836],[98.267,150.91],[97.7573,150.943],[96.8146,150.988],[96.3232,151.004],[95.3605,151.02],[94.8879,151.021],[93.9061,151.007],[93.4527,150.993],[92.4528,150.947],[92.0191,150.92],[91.0022,150.841],[90.5885,150.802],[89.5556,150.69],[89.1623,150.64],[88.1145,150.492],[87.7418,150.434],[87.6371,150.417],[87.1551,150.335],[86.6706,150.247],[86.3285,150.183],[85.7027,150.057],[85.2235,149.954],[84.9236,149.888],[84.7503,149.849],[84.2853,149.739],[83.8303,149.627],[83.5287,149.55],[83.3869,149.513],[82.9566,149.397],[82.5405,149.282],[82.145,149.168],[73.0573,146.552],[73.0573,63.8183]]
M73 P0 R32
;TYPE:Custom
M220 S100
G90 ; use absolute coordinates
M83 ; extruder relative mode
M104 S150 ; set temporary nozzle temp to prevent oozing during homing
M140 S55 ; set final bed temp
G4 S30 ; allow partial nozzle warmup
G28 ; home all axis and restore leveling
G1 Z25 F240
G1 X10.0 Y30 F3000
M104 S210 ; set final nozzle temp
M190 S55 ; wait for bed temp to stabilize
M109 S210 ; wait for nozzle temp to stabilize
G1 Z0.28 F240
G92 E0 ; Move Z Axis up
G1 Z2.0 F5000 ; Move to start position
G1 X10 Y30 Z0.28 F300 ; Draw the first line
G1 X10 Y200 Z0.28 F1500 E15 ; Move to side a little
G1 X10.4 Y200 Z0.28 F5000.0 ; Draw the second line
M73 P1 R31
G1 X10.4 Y50 Z0.28 F1500.0 E30 ; Reset Extruder
G92 E0 ; Move Z Axis up
G1 Z2.0 F3000
M117 Start Printing..
G90
G21
M83 ; use relative distances for extrusion
; filament start gcode
M106 S0
;LAYER_CHANGE
;Z:0.2
;HEIGHT:0.2
;BEFORE_LAYER_CHANGE
;0.2
G92 E0

G1 E-.5 F2400
;_SET_FAN_SPEED_CHANGING_LAYER
SET_VELOCITY_LIMIT ACCEL=500 ACCEL_TO_DECEL=250
SET_VELOCITY_LIMIT SQUARE_CORNER_VELOCITY=7
G1 Z.2 F18000
G1 X78.536 Y82.357
G1 Z.2
G1 E.5 F2400
;TYPE:Skirt
;WIDTH:0.5
G1 F3000
G1 X80.153 Y81.048 E.07747
G1 X89.222 Y78.109 E.35508
G1 X92.26 Y77.317 E.11692
G1 X96.684 Y76.526 E.16741
G1 X99.812 Y76.216 E.11709
G1 X104.274 Y76.123 E.16621
G1 X108.865 Y76.452 E.17145
G1 X111.86 Y76.904 E.11282
G1 X113.47 Y77.226 E.06113
G1 X116.343 Y77.943 E.11032
G1 X119.233 Y78.856 E.11287
G1 X123.499 Y80.578 E.17135
G1 X126.212 Y81.929 E.1129
G1 X127.625 Y82.718 E.06026
G1 X130.157 Y84.293 E.11109
G1 X132.63 Y86.051 E.11298
G1 X133.917 Y87.062 E.06098
G1 X136.212 Y89.047 E.11301
G1 X139.442 Y92.317 E.17122
G1 X141.401 Y94.636 E.11307
G1 X143.17 Y97.013 E.11034
G1 X145.614 Y100.885 E.17055
G1 X146.403 Y102.334 E.06143
G1 X147.721 Y105.052 E.11255
G1 X149.396 Y109.325 E.17094
G1 X150.259 Y112.149 E.10997
G1 X150.967 Y115.105 E.1132
G1 X151.686 Y119.636 E.17089
G1 X151.715 Y129.981 E.38529
G1 X151.502 Y131.863 E.07055
G1 X151.002 Y134.771 E.10993
G1 X149.879 Y139.214 E.17065
G1 X148.347 Y143.528 E.17053
G1 X146.419 Y147.68 E.17051
G1 X144.11 Y151.633 E.17051
G1 X141.443 Y155.354 E.17051
G1 X138.439 Y158.808 E.17049
G1 X135.126 Y161.967 E.17051
G1 X131.531 Y164.802 E.17051
G1 X127.687 Y167.289 E.17052
G1 X123.628 Y169.405 E.17051
G1 X119.408 Y171.126 E.16975
G1 X115.025 Y172.451 E.17055
G1 X110.537 Y173.362 E.17054
G1 X105.985 Y173.848 E.17054
G1 X101.406 Y173.907 E.17054
G1 X96.842 Y173.537 E.17055
G1 X92.324 Y172.74 E.17089
G1 X89.37 Y171.977 E.11364
G1 X80.251 Y169.352 E.35344
G1 X78.955 Y168.57 E.05638
G1 X78.143 Y166.552 E.08102
G1 X78.143 Y83.818 E3.0815
G1 X78.526 Y82.395 E.05489
G1 X78.98 Y82.529 F18000
G1 F3000
G1 X78.992 Y82.487 E.00162
G1 X80.295 Y81.482 E.06128
G1 X89.432 Y78.524 E.35771
G1 X93.749 Y77.47 E.16551
G1 X96.75 Y76.979 E.11329
G1 X99.836 Y76.673 E.11549
G1 X104.269 Y76.58 E.16515
G1 X108.818 Y76.907 E.16985
G1 X113.366 Y77.671 E.17178
G1 X116.226 Y78.385 E.10979
G1 X119.088 Y79.289 E.11181
G1 X123.314 Y80.997 E.16975
G1 X127.39 Y83.11 E.17099
G1 X129.91 Y84.678 E.11055
G1 X132.359 Y86.419 E.11192
G1 X135.897 Y89.379 E.17181
G1 X139.099 Y92.619 E.16969
G1 X141.039 Y94.915 E.11193
G1 X142.799 Y97.28 E.10981
G1 X145.219 Y101.117 E.16896
G1 X147.301 Y105.233 E.17181
G1 X148.961 Y109.466 E.16934
G1 X149.82 Y112.276 E.10944
G1 X150.521 Y115.204 E.11214
G1 X151.232 Y119.693 E.1693
G1 X151.258 Y129.981 E.38318
G1 X151.052 Y131.784 E.06759
G1 X150.553 Y134.687 E.10971
G1 X149.44 Y139.087 E.16907
G1 X147.922 Y143.361 E.16893
G1 X146.01 Y147.474 E.16892
G1 X143.723 Y151.391 E.16892
G1 X141.08 Y155.076 E.16892
G1 X138.104 Y158.498 E.16892
G1 X134.82 Y161.626 E.16892
G1 X131.259 Y164.435 E.16892
G1 X127.451 Y166.897 E.1689
G1 X123.43 Y168.993 E.16892
G1 X119.249 Y170.697 E.16816
G1 X114.907 Y172.01 E.16895
G1 X110.461 Y172.911 E.16895
G1 X105.951 Y173.392 E.16895
G1 X101.415 Y173.45 E.16895
G1 X96.894 Y173.083 E.16895
G1 X92.418 Y172.293 E.16929
G1 X89.491 Y171.537 E.11257
G1 X80.377 Y168.913 E.35325
G1 X79.207 Y168.168 E.05169
G1 X78.6 Y166.552 E.0643
G1 X78.6 Y83.818 E3.0815
G1 X78.969 Y82.567 E.04858
; printing object Corps35.stl id:0 copy 0
M73 P2 R31
G1 E-.35 F2400
;WIPE_START
G1 F3000
G1 X78.992 Y82.487 E-.01252
G1 X79.718 Y81.927 E-.13748
;WIPE_END
EXCLUDE_OBJECT_START NAME=Corps35.stl_id_0_copy_0
G1 Z.4 F18000
G1 X147.29 Y130.479 Z.4
G1 Z.2
G1 E.5 F2400
;TYPE:Inner wall
;WIDTH:0.499999
G1 F1800
G1 X147.307 Y130.504 E.00111
G1 X147.529 Y130.643 E.00977
G1 X148.001 Y130.69 E.01767
G1 X147.923 Y131.315 E.02346
G1 X147.706 Y132.707 E.05247
G1 X147.445 Y134.093 E.05254
G1 X147.139 Y135.476 E.05273
G1 X146.794 Y136.838 E.05237
G1 X146.401 Y138.204 E.05293
G1 X145.969 Y139.55 E.05265
G1 X145.498 Y140.871 E.05226
G1 X144.979 Y142.198 E.05304
G1 X144.423 Y143.497 E.05264
G1 X143.831 Y144.769 E.05226
G1 X143.19 Y146.04 E.05303
G1 X142.514 Y147.282 E.05265
G1 X141.806 Y148.493 E.05226
G1 X141.049 Y149.699 E.05304
G1 X140.261 Y150.872 E.05264
G1 X139.442 Y152.012 E.05226
G1 X138.576 Y153.142 E.05303
G1 X137.681 Y154.236 E.05265
G1 X136.759 Y155.294 E.05226
G1 X135.791 Y156.338 E.05303
G1 X134.798 Y157.344 E.05264
G1 X133.781 Y158.311 E.05226
G1 X132.72 Y159.26 E.05303
G1 X131.637 Y160.169 E.05265
G1 X130.535 Y161.037 E.05226
G1 X129.389 Y161.882 E.05303
G1 X128.226 Y162.685 E.05265
G1 X127.047 Y163.447 E.05226
G1 X125.828 Y164.181 E.05303
G1 X124.595 Y164.872 E.05265
G1 X123.35 Y165.52 E.05226
G1 X122.067 Y166.137 E.05303
G1 X120.784 Y166.706 E.05226
G1 X119.475 Y167.239 E.05264
G1 X118.149 Y167.73 E.05265
G1 X116.8 Y168.183 E.05303
G1 X115.456 Y168.587 E.05226
G1 X114.091 Y168.953 E.05264
G1 X112.704 Y169.277 E.05304
G1 X111.329 Y169.555 E.05226
G1 X109.935 Y169.791 E.05265
G1 X108.525 Y169.984 E.05303
G1 X107.129 Y170.132 E.05226
G1 X105.72 Y170.236 E.05265
G1 X104.297 Y170.297 E.05303
G1 X102.894 Y170.314 E.05226
G1 X101.481 Y170.286 E.05265
G1 X100.069 Y170.215 E.05265
G1 X98.66 Y170.099 E.05265
G1 X97.256 Y169.939 E.05265
G1 X95.854 Y169.736 E.05277
G1 X94.462 Y169.489 E.05265
G1 X93.078 Y169.198 E.05266
G1 X91.705 Y168.865 E.05263
G1 X90.344 Y168.489 E.0526
G1 X88.993 Y168.071 E.05266
G1 X87.664 Y167.614 E.05235
G1 X86.775 Y167.276 E.03543
G1 X86.76 Y166.459 E.03045
G1 X86.627 Y166.119 E.01358
G1 X86.39 Y165.919 E.01157
G1 X86.078 Y165.845 E.01191
G1 X81.764 Y165.845 E.16068
G1 X81.764 Y139.886 E.96684
G1 X103.594 Y139.714 E.81309
G1 X104.393 Y139.663 E.0298
G1 X105.094 Y139.584 E.02627
G1 X105.856 Y139.458 E.02878
G1 X106.647 Y139.283 E.03016
G1 X107.316 Y139.101 E.02584
G1 X108.141 Y138.825 E.0324
G1 X108.866 Y138.538 E.02905
G1 X109.628 Y138.185 E.03127
G1 X110.574 Y137.664 E.04021
G1 X111.323 Y137.188 E.03305
G1 X111.92 Y136.762 E.02734
G1 X112.549 Y136.261 E.02996
G1 X113.058 Y135.816 E.02515
G1 X113.95 Y134.909 E.04741
G1 X114.462 Y134.314 E.02922
G1 X114.945 Y133.688 E.02944
G1 X115.352 Y133.103 E.02655
G1 X115.765 Y132.44 E.0291
G1 X116.146 Y131.746 E.0295
G1 X116.463 Y131.096 E.02692
G1 X116.787 Y130.325 E.03117
G1 X117.067 Y129.536 E.03117
G1 X117.401 Y128.299 E.04771
G1 X117.553 Y127.544 E.02872
G1 X117.664 Y126.796 E.02814
G1 X117.737 Y126.046 E.02806
G1 X117.771 Y125.248 E.02977
G1 X117.763 Y124.463 E.02924
G1 X117.715 Y123.696 E.02861
G1 X117.626 Y122.92 E.02909
G1 X117.483 Y122.097 E.03114
G1 X117.293 Y121.281 E.03117
G1 X117.069 Y120.514 E.0298
G1 X116.635 Y119.353 E.04615
G1 X116.082 Y118.168 E.04871
G1 X115.443 Y117.082 E.04693
G1 X115.019 Y116.459 E.02807
G1 X114.537 Y115.822 E.02976
G1 X114.006 Y115.196 E.03055
G1 X113.514 Y114.673 E.02676
G1 X112.95 Y114.132 E.02912
G1 X112.339 Y113.606 E.03001
G1 X111.741 Y113.143 E.0282
G1 X110.675 Y112.44 E.04756
G1 X110.079 Y112.098 E.02555
G1 X109.451 Y111.775 E.02633
G1 X108.664 Y111.425 E.03208
G1 X107.924 Y111.142 E.02951
G1 X107.257 Y110.924 E.02614
G1 X106.4 Y110.698 E.033
G1 X105.636 Y110.54 E.02905
G1 X104.809 Y110.418 E.03117
G1 X103.975 Y110.343 E.03117
G1 X103.149 Y110.315 E.03078
G1 X81.764 Y110.472 E.79652
G1 X81.764 Y84.525 E.96641
G1 X86.089 Y84.525 E.16108
G1 X86.4 Y84.424 E.01219
G1 X86.626 Y84.198 E.01191
G1 X86.727 Y83.84 E.01385
G1 X86.727 Y82.785 E.03927
G1 X87.604 Y82.451 E.03496
G1 X88.932 Y81.992 E.05233
G1 X90.288 Y81.57 E.0529
G1 X91.656 Y81.191 E.05286
G1 X93.022 Y80.857 E.05238
G1 X94.401 Y80.566 E.05251
G1 X95.8 Y80.316 E.05292
G1 X97.199 Y80.111 E.05265
G1 X98.603 Y79.95 E.05265
G1 X100.012 Y79.832 E.05265
G1 X101.423 Y79.759 E.05265
G1 X102.837 Y79.729 E.05265
G1 X104.24 Y79.744 E.05226
G1 X105.662 Y79.803 E.05304
G1 X107.072 Y79.906 E.05265
G1 X108.478 Y80.053 E.05264
G1 X109.879 Y80.244 E.05265
G1 X111.262 Y80.476 E.05226
G1 X112.659 Y80.756 E.05304
G1 X114.035 Y81.076 E.05265
G1 X115.401 Y81.44 E.05265
G1 X116.755 Y81.846 E.05265
G1 X118.086 Y82.291 E.05226
G1 X119.422 Y82.784 E.05304
G1 X120.732 Y83.315 E.05265
G1 X122.025 Y83.886 E.05265
G1 X123.29 Y84.493 E.05226
G1 X124.545 Y85.144 E.05265
G1 X125.779 Y85.833 E.05265
G1 X126.991 Y86.561 E.05265
G1 X128.188 Y87.332 E.05303
G1 X129.343 Y88.128 E.05226
G1 X130.482 Y88.966 E.05265
G1 X131.602 Y89.846 E.05304
G1 X132.678 Y90.746 E.05226
G1 X133.733 Y91.687 E.05265
G1 X134.758 Y92.66 E.05265
G1 X135.752 Y93.665 E.05265
G1 X136.722 Y94.707 E.05304
G1 X137.645 Y95.764 E.05226
G1 X138.541 Y96.858 E.05265
G1 X139.403 Y97.978 E.05265
G1 X140.229 Y99.125 E.05265
G1 X141.024 Y100.306 E.05303
G1 X141.772 Y101.494 E.05227
G1 X142.487 Y102.713 E.05265
G1 X143.169 Y103.963 E.05303
G1 X143.802 Y105.215 E.05227
G1 X144.4 Y106.496 E.05265
G1 X144.958 Y107.795 E.05265
G1 X145.475 Y109.11 E.05264
G1 X145.954 Y110.448 E.05291
G1 X146.385 Y111.787 E.0524
G1 X146.777 Y113.145 E.05265
G1 X147.127 Y114.514 E.05264
G1 X147.432 Y115.89 E.05248
G1 X147.698 Y117.292 E.05315
G1 X147.916 Y118.68 E.05232
G1 X147.994 Y119.299 E.02324
G1 X147.512 Y119.336 E.01798
G1 X147.28 Y119.47 E.00998
G1 X147.093 Y119.74 E.01222
G1 X147.051 Y120.053 E.01179
G1 X147.195 Y121.487 E.05365
G1 X147.29 Y122.889 E.05235
G1 X147.341 Y124.294 E.05235
G1 X147.347 Y125.699 E.05235
G1 X147.308 Y127.104 E.05235
G1 X147.225 Y128.507 E.05235
G1 X147.093 Y129.952 E.05406
