; HEADER_BLOCK_START
; generated by OrcaSlicer 2.1.1 on 2024-09-19 at 18:04:31
; total layer number: 30
; filament_density: 1.24
; filament_diameter: 1.75
; max_z_height: 6.00
; HEADER_BLOCK_END

; THUMBNAIL_BLOCK_START

;
; THUMBNAIL_BLOCK_END

; THUMBNAIL_BLOCK_START

;
; THUMBNAIL_BLOCK_END

; external perimeters extrusion width = 0.42mm
; perimeters extrusion width = 0.45mm
; infill extrusion width = 0.45mm
; solid infill extrusion width = 0.45mm
; top infill extrusion width = 0.42mm
; first layer extrusion width = 0.50mm

; EXECUTABLE_BLOCK_START
EXCLUDE_OBJECT_DEFINE NAME=Corps1.stl_id_0_copy_0 CENTER=115,115 POLYGON=[[105.001,115],[105.006,114.66],[105.024,114.321],[105.053,113.983],[105.093,113.646],[105.145,113.31],[105.208,112.976],[105.282,112.645],[105.368,112.316],[105.464,111.991],[105.572,111.669],[105.691,111.35],[105.82,111.036],[105.96,110.727],[106.11,110.422],[106.271,110.123],[106.441,109.829],[106.622,109.542],[106.812,109.26],[107.012,108.986],[107.22,108.718],[107.438,108.457],[107.665,108.204],[107.9,107.959],[108.143,107.722],[108.394,107.493],[108.653,107.273],[108.919,107.062],[109.192,106.86],[109.472,106.668],[109.758,106.485],[110.05,106.312],[110.348,106.148],[110.651,105.996],[110.959,105.853],[111.272,105.721],[111.589,105.6],[111.911,105.489],[112.235,105.39],[112.563,105.302],[112.894,105.224],[113.227,105.159],[113.562,105.104],[113.899,105.061],[114.237,105.029],[114.576,105.009],[114.916,105],[115.255,105.003],[115.595,105.018],[115.933,105.044],[116.271,105.081],[116.607,105.13],[116.941,105.19],[117.273,105.262],[117.603,105.344],[117.929,105.438],[118.252,105.543],[118.571,105.659],[118.886,105.786],[119.197,105.923],[119.503,106.071],[119.803,106.229],[120.098,106.397],[120.388,106.575],[120.671,106.763],[120.947,106.96],[121.217,107.167],[121.479,107.382],[121.734,107.607],[121.981,107.839],[122.22,108.081],[122.451,108.33],[122.673,108.587],[122.887,108.851],[123.091,109.122],[123.286,109.4],[123.471,109.685],[123.647,109.976],[123.812,110.272],[123.968,110.574],[124.113,110.881],[124.248,111.193],[124.372,111.509],[124.485,111.829],[124.587,112.153],[124.678,112.48],[124.758,112.81],[124.827,113.143],[124.884,113.478],[124.93,113.814],[124.965,114.152],[124.988,114.491],[124.999,114.83],[124.999,115.17],[124.988,115.509],[124.965,115.848],[124.93,116.186],[124.884,116.522],[124.827,116.857],[124.758,117.19],[124.678,117.52],[124.587,117.847],[124.485,118.171],[124.372,118.491],[124.248,118.807],[124.113,119.119],[123.968,119.426],[123.812,119.728],[123.647,120.024],[123.471,120.315],[123.286,120.6],[123.091,120.878],[122.887,121.149],[122.673,121.413],[122.451,121.67],[122.22,121.919],[121.981,122.161],[121.734,122.393],[121.479,122.618],[121.217,122.833],[120.947,123.04],[120.671,123.237],[120.388,123.425],[120.098,123.603],[119.803,123.771],[119.503,123.929],[119.197,124.077],[118.886,124.214],[118.571,124.341],[118.252,124.457],[117.929,124.562],[117.603,124.656],[117.273,124.738],[116.941,124.81],[116.607,124.87],[116.271,124.919],[115.933,124.956],[115.595,124.982],[115.255,124.997],[114.916,125],[114.576,124.991],[114.237,124.971],[113.899,124.939],[113.562,124.896],[113.227,124.841],[112.894,124.776],[112.563,124.698],[112.235,124.61],[111.911,124.511],[111.589,124.4],[111.272,124.279],[110.959,124.147],[110.651,124.004],[110.348,123.852],[110.05,123.688],[109.758,123.515],[109.472,123.332],[109.192,123.14],[108.919,122.938],[108.653,122.727],[108.394,122.507],[108.143,122.278],[107.9,122.041],[107.665,121.796],[107.438,121.543],[107.22,121.282],[107.012,121.014],[106.812,120.74],[106.622,120.458],[106.441,120.171],[106.271,119.877],[106.11,119.578],[105.96,119.273],[105.82,118.964],[105.691,118.65],[105.572,118.331],[105.464,118.009],[105.368,117.684],[105.282,117.355],[105.208,117.024],[105.145,116.69],[105.093,116.354],[105.053,116.017],[105.024,115.679],[105.006,115.34],[105.001,115]]
M73 P0 R5
;TYPE:Custom
M220 S100
G90 ; use absolute coordinates
M83 ; extruder relative mode
M104 S150 ; set temporary nozzle temp to prevent oozing during homing
M140 S75 ; set final bed temp
G4 S30 ; allow partial nozzle warmup
G28 ; home all axis and restore leveling
BED_MESH_CALIBRATE PROFILE=adaptive ADAPTIVE=1 ADAPTIVE_MARGIN=0
G1 Z25 F240
G1 X10.0 Y30 F3000
M104 S257 ; set final nozzle temp
M190 S75 ; wait for bed temp to stabilize
M109 S257 ; wait for nozzle temp to stabilize
M73 P1 R5
G1 Z0.28 F240
G92 E0 ; Move Z Axis up
M73 P2 R5
G1 Z2.0 F5000 ; Move to start position
M73 P4 R5
G1 X5 Y30 Z0.28 F300 ; Draw the first line
G1 X5 Y200 Z0.28 F1500 E15 ; Move to side a little
G1 X5.4 Y200 Z0.28 F5000.0 ; Draw the second line
M73 P6 R5
G1 X5.4 Y50 Z0.28 F1500.0 E30 ; Reset Extruder
G92 E0 ; Move Z Axis up
G1 Z2.0 F3000
M117 Start Printing..
G90
G21
M83 ; use relative distances for extrusion
; filament start gcode
M106 S0
;LAYER_CHANGE
;Z:0.2
;HEIGHT:0.2
;BEFORE_LAYER_CHANGE
;0.2
G92 E0

M73 P8 R4
G1 E-.5 F1800
;_SET_FAN_SPEED_CHANGING_LAYER
SET_VELOCITY_LIMIT ACCEL=1000
SET_VELOCITY_LIMIT SQUARE_CORNER_VELOCITY=7
; printing object Corps1.stl id:0 copy 0
EXCLUDE_OBJECT_START NAME=Corps1.stl_id_0_copy_0
G1 Z.2 F24000
G1 X127.434 Y126.89
G1 Z.2
G1 E.5 F1800
;TYPE:Inner wall
;WIDTH:0.499999
G1 X128.241 Y127.387 E.03528
G1 X128.988 Y127.96 E.03506
G1 X129.673 Y128.605 E.03506
G1 X130.289 Y129.317 E.03506
G1 X130.829 Y130.088 E.03506
G1 X131.291 Y130.914 E.03527
G1 X131.549 Y131.488 E.02343
G1 X131.86 Y132.369 E.03479
G1 X132.049 Y133.148 E.02988
G1 X132.145 Y133.747 E.02257
G1 X132.214 Y134.356 E.02282
G1 X132.241 Y135.157 E.02986
G1 X132.177 Y136.102 E.03528
G1 X132.083 Y136.711 E.02293
G1 X131.86 Y137.631 E.03528
G1 X131.547 Y138.519 E.03506
G1 X131.144 Y139.37 E.03506
G1 X130.658 Y140.175 E.03506
G1 X130.092 Y140.927 E.03506
G1 X129.452 Y141.618 E.03506
G1 X128.745 Y142.24 E.03506
G1 X127.979 Y142.786 E.03506
G1 X127.162 Y143.252 E.03506
G1 X126.301 Y143.633 E.03506
G1 X125.405 Y143.924 E.03506
M73 P9 R4
G1 X124.485 Y144.122 E.03506
G1 X123.544 Y144.226 E.03528
G1 X122.928 Y144.242 E.02293
G1 X121.983 Y144.186 E.03528
G1 X121.054 Y144.035 E.03506
G1 X120.139 Y143.788 E.03527
G1 X119.548 Y143.573 E.02343
G1 X118.701 Y143.181 E.03479
G1 X117.891 Y142.701 E.03507
G1 X117.134 Y142.141 E.03506
G1 X116.438 Y141.507 E.03506
G1 X115.81 Y140.806 E.03506
G1 X115.257 Y140.045 E.03506
G1 X114.781 Y139.225 E.03528
G1 X114.518 Y138.669 E.02293
G1 X114.187 Y137.781 E.03528
G1 X113.95 Y136.87 E.03506
G1 X113.807 Y135.94 E.03506
G1 X113.759 Y135 E.03506
G1 X113.807 Y134.06 E.03506
G1 X113.951 Y133.124 E.03528
G1 X114.095 Y132.531 E.02273
G1 X114.518 Y131.332 E.04737
G1 X114.932 Y130.493 E.03484
G1 X115.433 Y129.695 E.03506
G1 X116.011 Y128.953 E.03506
G1 X116.663 Y128.274 E.03506
G1 X117.384 Y127.66 E.03528
G1 X117.885 Y127.302 E.02293
G1 X118.7 Y126.819 E.03528
G1 X119.555 Y126.424 E.03506
G1 X120.445 Y126.118 E.03506
G1 X121.362 Y125.905 E.03506
G1 X122.295 Y125.785 E.03506
G1 X123.236 Y125.761 E.03506
G1 X124.175 Y125.833 E.03506
G1 X125.101 Y126 E.03506
G1 X126.006 Y126.26 E.03506
G1 X126.884 Y126.613 E.03528
G1 X127.399 Y126.872 E.02144
G1 X127.657 Y126.491 F24000
;TYPE:Outer wall
G1 F1800
G1 X128.5 Y127.01 E.03687
G1 X129.284 Y127.611 E.03679
G1 X130.003 Y128.288 E.0368
G1 X130.65 Y129.036 E.03679
G1 X131.217 Y129.844 E.03679
G1 X131.7 Y130.709 E.03687
G1 X131.974 Y131.318 E.02488
G1 X132.299 Y132.239 E.03637
G1 X132.493 Y133.041 E.03075
G1 X132.598 Y133.685 E.0243
G1 X132.671 Y134.34 E.02456
G1 X132.699 Y135.165 E.03073
G1 X132.632 Y136.152 E.03687
G1 X132.532 Y136.799 E.02438
G1 X132.299 Y137.761 E.03687
G1 X131.97 Y138.693 E.03679
G1 X131.548 Y139.586 E.03679
G1 X131.037 Y140.432 E.03679
G1 X130.443 Y141.221 E.03679
G1 X129.772 Y141.945 E.03679
G1 X129.03 Y142.598 E.03679
G1 X128.226 Y143.172 E.03679
G1 X127.368 Y143.661 E.0368
G1 X126.464 Y144.06 E.03679
G1 X125.524 Y144.366 E.03679
G1 X124.559 Y144.574 E.03679
G1 X123.575 Y144.683 E.03687
G1 X122.921 Y144.699 E.02438
G1 X121.932 Y144.641 E.03687
G1 X120.957 Y144.482 E.0368
G1 X120.001 Y144.224 E.03687
G1 X119.374 Y143.996 E.02488
G1 X118.488 Y143.586 E.03637
G1 X117.638 Y143.082 E.0368
G1 X116.843 Y142.495 E.03679
G1 X116.113 Y141.83 E.0368
G1 X115.454 Y141.094 E.03679
G1 X114.873 Y140.294 E.03679
G1 X114.376 Y139.438 E.03688
G1 X114.096 Y138.847 E.02437
G1 X113.751 Y137.919 E.03688
G1 X113.502 Y136.963 E.0368
G1 X113.351 Y135.987 E.03679
G1 X113.301 Y135 E.0368
G1 X113.351 Y134.013 E.03679
G1 X113.502 Y133.035 E.03687
G1 X113.656 Y132.4 E.02432
G1 X114.096 Y131.154 E.04925
G1 X114.533 Y130.27 E.03672
G1 X115.058 Y129.433 E.03679
G1 X115.665 Y128.654 E.03679
G1 X116.349 Y127.941 E.0368
G1 X117.103 Y127.299 E.03687
G1 X117.636 Y126.919 E.02438
G1 X118.487 Y126.414 E.03688
G1 X119.384 Y126 E.03679
G1 X120.318 Y125.679 E.03679
G1 X121.28 Y125.454 E.03679
G1 X122.26 Y125.329 E.03679
G1 X123.248 Y125.303 E.03679
G1 X124.233 Y125.379 E.0368
G1 X125.205 Y125.554 E.03679
G1 X126.154 Y125.827 E.0368
M73 P10 R4
G1 X127.073 Y126.196 E.03687
G1 X127.622 Y126.473 E.02289
G1 E-.5
;WIPE_START
G1 F12000
G1 X128.5 Y127.01
G1 X129.27 Y127.6
;WIPE_END
G1 Z.4 F24000
G1 X122.909 Y131.231 Z.4
G1 Z.2
G1 E.5 F1800
;TYPE:Inner wall
G1 X123.574 Y131.278 E.02483
G1 X123.871 Y131.322 E.0112
G1 X124.416 Y131.495 E.02128
G1 X125.036 Y131.815 E.02598
G1 X125.501 Y132.174 E.0219
G1 X126.049 Y132.765 E.02999
G1 X126.431 Y133.442 E.02898
G1 X126.605 Y133.896 E.0181
G1 X126.727 Y134.368 E.01815
G1 X126.78 Y134.937 E.02128
G1 X126.735 Y135.548 E.02284
G1 X126.605 Y136.103 E.02123
G1 X126.502 Y136.424 E.01256
G1 X126.247 Y136.936 E.02128
G1 X125.836 Y137.499 E.02598
G1 X125.261 Y138.013 E.02875
G1 X125.035 Y138.186 E.01056
G1 X124.532 Y138.456 E.02127
G1 X123.871 Y138.678 E.02598
G1 X123.181 Y138.776 E.02597
G1 X122.538 Y138.732 E.02401
G1 X122.13 Y138.678 E.01531
G1 X121.586 Y138.505 E.02128
G1 X120.966 Y138.185 E.02598
G1 X120.415 Y137.757 E.02597
G1 X120.015 Y137.308 E.0224
G1 X119.594 Y136.637 E.02952
G1 X119.374 Y136.049 E.02336
G1 X119.254 Y135.324 E.02737
G1 X119.221 Y134.936 E.0145
G1 X119.274 Y134.368 E.02126
G1 X119.462 Y133.674 E.0268
G1 X119.737 Y133.132 E.02262
G1 X119.953 Y132.765 E.01587
G1 X120.324 Y132.331 E.02127
G1 X120.781 Y131.948 E.0222
G1 X121.268 Y131.652 E.02122
G1 X121.586 Y131.495 E.01321
G1 X122.13 Y131.322 E.02128
G1 X122.821 Y131.225 E.02597
G1 X122.869 Y131.228 E.0018
G1 X122.877 Y131.678 F24000
;TYPE:Outer wall
G1 F1800
G1 X123.733 Y131.757 E.03201
G1 X124.277 Y131.931 E.02128
G1 X124.819 Y132.217 E.02285
G1 X125.214 Y132.53 E.01877
G1 X125.701 Y133.062 E.02685
G1 X126.028 Y133.659 E.02534
G1 X126.166 Y134.021 E.01443
G1 X126.272 Y134.41 E.01502
G1 X126.325 Y134.979 E.02128
G1 X126.28 Y135.506 E.01971
G1 X126.108 Y136.181 E.02594
G1 X125.877 Y136.654 E.01959
G1 X125.472 Y137.224 E.02606
G1 X124.819 Y137.783 E.03201
G1 X124.316 Y138.053 E.02127
G1 X123.732 Y138.243 E.02285
G1 X123.124 Y138.322 E.02284
G1 X122.269 Y138.243 E.03201
G1 X121.724 Y138.069 E.02128
G1 X121.182 Y137.783 E.02285
G1 X120.702 Y137.401 E.02284
G1 X120.362 Y137.011 E.01926
G1 X119.99 Y136.409 E.02638
G1 X119.805 Y135.897 E.02023
G1 X119.677 Y134.979 E.03456
G1 X119.729 Y134.41 E.02126
G1 X119.901 Y133.8 E.0236
G1 X120.3 Y133.062 E.03126
G1 X120.672 Y132.628 E.02127
G1 X121.068 Y132.304 E.01906
G1 X121.686 Y131.947 E.02659
G1 X122.169 Y131.789 E.01893
G1 X122.837 Y131.684 E.02521
G1 E-.5
;WIPE_START
G1 F12000
G1 X123.733 Y131.757
G1 X124.277 Y131.931
G1 X124.746 Y132.179
;WIPE_END
G1 Z.4 F24000
G1 X127.935 Y127.36
G1 Z.4
G1 Z.2
G1 E.5 F1800
;TYPE:Bottom surface
;WIDTH:0.510945
G1 F3600
G1 X129.473 Y128.898 E.08296
G1 X130.018 Y129.528 E.03177
G1 X130.538 Y130.27 E.03456
G1 X130.987 Y131.073 E.03507
G1 X126.937 Y127.024 E.21842
G1 X126.743 Y126.926 E.00828
G1 X125.813 Y126.561 E.03811
G1 X131.429 Y132.178 E.30294
G1 X131.531 Y132.466 E.01166
G1 X131.683 Y133.094 E.02462
G1 X124.902 Y126.312 E.36576
G1 X124.098 Y126.171 E.03111
G1 X131.819 Y133.891 E.41641
G1 X131.867 Y134.245 E.01362
M73 P11 R4
G1 X131.88 Y134.614 E.01408
G1 X123.382 Y126.116 E.45836
G1 X122.726 Y126.122 E.02501
G1 X131.889 Y135.285 E.49422
G1 X131.847 Y135.905 E.02369
G1 X122.098 Y126.156 E.52582
G1 X121.511 Y126.231 E.02256
G1 X131.77 Y136.49 E.55334
G1 X131.652 Y137.034 E.02122
G1 X120.967 Y126.349 E.57632
G1 X120.439 Y126.483 E.02076
G1 X131.52 Y137.564 E.59767
G1 X131.348 Y138.053 E.01978
G1 X126.859 Y133.564 E.2421
G1 X126.831 Y133.469 E.00378
G1 X126.371 Y132.621 E.03681
G1 X125.863 Y132.029 E.02975
G1 X125.253 Y131.544 E.02969
G1 X124.593 Y131.194 E.02852
G1 X124.442 Y131.147 E.00604
G1 X119.947 Y126.652 E.24244
G1 X119.683 Y126.743 E.01064
G1 X119.473 Y126.84 E.00883
G1 X123.568 Y130.936 E.22091
G1 X122.979 Y130.879 E.02257
G1 X122.852 Y130.882 E.00484
G1 X119.02 Y127.049 E.2067
G1 X118.591 Y127.283 E.01861
G1 X122.261 Y130.952 E.19794
G1 X122.105 Y130.973 E.006
G1 X121.739 Y131.092 E.0147
G1 X118.176 Y127.529 E.19217
G1 X117.782 Y127.797 E.01817
M73 P12 R4
G1 X121.257 Y131.272 E.1874
G1 X120.828 Y131.505 E.01862
G1 X117.411 Y128.088 E.1843
G1 X117.053 Y128.392 E.01791
G1 X120.446 Y131.785 E.183
G1 X120.085 Y132.086 E.01792
G1 X116.714 Y128.715 E.1818
G1 X116.39 Y129.053 E.01785
G1 X119.783 Y132.446 E.183
G1 X119.604 Y132.661 E.01067
G1 X119.511 Y132.836 E.00755
G1 X116.088 Y129.412 E.18464
G1 X115.798 Y129.784 E.01799
G1 X119.283 Y133.269 E.18795
G1 X119.152 Y133.517 E.01068
G1 X119.09 Y133.738 E.00877
G1 X115.533 Y130.181 E.19186
G1 X115.277 Y130.588 E.01831
G1 X118.945 Y134.255 E.19781
G1 X118.892 Y134.864 E.02329
G1 X115.052 Y131.024 E.20708
G1 X114.834 Y131.468 E.01885
G1 X119.183 Y135.817 E.2346
G1 E-.5 F1800
;WIPE_START
G1 F12000
G1 X117.769 Y134.403
;WIPE_END
G1 Z.4 F24000
G1 X126.829 Y134.196 Z.4
G1 Z.2
G1 E.5 F1800
G1 F3600
G1 X131.162 Y138.53 E.23372
G1 X130.95 Y138.979 E.01896
G1 X127.111 Y135.14 E.20707
G1 X127.057 Y135.749 E.0233
G1 X130.719 Y139.411 E.19751
G1 X130.47 Y139.823 E.01839
G1 X126.913 Y136.266 E.19185
G1 X126.857 Y136.464 E.00785
G1 X126.723 Y136.738 E.01163
G1 X130.199 Y140.214 E.18751
G1 X129.915 Y140.592 E.01803
G1 X126.502 Y137.179 E.18409
G1 X126.217 Y137.556 E.01802
G1 X129.607 Y140.946 E.18284
G1 X129.289 Y141.29 E.01786
M73 P13 R4
G1 X125.905 Y137.906 E.18252
G1 X125.549 Y138.212 E.0179
G1 X128.945 Y141.607 E.18315
G1 X128.593 Y141.917 E.01789
G1 X125.17 Y138.495 E.1846
G1 X124.742 Y138.728 E.01861
G1 X128.212 Y142.199 E.18719
G1 X127.826 Y142.474 E.0181
G1 X124.261 Y138.909 E.19231
G1 X123.88 Y139.031 E.01523
G1 X123.738 Y139.048 E.00547
G1 X127.408 Y142.718 E.19792
G1 X126.984 Y142.956 E.01853
G1 X123.148 Y139.121 E.20687
G1 X122.429 Y139.063 E.02754
G1 X126.525 Y143.159 E.22093
G1 X126.056 Y143.352 E.01934
G1 X121.557 Y138.853 E.24266
G1 X121.428 Y138.813 E.00516
G1 X120.721 Y138.439 E.03049
G1 X120.15 Y137.982 E.0279
G1 X119.64 Y137.393 E.02971
G1 X119.239 Y136.693 E.03074
G1 X119.154 Y136.45 E.00983
G1 X114.661 Y131.957 E.24235
G1 X114.488 Y132.446 E.01978
G1 X125.556 Y143.514 E.59697
G1 X125.316 Y143.592 E.00964
G1 X125.034 Y143.653 E.01102
G1 X114.343 Y132.962 E.57661
G1 X114.237 Y133.518 E.02159
G1 X124.489 Y143.77 E.55295
G1 X123.899 Y143.842 E.02268
G1 X114.149 Y134.092 E.52588
G1 X114.116 Y134.721 E.02404
G1 X123.285 Y143.89 E.49451
G1 X122.934 Y143.899 E.01338
M73 P14 R4
G1 X122.613 Y143.88 E.01228
G1 X114.122 Y135.389 E.45796
G1 X114.148 Y135.905 E.01971
G1 X114.179 Y136.108 E.00785
G1 X121.895 Y143.824 E.41615
G1 X121.102 Y143.692 E.03068
G1 X114.313 Y136.904 E.36615
G1 X114.514 Y137.678 E.03051
G1 X114.568 Y137.82 E.0058
G1 X120.188 Y143.441 E.30317
G1 X119.679 Y143.256 E.02067
G1 X119.05 Y142.965 E.02644
G1 X115.025 Y138.94 E.21709
G1 X115.544 Y139.857 E.04021
G1 X116.077 Y140.59 E.03456
G1 X116.619 Y141.196 E.03099
G1 X118.073 Y142.649 E.07839
; stop printing object Corps1.stl id:0 copy 0
M106 S48
;LAYER_CHANGE
;Z:0.4
;HEIGHT:0.2
;BEFORE_LAYER_CHANGE
;0.4
G92 E0

G1 E-.5 F1800
;WIPE_START
G1 F12000
G1 X116.658 Y141.235
;WIPE_END
EXCLUDE_OBJECT_END NAME=Corps1.stl_id_0_copy_0
;_SET_FAN_SPEED_CHANGING_LAYER
