; HEADER_BLOCK_START
; generated by OrcaSlicer 2.1.1 on 2024-08-20 at 13:15:28
; total layer number: 50
; filament_density: 1.27
; filament_diameter: 1.75
; max_z_height: 10.00
; HEADER_BLOCK_END

; THUMBNAIL_BLOCK_START

;
; THUMBNAIL_BLOCK_END

; THUMBNAIL_BLOCK_START

;
; THUMBNAIL_BLOCK_END

; external perimeters extrusion width = 0.42mm
; perimeters extrusion width = 0.45mm
; infill extrusion width = 0.45mm
; solid infill extrusion width = 0.45mm
; top infill extrusion width = 0.42mm
; first layer extrusion width = 0.50mm

; external perimeters extrusion width = 0.42mm
; perimeters extrusion width = 0.45mm
; infill extrusion width = 0.45mm
; solid infill extrusion width = 0.45mm
; top infill extrusion width = 0.42mm
; first layer extrusion width = 0.50mm

; external perimeters extrusion width = 0.42mm
; perimeters extrusion width = 0.45mm
; infill extrusion width = 0.45mm
; solid infill extrusion width = 0.45mm
; top infill extrusion width = 0.42mm
; first layer extrusion width = 0.50mm

; external perimeters extrusion width = 0.42mm
; perimeters extrusion width = 0.45mm
; infill extrusion width = 0.45mm
; solid infill extrusion width = 0.45mm
; top infill extrusion width = 0.42mm
; first layer extrusion width = 0.50mm

; EXECUTABLE_BLOCK_START
EXCLUDE_OBJECT_DEFINE NAME=Corps1.stl_id_0_copy_0 CENTER=122.999,120.767 POLYGON=[[117.5,120.698],[117.506,120.56],[117.519,120.423],[117.538,120.286],[117.563,120.15],[117.595,120.015],[117.632,119.882],[117.676,119.751],[117.726,119.623],[117.782,119.496],[117.843,119.372],[117.91,119.252],[117.983,119.134],[118.06,119.02],[118.143,118.909],[118.231,118.803],[118.324,118.701],[118.422,118.603],[118.524,118.509],[118.63,118.421],[118.74,118.337],[118.853,118.259],[118.97,118.186],[119.091,118.118],[119.214,118.056],[119.341,118],[119.469,117.949],[119.6,117.905],[119.733,117.867],[119.867,117.834],[120.003,117.808],[120.139,117.789],[120.277,117.775],[120.415,117.768],[120.553,117.768],[125.445,117.768],[125.583,117.768],[125.721,117.775],[125.859,117.789],[125.995,117.808],[126.131,117.834],[126.265,117.867],[126.398,117.905],[126.529,117.949],[126.657,118],[126.784,118.056],[126.907,118.118],[127.028,118.186],[127.145,118.259],[127.259,118.337],[127.369,118.421],[127.475,118.509],[127.576,118.603],[127.674,118.701],[127.767,118.803],[127.855,118.909],[127.938,119.02],[128.016,119.134],[128.088,119.252],[128.155,119.372],[128.216,119.496],[128.272,119.623],[128.322,119.751],[128.366,119.882],[128.403,120.015],[128.435,120.15],[128.46,120.286],[128.479,120.423],[128.492,120.56],[128.498,120.698],[128.498,120.836],[128.492,120.974],[128.479,121.112],[128.46,121.249],[128.435,121.384],[128.403,121.519],[128.366,121.652],[128.322,121.783],[128.272,121.912],[128.216,122.038],[128.155,122.162],[128.088,122.283],[128.016,122.4],[127.938,122.514],[127.855,122.625],[127.767,122.731],[127.674,122.834],[127.576,122.932],[127.475,123.025],[127.369,123.113],[127.259,123.197],[127.145,123.275],[127.028,123.349],[126.907,123.416],[126.784,123.478],[126.657,123.534],[126.529,123.585],[126.398,123.629],[126.265,123.668],[126.131,123.7],[125.995,123.726],[125.859,123.746],[125.721,123.759],[125.583,123.766],[125.445,123.767],[120.553,123.767],[120.415,123.766],[120.277,123.759],[120.139,123.746],[120.003,123.726],[119.867,123.7],[119.733,123.668],[119.6,123.629],[119.469,123.585],[119.341,123.534],[119.214,123.478],[119.091,123.416],[118.97,123.349],[118.853,123.275],[118.74,123.197],[118.63,123.113],[118.524,123.025],[118.422,122.932],[118.324,122.834],[118.231,122.731],[118.143,122.625],[118.06,122.514],[117.983,122.4],[117.91,122.283],[117.843,122.162],[117.782,122.038],[117.726,121.912],[117.676,121.783],[117.632,121.652],[117.595,121.519],[117.563,121.384],[117.538,121.249],[117.519,121.112],[117.506,120.974],[117.5,120.836],[117.5,120.698]]
EXCLUDE_OBJECT_DEFINE NAME=Corps1.stl_id_1_copy_0 CENTER=112.5,118.267 POLYGON=[[109.501,115.822],[109.501,115.683],[109.509,115.545],[109.522,115.408],[109.542,115.271],[109.568,115.135],[109.6,115.001],[109.638,114.868],[109.683,114.738],[109.733,114.609],[109.789,114.483],[109.851,114.359],[109.919,114.239],[109.992,114.122],[110.07,114.008],[110.154,113.898],[110.243,113.792],[110.336,113.69],[110.434,113.593],[110.536,113.5],[110.643,113.412],[110.753,113.329],[110.867,113.251],[110.985,113.178],[111.106,113.111],[111.229,113.05],[111.356,112.994],[111.485,112.945],[111.616,112.901],[111.749,112.863],[111.883,112.832],[112.019,112.806],[112.156,112.787],[112.293,112.775],[112.431,112.768],[112.569,112.768],[112.707,112.775],[112.845,112.787],[112.982,112.806],[113.118,112.832],[113.252,112.863],[113.385,112.901],[113.516,112.945],[113.645,112.994],[113.771,113.05],[113.895,113.111],[114.016,113.178],[114.133,113.251],[114.248,113.329],[114.358,113.412],[114.464,113.5],[114.567,113.593],[114.665,113.69],[114.758,113.792],[114.847,113.898],[114.93,114.008],[115.009,114.122],[115.082,114.239],[115.149,114.359],[115.211,114.483],[115.268,114.609],[115.318,114.738],[115.362,114.868],[115.401,115.001],[115.433,115.135],[115.459,115.271],[115.479,115.408],[115.492,115.545],[115.499,115.683],[115.5,115.822],[115.5,120.713],[115.499,120.852],[115.492,120.99],[115.479,121.127],[115.459,121.264],[115.433,121.399],[115.401,121.534],[115.362,121.667],[115.318,121.797],[115.268,121.926],[115.211,122.052],[115.149,122.176],[115.082,122.296],[115.009,122.413],[114.93,122.527],[114.847,122.637],[114.758,122.743],[114.665,122.845],[114.567,122.942],[114.464,123.035],[114.358,123.123],[114.248,123.206],[114.133,123.284],[114.016,123.356],[113.895,123.424],[113.771,123.485],[113.645,123.541],[113.516,123.59],[113.385,123.634],[113.252,123.672],[113.118,123.703],[112.982,123.729],[112.845,123.748],[112.707,123.76],[112.569,123.767],[112.431,123.767],[112.293,123.76],[112.156,123.748],[112.019,123.729],[111.883,123.703],[111.749,123.672],[111.616,123.634],[111.485,123.59],[111.356,123.541],[111.229,123.485],[111.106,123.424],[110.985,123.356],[110.867,123.284],[110.753,123.206],[110.643,123.123],[110.536,123.035],[110.434,122.942],[110.336,122.845],[110.243,122.743],[110.154,122.637],[110.07,122.527],[109.992,122.413],[109.919,122.296],[109.851,122.176],[109.789,122.052],[109.733,121.926],[109.683,121.797],[109.638,121.667],[109.6,121.534],[109.568,121.399],[109.542,121.264],[109.522,121.127],[109.509,120.99],[109.501,120.852],[109.501,120.713],[109.501,115.822]]
EXCLUDE_OBJECT_DEFINE NAME=Corps1.stl_id_2_copy_0 CENTER=104.501,118.267 POLYGON=[[101.502,115.822],[101.502,115.683],[101.51,115.545],[101.523,115.408],[101.543,115.271],[101.569,115.135],[101.601,115.001],[101.639,114.868],[101.684,114.738],[101.734,114.609],[101.79,114.483],[101.852,114.359],[101.92,114.239],[101.993,114.122],[102.071,114.008],[102.155,113.898],[102.244,113.792],[102.337,113.69],[102.435,113.593],[102.537,113.5],[102.644,113.412],[102.754,113.329],[102.868,113.251],[102.986,113.178],[103.107,113.111],[103.23,113.05],[103.357,112.994],[103.486,112.945],[103.617,112.901],[103.75,112.863],[103.884,112.832],[104.02,112.806],[104.157,112.787],[104.294,112.775],[104.432,112.768],[104.57,112.768],[104.708,112.775],[104.846,112.787],[104.983,112.806],[105.119,112.832],[105.253,112.863],[105.386,112.901],[105.517,112.945],[105.646,112.994],[105.772,113.05],[105.896,113.111],[106.017,113.178],[106.134,113.251],[106.249,113.329],[106.359,113.412],[106.465,113.5],[106.568,113.593],[106.666,113.69],[106.759,113.792],[106.848,113.898],[106.931,114.008],[107.01,114.122],[107.083,114.239],[107.15,114.359],[107.212,114.483],[107.269,114.609],[107.319,114.738],[107.363,114.868],[107.402,115.001],[107.434,115.135],[107.46,115.271],[107.48,115.408],[107.493,115.545],[107.5,115.683],[107.501,115.822],[107.501,120.713],[107.5,120.852],[107.493,120.99],[107.48,121.127],[107.46,121.264],[107.434,121.399],[107.402,121.534],[107.363,121.667],[107.319,121.797],[107.269,121.926],[107.212,122.052],[107.15,122.176],[107.083,122.296],[107.01,122.413],[106.931,122.527],[106.848,122.637],[106.759,122.743],[106.666,122.845],[106.568,122.942],[106.465,123.035],[106.359,123.123],[106.249,123.206],[106.134,123.284],[106.017,123.356],[105.896,123.424],[105.772,123.485],[105.646,123.541],[105.517,123.59],[105.386,123.634],[105.253,123.672],[105.119,123.703],[104.983,123.729],[104.846,123.748],[104.708,123.76],[104.57,123.767],[104.432,123.767],[104.294,123.76],[104.157,123.748],[104.02,123.729],[103.884,123.703],[103.75,123.672],[103.617,123.634],[103.486,123.59],[103.357,123.541],[103.23,123.485],[103.107,123.424],[102.986,123.356],[102.868,123.284],[102.754,123.206],[102.644,123.123],[102.537,123.035],[102.435,122.942],[102.337,122.845],[102.244,122.743],[102.155,122.637],[102.071,122.527],[101.993,122.413],[101.92,122.296],[101.852,122.176],[101.79,122.052],[101.734,121.926],[101.684,121.797],[101.639,121.667],[101.601,121.534],[101.569,121.399],[101.543,121.264],[101.523,121.127],[101.51,120.99],[101.502,120.852],[101.502,120.713],[101.502,115.822]]
EXCLUDE_OBJECT_DEFINE NAME=Corps1.stl_id_3_copy_0 CENTER=119.045,111 POLYGON=[[114.278,109.294],[114.279,109.156],[114.285,109.018],[114.298,108.881],[114.318,108.744],[114.343,108.608],[114.375,108.474],[114.413,108.341],[114.457,108.21],[114.508,108.081],[114.563,107.955],[114.625,107.831],[114.692,107.711],[114.765,107.593],[114.843,107.479],[114.927,107.369],[115.015,107.263],[115.108,107.161],[115.206,107.063],[115.308,106.97],[115.414,106.882],[115.524,106.798],[115.638,106.72],[115.756,106.647],[115.876,106.58],[116,106.518],[116.126,106.463],[116.255,106.412],[116.386,106.368],[116.519,106.33],[116.653,106.298],[116.789,106.273],[116.926,106.253],[117.063,106.24],[117.201,106.234],[117.339,106.233],[117.477,106.239],[117.615,106.252],[117.752,106.27],[117.888,106.295],[118.022,106.327],[118.155,106.364],[118.286,106.407],[118.415,106.457],[118.542,106.512],[118.666,106.573],[118.787,106.64],[118.905,106.712],[119.019,106.79],[119.129,106.872],[119.236,106.96],[119.339,107.053],[119.437,107.15],[122.896,110.609],[122.993,110.707],[123.086,110.81],[123.174,110.916],[123.256,111.027],[123.334,111.141],[123.406,111.259],[123.473,111.38],[123.534,111.504],[123.589,111.631],[123.639,111.76],[123.682,111.891],[123.719,112.024],[123.751,112.158],[123.776,112.294],[123.794,112.431],[123.807,112.569],[123.813,112.707],[123.812,112.845],[123.806,112.983],[123.793,113.12],[123.773,113.257],[123.747,113.393],[123.716,113.527],[123.678,113.66],[123.634,113.791],[123.583,113.92],[123.527,114.046],[123.466,114.17],[123.398,114.29],[123.326,114.408],[123.248,114.522],[123.164,114.632],[123.076,114.738],[122.983,114.84],[122.885,114.938],[122.783,115.031],[122.677,115.119],[122.567,115.203],[122.453,115.281],[122.335,115.353],[122.215,115.421],[122.091,115.482],[121.965,115.538],[121.836,115.589],[121.705,115.633],[121.572,115.671],[121.438,115.703],[121.302,115.728],[121.165,115.748],[121.028,115.761],[120.89,115.767],[120.752,115.768],[120.614,115.762],[120.476,115.749],[120.339,115.731],[120.203,115.706],[120.069,115.674],[119.936,115.637],[119.805,115.594],[119.676,115.544],[119.549,115.489],[119.425,115.428],[119.304,115.361],[119.186,115.289],[119.072,115.211],[118.961,115.129],[118.855,115.041],[118.752,114.948],[118.654,114.851],[115.195,111.392],[115.098,111.294],[115.005,111.191],[114.917,111.084],[114.835,110.974],[114.757,110.86],[114.685,110.742],[114.618,110.621],[114.557,110.497],[114.502,110.37],[114.452,110.241],[114.409,110.11],[114.372,109.977],[114.34,109.843],[114.315,109.707],[114.297,109.57],[114.284,109.432],[114.278,109.294]]
M73 P0 R7
;TYPE:Custom
M220 S100
G90 ; use absolute coordinates
M83 ; extruder relative mode
M104 S150 ; set temporary nozzle temp to prevent oozing during homing
M140 S70 ; set final bed temp
G4 S30 ; allow partial nozzle warmup
G28 ; home all axis and restore leveling
BED_MESH_CALIBRATE PROFILE=adaptive ADAPTIVE=1 ADAPTIVE_MARGIN=0
G1 Z25 F240
G1 X10.0 Y30 F3000
M104 S245 ; set final nozzle temp
M190 S70 ; wait for bed temp to stabilize
M109 S245 ; wait for nozzle temp to stabilize
M73 P1 R6
G1 Z0.28 F240
G92 E0 ; Move Z Axis up
G1 Z2.0 F5000 ; Move to start position
M73 P3 R6
G1 X5 Y30 Z0.28 F300 ; Draw the first line
G1 X5 Y200 Z0.28 F1500 E15 ; Move to side a little
G1 X5.4 Y200 Z0.28 F5000.0 ; Draw the second line
M73 P4 R6
G1 X5.4 Y50 Z0.28 F1500.0 E30 ; Reset Extruder
G92 E0 ; Move Z Axis up
G1 Z2.0 F3000
M117 Start Printing..
G90
G21
M83 ; use relative distances for extrusion
; filament start gcode
SET_PRESSURE_ADVANCE ADVANCE=0.076; Override pressure advance value
M106 S0
;LAYER_CHANGE
;Z:0.2
;HEIGHT:0.2
;BEFORE_LAYER_CHANGE
;0.2
G92 E0

;_SET_FAN_SPEED_CHANGING_LAYER
SET_VELOCITY_LIMIT ACCEL=1000
SET_VELOCITY_LIMIT SQUARE_CORNER_VELOCITY=7
; printing object Corps1.stl id:0 copy 0
M73 P6 R6
G1 E-.5 F1800
EXCLUDE_OBJECT_START NAME=Corps1.stl_id_0_copy_0
G1 Z.2 F24000
G1 X130.618 Y139.658
G1 Z.2
G1 E.5 F1800
;TYPE:Inner wall
;WIDTH:0.499999
G1 X130.553 Y139.796 E.0058
G1 X130.418 Y140.302 E.01988
G1 X130.382 Y140.851 E.02091
G1 X130.449 Y141.408 E.02132
G1 X130.642 Y141.894 E.01987
G1 X130.489 Y141.93 E.00595
G1 X130.149 Y142.307 E.0193
G1 X129.619 Y142.705 E.02521
G1 X129.134 Y142.916 E.02009
G1 X128.722 Y142.992 E.0159
G1 X128.234 Y142.975 E.01856
G1 X127.745 Y142.877 E.01897
G1 X127.271 Y142.639 E.02015
G1 X126.876 Y142.309 E.01955
G1 X126.691 Y142.062 E.01173
G1 X126.472 Y141.698 E.01613
G1 X126.289 Y141.13 E.0227
G1 X126.275 Y140.818 E.01187
G1 X126.3 Y140.395 E.0161
G1 X126.469 Y139.821 E.02272
G1 X126.745 Y139.375 E.01997
G1 X127.024 Y139.081 E.01537
G1 X127.525 Y138.761 E.02261
G1 X127.956 Y138.604 E.01742
G1 X128.539 Y138.528 E.02236
G1 X129.113 Y138.622 E.0221
G1 X129.607 Y138.829 E.02035
G1 X130.056 Y139.14 E.02077
G1 X130.499 Y139.612 E.02461
G1 X130.581 Y139.644 E.00333
G1 X131.213 Y139.352 F24000
;TYPE:Outer wall
;WIDTH:0.639418
G1 F1800
G1 X131.487 Y138.989 E.02256
;WIDTH:0.628664
G1 X131.794 Y138.695 E.02066
;WIDTH:0.621154
G1 X132.243 Y138.394 E.02604
G1 X132.728 Y138.196 E.02518
;WIDTH:0.617286
G1 X133.222 Y138.104 E.02401
;WIDTH:0.610896
G1 X133.706 Y138.095 E.02286
;WIDTH:0.622866
G1 X134.185 Y138.17 E.02339
;WIDTH:0.634088
G1 X134.765 Y138.404 E.03074
G1 X135.17 Y138.664 E.02364
;WIDTH:0.63436
G1 X135.604 Y139.107 E.0305
G1 X135.93 Y139.634 E.03047
;WIDTH:0.632814
G1 X136.127 Y140.238 E.03115
;WIDTH:0.613552
G1 X136.174 Y140.94 E.03341
G1 X136.086 Y141.459 E.02497
;WIDTH:0.607124
G1 X135.882 Y141.99 E.02668
;WIDTH:0.60976
G1 X135.593 Y142.441 E.02524
;WIDTH:0.622698
G1 X135.255 Y142.8 E.02374
G1 X134.834 Y143.097 E.02486
;WIDTH:0.620816
G1 X134.364 Y143.308 E.02477
;WIDTH:0.619258
G1 X133.773 Y143.435 E.02897
;WIDTH:0.61391
G1 X133.251 Y143.438 E.02474
;WIDTH:0.611442
G1 X132.696 Y143.321 E.02684
;WIDTH:0.612082
G1 X132.213 Y143.121 E.02476
;WIDTH:0.612818
G1 X131.797 Y142.839 E.02378
G1 X131.451 Y142.498 E.02305
;WIDTH:0.635188
G1 X131.23 Y142.203 E.01813
G1 E-.5
G1 Z.4 F24000
G1 X131.213 Y139.352 Z.4
G1 Z.2
G1 E.5 F1800
;WIDTH:0.639418
G1 X131.186 Y139.417 E.00351
;WIDTH:0.613205
G1 X131.159 Y139.483 E.00335
;WIDTH:0.586991
G1 X131.062 Y139.738 E.01233
;WIDTH:0.543495
G1 X130.965 Y139.992 E.01135
;WIDTH:0.499999
G1 X130.849 Y140.466 E.01854
G1 X130.839 Y140.979 E.01951
G1 X130.953 Y141.466 E.01901
;WIDTH:0.545062
G1 X131.045 Y141.712 E.01096
;WIDTH:0.590125
G1 X131.138 Y141.958 E.01195
;WIDTH:0.635188
G1 X131.23 Y142.203 E.01293
G1 X131.164 Y142.171 E.00363
;WIDTH:0.607781
G1 X131.097 Y142.139 E.00346
;WIDTH:0.580373
G1 X130.963 Y142.187 E.00638
;WIDTH:0.540186
G1 X130.829 Y142.236 E.0059
;WIDTH:0.499999
G1 X130.459 Y142.646 E.02099
G1 X129.85 Y143.103 E.02895
G1 X129.072 Y143.399 E.03162
G1 X128.553 Y143.466 E.0199
G1 X128.106 Y143.422 E.01707
G1 X127.577 Y143.304 E.02058
M73 P7 R6
G1 X127.019 Y143.023 E.02376
G1 X126.543 Y142.626 E.02357
G1 X126.169 Y142.128 E.02367
G1 X125.959 Y141.681 E.01876
G1 X125.835 Y141.198 E.01897
G1 X125.807 Y140.578 E.02357
