; HEADER_BLOCK_START
; generated by OrcaSlicer 2.0.0 on 2024-05-16 at 18:07:47
; total layer number: 25
; filament_density: 1.24
; filament_diameter: 1.75
; max_z_height: 5.00
; HEADER_BLOCK_END

; THUMBNAIL_BLOCK_START

;
; THUMBNAIL_BLOCK_END

; THUMBNAIL_BLOCK_START

;
; THUMBNAIL_BLOCK_END

; external perimeters extrusion width = 0.40mm
; perimeters extrusion width = 0.42mm
; infill extrusion width = 0.45mm
; solid infill extrusion width = 0.42mm
; top infill extrusion width = 0.40mm
; first layer extrusion width = 0.50mm

; EXECUTABLE_BLOCK_START
EXCLUDE_OBJECT_DEFINE NAME=Corps6.stl_id_0_copy_0 CENTER=110,110 POLYGON=[[37.5,76.5],[37.5329,75.8728],[37.6311,75.2525],[37.7937,74.6459],[38.0187,74.0596],[38.3038,73.5],[38.6459,72.9733],[39.0411,72.4852],[39.4852,72.0411],[39.9733,71.6459],[40.5,71.3038],[41.0596,71.0187],[41.6459,70.7937],[42.2525,70.6311],[42.8728,70.5329],[43.5,70.5],[176.5,70.5],[177.127,70.5329],[177.747,70.6311],[178.354,70.7937],[178.94,71.0187],[179.5,71.3038],[180.027,71.6459],[180.515,72.0411],[180.959,72.4852],[181.354,72.9733],[181.696,73.5],[181.981,74.0596],[182.206,74.6459],[182.369,75.2525],[182.467,75.8728],[182.5,76.5],[182.5,143.5],[182.467,144.127],[182.369,144.747],[182.206,145.354],[181.981,145.94],[181.696,146.5],[181.354,147.027],[180.959,147.515],[180.515,147.959],[180.027,148.354],[179.5,148.696],[178.94,148.981],[178.354,149.206],[177.747,149.369],[177.127,149.467],[176.5,149.5],[43.5,149.5],[42.8728,149.467],[42.2525,149.369],[41.6459,149.206],[41.0596,148.981],[40.5,148.696],[39.9733,148.354],[39.4852,147.959],[39.0411,147.515],[38.6459,147.027],[38.3038,146.5],[38.0187,145.94],[37.7937,145.354],[37.6311,144.747],[37.5329,144.127],[37.5,143.5],[37.5,76.5]]
M73 P0 R72
;TYPE:Custom
M220 S100
G90 ; use absolute coordinates
M83 ; extruder relative mode
M104 S150 ; set temporary nozzle temp to prevent oozing during homing
M140 S55 ; set final bed temp
G4 S30 ; allow partial nozzle warmup
G28 ; home all axis and restore leveling
G1 Z25 F240
G1 X10.0 Y30 F3000
M104 S210 ; set final nozzle temp
M190 S55 ; wait for bed temp to stabilize
M109 S210 ; wait for nozzle temp to stabilize
G1 Z0.28 F240
G92 E0 ; Move Z Axis up
G1 Z2.0 F5000 ; Move to start position
G1 X10 Y30 Z0.28 F300 ; Draw the first line
G1 X10 Y200 Z0.28 F1500 E15 ; Move to side a little
G1 X10.4 Y200 Z0.28 F5000.0 ; Draw the second line
G1 X10.4 Y50 Z0.28 F1500.0 E30 ; Reset Extruder
G92 E0 ; Move Z Axis up
G1 Z2.0 F3000
M117 Start Printing..
G90
G21
M83 ; use relative distances for extrusion
; filament start gcode
M106 S0
;LAYER_CHANGE
;Z:0.2
;HEIGHT:0.2
;BEFORE_LAYER_CHANGE
;0.2
G92 E0

M73 P0 R71
G1 E-.5 F2400
;_SET_FAN_SPEED_CHANGING_LAYER
SET_VELOCITY_LIMIT ACCEL=500 ACCEL_TO_DECEL=250
SET_VELOCITY_LIMIT SQUARE_CORNER_VELOCITY=7
G1 Z.2 F18000
G1 X47.177 Y88.707
G1 Z.2
G1 E.5 F2400
;TYPE:Skirt
;WIDTH:0.5
G1 F3000
G1 X48.602 Y88.073 E.05808
G1 X49.498 Y87.816 E.03474
G1 X50.417 Y87.655 E.03474
G1 X51.5 Y87.586 E.04042
G1 X184.513 Y87.586 E4.95421
G1 X186.203 Y87.753 E.06328
G1 X187.985 Y88.298 E.06939
G1 X189.614 Y89.202 E.06939
G1 X190.575 Y89.98 E.04608
G1 X191.798 Y91.386 E.06939
G1 X192.702 Y93.015 E.06939
G1 X193.247 Y94.797 E.06939
G1 X193.41 Y96.348 E.05808
G1 X193.377 Y164.28 E2.53022
G1 X193.247 Y165.203 E.03474
G1 X192.927 Y166.398 E.04608
G1 X192.578 Y167.263 E.03474
G1 X191.798 Y168.614 E.05808
G1 X190.575 Y170.02 E.06939
G1 X189.614 Y170.798 E.04608
G1 X188.823 Y171.293 E.03474
G1 X187.398 Y171.927 E.05808
G1 X186.502 Y172.184 E.03474
G1 X185.583 Y172.345 E.03474
G1 X184.5 Y172.414 E.04042
G1 X51.5 Y172.414 E4.95374
G1 X50.417 Y172.345 E.04042
G1 X48.892 Y172.021 E.05808
G1 X47.737 Y171.578 E.04608
G1 X46.913 Y171.14 E.03474
G1 X46.139 Y170.619 E.03475
G1 X44.981 Y169.575 E.05808
G1 X44.381 Y168.861 E.03474
G1 X43.707 Y167.823 E.04608
G1 X43.073 Y166.398 E.05808
G1 X42.816 Y165.502 E.03474
G1 X42.655 Y164.583 E.03474
G1 X42.586 Y163.5 E.04042
G1 X42.59 Y96.348 E2.50118
G1 X42.655 Y95.417 E.03474
G1 X42.979 Y93.892 E.05808
G1 X43.422 Y92.737 E.04608
G1 X43.86 Y91.913 E.03474
G1 X44.381 Y91.139 E.03474
G1 X45.425 Y89.981 E.05808
G1 X46.386 Y89.202 E.04608
G1 X47.143 Y88.729 E.03325
G1 X47.385 Y89.115 F18000
G1 F3000
G1 X48.765 Y88.5 E.0563
G1 X49.617 Y88.258 E.03296
G1 X50.488 Y88.106 E.03296
G1 X51.5 Y88.043 E.03775
G1 X184.513 Y88.044 E4.95421
G1 X186.132 Y88.204 E.06061
G1 X187.821 Y88.725 E.06583
G1 X189.365 Y89.585 E.06583
G1 X190.252 Y90.304 E.04252
G1 X191.415 Y91.635 E.06584
G1 X192.275 Y93.179 E.06583
G1 X192.796 Y94.868 E.06583
G1 X192.954 Y96.371 E.05631
G1 X192.921 Y164.256 E2.52843
G1 X192.796 Y165.132 E.03296
G1 X192.5 Y166.235 E.04252
G1 X192.171 Y167.056 E.03296
G1 X191.415 Y168.365 E.0563
G1 X190.252 Y169.696 E.06584
G1 X189.365 Y170.415 E.04252
G1 X188.615 Y170.885 E.03296
G1 X187.235 Y171.5 E.0563
G1 X186.383 Y171.742 E.03296
G1 X185.512 Y171.894 E.03296
G1 X184.5 Y171.957 E.03775
G1 X51.5 Y171.957 E4.95374
G1 X50.488 Y171.894 E.03775
M73 P1 R71
G1 X49.01 Y171.58 E.0563
G1 X48.179 Y171.275 E.03296
G1 X47.162 Y170.757 E.04252
G1 X46.427 Y170.264 E.03296
G1 X45.304 Y169.252 E.0563
G1 X44.736 Y168.573 E.03296
G1 X44.115 Y167.615 E.04252
G1 X43.5 Y166.235 E.0563
G1 X43.258 Y165.383 E.03296
G1 X43.106 Y164.512 E.03296
G1 X43.043 Y163.5 E.03775
G1 X43.046 Y96.371 E2.50028
G1 X43.108 Y95.476 E.03343
G1 X43.42 Y94.01 E.05583
G1 X43.829 Y92.944 E.04252
G1 X44.243 Y92.162 E.03296
G1 X44.736 Y91.427 E.03296
G1 X45.748 Y90.304 E.0563
G1 X46.635 Y89.585 E.04252
G1 X47.351 Y89.136 E.03147
; printing object Corps6.stl id:0 copy 0
G1 E-.35 F2400
;WIPE_START
G1 F3000
G1 X48.263 Y88.726 E-.15
;WIPE_END
EXCLUDE_OBJECT_START NAME=Corps6.stl_id_0_copy_0
G1 Z.4 F18000
G1 X188.041 Y167.433 Z.4
G1 Z.2
G1 E.5 F2400
;TYPE:Inner wall
;WIDTH:0.499999
G1 F1800
G1 X187.611 Y167.781 E.02063
G1 X187.146 Y168.083 E.02063
G1 X186.652 Y168.334 E.02063
G1 X186.135 Y168.533 E.02063
G1 X185.6 Y168.676 E.02063
G1 X185.053 Y168.763 E.02063
G1 X184.481 Y168.793 E.02132
G1 X51.519 Y168.793 E4.95236
G1 X50.947 Y168.763 E.02132
G1 X50.4 Y168.676 E.0206
G1 X49.854 Y168.529 E.0211
G1 X49.348 Y168.334 E.02019
G1 X48.854 Y168.083 E.02063
G1 X48.389 Y167.781 E.02063
G1 X47.959 Y167.433 E.02063
G1 X47.567 Y167.041 E.02063
G1 X47.219 Y166.611 E.02063
G1 X46.917 Y166.146 E.02063
G1 X46.666 Y165.652 E.02063
G1 X46.467 Y165.135 E.02063
G1 X46.324 Y164.6 E.02063
G1 X46.237 Y164.053 E.02063
G1 X46.207 Y163.481 E.02132
G1 X46.207 Y96.519 E2.49408
G1 X46.239 Y95.935 E.02179
G1 X46.324 Y95.4 E.02019
G1 X46.467 Y94.865 E.02063
G1 X46.666 Y94.348 E.02063
G1 X46.917 Y93.854 E.02063
G1 X47.219 Y93.389 E.02063
G1 X47.567 Y92.959 E.02063
G1 X47.959 Y92.567 E.02063
G1 X48.389 Y92.219 E.02063
G1 X48.854 Y91.917 E.02063
G1 X49.348 Y91.666 E.02063
G1 X49.865 Y91.467 E.02063
G1 X50.4 Y91.324 E.02063
G1 X50.947 Y91.237 E.02063
G1 X51.519 Y91.207 E.02132
G1 X184.494 Y91.208 E4.95282
G1 X185.053 Y91.237 E.02086
G1 X185.6 Y91.324 E.02063
G1 X186.135 Y91.467 E.02063
G1 X186.652 Y91.666 E.02063
G1 X187.146 Y91.917 E.02063
G1 X187.611 Y92.219 E.02063
G1 X188.041 Y92.567 E.02063
G1 X188.433 Y92.959 E.02063
G1 X188.781 Y93.389 E.02063
G1 X189.083 Y93.854 E.02063
G1 X189.334 Y94.348 E.02063
G1 X189.533 Y94.864 E.0206
G1 X189.678 Y95.411 E.0211
G1 X189.763 Y95.947 E.02019
G1 X189.793 Y96.637 E.02573
G1 X189.793 Y163.481 E2.4897
G1 X189.763 Y164.053 E.02132
G1 X189.676 Y164.6 E.02063
G1 X189.533 Y165.135 E.02063
G1 X189.334 Y165.652 E.02063
G1 X189.083 Y166.146 E.02063
G1 X188.781 Y166.611 E.02063
G1 X188.433 Y167.041 E.02063
G1 X188.069 Y167.404 E.01914
G1 X188.349 Y167.771 F18000
;TYPE:Outer wall
G1 F1800
G1 X188.347 Y167.773 E.00011
G1 X187.88 Y168.152 E.02242
G1 X187.375 Y168.479 E.02242
G1 X186.839 Y168.753 E.02242
G1 X186.277 Y168.968 E.02242
G1 X185.695 Y169.124 E.02242
G1 X185.101 Y169.218 E.02242
G1 X184.493 Y169.25 E.02266
G1 X51.507 Y169.25 E4.95325
G1 X50.899 Y169.218 E.02266
G1 X50.305 Y169.124 E.02241
G1 X49.712 Y168.964 E.02288
G1 X49.161 Y168.753 E.02196
G1 X48.625 Y168.479 E.02242
G1 X48.12 Y168.152 E.02242
G1 X47.653 Y167.773 E.02242
G1 X47.227 Y167.347 E.02242
G1 X46.848 Y166.88 E.02242
G1 X46.521 Y166.375 E.02242
G1 X46.247 Y165.839 E.02241
G1 X46.032 Y165.277 E.02242
G1 X45.876 Y164.695 E.02242
G1 X45.782 Y164.101 E.02242
G1 X45.75 Y163.493 E.02266
G1 X45.75 Y96.507 E2.49499
G1 X45.784 Y95.887 E.02313
G1 X45.876 Y95.305 E.02196
G1 X46.032 Y94.723 E.02242
G1 X46.247 Y94.161 E.02242
G1 X46.521 Y93.625 E.02242
G1 X46.848 Y93.12 E.02242
G1 X47.227 Y92.653 E.02242
G1 X47.653 Y92.227 E.02242
G1 X48.12 Y91.848 E.02242
G1 X48.625 Y91.521 E.02242
G1 X49.161 Y91.247 E.02242
G1 X49.723 Y91.032 E.02242
G1 X50.305 Y90.876 E.02242
G1 X50.899 Y90.782 E.02242
G1 X51.507 Y90.75 E.02266
G1 X184.506 Y90.751 E4.95372
G1 X185.101 Y90.782 E.02219
G1 X185.695 Y90.876 E.02241
G1 X186.277 Y91.032 E.02242
G1 X186.839 Y91.247 E.02242
G1 X187.375 Y91.521 E.02242
G1 X187.88 Y91.848 E.02242
G1 X188.347 Y92.227 E.02242
G1 X188.773 Y92.653 E.02242
G1 X189.152 Y93.12 E.02242
G1 X189.479 Y93.625 E.02241
G1 X189.753 Y94.161 E.02242
G1 X189.968 Y94.723 E.02241
G1 X190.126 Y95.317 E.02288
G1 X190.218 Y95.899 E.02196
G1 X190.25 Y96.637 E.02751
G1 X190.25 Y163.493 E2.49015
G1 X190.218 Y164.101 E.02266
G1 X190.124 Y164.695 E.02241
G1 X189.968 Y165.277 E.02242
G1 X189.753 Y165.839 E.02242
G1 X189.479 Y166.375 E.02242
G1 X189.152 Y166.88 E.02241
G1 X188.773 Y167.347 E.02242
G1 X188.378 Y167.742 E.02082
G1 E-.35 F2400
;WIPE_START
G1 F1800
G1 X188.347 Y167.773 E-.00644
G1 X187.88 Y168.152 E-.09027
G1 X187.582 Y168.345 E-.05329
;WIPE_END
G1 Z.4 F18000
G1 X177.24 Y96.341 Z.4
G1 Z.2
G1 E.5 F2400
;TYPE:Inner wall
G1 F1800
G1 X177.299 Y96.301 E.00267
G1 X177.7 Y96.126 E.01627
G1 X178.124 Y96.023 E.01626
G1 X178.551 Y95.996 E.01594
G1 X178.994 Y96.044 E.01658
G1 X179.413 Y96.167 E.01627
G1 X179.804 Y96.361 E.01626
G1 X180.156 Y96.62 E.01627
G1 X180.457 Y96.936 E.01627
G1 X180.755 Y97.419 E.02115
G1 X180.903 Y97.807 E.01547
G1 X180.975 Y98.116 E.01179
G1 X181.005 Y98.56 E.01658
G1 X180.956 Y98.994 E.01627
G1 X180.833 Y99.413 E.01626
G1 X180.639 Y99.804 E.01627
G1 X180.38 Y100.156 E.01627
G1 X180.064 Y100.457 E.01627
G1 X179.701 Y100.699 E.01627
G1 X179.3 Y100.874 E.01627
G1 X178.876 Y100.977 E.01627
G1 X178.44 Y101.005 E.01627
G1 X178.006 Y100.956 E.01626
G1 X177.587 Y100.833 E.01626
G1 X177.196 Y100.639 E.01627
G1 X176.844 Y100.38 E.01627
G1 X176.543 Y100.064 E.01627
G1 X176.301 Y99.701 E.01627
G1 X176.118 Y99.27 E.01743
G1 X176.023 Y98.876 E.01509
G1 X175.995 Y98.44 E.01627
G1 X176.044 Y98.006 E.01626
G1 X176.167 Y97.587 E.01626
G1 X176.361 Y97.196 E.01627
G1 X176.62 Y96.844 E.01627
G1 X176.936 Y96.543 E.01627
G1 X177.206 Y96.363 E.01211
G1 X177.49 Y96.717 F18000
;TYPE:Outer wall
G1 F1800
G1 X177.493 Y96.715 E.00014
G1 X177.818 Y96.568 E.01331
G1 X178.164 Y96.478 E.0133
G1 X178.513 Y96.451 E.01304
G1 X178.875 Y96.485 E.01356
G1 X179.22 Y96.581 E.01331
G1 X179.542 Y96.735 E.0133
G1 X179.832 Y96.943 E.01331
G1 X180.083 Y97.198 E.0133
G1 X180.381 Y97.7 E.02174
G1 X180.52 Y98.157 E.0178
G1 X180.549 Y98.52 E.01356
G1 X180.515 Y98.875 E.01331
G1 X180.419 Y99.22 E.0133
G1 X180.265 Y99.542 E.01331
G1 X180.057 Y99.832 E.01331
G1 X179.802 Y100.083 E.0133
G1 X179.507 Y100.285 E.01331
G1 X179.182 Y100.432 E.0133
G1 X178.836 Y100.522 E.0133
G1 X178.48 Y100.549 E.01331
G1 X178.125 Y100.515 E.0133
G1 X177.78 Y100.419 E.0133
G1 X177.458 Y100.265 E.01331
G1 X177.168 Y100.057 E.01331
G1 X176.917 Y99.802 E.0133
G1 X176.715 Y99.507 E.0133
G1 X176.559 Y99.152 E.01447
G1 X176.478 Y98.836 E.01213
G1 X176.451 Y98.48 E.01331
G1 X176.485 Y98.125 E.0133
G1 X176.581 Y97.78 E.0133
G1 X176.735 Y97.458 E.01331
G1 X176.943 Y97.168 E.01331
G1 X177.198 Y96.917 E.0133
G1 X177.457 Y96.74 E.01168
G1 E-.35 F2400
;WIPE_START
G1 F1800
G1 X177.493 Y96.715 E-.00655
G1 X177.818 Y96.568 E-.05358
G1 X178.164 Y96.478 E-.05358
G1 X178.405 Y96.46 E-.03629
;WIPE_END
G1 Z.4 F18000
G1 X151.559 Y96.612 Z.4
G1 Z.2
G1 E.5 F2400
;TYPE:Inner wall
G1 F1800
G1 X152.025 Y96.53 E.01763
G1 X153.027 Y96.53 E.03732
G1 X153.438 Y96.586 E.01545
G1 X153.882 Y96.76 E.01776
G1 X154.337 Y97.143 E.02216
G1 X154.633 Y97.66 E.02217
G1 X154.733 Y98.191 E.02014
G1 X154.733 Y161.238 E2.34824
G1 X154.677 Y161.647 E.0154
G1 X154.511 Y162.078 E.0172
G1 X154.128 Y162.541 E.02236
G1 X153.612 Y162.84 E.02224
G1 X153.027 Y162.944 E.02212
G1 X152.025 Y162.944 E.03732
G1 X151.614 Y162.887 E.01545
G1 X151.17 Y162.714 E.01776
G1 X150.756 Y162.376 E.0199
G1 X150.472 Y161.929 E.01971
G1 X150.391 Y161.705 E.00886
G1 X150.319 Y161.238 E.01762
G1 X150.319 Y98.236 E2.34658
G1 X150.376 Y97.825 E.01545
G1 X150.568 Y97.351 E.01904
G1 X150.926 Y96.931 E.02055
G1 X151.44 Y96.633 E.02215
G1 X151.52 Y96.619 E.003
G1 X151.629 Y97.056 F18000
;TYPE:Outer wall
G1 F1800
G1 X151.637 Y97.052 E.00035
G1 X152.025 Y96.987 E.01466
G1 X153.027 Y96.987 E.03732
G1 X153.282 Y97.016 E.00955
G1 X153.684 Y97.177 E.01613
G1 X154.007 Y97.466 E.01613
G1 X154.211 Y97.848 E.01613
G1 X154.276 Y98.236 E.01466
G1 X154.276 Y161.238 E2.34658
G1 X154.247 Y161.492 E.00953
M73 P1 R70
G1 X154.091 Y161.885 E.01577
G1 X153.797 Y162.217 E.0165
G1 X153.415 Y162.422 E.01613
G1 X153.027 Y162.487 E.01466
G1 X152.025 Y162.487 E.03732
G1 X151.771 Y162.457 E.00955
G1 X151.369 Y162.296 E.01613
G1 X151.046 Y162.008 E.01613
G1 X150.841 Y161.626 E.01613
G1 X150.776 Y161.238 E.01466
G1 X150.776 Y98.236 E2.34658
G1 X150.805 Y97.981 E.00955
M73 P2 R70
G1 X150.966 Y97.579 E.01613
G1 X151.255 Y97.256 E.01613
G1 X151.593 Y97.075 E.01429
G1 E-.35 F2400
;WIPE_START
G1 F1800
G1 X151.637 Y97.052 E-.00741
G1 X152.025 Y96.987 E-.05904
G1 X152.582 Y96.987 E-.08355
;WIPE_END
G1 Z.4 F18000
G1 X141.531 Y161.785 Z.4
G1 Z.2
G1 E.5 F2400
;TYPE:Inner wall
G1 F1800
G1 X141.502 Y161.705 E.00314
G1 X141.43 Y161.238 E.01762
G1 X141.43 Y98.236 E2.34658
G1 X141.487 Y97.825 E.01545
G1 X141.727 Y97.285 E.022
G1 X142.037 Y96.931 E.01751
G1 X142.552 Y96.633 E.02215
G1 X143.136 Y96.53 E.02212
G1 X144.138 Y96.53 E.03732
G1 X144.549 Y96.586 E.01545
G1 X144.993 Y96.759 E.01773
G1 X145.427 Y97.12 E.02102
G1 X145.709 Y97.578 E.02005
G1 X145.844 Y98.162 E.02231
G1 X145.844 Y161.238 E2.34934
G1 X145.788 Y161.649 E.01545
G1 X145.599 Y162.118 E.01883
G1 X145.225 Y162.552 E.02134
G1 X144.723 Y162.84 E.02157
G1 X144.138 Y162.944 E.02212
G1 X143.136 Y162.944 E.03732
G1 X142.725 Y162.887 E.01545
G1 X142.281 Y162.714 E.01776
G1 X141.867 Y162.376 E.0199
G1 X141.584 Y161.929 E.01971
G1 X141.545 Y161.822 E.00423
G1 X141.957 Y161.634 F18000
;TYPE:Outer wall
G1 F1800
G1 X141.952 Y161.626 E.00034
G1 X141.887 Y161.238 E.01466
G1 X141.887 Y98.236 E2.34658
G1 X141.917 Y97.981 E.00955
G1 X142.038 Y97.648 E.01321
G1 X142.366 Y97.256 E.01904
G1 X142.748 Y97.052 E.01613
G1 X143.136 Y96.987 E.01466
G1 X144.138 Y96.987 E.03732
G1 X144.393 Y97.016 E.00955
G1 X144.795 Y97.177 E.01611
G1 X145.111 Y97.458 E.01577
G1 X145.322 Y97.848 E.0165
G1 X145.387 Y98.236 E.01466
G1 X145.387 Y161.238 E2.34658
G1 X145.358 Y161.492 E.00955
G1 X145.197 Y161.894 E.01613
G1 X144.908 Y162.217 E.01613
G1 X144.526 Y162.422 E.01613
G1 X144.138 Y162.487 E.01466
G1 X143.136 Y162.487 E.03732
G1 X142.882 Y162.457 E.00955
G1 X142.48 Y162.296 E.01613
G1 X142.157 Y162.008 E.01613
G1 X141.975 Y161.669 E.0143
G1 E-.35 F2400
;WIPE_START
G1 F1800
G1 X141.952 Y161.626 E-.00736
G1 X141.887 Y161.238 E-.05904
G1 X141.887 Y160.68 E-.0836
;WIPE_END
G1 Z.4 F18000
G1 X105.976 Y161.785 Z.4
G1 Z.2
G1 E.5 F2400
;TYPE:Inner wall
G1 F1800
G1 X105.947 Y161.705 E.00314
G1 X105.875 Y161.238 E.01762
G1 X105.875 Y98.236 E2.34658
G1 X105.931 Y97.825 E.01545
G1 X106.123 Y97.351 E.01904
G1 X106.481 Y96.931 E.02055
G1 X106.996 Y96.633 E.02215
G1 X107.581 Y96.53 E.02212
G1 X108.583 Y96.53 E.03732
G1 X108.994 Y96.586 E.01545
G1 X109.437 Y96.759 E.01773
G1 X109.872 Y97.12 E.02102
G1 X110.154 Y97.578 E.02005
G1 X110.289 Y98.162 E.02231
G1 X110.289 Y161.238 E2.34934
G1 X110.232 Y161.649 E.01545
G1 X110.043 Y162.118 E.01883
G1 X109.67 Y162.552 E.02134
G1 X109.167 Y162.84 E.02157
G1 X108.583 Y162.944 E.02212
