; HEADER_BLOCK_START
; generated by OrcaSlicer 2.0.0 on 2024-05-26 at 15:25:53
; total layer number: 50
; filament_density: 1.27
; filament_diameter: 1.75
; max_z_height: 10.00
; HEADER_BLOCK_END

; THUMBNAIL_BLOCK_START

;
; THUMBNAIL_BLOCK_END

; THUMBNAIL_BLOCK_START

;
; THUMBNAIL_BLOCK_END

; external perimeters extrusion width = 0.40mm
; perimeters extrusion width = 0.42mm
; infill extrusion width = 0.45mm
; solid infill extrusion width = 0.42mm
; top infill extrusion width = 0.40mm
; first layer extrusion width = 0.50mm

; external perimeters extrusion width = 0.40mm
; perimeters extrusion width = 0.42mm
; infill extrusion width = 0.45mm
; solid infill extrusion width = 0.42mm
; top infill extrusion width = 0.40mm
; first layer extrusion width = 0.50mm

; EXECUTABLE_BLOCK_START
EXCLUDE_OBJECT_DEFINE NAME=Corps1.stl_id_0_copy_0 CENTER=115,130 POLYGON=[[92,117],[92.0102,116.858],[92.0405,116.718],[92.0904,116.585],[92.1588,116.459],[92.2443,116.345],[92.3452,116.244],[92.4594,116.159],[92.5846,116.09],[92.7183,116.041],[92.8577,116.01],[93,116],[124,116],[124.551,116.011],[125.1,116.043],[125.649,116.097],[126.194,116.173],[126.736,116.27],[127.274,116.388],[127.807,116.528],[128.334,116.688],[128.854,116.868],[129.367,117.07],[129.871,117.291],[130.367,117.531],[130.852,117.791],[131.327,118.07],[131.79,118.368],[132.242,118.683],[132.681,119.016],[133.106,119.366],[133.517,119.732],[133.914,120.115],[134.295,120.512],[134.66,120.924],[135.009,121.351],[135.34,121.79],[135.654,122.243],[135.951,122.707],[136.228,123.183],[136.487,123.669],[136.726,124.165],[136.946,124.67],[137.145,125.183],[137.325,125.704],[137.483,126.232],[137.621,126.765],[137.738,127.303],[137.833,127.845],[137.907,128.391],[137.96,128.939],[137.991,129.489],[138,130.04],[137.988,130.591],[137.954,131.14],[137.898,131.688],[137.821,132.233],[137.722,132.775],[137.602,133.313],[137.462,133.845],[137.3,134.372],[137.118,134.891],[136.915,135.404],[136.693,135.907],[136.45,136.402],[136.189,136.887],[135.909,137.361],[135.61,137.824],[135.293,138.274],[134.959,138.712],[134.608,139.136],[134.24,139.546],[133.857,139.942],[133.458,140.322],[133.045,140.686],[132.618,141.033],[132.177,141.364],[131.724,141.676],[131.259,141.971],[130.782,142.247],[130.295,142.505],[129.799,142.743],[129.293,142.961],[128.779,143.159],[128.258,143.337],[127.73,143.494],[127.196,143.63],[126.658,143.745],[126.115,143.839],[125.569,143.912],[125.021,143.963],[124.471,143.992],[123.92,144],[123.37,143.986],[122.82,143.95],[122.272,143.893],[121.727,143.814],[121.186,143.714],[120.648,143.593],[120.116,143.451],[92.7183,135.959],[92.5846,135.91],[92.4594,135.841],[92.3452,135.756],[92.2443,135.655],[92.1588,135.541],[92.0904,135.415],[92.0405,135.282],[92.0102,135.142],[92,135],[92,117]]
EXCLUDE_OBJECT_DEFINE NAME=Corps1.stl_id_1_copy_0 CENTER=115,100 POLYGON=[[92,87.0002],[92.0102,86.8579],[92.0405,86.7185],[92.0904,86.5848],[92.1588,86.4595],[92.2443,86.3453],[92.3452,86.2444],[92.4594,86.1589],[92.5846,86.0906],[92.7183,86.0407],[92.8577,86.0104],[93,86.0002],[124,86.0002],[124.551,86.011],[125.1,86.0435],[125.649,86.0976],[126.194,86.1732],[126.736,86.2702],[127.274,86.3884],[127.807,86.5277],[128.334,86.6879],[128.854,86.8686],[129.367,87.0697],[129.871,87.2908],[130.367,87.5315],[130.852,87.7916],[131.327,88.0705],[131.79,88.3679],[132.242,88.6833],[132.681,89.0163],[133.106,89.3662],[133.517,89.7326],[133.914,90.1148],[134.295,90.5124],[134.66,90.9246],[135.009,91.3509],[135.34,91.7906],[135.654,92.243],[135.951,92.7073],[136.228,93.183],[136.487,93.6692],[136.726,94.1652],[136.946,94.6703],[137.145,95.1836],[137.325,95.7043],[137.483,96.2317],[137.621,96.765],[137.738,97.3032],[137.833,97.8456],[137.907,98.3913],[137.96,98.9396],[137.991,99.4894],[138,100.04],[137.988,100.591],[137.954,101.14],[137.898,101.688],[137.821,102.234],[137.722,102.775],[137.602,103.313],[137.462,103.845],[137.3,104.372],[137.118,104.892],[136.915,105.404],[136.693,105.908],[136.45,106.402],[136.189,106.887],[135.909,107.361],[135.61,107.824],[135.293,108.274],[134.959,108.712],[134.608,109.136],[134.24,109.547],[133.857,109.942],[133.458,110.322],[133.045,110.686],[132.618,111.033],[132.177,111.364],[131.724,111.677],[131.259,111.971],[130.782,112.248],[130.295,112.505],[129.799,112.743],[129.293,112.961],[128.779,113.159],[128.258,113.337],[127.73,113.494],[127.196,113.63],[126.658,113.746],[126.115,113.839],[125.569,113.912],[125.021,113.963],[124.471,113.992],[123.92,114],[123.37,113.986],[122.82,113.95],[122.272,113.893],[121.727,113.814],[121.186,113.714],[120.648,113.593],[120.116,113.451],[92.7183,105.96],[92.5846,105.91],[92.4594,105.841],[92.3452,105.756],[92.2443,105.655],[92.1588,105.541],[92.0904,105.416],[92.0405,105.282],[92.0102,105.143],[92,105],[92,87.0002]]
M73 P0 R23
;TYPE:Custom
M220 S100
G90 ; use absolute coordinates
M83 ; extruder relative mode
M104 S150 ; set temporary nozzle temp to prevent oozing during homing
M140 S70 ; set final bed temp
G4 S30 ; allow partial nozzle warmup
G28 ; home all axis and restore leveling
G1 Z25 F240
G1 X10.0 Y30 F3000
M104 S245 ; set final nozzle temp
M190 S70 ; wait for bed temp to stabilize
M109 S245 ; wait for nozzle temp to stabilize
G1 Z0.28 F240
G92 E0 ; Move Z Axis up
G1 Z2.0 F5000 ; Move to start position
G1 X5 Y30 Z0.28 F300 ; Draw the first line
G1 X5 Y200 Z0.28 F1500 E15 ; Move to side a little
M73 P1 R23
G1 X5.4 Y200 Z0.28 F5000.0 ; Draw the second line
G1 X5.4 Y50 Z0.28 F1500.0 E30 ; Reset Extruder
G92 E0 ; Move Z Axis up
G1 Z2.0 F3000
M117 Start Printing..
G90
G21
M83 ; use relative distances for extrusion
; filament start gcode
M106 S0
;LAYER_CHANGE
;Z:0.2
;HEIGHT:0.2
;BEFORE_LAYER_CHANGE
;0.2
G92 E0

G1 E-.5 F2400
;_SET_FAN_SPEED_CHANGING_LAYER
SET_VELOCITY_LIMIT ACCEL=500 ACCEL_TO_DECEL=250
SET_VELOCITY_LIMIT SQUARE_CORNER_VELOCITY=7
; printing object Corps1.stl id:0 copy 0
EXCLUDE_OBJECT_START NAME=Corps1.stl_id_0_copy_0
G1 Z.2 F18000
G1 X102.388 Y152.324
G1 Z.2
M73 P2 R23
G1 E.5 F2400
;TYPE:Inner wall
;WIDTH:0.499999
G1 F1800
G1 X102.426 Y152.413 E.00347
G1 X103.629 Y154.052 E.07343
G1 X104.209 Y154.917 E.0376
G1 X104.369 Y155.232 E.01276
G1 X103.338 Y155.291 E.0373
G1 X101.119 Y155.293 E.08011
G1 X100.891 Y155.253 E.00833
G1 X100.76 Y155.154 E.00594
G1 X100.707 Y154.949 E.00764
G1 X100.707 Y137.121 E.6437
G1 X100.749 Y136.886 E.00864
G1 X100.846 Y136.76 E.00573
G1 X101.051 Y136.707 E.00764
G1 X131.992 Y136.707 E1.11715
G1 X133.052 Y136.749 E.03831
G1 X133.558 Y136.799 E.01838
G1 X134.598 Y136.964 E.038
G1 X135.614 Y137.208 E.03775
G1 X136.609 Y137.532 E.03775
G1 X137.574 Y137.933 E.03775
G1 X138.506 Y138.408 E.03775
G1 X139.397 Y138.956 E.03775
G1 X140.242 Y139.571 E.03775
G1 X141.036 Y140.251 E.03775
G1 X141.774 Y140.992 E.03775
G1 X142.452 Y141.788 E.03775
G1 X143.065 Y142.635 E.03775
G1 X143.61 Y143.527 E.03775
G1 X144.083 Y144.46 E.03775
G1 X144.481 Y145.427 E.03775
G1 X144.802 Y146.422 E.03775
G1 X145.048 Y147.47 E.03888
G1 X145.207 Y148.504 E.03775
G1 X145.284 Y149.552 E.03794
G1 X145.281 Y150.568 E.03668
G1 X145.249 Y151.076 E.01838
G1 X145.122 Y152.121 E.03801
G1 X144.915 Y153.145 E.03775
G1 X144.628 Y154.151 E.03775
G1 X144.262 Y155.13 E.03775
G1 X143.821 Y156.078 E.03775
G1 X143.307 Y156.989 E.03775
G1 X142.723 Y157.856 E.03775
G1 X142.072 Y158.674 E.03775
G1 X141.359 Y159.439 E.03775
G1 X140.588 Y160.146 E.03775
G1 X139.764 Y160.789 E.03775
G1 X138.892 Y161.366 E.03775
G1 X137.977 Y161.873 E.03775
G1 X137.025 Y162.306 E.03775
G1 X136.043 Y162.663 E.03775
G1 X135.035 Y162.941 E.03775
G1 X134.008 Y163.14 E.03775
G1 X132.969 Y163.257 E.03775
G1 X131.917 Y163.292 E.038
G1 X131.408 Y163.279 E.01838
G1 X130.36 Y163.191 E.038
G1 X129.328 Y163.021 E.03775
G1 X128.313 Y162.771 E.03775
G1 X127.32 Y162.441 E.03775
G1 X126.357 Y162.035 E.03775
G1 X125.428 Y161.554 E.03775
G1 X124.54 Y161.002 E.03775
G1 X123.699 Y160.382 E.03775
G1 X122.908 Y159.697 E.03775
G1 X122.174 Y158.952 E.03775
G1 X121.501 Y158.152 E.03775
G1 X120.893 Y157.302 E.03775
G1 X120.353 Y156.406 E.03775
G1 X119.886 Y155.471 E.03775
G1 X119.493 Y154.502 E.03775
G1 X119.178 Y153.505 E.03775
G1 X118.942 Y152.486 E.03775
G1 X118.786 Y151.445 E.038
G1 X118.74 Y150.933 E.01858
G1 X118.708 Y149.886 E.03781
G1 X118.758 Y148.842 E.03775
G1 X118.89 Y147.805 E.03775
G1 X119.103 Y146.781 E.03775
G1 X119.398 Y145.772 E.03795
G1 X119.77 Y144.793 E.03781
G1 X119.988 Y144.306 E.01927
G1 X120.046 Y144.078 E.00851
G1 X120.092 Y143.473 E.0219
G1 X119.984 Y142.338 E.04118
G1 X119.793 Y141.666 E.02522
G1 X119.495 Y140.997 E.02643
G1 X119.147 Y140.431 E.024
G1 X118.704 Y139.891 E.02522
G1 X118.191 Y139.418 E.02522
G1 X117.617 Y139.018 E.02522
G1 X116.995 Y138.701 E.02522
G1 X116.335 Y138.472 E.02522
G1 X115.65 Y138.336 E.02522
G1 X115.001 Y138.293 E.0235
G1 X109.979 Y138.293 E.18131
G1 X109.115 Y138.344 E.03124
G1 X108.261 Y138.492 E.03131
G1 X107.105 Y138.849 E.04369
G1 X106.282 Y139.24 E.03291
G1 X105.259 Y139.899 E.04393
G1 X104.315 Y140.753 E.04596
G1 X103.528 Y141.744 E.0457
G1 X103.072 Y142.522 E.03255
G1 X102.723 Y143.307 E.03102
G1 X102.379 Y144.461 E.04348
G1 X102.293 Y144.998 E.01962
G1 X102.293 Y152.101 E.25647
G1 X102.372 Y152.287 E.00731
G1 X102.791 Y152.133 F18000
;TYPE:Outer wall
G1 F1800
G1 X102.794 Y152.142 E.00035
G1 X104.003 Y153.79 E.07378
G1 X104.612 Y154.698 E.03947
G1 X104.929 Y155.327 E.02546
G1 X104.924 Y155.53 E.00731
G1 X104.789 Y155.609 E.00566
G1 X104.29 Y155.706 E.01834
G1 X103.348 Y155.748 E.03406
G1 X101.119 Y155.75 E.08047
G1 X100.683 Y155.676 E.01598
G1 X100.511 Y155.565 E.0074
G1 X100.33 Y155.313 E.0112
G1 X100.25 Y154.982 E.01229
G1 X100.25 Y137.121 E.64488
G1 X100.327 Y136.679 E.01622
G1 X100.435 Y136.511 E.00722
G1 X100.687 Y136.33 E.01119
G1 X101.018 Y136.25 E.0123
G1 X132.001 Y136.25 E1.11866
G1 X133.083 Y136.293 E.03912
M73 P2 R22
G1 X133.617 Y136.345 E.01935
G1 X134.687 Y136.515 E.03914
G1 X135.739 Y136.768 E.03905
G1 X136.767 Y137.103 E.03905
G1 X137.766 Y137.518 E.03905
G1 X138.73 Y138.01 E.03905
G1 X139.651 Y138.576 E.03905
G1 X140.526 Y139.212 E.03905
G1 X141.347 Y139.916 E.03905
G1 X142.111 Y140.682 E.03905
G1 X142.812 Y141.505 E.03905
G1 X143.446 Y142.381 E.03905
G1 X144.01 Y143.305 E.03905
G1 X144.499 Y144.269 E.03905
G1 X144.91 Y145.269 E.03905
G1 X145.242 Y146.299 E.03905
G1 X145.5 Y147.4 E.04083
G1 X145.662 Y148.469 E.03905
G1 X145.741 Y149.553 E.03923
G1 X145.738 Y150.582 E.03717
G1 X145.704 Y151.117 E.01935
G1 X145.574 Y152.194 E.03914
G1 X145.359 Y153.254 E.03905
G1 X145.062 Y154.294 E.03905
G1 X144.684 Y155.307 E.03905
G1 X144.228 Y156.288 E.03905
G1 X143.696 Y157.229 E.03905
G1 X143.092 Y158.126 E.03905
G1 X142.418 Y158.973 E.03905
G1 X141.681 Y159.764 E.03905
G1 X140.884 Y160.495 E.03905
G1 X140.031 Y161.161 E.03905
G1 X139.129 Y161.757 E.03905
G1 X138.183 Y162.281 E.03905
G1 X137.198 Y162.729 E.03905
G1 X136.182 Y163.098 E.03905
G1 X135.139 Y163.387 E.03905
G1 X134.077 Y163.592 E.03905
G1 X133.003 Y163.713 E.03905
G1 X131.919 Y163.75 E.03914
G1 X131.383 Y163.736 E.01935
G1 X130.303 Y163.645 E.03914
G1 X129.236 Y163.469 E.03905
G1 X128.186 Y163.21 E.03905
G1 X127.159 Y162.87 E.03905
G1 X126.163 Y162.449 E.03905
G1 X125.202 Y161.952 E.03905
G1 X124.284 Y161.381 E.03905
G1 X123.413 Y160.739 E.03905
G1 X122.596 Y160.031 E.03905
G1 X121.836 Y159.26 E.03905
G1 X121.14 Y158.433 E.03905
G1 X120.511 Y157.553 E.03905
G1 X119.952 Y156.627 E.03905
G1 X119.469 Y155.659 E.03905
G1 X119.063 Y154.657 E.03905
G1 X118.737 Y153.626 E.03905
G1 X118.493 Y152.572 E.03905
G1 X118.332 Y151.5 E.03914
G1 X118.284 Y150.96 E.01955
G1 X118.251 Y149.882 E.03894
G1 X118.302 Y148.802 E.03905
G1 X118.439 Y147.729 E.03905
G1 X118.659 Y146.67 E.03905
G1 X118.982 Y145.581 E.04102
G1 X119.362 Y144.585 E.0385
G1 X119.59 Y144.043 E.02122
G1 X119.636 Y143.399 E.02331
G1 X119.543 Y142.458 E.03414
G1 X119.373 Y141.846 E.02296
G1 X119.104 Y141.233 E.02417
G1 X118.791 Y140.718 E.02174
G1 X118.391 Y140.224 E.02296
G1 X117.926 Y139.79 E.02296
G1 X117.406 Y139.424 E.02296
G1 X116.841 Y139.132 E.02296
G1 X116.242 Y138.92 E.02296
G1 X115.619 Y138.792 E.02296
G1 X115.001 Y138.75 E.02237
G1 X109.993 Y138.75 E.18081
G1 X109.19 Y138.795 E.02905
G1 X108.396 Y138.928 E.02906
G1 X107.272 Y139.276 E.04249
G1 X106.529 Y139.624 E.02962
G1 X105.538 Y140.263 E.04258
G1 X104.65 Y141.067 E.04326
G1 X103.906 Y142.003 E.04316
G1 X103.489 Y142.711 E.02968
G1 X103.161 Y143.438 E.02878
G1 X102.829 Y144.55 E.0419
G1 X102.75 Y144.998 E.01642
G1 X102.75 Y152.007 E.25307
G1 X102.779 Y152.095 E.00334
G1 E-.35 F2400
;WIPE_START
G1 F1800
G1 X102.794 Y152.142 E-.00746
G1 X103.356 Y152.908 E-.14254
;WIPE_END
G1 Z.4 F18000
G1 X120.926 Y146.236 Z.4
G1 Z.2
G1 E.5 F2400
;TYPE:Inner wall
G1 F1800
G1 X121.112 Y145.7 E.02051
G1 X121.442 Y144.96 E.02924
G1 X121.942 Y144.057 E.03729
G1 X122.324 Y143.413 E.02701
G1 X122.731 Y142.865 E.02465
G1 X123.246 Y142.243 E.02915
G1 X123.681 Y141.762 E.0234
G1 X124.812 Y140.761 E.05455
G1 X125.675 Y140.149 E.0382
G1 X126.577 Y139.625 E.03766
G1 X127.522 Y139.184 E.03766
G1 X128.503 Y138.828 E.03766
G1 X129.511 Y138.561 E.03766
G1 X130.539 Y138.385 E.03766
G1 X131.578 Y138.301 E.03766
G1 X132.621 Y138.31 E.03766
G1 X133.377 Y138.383 E.02741
G1 X134.272 Y138.539 E.0328
G1 X135.174 Y138.733 E.03333
G1 X136.081 Y139.032 E.03446
G1 X136.921 Y139.386 E.03293
G1 X137.732 Y139.804 E.03293
G1 X138.508 Y140.282 E.03292
G1 X138.941 Y140.573 E.01884
G1 X139.732 Y141.211 E.03669
G1 X140.616 Y142.098 E.0452
G1 X141.198 Y142.776 E.03227
G1 X141.519 Y143.186 E.01881
G1 X142.057 Y144.008 E.03545
G1 X142.55 Y144.927 E.03766
G1 X142.96 Y145.886 E.03766
G1 X143.406 Y147.369 E.05592
G1 X143.598 Y148.409 E.0382
G1 X143.693 Y149.448 E.03766
G1 X143.696 Y150.491 E.03766
G1 X143.606 Y151.53 E.03766
G1 X143.424 Y152.557 E.03766
G1 X143.151 Y153.563 E.03765
G1 X142.789 Y154.542 E.03768
G1 X142.396 Y155.372 E.03315
G1 X141.943 Y156.164 E.03293
G1 X141.431 Y156.918 E.03292
G1 X140.863 Y157.632 E.03292
G1 X140.526 Y158.022 E.01863
G1 X139.529 Y158.949 E.04916
G1 X138.825 Y159.5 E.03228
G1 X138.064 Y160.002 E.03292
G1 X137.629 Y160.265 E.01836
G1 X136.718 Y160.714 E.03667
G1 X135.528 Y161.146 E.04571
G1 X134.668 Y161.388 E.03227
G1 X134.174 Y161.503 E.01831
G1 X133.202 Y161.645 E.03545
G1 X132.161 Y161.705 E.03766
G1 X130.614 Y161.623 E.05592
G1 X129.62 Y161.46 E.0364
G1 X128.735 Y161.235 E.03295
G1 X127.871 Y160.945 E.03292
G1 X127.032 Y160.589 E.03292
G1 X126.564 Y160.367 E.01868
G1 X125.305 Y159.602 E.05317
G1 X124.684 Y159.128 E.02824
G1 X123.996 Y158.529 E.03293
G1 X123.356 Y157.88 E.03291
G1 X122.996 Y157.481 E.01938
G1 X122.366 Y156.65 E.03766
G1 X121.746 Y155.611 E.0437
G1 X121.341 Y154.815 E.03227
G1 X121.126 Y154.338 E.01887
G1 X120.79 Y153.373 E.03689
G1 X120.534 Y152.362 E.03767
G1 X120.37 Y151.332 E.03766
G1 X120.297 Y150.291 E.03766
G1 X120.353 Y148.947 E.04857
G1 X120.465 Y148.06 E.03228
G1 X120.652 Y147.168 E.03292
G1 X120.78 Y146.66 E.01891
G1 X120.913 Y146.274 E.01473
G1 X121.358 Y146.386 F18000
;TYPE:Outer wall
G1 F1800
G1 X121.544 Y145.85 E.0205
G1 X121.859 Y145.148 E.02777
G1 X122.717 Y143.646 E.06246
M73 P3 R22
G1 X123.096 Y143.14 E.02282
G1 X123.585 Y142.549 E.02768
G1 X124.002 Y142.087 E.02248
G1 X125.115 Y141.103 E.05363
G1 X125.938 Y140.523 E.03636
G1 X126.806 Y140.021 E.03619
G1 X127.714 Y139.598 E.03619
G1 X128.657 Y139.258 E.03619
G1 X129.627 Y139.003 E.03619
G1 X130.615 Y138.836 E.03619
G1 X131.614 Y138.757 E.03619
G1 X132.616 Y138.767 E.03619
G1 X133.331 Y138.838 E.02594
G1 X134.176 Y138.986 E.03096
G1 X135.078 Y139.18 E.03333
G1 X135.936 Y139.465 E.03262
G1 X136.738 Y139.805 E.03146
G1 X137.512 Y140.205 E.03146
G1 X138.254 Y140.661 E.03145
G1 X138.672 Y140.942 E.0182
G1 X139.445 Y141.566 E.03587
G1 X140.291 Y142.419 E.04337
G1 X140.84 Y143.059 E.03043
G1 X141.351 Y143.764 E.03145
G1 X141.674 Y144.258 E.02132
G1 X142.147 Y145.142 E.03619
G1 X142.539 Y146.064 E.03619
G1 X142.968 Y147.5 E.05409
G1 X143.148 Y148.49 E.03636
G1 X143.238 Y149.489 E.03619
G1 X143.239 Y150.491 E.03619
G1 X143.151 Y151.489 E.03619
