; HEADER_BLOCK_START
; generated by OrcaSlicer 2.1.1 on 2024-08-18 at 08:55:29
; total layer number: 35
; filament_density: 1.24
; filament_diameter: 1.75
; max_z_height: 7.00
; HEADER_BLOCK_END

; THUMBNAIL_BLOCK_START

;
; THUMBNAIL_BLOCK_END

; THUMBNAIL_BLOCK_START

;
; THUMBNAIL_BLOCK_END

; external perimeters extrusion width = 0.42mm
; perimeters extrusion width = 0.45mm
; infill extrusion width = 0.45mm
; solid infill extrusion width = 0.45mm
; top infill extrusion width = 0.42mm
; first layer extrusion width = 0.50mm

; EXECUTABLE_BLOCK_START
EXCLUDE_OBJECT_DEFINE NAME=Corps2.stl_id_0_copy_0 CENTER=115,115 POLYGON=[[97.6732,105.619],[97.6744,105.172],[97.7543,104.757],[97.8519,104.345],[97.9669,103.937],[98.0992,103.535],[98.2484,103.139],[98.4144,102.749],[98.5968,102.367],[98.7953,101.993],[99.0096,101.628],[99.2392,101.272],[99.4837,100.927],[99.7428,100.592],[100.016,100.268],[100.302,99.9564],[100.602,99.6572],[100.914,99.371],[101.238,99.0984],[101.573,98.8398],[101.919,98.5957],[128.081,98.5957],[128.427,98.8398],[128.762,99.0984],[129.086,99.371],[129.398,99.6572],[129.698,99.9564],[129.984,100.268],[130.257,100.592],[130.516,100.927],[130.761,101.272],[130.99,101.628],[131.205,101.993],[131.403,102.367],[131.586,102.749],[131.752,103.139],[131.901,103.535],[132.033,103.937],[132.148,104.345],[132.246,104.757],[132.326,105.172],[132.327,105.619],[132.31,106.066],[132.274,106.511],[132.22,106.955],[132.147,107.396],[128.4,127.745],[128.335,128.095],[128.252,128.44],[128.151,128.781],[128.032,129.116],[127.896,129.445],[127.743,129.766],[127.574,130.078],[127.388,130.382],[127.187,130.675],[126.871,130.825],[126.547,130.959],[126.217,131.076],[125.881,131.175],[125.541,131.257],[125.196,131.321],[124.849,131.367],[124.5,131.395],[124.15,131.404],[105.85,131.404],[105.5,131.395],[105.151,131.367],[104.804,131.321],[104.459,131.257],[104.119,131.175],[103.783,131.076],[103.453,130.959],[103.129,130.825],[102.813,130.675],[102.612,130.382],[102.426,130.078],[102.257,129.766],[102.104,129.445],[101.968,129.116],[101.849,128.781],[101.748,128.44],[101.665,128.095],[101.6,127.745],[97.8529,107.396],[97.7804,106.955],[97.7262,106.511],[97.6905,106.066],[97.6732,105.619]]
M73 P0 R12
;TYPE:Custom
M220 S100
G90 ; use absolute coordinates
M83 ; extruder relative mode
M104 S150 ; set temporary nozzle temp to prevent oozing during homing
M140 S55 ; set final bed temp
G4 S30 ; allow partial nozzle warmup
G28 ; home all axis and restore leveling
BED_MESH_CALIBRATE PROFILE=adaptive ADAPTIVE=1 ADAPTIVE_MARGIN=0
G1 Z25 F240
G1 X10.0 Y30 F3000
M104 S205 ; set final nozzle temp
M190 S55 ; wait for bed temp to stabilize
M109 S205 ; wait for nozzle temp to stabilize
G1 Z0.28 F240
G92 E0 ; Move Z Axis up
G1 Z2.0 F5000 ; Move to start position
M73 P1 R12
G1 X5 Y30 Z0.28 F300 ; Draw the first line
G1 X5 Y200 Z0.28 F1500 E15 ; Move to side a little
G1 X5.4 Y200 Z0.28 F5000.0 ; Draw the second line
M73 P2 R12
G1 X5.4 Y50 Z0.28 F1500.0 E30 ; Reset Extruder
G92 E0 ; Move Z Axis up
G1 Z2.0 F3000
M117 Start Printing..
G90
G21
M83 ; use relative distances for extrusion
; filament start gcode
SET_PRESSURE_ADVANCE ADVANCE=0.052; Override pressure advance value
M106 S0
;LAYER_CHANGE
;Z:0.2
;HEIGHT:0.2
;BEFORE_LAYER_CHANGE
;0.2
G92 E0

M73 P3 R12
G1 E-.5 F1800
;_SET_FAN_SPEED_CHANGING_LAYER
SET_VELOCITY_LIMIT ACCEL=1000
SET_VELOCITY_LIMIT SQUARE_CORNER_VELOCITY=7
; printing object Corps2.stl id:0 copy 0
EXCLUDE_OBJECT_START NAME=Corps2.stl_id_0_copy_0
G1 Z.2 F24000
G1 X131.372 Y140.832
G1 Z.2
G1 E.5 F1800
;TYPE:Inner wall
;WIDTH:0.499999
G1 X131.444 Y140.877 E.00317
G1 X132.163 Y141.155 E.0287
G1 X132.715 Y141.44 E.02317
G1 X133.508 Y141.99 E.03593
G1 X133.969 Y142.409 E.02319
G1 X134.384 Y142.874 E.02322
G1 X134.92 Y143.657 E.03532
G1 X135.209 Y144.227 E.02381
G1 X135.434 Y144.816 E.02351
G1 X135.596 Y145.427 E.02353
G1 X135.693 Y146.042 E.0232
G1 X135.717 Y147.007 E.03593
G1 X135.651 Y147.626 E.0232
G1 X135.519 Y148.244 E.02353
G1 X135.35 Y148.767 E.02048
G1 X135.291 Y148.486 E.01067
G1 X135.209 Y148.256 E.0091
G1 X134.995 Y147.827 E.01788
G1 X134.647 Y147.459 E.01884
G1 X134.171 Y147.193 E.02033
G1 X133.674 Y147.088 E.0189
G1 X133.099 Y147.154 E.02155
G1 X132.837 Y147.247 E.01039
G1 X132.327 Y147.579 E.02266
G1 X131.993 Y148.033 E.02099
G1 X131.882 Y148.289 E.01039
G1 X131.777 Y148.846 E.02112
G1 X131.881 Y149.442 E.02253
G1 X132.032 Y149.754 E.01289
G1 X132.339 Y150.166 E.01915
G1 X132.66 Y150.401 E.01482
G1 X133.053 Y150.568 E.01589
G1 X132.769 Y150.613 E.0107
G1 X132.149 Y150.646 E.02314
G1 X131.528 Y150.615 E.02314
G1 X130.914 Y150.519 E.02314
G1 X130.313 Y150.36 E.02314
G1 X129.732 Y150.14 E.02314
G1 X129.177 Y149.861 E.02314
G1 X128.655 Y149.525 E.02314
G1 X128.176 Y149.142 E.02283
G1 X127.528 Y148.47 E.03475
G1 X127.154 Y147.965 E.02342
G1 X126.839 Y147.43 E.02312
G1 X126.582 Y146.865 E.02312
G1 X126.347 Y146.163 E.02759
G1 X126.217 Y145.932 E.00986
G1 X126.007 Y145.768 E.00992
G1 X125.719 Y145.694 E.01107
G1 X125.414 Y145.755 E.01159
G1 X124.751 Y146.055 E.02713
G1 X124.174 Y146.241 E.02255
G1 X123.58 Y146.36 E.02257
G1 X123 Y146.411 E.02169
G1 X122.42 Y146.36 E.02169
G1 X121.826 Y146.241 E.02257
G1 X121.249 Y146.055 E.02255
G1 X120.586 Y145.755 E.02713
G1 X120.267 Y145.695 E.0121
G1 X119.982 Y145.774 E.011
G1 X119.793 Y145.922 E.00896
G1 X119.653 Y146.163 E.01038
G1 X119.418 Y146.866 E.02759
G1 X119.161 Y147.43 E.02313
G1 X118.846 Y147.966 E.02313
G1 X118.486 Y148.453 E.02256
G1 X118.057 Y148.925 E.02376
G1 X117.612 Y149.321 E.0222
G1 X116.821 Y149.86 E.03564
G1 X115.986 Y150.255 E.0344
G1 X115.396 Y150.445 E.02309
G1 X114.463 Y150.615 E.03532
G1 X113.851 Y150.646 E.02281
G1 X113.24 Y150.613 E.02282
G1 X112.73 Y150.519 E.01932
G1 X112.171 Y150.396 E.02129
G1 X111.326 Y150.074 E.0337
G1 X111.088 Y149.707 E.01629
G1 X110.673 Y148.836 E.03593
G1 X110.481 Y148.244 E.0232
G1 X110.349 Y147.626 E.02353
G1 X110.282 Y146.998 E.02353
G1 X110.282 Y146.366 E.02354
G1 X110.344 Y145.762 E.0226
G1 X110.569 Y144.807 E.03655
G1 X110.782 Y144.249 E.02224
G1 X111.246 Y143.385 E.03654
G1 X111.61 Y142.88 E.02317
G1 X112.031 Y142.409 E.02353
G1 X112.493 Y141.99 E.02322
G1 X113.043 Y141.607 E.02499
G1 X113.634 Y141.261 E.0255
G1 X114.743 Y140.768 E.0452
G1 X114.907 Y140.573 E.00948
G1 X114.993 Y140.282 E.0113
G1 X114.974 Y140.072 E.00786
G1 X114.833 Y139.796 E.01152
G1 X113.891 Y138.676 E.05453
G1 X112.183 Y136.557 E.10136
G1 X110.533 Y134.396 E.10127
G1 X108.941 Y132.189 E.10136
G1 X108.176 Y131.083 E.05008
G1 X107.734 Y130.373 E.03116
G1 X107.183 Y129.24 E.04692
G1 X106.901 Y128.466 E.03068
M73 P4 R12
G1 X106.682 Y127.664 E.03095
G1 X106.53 Y126.847 E.03095
G1 X106.447 Y126.021 E.03093
G1 X106.433 Y125.253 E.02861
G1 X106.694 Y124.152 E.04216
G1 X106.952 Y123.421 E.02887
G1 X107.273 Y122.708 E.02911
G1 X107.655 Y122.025 E.02914
G1 X108.089 Y121.383 E.02887
G1 X108.766 Y120.581 E.03908
G1 X109.188 Y120.172 E.0219
G1 X109.998 Y119.478 E.03975
G1 X111.623 Y120.24 E.06683
G1 X112.329 Y120.53 E.02845
G1 X113.739 Y121.046 E.05593
G1 X114.51 Y121.293 E.03013
G1 X115.919 Y121.686 E.0545
G1 X117.499 Y122.036 E.06026
G1 X118.326 Y122.181 E.03127
;WIDTH:0.539328
G1 X118.465 Y122.221 E.00587
;WIDTH:0.578657
G1 X118.605 Y122.26 E.00634
;WIDTH:0.617986
G1 X118.745 Y122.3 E.0068
;WIDTH:0.657315
G1 X118.884 Y122.34 E.00727
G1 X119.408 Y122.404 E.02644
;WIDTH:0.664912
G1 X119.917 Y122.476 E.02602
G1 X120.023 Y122.467 E.00543
;WIDTH:0.626304
G1 X120.13 Y122.457 E.00509
;WIDTH:0.587696
G1 X120.237 Y122.448 E.00476
;WIDTH:0.549088
G1 X121.132 Y122.504 E.03699
;WIDTH:0.499999
G1 X122.989 Y122.559 E.0692
G1 X123.834 Y122.549 E.03147
G1 X124.904 Y122.501 E.03988
G1 X125.641 Y122.434 E.02757
;WIDTH:0.544533
G1 X125.923 Y122.429 E.01155
;WIDTH:0.589067
G1 X126.206 Y122.424 E.01258
;WIDTH:0.633601
G1 X126.489 Y122.419 E.01361
;WIDTH:0.649215
G1 X127.003 Y122.355 E.02562
G1 X127.176 Y122.306 E.00889
;WIDTH:0.599477
G1 X127.349 Y122.256 E.00816
;WIDTH:0.549738
G1 X127.522 Y122.207 E.00743
;WIDTH:0.499999
G1 X129.079 Y121.912 E.05903
G1 X130.115 Y121.678 E.03957
G1 X131.569 Y121.269 E.05622
G1 X132.993 Y120.788 E.05598
G1 X133.732 Y120.495 E.02962
G1 X135.092 Y119.923 E.05495
G1 X135.993 Y119.482 E.03735
G1 X136.585 Y119.941 E.0279
G1 X137.42 Y120.775 E.04396
G1 X137.907 Y121.377 E.02886
G1 X138.345 Y122.025 E.02914
G1 X138.726 Y122.708 E.02911
G1 X139.048 Y123.421 E.02914
G1 X139.306 Y124.152 E.02887
G1 X139.567 Y125.253 E.04216
G1 X139.553 Y126.021 E.02859
G1 X139.47 Y126.841 E.03069
G1 X139.214 Y128.074 E.04693
G1 X138.965 Y128.859 E.03066
G1 X138.651 Y129.621 E.0307
G1 X138.053 Y130.73 E.04692
G1 X137.056 Y132.193 E.06593
G1 X136.271 Y133.297 E.05046
G1 X134.649 Y135.482 E.10136
G1 X132.971 Y137.621 E.10127
G1 X131.164 Y139.8 E.10542
G1 X131.042 Y140.018 E.00929
G1 X131.01 Y140.316 E.01119
G1 X131.067 Y140.521 E.00791
G1 X131.233 Y140.747 E.01042
G1 X131.337 Y140.811 E.00458
G1 X131.609 Y140.451 F24000
;TYPE:Outer wall
G1 F1800
G1 X132.35 Y140.738 E.02961
G1 X132.952 Y141.048 E.0252
G1 X133.793 Y141.632 E.03815
G1 X134.294 Y142.087 E.0252
G1 X134.745 Y142.591 E.02521
G1 X135.314 Y143.423 E.03753
G1 X135.628 Y144.041 E.02582
G1 X135.87 Y144.676 E.0253
G1 X136.044 Y145.333 E.02531
G1 X136.149 Y146.001 E.02521
G1 X136.164 Y146.6 E.02229
G1 X136.154 Y147.212 E.02283
G1 X136.094 Y147.743 E.01988
G1 X135.952 Y148.393 E.0248
G1 X135.742 Y149.03 E.02499
;WIDTH:0.548714
G1 X135.628 Y149.224 E.00923
;WIDTH:0.597428
G1 X135.515 Y149.417 E.01012
;WIDTH:0.646142
G1 X135.401 Y149.61 E.01101
;WIDTH:0.66926
G1 X134.923 Y150.372 E.04593
G1 X134.662 Y150.5 E.01484
;WIDTH:0.642851
G1 X134.401 Y150.629 E.01421
;WIDTH:0.616442
G1 X133.87 Y150.786 E.02589
;WIDTH:0.615232
G1 X133.738 Y150.845 E.00673
;WIDTH:0.576821
G1 X133.607 Y150.904 E.00628
;WIDTH:0.53841
G1 X133.475 Y150.963 E.00582
;WIDTH:0.499999
G1 X132.817 Y151.068 E.02481
G1 X132.149 Y151.104 E.02492
G1 X131.481 Y151.07 E.02492
G1 X130.82 Y150.967 E.02492
G1 X130.174 Y150.796 E.02492
G1 X129.548 Y150.559 E.02492
G1 X128.951 Y150.258 E.02492
G1 X128.388 Y149.897 E.02491
G1 X127.867 Y149.481 E.02482
G1 X127.179 Y148.766 E.03695
G1 X126.879 Y148.362 E.01874
G1 X126.528 Y147.802 E.02462
G1 X126.295 Y147.338 E.01935
G1 X126.093 Y146.844 E.01987
G1 X125.91 Y146.296 E.02153
G1 X125.781 Y146.167 E.0068
G1 X125.603 Y146.171 E.00663
G1 X124.915 Y146.482 E.0281
G1 X124.29 Y146.684 E.02447
G1 X123.645 Y146.813 E.02448
G1 X123 Y146.87 E.02413
G1 X122.119 Y146.766 E.03306
G1 X121.48 Y146.61 E.02449
G1 X120.863 Y146.382 E.02448
G1 X120.335 Y146.153 E.02144
G1 X120.196 Y146.178 E.00526
G1 X120.086 Y146.307 E.00633
G1 X119.844 Y147.033 E.0285
G1 X119.567 Y147.642 E.02492
G1 X119.228 Y148.218 E.0249
G1 X118.84 Y148.743 E.02432
G1 X118.379 Y149.25 E.02553
G1 X117.894 Y149.682 E.0242
G1 X117.049 Y150.258 E.03808
G1 X116.155 Y150.681 E.03684
G1 X115.508 Y150.889 E.02532
G1 X114.516 Y151.07 E.03756
G1 X113.851 Y151.104 E.02481
G1 X113.185 Y151.068 E.02482
G1 X112.194 Y150.884 E.03756
G1 X111.56 Y150.678 E.02481
G1 X111.016 Y150.437 E.02218
G1 X110.688 Y149.931 E.02247
G1 X110.247 Y149.006 E.03815
G1 X110.038 Y148.362 E.0252
G1 X109.897 Y147.698 E.02531
G1 X109.825 Y147.022 E.02531
G1 X109.825 Y146.343 E.02531
G1 X109.892 Y145.686 E.02459
G1 X110.132 Y144.673 E.03877
G1 X110.365 Y144.059 E.02447
G1 X110.858 Y143.142 E.03877
G1 X111.253 Y142.593 E.02519
G1 X111.706 Y142.087 E.02531
G1 X112.207 Y141.632 E.02521
G1 X112.783 Y141.232 E.0261
G1 X113.424 Y140.855 E.0277
G1 X114.453 Y140.414 E.04172
G1 X114.537 Y140.252 E.00678
G1 X114.484 Y140.09 E.00635
G1 X113.539 Y138.966 E.0547
G1 X111.823 Y136.84 E.10176
G1 X110.166 Y134.668 E.10173
G1 X108.567 Y132.453 E.10177
G1 X107.794 Y131.334 E.05066
G1 X107.334 Y130.594 E.03245
G1 X106.762 Y129.419 E.04869
G1 X106.465 Y128.605 E.03227
G1 X106.236 Y127.767 E.03236
G1 X106.078 Y126.912 E.03237
G1 X105.99 Y126.048 E.03234
G1 X105.975 Y125.204 E.03146
G1 X106.255 Y124.023 E.04522
G1 X106.527 Y123.25 E.0305
G1 X106.865 Y122.502 E.03056
G1 X107.265 Y121.785 E.03059
G1 X107.724 Y121.107 E.0305
G1 X108.519 Y120.164 E.04594
G1 X109.428 Y119.331 E.04594
G1 X109.95 Y118.945 E.02416
G1 X111.336 Y119.613 E.05729
G1 X112.487 Y120.101 E.04656
G1 X113.879 Y120.611 E.05523
G1 X114.635 Y120.853 E.02957
G1 X116.019 Y121.24 E.05354
G1 X117.582 Y121.587 E.0596
G1 X118.2 Y121.701 E.02341
G1 X119.67 Y121.912 E.05533
G1 X121.15 Y122.047 E.05534
G1 X122.985 Y122.102 E.06839
G1 X123.814 Y122.092 E.03088
G1 X124.862 Y122.046 E.03906
G1 X126.34 Y121.911 E.0553
G1 X127.443 Y121.757 E.04147
G1 X128.107 Y121.64 E.0251
G1 X129.992 Y121.237 E.0718
G1 X131.423 Y120.836 E.05534
G1 X132.828 Y120.362 E.05526
G1 X134.365 Y119.745 E.06167
G1 X134.891 Y119.513 E.02142
G1 X136.047 Y118.947 E.04795
G1 X136.888 Y119.597 E.03958
G1 X137.76 Y120.468 E.04594
G1 X138.275 Y121.105 E.0305
G1 X138.735 Y121.786 E.03059
G1 X139.135 Y122.502 E.03056
G1 X139.473 Y123.251 E.03059
G1 X139.745 Y124.023 E.0305
G1 X140.025 Y125.204 E.04522
G1 X140.01 Y126.048 E.03144
G1 X139.923 Y126.91 E.03228
G1 X139.657 Y128.19 E.04869
G1 X139.395 Y129.016 E.03225
G1 X139.064 Y129.817 E.03229
G1 X138.444 Y130.968 E.04869
G1 X137.432 Y132.454 E.06699
G1 X136.641 Y133.566 E.0508
G1 X135.013 Y135.76 E.10176
G1 X133.327 Y137.908 E.10173
G1 X131.475 Y140.164 E.1087
G1 X131.483 Y140.332 E.00626
G1 X131.58 Y140.423 E.00494
G1 E-.5
;WIPE_START
G1 F12000
G1 X132.35 Y140.738
G1 X132.952 Y141.048
G1 X133.355 Y141.328
;WIPE_END
G1 Z.4 F24000
G1 X128.697 Y123.711 Z.4
G1 Z.2
G1 E.5 F1800
;TYPE:Inner wall
G1 X129.037 Y124.037 E.01754
G1 X129.501 Y124.685 E.02971
G1 X129.891 Y125.52 E.03433
G1 X130.107 Y126.249 E.02832
G1 X130.206 Y126.851 E.0227
G1 X130.27 Y127.529 E.02537
G1 X130.254 Y128.283 E.0281
G1 X130.221 Y128.728 E.01661
G1 X130.077 Y129.487 E.02878
G1 X129.778 Y130.38 E.03506
G1 X129.458 Y131.001 E.02604
G1 X129.005 Y131.614 E.02836
G1 X128.455 Y132.105 E.02748
G1 X127.818 Y132.438 E.02677
G1 X127.107 Y132.581 E.02703
G1 X126.529 Y132.538 E.02155
G1 X126.018 Y132.373 E.02
G1 X125.533 Y132.096 E.02082
G1 X124.961 Y131.576 E.02878
G1 X124.5 Y130.931 E.02951
G1 X124.257 Y130.432 E.02069
M73 P5 R12
G1 X124.108 Y130.091 E.01386
G1 X123.895 Y129.373 E.0279
G1 X123.791 Y128.749 E.02354
G1 X123.736 Y128.095 E.02446
G1 X123.724 Y127.542 E.0206
G1 X123.797 Y126.758 E.02932
G1 X123.92 Y126.18 E.02204
G1 X124.091 Y125.601 E.02248
G1 X124.307 Y125.048 E.0221
G1 X124.645 Y124.451 E.02556
G1 X125.125 Y123.863 E.02827
G1 X125.695 Y123.411 E.02711
;WIDTH:0.547972
G1 X126.017 Y123.243 E.01493
;WIDTH:0.595945
G1 X126.339 Y123.075 E.01635
;WIDTH:0.633601
G1 X126.553 Y123.006 E.01081
;WIDTH:0.649215
G1 X127.069 Y122.958 E.02562
G1 X127.313 Y123.028 E.01256
;WIDTH:0.599477
G1 X127.557 Y123.099 E.01153
;WIDTH:0.549738
G1 X127.801 Y123.17 E.0105
;WIDTH:0.499999
G1 X128.359 Y123.457 E.02335
G1 X128.603 Y123.62 E.01096
G1 X128.668 Y123.683 E.00336
G1 X128.37 Y124.049 F24000
;TYPE:Outer wall
G1 F1800
G1 X128.721 Y124.366 E.01761
G1 X129.125 Y124.945 E.02628
G1 X129.404 Y125.537 E.0244
G1 X129.667 Y126.374 E.03266
G1 X129.755 Y126.921 E.02065
G1 X129.814 Y127.55 E.02351
G1 X129.772 Y128.643 E.04074
G1 X129.628 Y129.402 E.02878
G1 X129.385 Y130.139 E.0289
G1 X129.052 Y130.793 E.02733
G1 X128.642 Y131.337 E.02537
G1 X128.158 Y131.757 E.02389
G1 X127.619 Y132.027 E.02246
G1 X127.035 Y132.129 E.02206
G1 X126.541 Y132.075 E.01853
G1 X126.245 Y131.976 E.01161
G1 X125.76 Y131.699 E.02082
G1 X125.278 Y131.246 E.02464
G1 X124.876 Y130.672 E.02609
G1 X124.558 Y129.993 E.02794
G1 X124.405 Y129.484 E.01979
G1 X124.243 Y128.679 E.03059
G1 X124.193 Y128.081 E.02233
G1 X124.207 Y127.279 E.0299
G1 X124.256 Y126.772 E.01896
G1 X124.425 Y126.019 E.02875
G1 X124.616 Y125.501 E.02056
G1 X124.777 Y125.145 E.01455
G1 X125.043 Y124.676 E.02007
G1 X125.475 Y124.158 E.02512
G1 X125.971 Y123.775 E.02335
G1 X126.527 Y123.544 E.02241
G1 X127.111 Y123.488 E.02185
G1 X127.696 Y123.615 E.02231
G1 X128.193 Y123.889 E.02112
G1 X128.34 Y124.022 E.00743
G1 E-.5
;WIPE_START
G1 F12000
G1 X128.721 Y124.366
G1 X129.125 Y124.945
