; HEADER_BLOCK_START
; generated by OrcaSlicer 2.2.0 on 2024-12-03 at 15:30:24
; total layer number: 250
; filament_density: 1.27
; filament_diameter: 1.75
; max_z_height: 50.05
; HEADER_BLOCK_END

; THUMBNAIL_BLOCK_START

;
; THUMBNAIL_BLOCK_END

; THUMBNAIL_BLOCK_START

;
; THUMBNAIL_BLOCK_END

; external perimeters extrusion width = 0.42mm
; perimeters extrusion width = 0.45mm
; infill extrusion width = 0.45mm
; solid infill extrusion width = 0.45mm
; top infill extrusion width = 0.42mm
; first layer extrusion width = 0.50mm

; EXECUTABLE_BLOCK_START
EXCLUDE_OBJECT_DEFINE NAME=Corps18_id_0_copy_0 CENTER=115,115 POLYGON=[[98.5011,113.785],[98.5231,113.097],[98.5721,112.411],[98.6481,111.727],[98.7509,111.046],[98.8804,110.37],[99.0364,109.7],[99.2186,109.036],[99.4268,108.38],[99.6606,107.733],[99.9196,107.095],[100.204,106.468],[100.512,105.853],[100.844,105.25],[107.446,101.074],[107.997,100.726],[108.562,100.401],[109.141,100.101],[109.731,99.8245],[110.333,99.5735],[110.944,99.348],[111.565,99.1484],[112.193,98.9751],[112.828,98.8283],[113.469,98.7084],[114.114,98.6155],[114.763,98.5498],[115.413,98.5115],[116.065,98.5005],[116.717,98.5169],[117.367,98.5608],[118.015,98.6319],[118.659,98.7302],[119.299,98.8555],[119.933,99.0076],[120.56,99.1862],[121.178,99.391],[121.788,99.6217],[122.387,99.8778],[122.976,100.159],[123.551,100.464],[124.114,100.794],[124.662,101.147],[125.195,101.522],[125.711,101.92],[126.21,102.339],[126.692,102.778],[127.154,103.238],[127.597,103.716],[128.019,104.213],[128.42,104.727],[128.799,105.257],[129.155,105.803],[129.488,106.364],[129.797,106.937],[130.082,107.524],[130.342,108.121],[130.576,108.73],[130.785,109.347],[130.967,109.973],[131.123,110.606],[131.253,111.245],[131.355,111.888],[131.43,112.536],[131.478,113.186],[131.499,113.837],[131.492,114.489],[131.458,115.14],[131.396,115.789],[131.307,116.435],[131.192,117.076],[131.049,117.712],[130.879,118.342],[130.684,118.963],[130.462,119.576],[130.215,120.179],[127.249,127.406],[126.713,127.838],[126.16,128.249],[125.592,128.637],[125.009,129.003],[124.412,129.346],[123.802,129.665],[123.18,129.959],[122.547,130.229],[121.904,130.474],[121.252,130.694],[120.591,130.887],[119.924,131.055],[119.25,131.196],[118.572,131.31],[117.889,131.398],[117.203,131.459],[116.516,131.493],[115.828,131.5],[115.14,131.479],[114.453,131.432],[113.769,131.358],[113.088,131.256],[112.412,131.129],[111.741,130.974],[111.077,130.794],[110.42,130.587],[109.773,130.355],[109.134,130.097],[108.507,129.815],[107.891,129.508],[107.287,129.177],[106.697,128.823],[106.121,128.446],[105.561,128.046],[105.017,127.625],[104.49,127.182],[103.98,126.72],[103.489,126.237],[103.018,125.736],[102.566,125.216],[102.136,124.679],[101.727,124.126],[101.339,123.557],[100.975,122.973],[100.634,122.375],[100.316,121.765],[100.023,121.142],[99.7548,120.508],[99.5115,119.864],[99.2936,119.211],[99.1016,118.55],[98.9358,117.882],[98.7963,117.209],[98.6835,116.53],[98.5974,115.847],[98.5383,115.161],[98.5062,114.474],[98.5011,113.785]]
M73 P0 R24
;TYPE:Custom
M220 S100
G90 ; use absolute coordinates
M83 ; extruder relative mode
M104 S150 ; set temporary nozzle temp to prevent oozing during homing
M140 S65 ; set final bed temp
G4 S30 ; allow partial nozzle warmup
G28 ; home all axis and restore leveling
BED_MESH_CALIBRATE
G1 Z25 F240
G1 X10.0 Y30 F3000
M104 S245 ; set final nozzle temp
M190 S65 ; wait for bed temp to stabilize
M109 S245 ; wait for nozzle temp to stabilize
G1 Z0.28 F240
G92 E0 ; Move Z Axis up
LINE_PURGE
G92 E0 ; Move Z Axis up
G1 Z2.0 F3000
M117 Start Printing..
G90
G21
M83 ; use relative distances for extrusion
; filament start gcode
M106 S0
;LAYER_CHANGE
;Z:0.25
;HEIGHT:0.25
;BEFORE_LAYER_CHANGE
;0.25
G92 E0

G1 E-.5 F1800
TIMELAPSE_TAKE_FRAME
;_SET_FAN_SPEED_CHANGING_LAYER
SET_VELOCITY_LIMIT ACCEL=1000
SET_VELOCITY_LIMIT SQUARE_CORNER_VELOCITY=7
; printing object Corps18 id:0 copy 0
EXCLUDE_OBJECT_START NAME=Corps18_id_0_copy_0
G1 Z.45 F24000
G1 X110.767 Y126.987
G1 Z.45
G1 Z.25
G1 E.5 F1800
;TYPE:Inner wall
;WIDTH:0.499999
G1 F3000
G1 X110.948 Y126.928 E.00841
G1 X111.175 Y126.703 E.01408
G1 X111.566 Y126.06 E.03318
G1 X111.888 Y125.576 E.02559
G1 X112.253 Y125.074 E.02734
G1 X112.638 Y124.588 E.02734
G1 X113.044 Y124.119 E.02735
G1 X113.469 Y123.667 E.02734
G1 X113.913 Y123.234 E.02734
G1 X114.375 Y122.819 E.02734
G1 X114.853 Y122.424 E.02734
G1 X115.347 Y122.051 E.0273
G1 X115.892 Y121.676 E.02914
G1 X116.383 Y121.365 E.02559
G1 X116.921 Y121.056 E.02735
G1 X117.471 Y120.77 E.02734
G1 X118.033 Y120.507 E.02734
G1 X118.606 Y120.268 E.02735
G1 X119.188 Y120.054 E.02734
G1 X119.778 Y119.864 E.02734
G1 X120.376 Y119.699 E.02735
G1 X120.981 Y119.559 E.02734
G1 X121.591 Y119.445 E.02735
G1 X122.205 Y119.356 E.02734
G1 X122.822 Y119.294 E.02735
G1 X123.436 Y119.258 E.02712
G1 X123.982 Y119.257 E.02406
G1 X124.608 Y119.267 E.0276
G1 X125.513 Y119.328 E.03995
G1 X126.072 Y119.396 E.0248
G1 X126.681 Y119.495 E.02721
G1 X127.285 Y119.62 E.02721
G1 X127.902 Y119.775 E.02802
G1 X128.476 Y119.945 E.02637
G1 X129.059 Y120.144 E.02719
G1 X129.634 Y120.368 E.02718
G1 X130.199 Y120.615 E.02719
G1 X130.753 Y120.886 E.02718
G1 X131.296 Y121.18 E.02718
G1 X131.825 Y121.495 E.02717
G1 X132.34 Y121.833 E.02716
G1 X132.842 Y122.192 E.02717
G1 X133.327 Y122.572 E.02717
G1 X133.797 Y122.972 E.02717
G1 X134.249 Y123.39 E.02716
G1 X134.683 Y123.828 E.02716
G1 X135.099 Y124.283 E.02717
G1 X135.495 Y124.755 E.02717
G1 X135.871 Y125.244 E.02718
G1 X136.229 Y125.751 E.02734
G1 X136.579 Y126.295 E.02855
G1 X136.874 Y126.797 E.02565
G1 X137.164 Y127.342 E.02719
G1 X137.431 Y127.898 E.0272
G1 X137.674 Y128.466 E.02722
G1 X137.894 Y129.043 E.02721
G1 X138.09 Y129.629 E.02723
G1 X138.26 Y130.223 E.02725
G1 X138.406 Y130.824 E.02725
M73 P1 R24
M73 P1 R24
G1 X138.536 Y131.491 E.02993
G1 X138.622 Y132.043 E.02462
G1 X138.691 Y132.658 E.02729
G1 X138.734 Y133.277 E.02732
G1 X138.752 Y133.896 E.02733
G1 X138.742 Y134.534 E.02811
G1 X138.708 Y135.137 E.0266
G1 X138.648 Y135.755 E.02737
G1 X138.561 Y136.37 E.0274
G1 X138.448 Y136.982 E.0274
G1 X138.299 Y137.627 E.02918
G1 X138.144 Y138.191 E.02579
G1 X137.943 Y138.816 E.02893
G1 X137.741 Y139.367 E.02586
G1 X137.502 Y139.943 E.02746
G1 X137.238 Y140.51 E.02761
G1 X136.935 Y141.093 E.02893
G1 X136.642 Y141.603 E.02592
G1 X136.309 Y142.13 E.02749
G1 X135.954 Y142.644 E.02751
G1 X135.578 Y143.142 E.02751
G1 X135.181 Y143.623 E.02751
G1 X134.764 Y144.088 E.02751
G1 X134.327 Y144.534 E.02752
G1 X133.319 Y145.465 E.06046
G1 X133.201 Y145.724 E.01254
G1 X133.207 Y146.032 E.01356
G1 X133.343 Y146.296 E.0131
G1 X134.185 Y147.3 E.05776
G1 X133.727 Y147.641 E.02518
G1 X133.183 Y148.013 E.02904
G1 X132.625 Y148.363 E.02904
G1 X132.053 Y148.691 E.02904
G1 X131.47 Y148.996 E.02904
G1 X130.874 Y149.279 E.02904
G1 X130.268 Y149.537 E.02904
G1 X129.652 Y149.771 E.02903
G1 X129.021 Y149.983 E.02934
G1 X128.396 Y150.167 E.02874
G1 X127.756 Y150.327 E.02904
G1 X127.112 Y150.462 E.02904
G1 X126.462 Y150.572 E.02904
G1 X125.808 Y150.656 E.02904
G1 X125.152 Y150.714 E.02904
G1 X124.494 Y150.747 E.02904
G1 X123.835 Y150.753 E.02904
G1 X123.176 Y150.734 E.02904
G1 X122.519 Y150.688 E.02904
G1 X121.864 Y150.617 E.02904
G1 X121.212 Y150.52 E.02903
G1 X120.565 Y150.398 E.02904
G1 X119.916 Y150.248 E.02934
G1 X119.287 Y150.077 E.02874
G1 X118.658 Y149.88 E.02904
G1 X118.038 Y149.657 E.02904
G1 X117.427 Y149.411 E.02904
G1 X116.826 Y149.14 E.02903
G1 X116.231 Y148.843 E.02934
G1 X115.659 Y148.53 E.02875
G1 X115.094 Y148.191 E.02904
G1 X114.543 Y147.829 E.02904
G1 X114.006 Y147.447 E.02904
G1 X113.48 Y147.039 E.02934
G1 X112.981 Y146.62 E.02874
G1 X112.493 Y146.177 E.02904
G1 X112.023 Y145.715 E.02904
G1 X111.572 Y145.235 E.02903
G1 X111.135 Y144.732 E.02934
G1 X110.727 Y144.224 E.02874
G1 X110.335 Y143.694 E.02904
G1 X109.965 Y143.149 E.02904
G1 X109.616 Y142.59 E.02904
G1 X109.289 Y142.018 E.02904
G1 X108.985 Y141.433 E.02904
G1 X108.705 Y140.837 E.02904
G1 X108.448 Y140.23 E.02904
G1 X108.215 Y139.614 E.02903
G1 X108.004 Y138.983 E.02934
G1 X107.822 Y138.356 E.02874
G1 X107.664 Y137.717 E.02904
G1 X107.53 Y137.072 E.02904
G1 X107.422 Y136.422 E.02904
G1 X107.34 Y135.768 E.02904
G1 X107.283 Y135.111 E.02904
G1 X107.252 Y134.453 E.02903
G1 X107.248 Y133.794 E.02904
G1 X107.269 Y133.136 E.02904
G1 X107.316 Y132.479 E.02904
G1 X107.388 Y131.824 E.02904
G1 X107.487 Y131.172 E.02904
G1 X107.611 Y130.525 E.02903
G1 X107.762 Y129.877 E.02934
G1 X107.934 Y129.248 E.02874
G1 X108.134 Y128.62 E.02904
G1 X108.358 Y128 E.02904
G1 X108.606 Y127.39 E.02904
G1 X108.877 Y126.79 E.02904
G1 X109.133 Y126.279 E.02517
G1 X110.409 Y126.995 E.06449
G1 X110.661 Y127.021 E.01115
G1 X110.729 Y126.999 E.00314
G1 X110.655 Y126.571 F24000
;TYPE:Outer wall
G1 F3000
G1 X110.794 Y126.471 E.00756
G1 X111.19 Y125.82 E.03357
G1 X111.521 Y125.321 E.02639
G1 X111.897 Y124.804 E.02817
G1 X112.295 Y124.304 E.02817
G1 X112.713 Y123.82 E.02817
G1 X113.151 Y123.355 E.02817
G1 X113.608 Y122.908 E.02817
G1 X114.083 Y122.481 E.02817
G1 X114.576 Y122.074 E.02817
G1 X115.086 Y121.689 E.02816
G1 X115.646 Y121.303 E.02997
G1 X116.152 Y120.983 E.02639
G1 X116.706 Y120.665 E.02817
G1 X117.273 Y120.37 E.02817
G1 X117.852 Y120.099 E.02817
G1 X118.442 Y119.853 E.02817
G1 X119.042 Y119.632 E.02817
G1 X119.651 Y119.436 E.02817
G1 X120.267 Y119.266 E.02817
G1 X120.89 Y119.122 E.02817
G1 X121.518 Y119.004 E.02817
G1 X122.151 Y118.913 E.02817
G1 X122.787 Y118.849 E.02817
G1 X123.423 Y118.811 E.02809
G1 X124.633 Y118.822 E.05332
G1 X125.562 Y118.884 E.04105
G1 X126.139 Y118.954 E.02563
G1 X126.767 Y119.057 E.02804
G1 X127.39 Y119.186 E.02803
G1 X128.024 Y119.346 E.02885
G1 X128.616 Y119.521 E.02719
G1 X129.217 Y119.727 E.02802
G1 X129.81 Y119.957 E.02801
G1 X130.392 Y120.212 E.02801
G1 X130.963 Y120.492 E.02801
G1 X131.521 Y120.794 E.02801
G1 X132.067 Y121.12 E.028
G1 X132.598 Y121.468 E.02799
G1 X133.114 Y121.839 E.028
G1 X133.614 Y122.23 E.028
G1 X134.098 Y122.642 E.028
G1 X134.563 Y123.074 E.02799
G1 X135.011 Y123.525 E.02799
G1 X135.439 Y123.994 E.028
G1 X135.847 Y124.481 E.028
G1 X136.235 Y124.984 E.028
G1 X136.603 Y125.507 E.02822
G1 X136.963 Y126.067 E.02933
G1 X137.267 Y126.586 E.02648
G1 X137.565 Y127.147 E.02802
G1 X137.84 Y127.72 E.02802
G1 X138.091 Y128.305 E.02805
G1 X138.317 Y128.9 E.02804
G1 X138.518 Y129.504 E.02806
G1 X138.694 Y130.116 E.02808
G1 X138.844 Y130.735 E.02808
G1 X138.977 Y131.421 E.03076
G1 X139.065 Y131.991 E.02545
G1 X139.136 Y132.625 E.02812
G1 X139.181 Y133.263 E.02815
G1 X139.198 Y133.901 E.02815
G1 X139.192 Y134.48 E.0255
G1 X139.159 Y135.118 E.02817
G1 X139.098 Y135.754 E.02817
G1 X139.011 Y136.388 E.02817
G1 X138.897 Y137.017 E.02817
G1 X138.757 Y137.64 E.02817
G1 X138.591 Y138.257 E.02816
G1 X138.386 Y138.905 E.02996
G1 X138.182 Y139.468 E.02639
G1 X137.94 Y140.06 E.02817
G1 X137.673 Y140.64 E.02816
G1 X137.361 Y141.245 E.02997
G1 X137.066 Y141.766 E.02639
G1 X136.728 Y142.308 E.02817
G1 X136.368 Y142.836 E.02817
G1 X135.985 Y143.348 E.02817
G1 X135.582 Y143.844 E.02817
G1 X135.158 Y144.322 E.02817
G1 X134.714 Y144.782 E.02817
G1 X134.251 Y145.223 E.02817
G1 X133.709 Y145.698 E.03177
G1 X133.635 Y145.836 E.0069
G1 X133.685 Y146.009 E.00796
G1 X134.822 Y147.365 E.07798
G1 X133.97 Y148.015 E.04724
G1 X133.298 Y148.468 E.03572
G1 X132.819 Y148.767 E.0249
G1 X132.219 Y149.108 E.03041
G1 X131.605 Y149.426 E.03047
G1 X130.978 Y149.719 E.0305
G1 X130.34 Y149.987 E.03052
G1 X129.69 Y150.23 E.03056
G1 X129.028 Y150.446 E.03069
G1 X128.369 Y150.634 E.0302
G1 X127.63 Y150.81 E.03351
G1 X127.03 Y150.929 E.02693
G1 X126.36 Y151.035 E.02994
G1 X125.572 Y151.125 E.03491
G1 X124.33 Y151.195 E.05485
G1 X123.653 Y151.194 E.02986
G1 X122.979 Y151.167 E.0297
G1 X122.278 Y151.111 E.031
G1 X120.973 Y150.929 E.05806
G1 X120.311 Y150.797 E.02976
G1 X119.653 Y150.639 E.02984
G1 X119.01 Y150.458 E.02945
G1 X118.369 Y150.25 E.02968
G1 X117.737 Y150.017 E.02968
G1 X117.115 Y149.76 E.02968
G1 X116.502 Y149.478 E.02973
G1 X115.899 Y149.171 E.02984
G1 X115.316 Y148.845 E.02943
G1 X114.742 Y148.494 E.02966
G1 X114.182 Y148.12 E.02967
G1 X113.636 Y147.725 E.02972
G1 X113.104 Y147.306 E.02984
G1 X112.595 Y146.873 E.02942
G1 X112.101 Y146.417 E.02966
G1 X111.624 Y145.942 E.02967
G1 X111.165 Y145.448 E.02971
G1 X110.724 Y144.933 E.02987
G1 X110.31 Y144.41 E.02941
G1 X109.913 Y143.866 E.02968
G1 X109.537 Y143.307 E.02968
G1 X109.184 Y142.734 E.02968
G1 X108.853 Y142.147 E.02968
G1 X108.454 Y141.352 E.03922
G1 X108.195 Y140.777 E.02779
G1 X107.767 Y139.682 E.05182
G1 X107.555 Y139.036 E.02996
G1 X107.372 Y138.393 E.02946
G1 X107.212 Y137.737 E.02974
G1 X107.078 Y137.075 E.02976
G1 X106.971 Y136.409 E.02976
G1 X106.889 Y135.738 E.02977
G1 X106.834 Y135.064 E.02979
G1 X106.806 Y134.389 E.02979
G1 X106.804 Y133.713 E.02981
G1 X106.828 Y133.036 E.02983
G1 X106.879 Y132.362 E.02982
G1 X106.957 Y131.689 E.02985
G1 X107.061 Y131.02 E.02986
G1 X107.192 Y130.354 E.02989
G1 X107.386 Y129.561 E.03598
G1 X107.73 Y128.425 E.05233
G1 X107.956 Y127.802 E.02922
G1 X108.208 Y127.186 E.02931
G1 X108.483 Y126.58 E.02932
G1 X108.959 Y125.663 E.04555
G1 X110.491 Y126.548 E.07797
G1 X110.615 Y126.566 E.00552
G1 E-.5 F1800
;WIPE_START
G1 F12000
G1 X110.794 Y126.471
G1 X111.19 Y125.82
G1 X111.521 Y125.321
G1 X111.779 Y124.968
;WIPE_END
G1 Z.45 F24000
G1 X131.571 Y131.626 Z.45
G1 Z.25
G1 E.5 F1800
;TYPE:Inner wall
G1 F3000
G1 X132.03 Y131.668 E.02032
G1 X132.62 Y131.886 E.02769
G1 X133.128 Y132.247 E.02749
G1 X133.527 Y132.729 E.02756
G1 X133.787 Y133.297 E.02753
G1 X133.891 Y133.913 E.02753
G1 X133.832 Y134.535 E.02753
G1 X133.614 Y135.12 E.02753
G1 X133.253 Y135.629 E.02749
G1 X132.771 Y136.027 E.02756
G1 X132.203 Y136.287 E.02753
G1 X131.587 Y136.391 E.02753
G1 X130.965 Y136.333 E.02753
G1 X130.38 Y136.115 E.02753
G1 X129.961 Y135.822 E.02251
G1 X129.736 Y135.615 E.01349
G1 X129.414 Y135.178 E.02394
G1 X129.214 Y134.707 E.02253
G1 X129.109 Y134.088 E.02769
G1 X129.168 Y133.466 E.02753
G1 X129.385 Y132.881 E.02753
G1 X129.747 Y132.371 E.02753
G1 X130.214 Y131.985 E.0267
G1 X130.797 Y131.713 E.02833
G1 X131.398 Y131.61 E.02688
G1 X131.531 Y131.623 E.00591
G1 X131.534 Y132.055 F24000
;TYPE:Outer wall
G1 F3000
G1 X132.02 Y132.121 E.0216
G1 X132.482 Y132.316 E.02211
G1 X132.887 Y132.63 E.02257
G1 X133.2 Y133.048 E.02301
G1 X133.389 Y133.524 E.0226
G1 X133.448 Y134.028 E.02237
G1 X133.374 Y134.533 E.02248
G1 X133.174 Y134.998 E.0223
G1 X132.857 Y135.398 E.02251
G1 X132.449 Y135.702 E.02245
G1 X131.976 Y135.89 E.02242
G1 X131.471 Y135.949 E.02242
G1 X130.967 Y135.875 E.02242
G1 X130.507 Y135.678 E.02205
G1 X130.109 Y135.367 E.02228
G1 X129.806 Y134.962 E.02231
G1 X129.61 Y134.477 E.02305
G1 X129.551 Y133.971 E.02242
G1 X129.625 Y133.468 E.02242
G1 X129.827 Y133.001 E.02242
G1 X130.138 Y132.606 E.02217
G1 X130.535 Y132.306 E.02194
G1 X131.012 Y132.113 E.02267
G1 X131.495 Y132.055 E.02143
G1 E-.5 F1800
;WIPE_START
G1 F12000
G1 X132.02 Y132.121
G1 X132.482 Y132.316
G1 X132.887 Y132.63
G1 X133.161 Y132.995
;WIPE_END
G1 Z.45 F24000
G1 X115.729 Y131.745 Z.45
G1 Z.25
G1 E.5 F1800
;TYPE:Inner wall
G1 F3000
G1 X115.793 Y131.715 E.00312
G1 X116.398 Y131.61 E.02704
G1 X117.078 Y131.675 E.03011
G1 X117.62 Y131.886 E.02562
G1 X118.094 Y132.221 E.0256
G1 X118.252 Y132.371 E.00962
G1 X118.572 Y132.796 E.02343
G1 X118.787 Y133.297 E.02402
G1 X118.891 Y133.913 E.02753
G1 X118.832 Y134.535 E.02753
G1 X118.614 Y135.12 E.02753
G1 X118.253 Y135.629 E.02749
G1 X117.783 Y136.019 E.02692
G1 X117.206 Y136.286 E.028
G1 X116.587 Y136.391 E.02769
G1 X115.965 Y136.333 E.02753
G1 X115.38 Y136.115 E.02753
G1 X114.871 Y135.753 E.02749
G1 X114.473 Y135.272 E.02756
G1 X114.213 Y134.704 E.02753
G1 X114.109 Y134.088 E.02753
G1 X114.168 Y133.466 E.02753
G1 X114.385 Y132.881 E.02753
G1 X114.747 Y132.372 E.02749
G1 X115.216 Y131.982 E.02692
G1 X115.692 Y131.761 E.02312
G1 X115.919 Y132.15 F24000
;TYPE:Outer wall
G1 F3000
G1 X116.007 Y132.113 E.00423
G1 X116.514 Y132.053 E.0225
G1 X117.019 Y132.121 E.02246
G1 X117.485 Y132.317 E.02228
G1 X117.886 Y132.629 E.02238
