; HEADER_BLOCK_START
; generated by OrcaSlicer 2.2.0 on 2024-11-16 at 13:08:46
; total layer number: 130
; filament_density: 1.27
; filament_diameter: 1.75
; max_z_height: 26.00
; HEADER_BLOCK_END

; THUMBNAIL_BLOCK_START

;
; THUMBNAIL_BLOCK_END

; THUMBNAIL_BLOCK_START

;
; THUMBNAIL_BLOCK_END

; external perimeters extrusion width = 0.42mm
; perimeters extrusion width = 0.45mm
; infill extrusion width = 0.45mm
; solid infill extrusion width = 0.45mm
; top infill extrusion width = 0.42mm
; first layer extrusion width = 0.50mm

; EXECUTABLE_BLOCK_START
EXCLUDE_OBJECT_DEFINE NAME=Corps14.stl_id_0_copy_0 CENTER=115,115 POLYGON=[[19.5,109.5],[210.5,109.5],[210.5,120.5],[19.5,120.5],[19.5,109.5]]
M73 P0 R36
;TYPE:Custom
M220 S100
G90 ; use absolute coordinates
M83 ; extruder relative mode
M104 S150 ; set temporary nozzle temp to prevent oozing during homing
M140 S70 ; set final bed temp
G4 S30 ; allow partial nozzle warmup
G28 ; home all axis and restore leveling
BED_MESH_CALIBRATE PROFILE=adaptive ADAPTIVE=1 ADAPTIVE_MARGIN=0
G1 Z25 F240
G1 X10.0 Y30 F3000
M104 S245 ; set final nozzle temp
M190 S70 ; wait for bed temp to stabilize
M109 S245 ; wait for nozzle temp to stabilize
G1 Z0.28 F240
G92 E0 ; Move Z Axis up
G1 Z2.0 F5000 ; Move to start position
G1 X5 Y30 Z0.28 F300 ; Draw the first line
G1 X5 Y200 Z0.28 F1500 E15 ; Move to side a little
G1 X5.4 Y200 Z0.28 F5000.0 ; Draw the second line
M73 P0 R35
M73 P0 R35
G1 X5.4 Y50 Z0.28 F1500.0 E30 ; Reset Extruder
G92 E0 ; Move Z Axis up
G1 Z2.0 F3000
M73 P1 R35
M117 Start Printing..
G90
G21
M83 ; use relative distances for extrusion
; filament start gcode
M106 S0
;LAYER_CHANGE
;Z:0.2
;HEIGHT:0.2
;BEFORE_LAYER_CHANGE
;0.2
G92 E0

M73 P1 R35
G1 E-.5 F1800
;_SET_FAN_SPEED_CHANGING_LAYER
SET_VELOCITY_LIMIT ACCEL=1000
SET_VELOCITY_LIMIT SQUARE_CORNER_VELOCITY=7
; printing object Corps14.stl id:0 copy 0
EXCLUDE_OBJECT_START NAME=Corps14.stl_id_0_copy_0
G1 Z.4 F24000
G1 X110.45 Y136.946
G1 Z.4
G1 Z.2
G1 E.5 F1800
;TYPE:Inner wall
;WIDTH:0.499999
G1 F3000
G1 X110.303 Y137.148 E.00902
G1 X110.243 Y137.429 E.01036
G1 X110.243 Y138.543 E.04024
G1 X99.757 Y138.543 E.3786
G1 X99.757 Y137.429 E.04024
G1 X99.697 Y137.148 E.01036
G1 X99.529 Y136.918 E.01027
G1 X99.325 Y136.791 E.00869
G1 X99.071 Y136.743 E.00931
G1 X95.429 Y136.743 E.13153
G1 X95.158 Y136.799 E.00999
G1 X94.946 Y136.942 E.00924
G1 X94.815 Y137.122 E.00802
G1 X94.743 Y137.429 E.01138
G1 X94.743 Y139.743 E.08356
G1 X28.257 Y139.743 E2.40054
G1 X28.257 Y130.257 E.3425
G1 X217.743 Y130.257 E6.84157
G1 X217.743 Y139.743 E.3425
G1 X151.257 Y139.743 E2.40054
G1 X151.257 Y137.429 E.08356
G1 X151.185 Y137.122 E.01138
G1 X151.054 Y136.942 E.00802
G1 X150.842 Y136.799 E.00924
G1 X150.571 Y136.743 E.00999
G1 X146.929 Y136.743 E.13153
G1 X146.675 Y136.791 E.00931
G1 X146.471 Y136.918 E.00869
G1 X146.303 Y137.148 E.01027
G1 X146.243 Y137.429 E.01036
G1 X146.243 Y138.543 E.04024
G1 X135.757 Y138.543 E.3786
G1 X135.757 Y137.429 E.04024
G1 X135.697 Y137.148 E.01036
G1 X135.529 Y136.918 E.01027
G1 X135.325 Y136.791 E.00869
G1 X135.071 Y136.743 E.00931
G1 X130.929 Y136.743 E.14958
G1 X130.658 Y136.799 E.00999
G1 X130.446 Y136.942 E.00924
G1 X130.315 Y137.122 E.00802
G1 X130.243 Y137.429 E.01138
G1 X130.243 Y139.743 E.08356
G1 X115.757 Y139.743 E.52303
G1 X115.757 Y137.429 E.08356
G1 X115.685 Y137.122 E.01138
G1 X115.554 Y136.942 E.00802
G1 X115.342 Y136.799 E.00924
G1 X115.071 Y136.743 E.00999
G1 X110.929 Y136.743 E.14958
G1 X110.675 Y136.791 E.00931
G1 X110.475 Y136.915 E.0085
G1 X110.776 Y137.258 F24000
;TYPE:Outer wall
G1 F3000
G1 X110.7 Y137.429 E.00673
G1 X110.7 Y139 E.05674
G1 X99.3 Y139 E.41161
G1 X99.3 Y137.429 E.05674
G1 X99.224 Y137.258 E.00673
G1 X99.071 Y137.2 E.0059
G1 X95.429 Y137.2 E.13153
G1 X95.268 Y137.266 E.00629
G1 X95.2 Y137.429 E.00635
G1 X95.2 Y140.2 E.10007
G1 X27.8 Y140.2 E2.43354
G1 X27.8 Y129.8 E.3755
G1 X218.2 Y129.8 E6.87457
G1 X218.2 Y140.2 E.3755
G1 X150.8 Y140.2 E2.43354
M73 P2 R35
M73 P2 R35
G1 X150.8 Y137.429 E.10007
G1 X150.732 Y137.266 E.00635
G1 X150.571 Y137.2 E.00629
G1 X146.929 Y137.2 E.13153
G1 X146.776 Y137.258 E.0059
G1 X146.7 Y137.429 E.00673
G1 X146.7 Y139 E.05674
G1 X135.3 Y139 E.41161
G1 X135.3 Y137.429 E.05674
G1 X135.224 Y137.258 E.00673
G1 X135.071 Y137.2 E.0059
G1 X130.929 Y137.2 E.14958
G1 X130.768 Y137.266 E.00629
G1 X130.7 Y137.429 E.00635
G1 X130.7 Y140.2 E.10007
G1 X115.3 Y140.2 E.55603
G1 X115.3 Y137.429 E.10007
G1 X115.232 Y137.266 E.00635
G1 X115.071 Y137.2 E.00629
G1 X110.929 Y137.2 E.14958
G1 X110.813 Y137.244 E.00446
G1 E-.5 F1800
;WIPE_START
G1 F12000
G1 X110.7 Y137.429
G1 X110.7 Y139
G1 X110.488 Y139
;WIPE_END
G1 Z.4 F24000
G1 X217.606 Y131.319
G1 Z.4
G1 Z.2
G1 E.5 F1800
;TYPE:Bottom surface
;WIDTH:0.500154
G1 F5905.073
G1 X216.887 Y130.6 E.03671
G1 X216.241 Y130.6 E.02336
G1 X217.4 Y131.759 E.05923
G1 X217.4 Y132.406 E.02336
G1 X215.594 Y130.6 E.09226
G1 X214.947 Y130.6 E.02336
G1 X217.4 Y133.053 E.12529
G1 X217.4 Y133.699 E.02336
G1 X214.301 Y130.6 E.15832
G1 X213.654 Y130.6 E.02336
G1 X217.4 Y134.346 E.19134
G1 X217.4 Y134.993 E.02335
G1 X213.007 Y130.6 E.22437
G1 X212.361 Y130.6 E.02336
G1 X217.4 Y135.639 E.2574
G1 X217.4 Y136.286 E.02335
G1 X211.714 Y130.6 E.29043
G1 X211.068 Y130.6 E.02335
G1 X217.4 Y136.932 E.32346
G1 X217.4 Y137.579 E.02335
G1 X210.421 Y130.6 E.35649
G1 X209.774 Y130.6 E.02335
G1 X217.4 Y138.226 E.38952
G1 X217.4 Y138.872 E.02335
G1 X209.128 Y130.6 E.42255
G1 X208.481 Y130.6 E.02335
G1 X217.281 Y139.4 E.44951
G1 X216.635 Y139.4 E.02335
G1 X207.834 Y130.6 E.44951
G1 X207.188 Y130.6 E.02335
G1 X215.988 Y139.4 E.44951
G1 X215.341 Y139.4 E.02335
G1 X206.541 Y130.6 E.44951
G1 X205.895 Y130.6 E.02335
G1 X214.695 Y139.4 E.44951
G1 X214.048 Y139.4 E.02336
G1 X205.248 Y130.6 E.44951
G1 X204.601 Y130.6 E.02335
G1 X213.402 Y139.4 E.44951
G1 X212.755 Y139.4 E.02336
G1 X203.955 Y130.6 E.44951
G1 X203.308 Y130.6 E.02335
G1 X212.108 Y139.4 E.44951
G1 X211.462 Y139.4 E.02336
G1 X202.661 Y130.6 E.44951
G1 X202.015 Y130.6 E.02335
G1 X210.815 Y139.4 E.44951
G1 X210.168 Y139.4 E.02336
G1 X201.368 Y130.6 E.44951
G1 X200.722 Y130.6 E.02335
G1 X209.522 Y139.4 E.44951
G1 X208.875 Y139.4 E.02336
G1 X200.075 Y130.6 E.44951
G1 X199.428 Y130.6 E.02335
G1 X208.228 Y139.4 E.44951
G1 X207.582 Y139.4 E.02336
G1 X198.782 Y130.6 E.44951
G1 X198.135 Y130.6 E.02336
G1 X206.935 Y139.4 E.44951
G1 X206.289 Y139.4 E.02336
G1 X197.488 Y130.6 E.44951
G1 X196.842 Y130.6 E.02336
G1 X205.642 Y139.4 E.44951
G1 X204.995 Y139.4 E.02336
G1 X196.195 Y130.6 E.44951
G1 X195.549 Y130.6 E.02336
G1 X204.349 Y139.4 E.44951
G1 X203.702 Y139.4 E.02336
G1 X194.902 Y130.6 E.44951
G1 X194.255 Y130.6 E.02336
G1 X203.055 Y139.4 E.44951
G1 X202.409 Y139.4 E.02336
G1 X193.609 Y130.6 E.44951
G1 X192.962 Y130.6 E.02336
G1 X201.762 Y139.4 E.44951
G1 X201.116 Y139.4 E.02336
G1 X192.315 Y130.6 E.44951
G1 X191.669 Y130.6 E.02336
G1 X200.469 Y139.4 E.44951
G1 X199.822 Y139.4 E.02335
G1 X191.022 Y130.6 E.44951
G1 X190.375 Y130.6 E.02336
G1 X199.176 Y139.4 E.44951
G1 X198.529 Y139.4 E.02335
G1 X189.729 Y130.6 E.44951
G1 X189.082 Y130.6 E.02336
G1 X197.882 Y139.4 E.44951
G1 X197.236 Y139.4 E.02335
G1 X188.436 Y130.6 E.44951
G1 X187.789 Y130.6 E.02336
G1 X196.589 Y139.4 E.44951
G1 X195.943 Y139.4 E.02335
G1 X187.142 Y130.6 E.44951
G1 X186.496 Y130.6 E.02336
G1 X195.296 Y139.4 E.44951
G1 X194.649 Y139.4 E.02335
G1 X185.849 Y130.6 E.44951
G1 X185.202 Y130.6 E.02335
G1 X194.003 Y139.4 E.44951
G1 X193.356 Y139.4 E.02335
G1 X184.556 Y130.6 E.44951
G1 X183.909 Y130.6 E.02335
G1 X192.709 Y139.4 E.44951
G1 X192.063 Y139.4 E.02335
G1 X183.263 Y130.6 E.44951
G1 X182.616 Y130.6 E.02335
G1 X191.416 Y139.4 E.44951
G1 X190.77 Y139.4 E.02335
G1 X181.969 Y130.6 E.44951
G1 X181.323 Y130.6 E.02335
G1 X190.123 Y139.4 E.44951
G1 X189.476 Y139.4 E.02335
G1 X180.676 Y130.6 E.44951
G1 X180.029 Y130.6 E.02335
G1 X188.83 Y139.4 E.44951
G1 X188.183 Y139.4 E.02335
G1 X179.383 Y130.6 E.44951
G1 X178.736 Y130.6 E.02335
G1 X187.536 Y139.4 E.44951
G1 X186.89 Y139.4 E.02336
G1 X178.09 Y130.6 E.44951
G1 X177.443 Y130.6 E.02335
G1 X186.243 Y139.4 E.44951
G1 X185.597 Y139.4 E.02336
G1 X176.796 Y130.6 E.44951
G1 X176.15 Y130.6 E.02335
G1 X184.95 Y139.4 E.44951
G1 X184.303 Y139.4 E.02335
G1 X175.503 Y130.6 E.44951
G1 X174.856 Y130.6 E.02335
G1 X183.657 Y139.4 E.44951
G1 X183.01 Y139.4 E.02336
G1 X174.21 Y130.6 E.44951
G1 X173.563 Y130.6 E.02335
G1 X182.363 Y139.4 E.44951
G1 X181.717 Y139.4 E.02336
G1 X172.917 Y130.6 E.44951
G1 X172.27 Y130.6 E.02336
G1 X181.07 Y139.4 E.44951
G1 X180.424 Y139.4 E.02335
G1 X171.623 Y130.6 E.44951
G1 X170.977 Y130.6 E.02336
G1 X179.777 Y139.4 E.44951
G1 X179.13 Y139.4 E.02335
G1 X170.33 Y130.6 E.44951
G1 X169.683 Y130.6 E.02336
G1 X178.484 Y139.4 E.44951
G1 X177.837 Y139.4 E.02335
G1 X169.037 Y130.6 E.44951
G1 X168.39 Y130.6 E.02336
G1 X177.19 Y139.4 E.44951
G1 X176.544 Y139.4 E.02335
G1 X167.744 Y130.6 E.44951
G1 X167.097 Y130.6 E.02336
M73 P3 R35
M73 P3 R35
G1 X175.897 Y139.4 E.44951
G1 X175.251 Y139.4 E.02335
G1 X166.45 Y130.6 E.44951
G1 X165.804 Y130.6 E.02336
G1 X174.604 Y139.4 E.44951
G1 X173.957 Y139.4 E.02335
G1 X165.157 Y130.6 E.44951
G1 X164.51 Y130.6 E.02336
G1 X173.311 Y139.4 E.44951
G1 X172.664 Y139.4 E.02335
G1 X163.864 Y130.6 E.44951
G1 X163.217 Y130.6 E.02336
G1 X172.017 Y139.4 E.44951
G1 X171.371 Y139.4 E.02335
G1 X162.571 Y130.6 E.44951
G1 X161.924 Y130.6 E.02336
G1 X170.724 Y139.4 E.44951
G1 X170.078 Y139.4 E.02335
G1 X161.277 Y130.6 E.44951
G1 X160.631 Y130.6 E.02336
G1 X169.431 Y139.4 E.44951
G1 X168.784 Y139.4 E.02335
G1 X159.984 Y130.6 E.44951
G1 X159.337 Y130.6 E.02336
G1 X168.138 Y139.4 E.44951
G1 X167.491 Y139.4 E.02336
G1 X158.691 Y130.6 E.44951
G1 X158.044 Y130.6 E.02335
G1 X166.844 Y139.4 E.44951
G1 X166.198 Y139.4 E.02336
G1 X157.398 Y130.6 E.44951
G1 X156.751 Y130.6 E.02335
G1 X165.551 Y139.4 E.44951
G1 X164.905 Y139.4 E.02336
G1 X156.104 Y130.6 E.44951
G1 X155.458 Y130.6 E.02335
G1 X164.258 Y139.4 E.44951
G1 X163.611 Y139.4 E.02336
G1 X154.811 Y130.6 E.44951
G1 X154.164 Y130.6 E.02335
G1 X162.965 Y139.4 E.44951
G1 X162.318 Y139.4 E.02336
G1 X153.518 Y130.6 E.44951
G1 X152.871 Y130.6 E.02336
G1 X161.671 Y139.4 E.44951
G1 X161.025 Y139.4 E.02336
G1 X152.225 Y130.6 E.44951
G1 X151.578 Y130.6 E.02336
G1 X160.378 Y139.4 E.44951
G1 X159.732 Y139.4 E.02336
G1 X150.931 Y130.6 E.44951
G1 X150.285 Y130.6 E.02336
G1 X159.085 Y139.4 E.44951
G1 X158.438 Y139.4 E.02336
G1 X149.638 Y130.6 E.44951
G1 X148.991 Y130.6 E.02336
G1 X157.792 Y139.4 E.44951
G1 X157.145 Y139.4 E.02336
G1 X148.345 Y130.6 E.44951
G1 X147.698 Y130.6 E.02336
G1 X156.498 Y139.4 E.44951
G1 X155.852 Y139.4 E.02336
G1 X147.052 Y130.6 E.44951
G1 X146.405 Y130.6 E.02336
G1 X155.205 Y139.4 E.44951
G1 X154.558 Y139.4 E.02336
G1 X145.758 Y130.6 E.44951
G1 X145.112 Y130.6 E.02336
G1 X153.912 Y139.4 E.44951
G1 X153.265 Y139.4 E.02335
G1 X151.6 Y137.735 E.08506
G1 X151.6 Y138.381 E.02335
G1 X152.619 Y139.4 E.05204
G1 X151.972 Y139.4 E.02335
G1 X151.394 Y138.822 E.02951
G1 E-.5 F1800
;WIPE_START
G1 F12000
G1 X151.972 Y139.4
G1 X152.619 Y139.4
G1 X152.239 Y139.021
;WIPE_END
G1 Z.4 F24000
G1 X150.471 Y136.606 Z.4
G1 Z.2
G1 E.5 F1800
G1 F5905.073
G1 X144.465 Y130.6 E.30678
G1 X143.818 Y130.6 E.02336
G1 X149.619 Y136.4 E.29627
G1 X148.972 Y136.4 E.02336
G1 X143.172 Y130.6 E.29627
G1 X142.525 Y130.6 E.02336
G1 X148.325 Y136.4 E.29627
G1 X147.679 Y136.4 E.02336
G1 X141.879 Y130.6 E.29627
G1 X141.232 Y130.6 E.02336
G1 X147.032 Y136.4 E.29627
G1 X146.733 Y136.418 E.01081
G1 X146.488 Y136.503 E.00937
G1 X140.585 Y130.6 E.30152
G1 X139.939 Y130.6 E.02336
G1 X146.125 Y136.786 E.31599
G1 X145.987 Y137.011 E.00954
G1 X145.937 Y137.245 E.00862
G1 X139.292 Y130.6 E.33941
G1 X138.645 Y130.6 E.02335
G1 X145.9 Y137.855 E.37056
G1 X145.9 Y138.2 E.01248
G1 X145.599 Y138.2 E.01088
G1 X137.999 Y130.6 E.38821
G1 X137.352 Y130.6 E.02335
G1 X144.952 Y138.2 E.38821
G1 X144.306 Y138.2 E.02335
G1 X136.705 Y130.6 E.38821
G1 X136.059 Y130.6 E.02335
G1 X143.659 Y138.2 E.38821
G1 X143.012 Y138.2 E.02335
G1 X135.412 Y130.6 E.38821
G1 X134.766 Y130.6 E.02335
G1 X142.366 Y138.2 E.38821
G1 X141.719 Y138.2 E.02335
G1 X134.119 Y130.6 E.38821
G1 X133.472 Y130.6 E.02335
G1 X141.073 Y138.2 E.38821
G1 X140.426 Y138.2 E.02335
M73 P3 R34
M73 P3 R34
G1 X132.826 Y130.6 E.38821
G1 X132.179 Y130.6 E.02335
G1 X139.779 Y138.2 E.38821
G1 X139.133 Y138.2 E.02336
G1 X131.532 Y130.6 E.38821
G1 X130.886 Y130.6 E.02335
G1 X138.486 Y138.2 E.38821
G1 X137.839 Y138.2 E.02336
G1 X130.239 Y130.6 E.38821
G1 X129.593 Y130.6 E.02335
G1 X137.193 Y138.2 E.38821
G1 X136.546 Y138.2 E.02336
G1 X135.894 Y137.548 E.0333
G1 X134.952 Y136.606 F24000
G1 F5905.073
G1 X128.946 Y130.6 E.30678
G1 X128.299 Y130.6 E.02335
G1 X134.1 Y136.4 E.29627
G1 X133.453 Y136.4 E.02335
G1 X127.653 Y130.6 E.29627
G1 X127.006 Y130.6 E.02335
G1 X132.806 Y136.4 E.29627
G1 X132.16 Y136.4 E.02336
G1 X126.359 Y130.6 E.29627
G1 X125.713 Y130.6 E.02336
G1 X131.513 Y136.4 E.29627
G1 X130.871 Y136.405 E.02319
G1 X125.066 Y130.6 E.2965
G1 X124.42 Y130.6 E.02336
G1 X130.381 Y136.561 E.30449
G1 X130.204 Y136.698 E.00807
G1 X130.058 Y136.885 E.00857
G1 X123.773 Y130.6 E.32105
G1 X123.126 Y130.6 E.02336
G1 X129.906 Y137.379 E.34628
G1 X129.9 Y138.02 E.02315
G1 X122.48 Y130.6 E.37903
G1 X121.833 Y130.6 E.02336
G1 X129.9 Y138.667 E.41205
G1 X129.9 Y139.314 E.02336
G1 X121.186 Y130.6 E.44508
G1 X120.54 Y130.6 E.02336
G1 X129.34 Y139.4 E.44951
G1 X128.693 Y139.4 E.02336
G1 X119.893 Y130.6 E.44951
G1 X119.247 Y130.6 E.02336
G1 X128.047 Y139.4 E.44951
G1 X127.4 Y139.4 E.02336
G1 X118.6 Y130.6 E.44951
G1 X117.953 Y130.6 E.02336
G1 X126.754 Y139.4 E.44951
G1 X126.107 Y139.4 E.02335
G1 X117.307 Y130.6 E.44951
G1 X116.66 Y130.6 E.02336
G1 X125.46 Y139.4 E.44951
G1 X124.814 Y139.4 E.02335
G1 X116.013 Y130.6 E.44951
G1 X115.367 Y130.6 E.02336
G1 X124.167 Y139.4 E.44951
G1 X123.52 Y139.4 E.02335
G1 X114.72 Y130.6 E.44951
G1 X114.074 Y130.6 E.02336
G1 X122.874 Y139.4 E.44951
G1 X122.227 Y139.4 E.02335
G1 X113.427 Y130.6 E.44951
G1 X112.78 Y130.6 E.02336
G1 X121.581 Y139.4 E.44951
G1 X120.934 Y139.4 E.02335
G1 X112.134 Y130.6 E.44951
G1 X111.487 Y130.6 E.02335
G1 X120.287 Y139.4 E.44951
G1 X119.641 Y139.4 E.02335
G1 X110.84 Y130.6 E.44951
G1 X110.194 Y130.6 E.02335
G1 X118.994 Y139.4 E.44951
G1 X118.347 Y139.4 E.02335
G1 X109.547 Y130.6 E.44951
G1 X108.901 Y130.6 E.02335
G1 X114.701 Y136.4 E.29627
G1 X114.054 Y136.4 E.02336
M73 P4 R34
M73 P4 R34
G1 X108.254 Y130.6 E.29627
G1 X107.607 Y130.6 E.02335
G1 X113.408 Y136.4 E.29627
G1 X112.761 Y136.4 E.02335
G1 X106.961 Y130.6 E.29627
G1 X106.314 Y130.6 E.02335
G1 X112.114 Y136.4 E.29627
G1 X111.468 Y136.4 E.02335
G1 X105.667 Y130.6 E.29627
G1 X105.021 Y130.6 E.02335
G1 X110.83 Y136.409 E.29672
G1 X110.733 Y136.418 E.0035
G1 X110.549 Y136.472 E.00695
G1 X110.353 Y136.579 E.00804
G1 X104.374 Y130.6 E.30539
G1 X103.728 Y130.6 E.02335
G1 X110.045 Y136.917 E.32267
G1 X109.987 Y137.011 E.004
G1 X109.9 Y137.419 E.01506
G1 X103.081 Y130.6 E.34832
G1 X102.434 Y130.6 E.02335
G1 X109.9 Y138.066 E.38135
G1 X109.9 Y138.2 E.00485
G1 X109.388 Y138.2 E.0185
G1 X101.788 Y130.6 E.38821
G1 X101.141 Y130.6 E.02335
G1 X108.741 Y138.2 E.38821
G1 X108.095 Y138.2 E.02336
G1 X100.494 Y130.6 E.38821
G1 X99.848 Y130.6 E.02335
G1 X107.448 Y138.2 E.38821
G1 X106.801 Y138.2 E.02336
G1 X99.201 Y130.6 E.38821
G1 X98.555 Y130.6 E.02336
G1 X106.155 Y138.2 E.38821
G1 X105.508 Y138.2 E.02336
G1 X97.908 Y130.6 E.38821
G1 X97.261 Y130.6 E.02336
G1 X104.862 Y138.2 E.38821
G1 X104.215 Y138.2 E.02336
G1 X96.615 Y130.6 E.38821
G1 X95.968 Y130.6 E.02336
G1 X103.568 Y138.2 E.38821
G1 X102.922 Y138.2 E.02336
G1 X95.321 Y130.6 E.38821
G1 X94.675 Y130.6 E.02336
G1 X102.275 Y138.2 E.38821
G1 X101.628 Y138.2 E.02336
G1 X94.028 Y130.6 E.38821
G1 X93.382 Y130.6 E.02336
G1 X99.193 Y136.411 E.29684
G1 X99.451 Y136.472 E.00959
G1 X99.617 Y136.556 E.00671
G1 X99.758 Y136.663 E.00638
G1 X99.875 Y136.785 E.0061
G1 X100.013 Y137.011 E.00958
G1 X100.073 Y137.292 E.01035
G1 X100.982 Y138.2 E.04641
G1 X100.335 Y138.2 E.02336
G1 X99.894 Y137.759 E.02252
