; HEADER_BLOCK_START
; generated by OrcaSlicer 2.2.0 on 2024-12-01 at 18:51:05
; total layer number: 100
; filament_density: 1.27
; filament_diameter: 1.75
; max_z_height: 20.00
; HEADER_BLOCK_END

; THUMBNAIL_BLOCK_START

;
; THUMBNAIL_BLOCK_END

; THUMBNAIL_BLOCK_START

;
; THUMBNAIL_BLOCK_END

; external perimeters extrusion width = 0.42mm
; perimeters extrusion width = 0.45mm
; infill extrusion width = 0.45mm
; solid infill extrusion width = 0.45mm
; top infill extrusion width = 0.42mm
; first layer extrusion width = 0.50mm

; EXECUTABLE_BLOCK_START
EXCLUDE_OBJECT_DEFINE NAME=Corps29_id_0_copy_0 CENTER=115,115 POLYGON=[[92.0003,102.185],[114.873,102.034],[115.127,102.034],[138,102.185],[137.996,122.387],[137.681,122.81],[137.667,122.828],[137.35,123.22],[137.321,123.255],[137.003,123.617],[136.957,123.668],[136.641,124],[136.576,124.065],[136.264,124.368],[136.18,124.446],[135.872,124.721],[135.767,124.811],[135.467,125.058],[135.341,125.158],[135.048,125.379],[134.9,125.487],[134.617,125.683],[134.446,125.797],[134.175,125.97],[133.979,126.089],[133.721,126.239],[133.501,126.361],[133.258,126.489],[133.012,126.613],[132.784,126.721],[132.513,126.844],[132.302,126.934],[132.005,127.055],[131.812,127.128],[131.488,127.244],[131.314,127.303],[130.964,127.412],[130.81,127.457],[130.434,127.558],[130.3,127.591],[129.898,127.682],[129.786,127.705],[129.357,127.784],[129.267,127.799],[128.813,127.864],[128.745,127.872],[128.266,127.92],[128.22,127.924],[127.717,127.955],[127.694,127.955],[127.167,127.966],[102.833,127.966],[102.306,127.955],[102.283,127.955],[101.78,127.924],[101.734,127.92],[101.255,127.872],[101.187,127.864],[100.733,127.799],[100.643,127.784],[100.214,127.705],[100.102,127.682],[99.6996,127.591],[99.5661,127.558],[99.1898,127.457],[99.0358,127.412],[98.6858,127.303],[98.5119,127.244],[98.1882,127.128],[97.9954,127.055],[97.6979,126.934],[97.4873,126.844],[97.2157,126.721],[96.9882,126.613],[96.7424,126.489],[96.4992,126.361],[96.2786,126.239],[96.021,126.089],[95.8251,125.97],[95.5544,125.797],[95.3826,125.683],[95.1003,125.487],[94.9518,125.379],[94.6594,125.158],[94.5335,125.058],[94.2326,124.811],[94.1281,124.721],[93.8204,124.446],[93.7364,124.368],[93.4236,124.065],[93.3591,124],[93.043,123.668],[92.9966,123.617],[92.6791,123.255],[92.6495,123.22],[92.3326,122.828],[92.3185,122.81],[92.004,122.387],[92.0003,102.185]]
M73 P0 R23
;TYPE:Custom
M220 S100
G90 ; use absolute coordinates
M83 ; extruder relative mode
M104 S150 ; set temporary nozzle temp to prevent oozing during homing
M140 S70 ; set final bed temp
G4 S30 ; allow partial nozzle warmup
G28 ; home all axis and restore leveling
BED_MESH_CALIBRATE
G1 Z25 F240
G1 X10.0 Y30 F3000
M104 S245 ; set final nozzle temp
M190 S70 ; wait for bed temp to stabilize
M109 S245 ; wait for nozzle temp to stabilize
G1 Z0.28 F240
G92 E0 ; Move Z Axis up
LINE_PURGE
G92 E0 ; Move Z Axis up
G1 Z2.0 F3000
M117 Start Printing..
G90
G21
M83 ; use relative distances for extrusion
; filament start gcode
M106 S0
;LAYER_CHANGE
;Z:0.2
;HEIGHT:0.2
;BEFORE_LAYER_CHANGE
;0.2
G92 E0

G1 E-.5 F1800
TIMELAPSE_TAKE_FRAME
;_SET_FAN_SPEED_CHANGING_LAYER
SET_VELOCITY_LIMIT ACCEL=1000
SET_VELOCITY_LIMIT SQUARE_CORNER_VELOCITY=7
; printing object Corps29 id:0 copy 0
EXCLUDE_OBJECT_START NAME=Corps29_id_0_copy_0
G1 Z.4 F24000
G1 X118.18 Y144.137
G1 Z.4
M73 P1 R23
M73 P1 R23
G1 Z.2
G1 E.5 F1800
;TYPE:Inner wall
;WIDTH:0.499999
G1 F3000
G1 X118.133 Y144.085 E.00252
G1 X118.003 Y143.872 E.00901
;WIDTH:0.548113
G1 X117.9 Y143.639 E.0102
;WIDTH:0.596227
G1 X117.796 Y143.405 E.01117
G1 X117.778 Y142.994 E.01799
;WIDTH:0.499999
G1 X118.072 Y142.127 E.03306
G1 X118.465 Y141.677 E.02159
G1 X118.708 Y141.503 E.01077
G1 X119.224 Y141.286 E.02022
G1 X119.461 Y141.253 E.00864
G1 X120.014 Y141.276 E.02
G1 X120.396 Y141.423 E.01478
G1 X120.844 Y141.682 E.01868
G1 X121.22 Y142.153 E.02175
;WIDTH:0.533806
G1 X121.445 Y142.676 E.02207
;WIDTH:0.581459
G1 X121.486 Y142.812 E.00606
;WIDTH:0.629112
G1 X121.527 Y142.948 E.0066
G1 X121.578 Y142.766 E.00877
;WIDTH:0.586075
G1 X121.629 Y142.584 E.00812
;WIDTH:0.543037
G1 X121.68 Y142.401 E.00748
;WIDTH:0.499999
G1 X121.921 Y141.912 E.01968
G1 X122.084 Y141.7 E.00967
G1 X122.494 Y141.341 E.01968
G1 X122.725 Y141.207 E.00965
G1 X123.241 Y141.032 E.01968
G1 X123.462 Y140.995 E.00807
G1 X124.028 Y141.026 E.02048
G1 X124.562 Y141.207 E.02035
G1 X124.835 Y141.377 E.01162
G1 X125.237 Y141.731 E.01934
G1 X125.498 Y142.178 E.0187
;WIDTH:0.536136
G1 X125.576 Y142.337 E.00689
;WIDTH:0.572273
G1 X125.653 Y142.496 E.0074
;WIDTH:0.60841
G1 X125.731 Y142.655 E.0079
G1 X125.756 Y143.199 E.02435
;WIDTH:0.585747
G1 X125.715 Y143.442 E.01054
;WIDTH:0.555352
G1 X125.61 Y143.712 E.01174
;WIDTH:0.527676
G1 X125.504 Y143.982 E.01111
;WIDTH:0.499999
G1 X125.201 Y144.435 E.01967
G1 X125.049 Y144.598 E.00805
G1 X124.605 Y144.909 E.01958
G1 X124.125 Y145.09 E.01853
G1 X123.508 Y145.135 E.02234
G1 X122.931 Y145.018 E.02122
G1 X122.728 Y144.926 E.00807
G1 X122.275 Y144.623 E.01967
G1 X121.949 Y144.259 E.01765
G1 X121.785 Y143.984 E.01154
;WIDTH:0.540065
G1 X121.678 Y143.732 E.01074
;WIDTH:0.58013
G1 X121.572 Y143.48 E.01161
;WIDTH:0.610918
G1 X121.539 Y143.403 E.00378
;WIDTH:0.641706
G1 X121.507 Y143.325 E.00398
G1 X121.417 Y143.535 E.0108
;WIDTH:0.594471
G1 X121.327 Y143.745 E.00995
;WIDTH:0.547235
G1 X121.237 Y143.955 E.0091
;WIDTH:0.499999
G1 X121.076 Y144.193 E.01039
G1 X120.671 Y144.579 E.02017
G1 X120.463 Y144.693 E.00858
G1 X119.889 Y144.881 E.02181
G1 X119.199 Y144.833 E.02495
G1 X118.96 Y144.761 E.00901
G1 X118.506 Y144.497 E.01896
G1 X118.207 Y144.166 E.0161
G1 X118.519 Y143.83 F24000
;TYPE:Outer wall
G1 F3000
G1 X118.474 Y143.78 E.00246
G1 X118.297 Y143.332 E.01739
G1 X118.281 Y142.917 E.01498
G1 X118.473 Y142.353 E.02152
G1 X118.823 Y141.964 E.01887
G1 X119.346 Y141.728 E.02075
G1 X119.943 Y141.728 E.02156
G1 X120.462 Y141.971 E.02068
G1 X120.738 Y142.276 E.01485
G1 X120.898 Y142.507 E.01014
G1 X121.006 Y142.915 E.01525
G1 X120.97 Y143.421 E.01832
G1 X120.758 Y143.864 E.01771
G1 X120.385 Y144.223 E.01871
G1 X119.844 Y144.422 E.02079
G1 X119.249 Y144.379 E.02155
G1 X118.82 Y144.165 E.01729
G1 X118.546 Y143.86 E.01481
G1 E-.5 F1800
;WIPE_START
G1 F12000
G1 X118.474 Y143.78
G1 X118.297 Y143.332
G1 X118.281 Y142.917
G1 X118.473 Y142.353
G1 X118.74 Y142.056
;WIPE_END
G1 Z.4 F24000
G1 X116.557 Y141.812 Z.4
G1 Z.2
G1 E.5 F1800
;TYPE:Inner wall
G1 F3000
G1 X116.605 Y141.844 E.0021
G1 X116.92 Y142.132 E.0154
G1 X117.156 Y142.641 E.02029
;WIDTH:0.536706
G1 X117.202 Y142.809 E.00677
;WIDTH:0.573412
G1 X117.248 Y142.976 E.00728
;WIDTH:0.596227
G1 X117.224 Y143.417 E.01928
G1 X117.09 Y143.68 E.0129
;WIDTH:0.548113
G1 X116.955 Y143.942 E.01178
;WIDTH:0.499999
G1 X116.774 Y144.157 E.01014
G1 X116.426 Y144.428 E.01593
G1 X116.173 Y144.552 E.01018
G1 X115.718 Y144.645 E.01676
G1 X115.148 Y144.563 E.02078
G1 X114.72 Y144.348 E.01731
G1 X114.366 Y143.997 E.01801
;WIDTH:0.521857
G1 X114.122 Y143.494 E.02115
;WIDTH:0.556938
G1 X114.077 Y143.398 E.00429
;WIDTH:0.592018
G1 X114.033 Y143.302 E.00458
G1 X114.035 Y142.899 E.0175
;WIDTH:0.576882
G1 X114.171 Y142.57 E.01501
;WIDTH:0.538441
G1 X114.307 Y142.241 E.01393
;WIDTH:0.499999
G1 X114.458 Y142.024 E.00956
G1 X114.862 Y141.704 E.01859
G1 X115.12 Y141.579 E.01034
G1 X115.402 Y141.507 E.0105
G1 X115.683 Y141.496 E.01018
G1 X116.229 Y141.597 E.02003
G1 X116.523 Y141.79 E.01271
G1 X116.303 Y142.202 F24000
;TYPE:Outer wall
G1 F3000
G1 X116.492 Y142.335 E.00833
G1 X116.738 Y142.825 E.01982
G1 X116.723 Y143.344 E.01875
G1 X116.626 Y143.591 E.00956
G1 X116.493 Y143.796 E.00884
G1 X116.06 Y144.109 E.01926
G1 X115.699 Y144.188 E.01335
G1 X115.332 Y144.145 E.01335
G1 X114.999 Y143.985 E.01335
G1 X114.728 Y143.709 E.01396
G1 X114.532 Y143.241 E.01832
G1 X114.55 Y142.828 E.01494
G1 X114.758 Y142.372 E.01809
G1 X115.156 Y142.055 E.01836
G1 X115.514 Y141.95 E.01347
G1 X116.043 Y142.02 E.01926
G1 X116.27 Y142.179 E.01003
G1 E-.5 F1800
;WIPE_START
G1 F12000
G1 X116.492 Y142.335
G1 X116.738 Y142.825
G1 X116.723 Y143.344
G1 X116.626 Y143.591
G1 X116.493 Y143.796
G1 X116.37 Y143.885
;WIPE_END
G1 Z.4 F24000
G1 X113.117 Y144.407 Z.4
G1 Z.2
G1 E.5 F1800
;TYPE:Inner wall
G1 F3000
G1 X112.974 Y144.668 E.01074
G1 X112.59 Y145.118 E.02136
G1 X112.12 Y145.478 E.02136
G1 X111.586 Y145.732 E.02136
G1 X111.016 Y145.868 E.02117
G1 X110.163 Y145.848 E.03082
G1 X109.668 Y145.712 E.01851
G1 X109.428 Y145.619 E.00932
G1 X108.923 Y145.31 E.02136
G1 X108.53 Y144.949 E.01928
G1 X108.23 Y144.54 E.0183
G1 X107.976 Y144.006 E.02136
G1 X107.838 Y143.431 E.02136
G1 X107.823 Y142.839 E.02136
G1 X107.932 Y142.258 E.02136
G1 X108.158 Y141.712 E.02135
G1 X108.485 Y141.237 E.02079
G1 X108.923 Y140.818 E.02192
G1 X109.428 Y140.509 E.02136
G1 X109.985 Y140.312 E.02134
G1 X110.713 Y140.25 E.02638
G1 X111.011 Y140.258 E.01075
G1 X111.504 Y140.365 E.01822
G1 X111.996 Y140.578 E.01936
G1 X112.483 Y140.914 E.02136
G1 X112.89 Y141.343 E.02136
G1 X113.199 Y141.848 E.02136
;WIDTH:0.500438
G1 X113.422 Y142.591 E.02805
;WIDTH:0.538932
G1 X113.461 Y142.748 E.00635
;WIDTH:0.577425
G1 X113.501 Y142.906 E.00684
G1 X113.448 Y143.547 E.02717
;WIDTH:0.539142
G1 X113.257 Y144.149 E.02475
;WIDTH:0.499999
G1 X113.136 Y144.372 E.00918
G1 X112.72 Y144.193 F24000
;TYPE:Outer wall
G1 F3000
G1 X112.55 Y144.478 E.01199
G1 X112.215 Y144.844 E.01792
G1 X111.81 Y145.132 E.01792
G1 X111.355 Y145.329 E.01792
G1 X110.864 Y145.426 E.01806
G1 X110.186 Y145.392 E.02452
G1 X109.7 Y145.242 E.01835
G1 X109.258 Y144.992 E.01835
G1 X108.876 Y144.65 E.01852
G1 X108.583 Y144.243 E.01809
G1 X108.379 Y143.775 E.01845
G1 X108.28 Y143.288 E.01792
G1 X108.285 Y142.792 E.01792
G1 X108.394 Y142.307 E.01792
G1 X108.6 Y141.856 E.01792
G1 X108.896 Y141.458 E.01792
G1 X109.312 Y141.104 E.01971
G1 X109.83 Y140.843 E.02094
G1 X110.185 Y140.736 E.01341
G1 X110.856 Y140.701 E.02427
G1 X111.355 Y140.799 E.01835
G1 X111.832 Y141.007 E.01881
G1 X112.223 Y141.29 E.01741
G1 X112.568 Y141.672 E.0186
G1 X112.826 Y142.132 E.01902
G1 X113 Y142.78 E.02425
G1 X112.961 Y143.581 E.02893
G1 X112.78 Y144.091 E.01957
G1 X112.74 Y144.158 E.00281
G1 E-.5 F1800
;WIPE_START
G1 F12000
G1 X112.55 Y144.478
G1 X112.215 Y144.844
G1 X111.81 Y145.132
G1 X111.355 Y145.329
G1 X111.218 Y145.356
;WIPE_END
G1 Z.4 F24000
G1 X110.714 Y135.404 Z.4
G1 Z.2
G1 E.5 F1800
;TYPE:Inner wall
G1 F3000
G1 X110.902 Y135.058 E.01423
G1 X111.097 Y134.834 E.0107
G1 X111.501 Y134.532 E.01822
G1 X111.799 Y134.399 E.01179
G1 X112.239 Y134.299 E.01628
G1 X112.623 Y134.3 E.01386
G1 X113.295 Y134.52 E.02555
G1 X113.541 Y134.678 E.01055
G1 X113.901 Y135.037 E.01837
G1 X114.059 Y135.285 E.01062
G1 X114.236 Y135.76 E.01828
G1 X114.278 Y136.048 E.01052
G1 X114.241 Y136.555 E.01837
G1 X114.159 Y136.835 E.01051
G1 X113.916 Y137.281 E.01834
G1 X113.725 Y137.501 E.01052
G1 X113.317 Y137.807 E.01843
G1 X113.1 Y137.916 E.00877
G1 X112.565 Y138.039 E.01981
G1 X112.024 Y138.002 E.01958
G1 X111.744 Y137.92 E.01052
G1 X111.298 Y137.676 E.01837
G1 X111.077 Y137.485 E.01052
G1 X110.772 Y137.078 E.01839
G1 X110.663 Y136.86 E.00881
G1 X110.539 Y136.34 E.0193
G1 X110.577 Y135.784 E.0201
G1 X110.659 Y135.505 E.01052
G1 X110.694 Y135.439 E.0027
G1 X111.127 Y135.629 F24000
;TYPE:Outer wall
G1 F3000
G1 X111.303 Y135.277 E.01424
G1 X111.775 Y134.898 E.02184
G1 X112.239 Y134.756 E.01751
G1 X112.658 Y134.77 E.01515
G1 X113.136 Y134.948 E.01841
G1 X113.577 Y135.361 E.02182
G1 X113.808 Y135.919 E.02181
G1 X113.792 Y136.43 E.01848
G1 X113.758 Y136.616 E.0068
G1 X113.515 Y137.062 E.01834
G1 X113.044 Y137.441 E.02183
G1 X112.564 Y137.582 E.01805
G1 X112.056 Y137.546 E.01837
G1 X111.517 Y137.275 E.02181
G1 X111.138 Y136.804 E.02183
G1 X110.996 Y136.34 E.0175
G1 X111.033 Y135.817 E.01895
G1 X111.109 Y135.665 E.00612
G1 E-.5 F1800
;WIPE_START
G1 F12000
G1 X111.303 Y135.277
G1 X111.775 Y134.898
G1 X112.239 Y134.756
G1 X112.658 Y134.77
G1 X112.711 Y134.79
;WIPE_END
G1 Z.4 F24000
G1 X118.401 Y132.667 Z.4
G1 Z.2
G1 E.5 F1800
;TYPE:Inner wall
G1 F3000
G1 X118.246 Y132.61 E.00594
G1 X117.793 Y132.336 E.01914
G1 X117.579 Y132.148 E.01028
G1 X117.247 Y131.704 E.02
G1 X117.133 Y131.467 E.00948
G1 X116.993 Y130.932 E.01997
G1 X116.976 Y130.671 E.00945
G1 X117.047 Y130.123 E.01994
G1 X117.129 Y129.875 E.00946
G1 X117.4 Y129.393 E.01997
G1 X117.719 Y129.074 E.01626
G1 X118.134 Y128.765 E.0187
G1 X118.766 Y128.569 E.02388
G1 X118.983 Y128.541 E.00791
G1 X119.509 Y128.576 E.01904
G1 X120.086 Y128.785 E.02215
G1 X120.277 Y128.892 E.00791
G1 X120.645 Y129.197 E.01725
G1 X121.016 Y129.75 E.02403
G1 X121.104 Y129.949 E.00789
G1 X121.221 Y130.481 E.01964
G1 X121.205 Y130.994 E.01852
G1 X121.011 Y131.592 E.0227
G1 X120.91 Y131.786 E.00791
G1 X120.581 Y132.197 E.01901
G1 X120.079 Y132.551 E.02217
G1 X119.839 Y132.657 E.00946
G1 X119.3 Y132.78 E.01996
G1 X119.038 Y132.789 E.00946
G1 X118.492 Y132.701 E.01997
G1 X118.438 Y132.681 E.00208
G1 X118.546 Y132.239 F24000
;TYPE:Outer wall
G1 F3000
G1 X118.029 Y131.945 E.02144
G1 X117.674 Y131.511 E.02023
G1 X117.575 Y131.352 E.00678
G1 X117.435 Y130.816 E.01997
G1 X117.5 Y130.182 E.02304
G1 X117.752 Y129.701 E.0196
G1 X117.855 Y129.55 E.0066
G1 X118.287 Y129.205 E.01997
G1 X118.896 Y129.007 E.02311
G1 X119.407 Y129.022 E.01844
G1 X119.928 Y129.214 E.02006
G1 X120.331 Y129.535 E.01862
G1 X120.633 Y129.999 E.01996
G1 X120.763 Y130.508 E.01899
G1 X120.752 Y130.922 E.01495
G1 X120.578 Y131.448 E.02
G1 X120.271 Y131.859 E.01853
G1 X119.817 Y132.176 E.01998
G1 X119.198 Y132.335 E.02307
G1 X118.582 Y132.252 E.02243
G1 E-.5 F1800
;WIPE_START
G1 F12000
G1 X118.029 Y131.945
G1 X117.674 Y131.511
G1 X117.575 Y131.352
G1 X117.435 Y130.816
G1 X117.442 Y130.751
;WIPE_END
G1 Z.4 F24000
G1 X117.959 Y137.542 Z.4
G1 Z.2
G1 E.5 F1800
;TYPE:Inner wall
G1 F3000
G1 X117.718 Y137.302 E.01227
G1 X117.561 Y137.058 E.01048
G1 X117.384 Y136.588 E.01814
G1 X117.34 Y136.349 E.00875
G1 X117.35 Y135.875 E.01715
G1 X117.559 Y135.284 E.02263
G1 X117.717 Y135.038 E.01052
G1 X118.077 Y134.678 E.01841
G1 X118.277 Y134.539 E.0088
G1 X118.643 Y134.375 E.01447
G1 X119.306 Y134.302 E.02407
G1 X119.692 Y134.351 E.01406
G1 X120.191 Y134.592 E.02002
G1 X120.511 Y134.816 E.01409
G1 X120.811 Y135.181 E.01706
G1 X121.036 Y135.759 E.0224
G1 X121.079 Y136.008 E.00913
G1 X121.051 Y136.535 E.01906
G1 X120.858 Y137.055 E.02003
G1 X120.731 Y137.269 E.00899
G1 X120.34 Y137.661 E.01999
G1 X120.095 Y137.819 E.01052
G1 X119.619 Y137.996 E.01834
G1 X119.315 Y138.036 E.01107
G1 X118.763 Y137.994 E.01998
G1 X118.296 Y137.808 E.01817
G1 X118.078 Y137.661 E.00947
G1 X117.987 Y137.57 E.00465
G1 X118.282 Y137.219 F24000
;TYPE:Outer wall
G1 F3000
G1 X118.041 Y136.979 E.01227
G1 X117.812 Y136.427 E.02156
G1 X117.8 Y135.957 E.01696
G1 X117.988 Y135.443 E.01977
G1 X118.384 Y135.017 E.02102
G1 X118.795 Y134.806 E.01669
G1 X119.339 Y134.758 E.0197
G1 X119.656 Y134.82 E.01167
G1 X120.102 Y135.064 E.01837
G1 X120.414 Y135.408 E.01675
G1 X120.608 Y135.919 E.01973
G1 X120.613 Y136.404 E.01752
G1 X120.43 Y136.896 E.01894
G1 X120.017 Y137.338 E.02185
G1 X119.459 Y137.568 E.02178
G1 X118.856 Y137.545 E.02181
G1 X118.404 Y137.341 E.01791
G1 X118.31 Y137.247 E.00479
G1 E-.5 F1800
;WIPE_START
G1 F12000
G1 X118.041 Y136.979
G1 X117.812 Y136.427
G1 X117.8 Y135.957
G1 X117.988 Y135.443
G1 X117.991 Y135.439
;WIPE_END
G1 Z.4 F24000
G1 X125.426 Y137.947 Z.4
G1 Z.2
G1 E.5 F1800
;TYPE:Inner wall
G1 F3000
M73 P1 R22
M73 P1 R22
G1 X125.342 Y137.919 E.00318
G1 X124.896 Y137.675 E.01837
G1 X124.676 Y137.484 E.01052
G1 X124.371 Y137.076 E.01836
G1 X124.263 Y136.86 E.00874
G1 X124.14 Y136.349 E.01895
G1 X124.151 Y135.873 E.0172
G1 X124.359 Y135.284 E.02258
G1 X124.517 Y135.038 E.01052
G1 X124.877 Y134.678 E.01841
G1 X125.077 Y134.539 E.0088
G1 X125.443 Y134.375 E.01447
G1 X126.106 Y134.302 E.02407
G1 X126.418 Y134.342 E.01136
G1 X126.895 Y134.519 E.01838
G1 X127.14 Y134.677 E.01053
G1 X127.5 Y135.036 E.01837
G1 X127.661 Y135.29 E.01083
G1 X127.866 Y135.866 E.0221
G1 X127.877 Y136.4 E.01927
G1 X127.658 Y137.057 E.025
G1 X127.5 Y137.302 E.01052
G1 X127.141 Y137.661 E.01834
