; HEADER_BLOCK_START
; generated by OrcaSlicer 2.0.0 on 2024-06-16 at 06:55:23
; total layer number: 200
; filament_density: 1.24
; filament_diameter: 1.75
; max_z_height: 40.00
; HEADER_BLOCK_END

; THUMBNAIL_BLOCK_START

;
; THUMBNAIL_BLOCK_END

; THUMBNAIL_BLOCK_START

;
; THUMBNAIL_BLOCK_END

; external perimeters extrusion width = 0.40mm
; perimeters extrusion width = 0.42mm
; infill extrusion width = 0.45mm
; solid infill extrusion width = 0.42mm
; top infill extrusion width = 0.40mm
; first layer extrusion width = 0.50mm

; EXECUTABLE_BLOCK_START
EXCLUDE_OBJECT_DEFINE NAME=Corps6.stl_id_0_copy_0 CENTER=115,115 POLYGON=[[107.001,115],[107.01,114.616],[107.038,114.234],[107.084,113.853],[107.148,113.475],[107.23,113.1],[107.33,112.729],[107.448,112.364],[107.583,112.005],[107.735,111.653],[107.904,111.308],[108.089,110.972],[108.29,110.646],[108.507,110.329],[108.738,110.023],[108.984,109.728],[109.243,109.446],[109.516,109.176],[109.802,108.92],[110.099,108.678],[110.408,108.45],[110.728,108.237],[111.057,108.04],[111.395,107.859],[111.741,107.694],[112.095,107.546],[112.456,107.416],[112.823,107.302],[113.194,107.207],[113.57,107.129],[113.949,107.069],[114.33,107.028],[114.713,107.005],[115.097,107.001],[115.48,107.014],[115.863,107.047],[116.243,107.097],[116.621,107.166],[116.994,107.252],[117.364,107.357],[117.727,107.479],[118.085,107.618],[118.435,107.775],[118.778,107.947],[119.111,108.137],[119.436,108.342],[119.75,108.562],[120.053,108.797],[120.345,109.046],[120.624,109.309],[120.89,109.585],[121.143,109.874],[121.382,110.174],[121.606,110.486],[121.815,110.808],[122.008,111.139],[122.185,111.48],[122.345,111.828],[122.489,112.184],[122.616,112.546],[122.724,112.914],[122.816,113.287],[122.889,113.663],[122.944,114.043],[122.98,114.425],[122.999,114.808],[122.999,115.192],[122.98,115.575],[122.944,115.957],[122.889,116.337],[122.816,116.713],[122.724,117.086],[122.616,117.454],[122.489,117.816],[122.345,118.172],[122.185,118.52],[122.008,118.861],[121.815,119.192],[121.606,119.514],[121.382,119.826],[121.143,120.126],[120.89,120.415],[120.624,120.691],[120.345,120.954],[120.053,121.203],[119.75,121.438],[119.436,121.658],[119.111,121.863],[118.778,122.053],[118.435,122.225],[118.085,122.382],[117.727,122.521],[117.364,122.643],[116.994,122.748],[116.621,122.834],[116.243,122.903],[115.863,122.953],[115.48,122.986],[115.097,122.999],[114.713,122.995],[114.33,122.972],[113.949,122.931],[113.57,122.871],[113.194,122.793],[112.823,122.698],[112.456,122.584],[112.095,122.454],[111.741,122.306],[111.395,122.141],[111.057,121.96],[110.728,121.763],[110.408,121.55],[110.099,121.322],[109.802,121.08],[109.516,120.824],[109.243,120.554],[108.984,120.272],[108.738,119.977],[108.507,119.671],[108.29,119.354],[108.089,119.028],[107.904,118.692],[107.735,118.347],[107.583,117.995],[107.448,117.636],[107.33,117.271],[107.23,116.9],[107.148,116.525],[107.084,116.147],[107.038,115.766],[107.01,115.384],[107.001,115]]
M73 P0 R31
;TYPE:Custom
M220 S100
G90 ; use absolute coordinates
M83 ; extruder relative mode
M104 S150 ; set temporary nozzle temp to prevent oozing during homing
M140 S75 ; set final bed temp
G4 S30 ; allow partial nozzle warmup
G28 ; home all axis and restore leveling
BED_MESH_CALIBRATE PROFILE=adaptive ADAPTIVE=1 ADAPTIVE_MARGIN=0
G1 Z25 F240
G1 X10.0 Y30 F3000
M104 S257 ; set final nozzle temp
M190 S75 ; wait for bed temp to stabilize
M109 S257 ; wait for nozzle temp to stabilize
G1 Z0.28 F240
G92 E0 ; Move Z Axis up
G1 Z2.0 F5000 ; Move to start position
G1 X5 Y30 Z0.28 F300 ; Draw the first line
G1 X5 Y200 Z0.28 F1500 E15 ; Move to side a little
G1 X5.4 Y200 Z0.28 F5000.0 ; Draw the second line
M73 P1 R31
G1 X5.4 Y50 Z0.28 F1500.0 E30 ; Reset Extruder
G92 E0 ; Move Z Axis up
G1 Z2.0 F3000
M117 Start Printing..
G90
G21
M83 ; use relative distances for extrusion
; filament start gcode
M106 S0
;LAYER_CHANGE
;Z:0.2
;HEIGHT:0.2
;BEFORE_LAYER_CHANGE
;0.2
G92 E0

M73 P1 R30
G1 E-.5 F2400
;_SET_FAN_SPEED_CHANGING_LAYER
SET_VELOCITY_LIMIT ACCEL=500 ACCEL_TO_DECEL=250
SET_VELOCITY_LIMIT SQUARE_CORNER_VELOCITY=7
; printing object Corps6.stl id:0 copy 0
EXCLUDE_OBJECT_START NAME=Corps6.stl_id_0_copy_0
G1 Z.2 F18000
G1 X114.119 Y126.288
G1 Z.2
G1 E.5 F2400
;TYPE:Brim
;WIDTH:0.5
G1 F1800
G1 X114.547 Y125.872 E.02222
G1 X114.995 Y125.477 E.02222
G1 X115.461 Y125.104 E.02222
G1 X115.944 Y124.754 E.02222
G1 X116.443 Y124.427 E.02222
G1 X116.957 Y124.125 E.02222
G1 X117.486 Y123.848 E.02223
G1 X118.027 Y123.596 E.02222
G1 X118.579 Y123.371 E.02222
G1 X119.142 Y123.172 E.02222
G1 X119.713 Y123.001 E.02222
G1 X120.292 Y122.857 E.02222
G1 X120.878 Y122.741 E.02222
G1 X121.468 Y122.654 E.02222
G1 X122.062 Y122.594 E.02222
G1 X122.661 Y122.563 E.02237
G1 X123.263 Y122.562 E.02242
G1 X124.232 Y122.62 E.03615
G1 X124.823 Y122.693 E.02216
G1 X125.411 Y122.794 E.02222
G1 X125.993 Y122.924 E.02222
G1 X126.569 Y123.081 E.02222
G1 X127.136 Y123.266 E.02222
G1 X127.694 Y123.478 E.02223
G1 X128.241 Y123.716 E.02222
G1 X128.776 Y123.98 E.02222
G1 X129.298 Y124.27 E.02222
G1 X129.805 Y124.584 E.02222
G1 X130.296 Y124.922 E.02222
G1 X130.771 Y125.283 E.02222
G1 X131.228 Y125.667 E.02222
G1 X131.666 Y126.072 E.02222
G1 X132.084 Y126.498 E.02222
G1 X132.481 Y126.943 E.02222
G1 X132.857 Y127.407 E.02222
G1 X133.209 Y127.888 E.02222
G1 X133.539 Y128.386 E.02222
G1 X133.844 Y128.899 E.02222
G1 X134.124 Y129.425 E.02222
G1 X134.378 Y129.965 E.02222
G1 X134.607 Y130.516 E.02223
G1 X134.808 Y131.078 E.02222
G1 X134.983 Y131.649 E.02222
G1 X135.129 Y132.227 E.02222
G1 X135.248 Y132.812 E.02222
G1 X135.339 Y133.401 E.02222
G1 X135.402 Y133.994 E.02219
G1 X135.441 Y134.807 E.03031
G1 X135.436 Y135.402 E.02219
G1 X135.402 Y135.998 E.02222
G1 X135.34 Y136.591 E.02222
G1 X135.25 Y137.181 E.02222
G1 X135.131 Y137.766 E.02222
G1 X134.985 Y138.343 E.02216
G1 X134.684 Y139.277 E.03655
G1 X134.466 Y139.83 E.02216
G1 X134.222 Y140.375 E.02222
G1 X133.951 Y140.906 E.02222
G1 X133.655 Y141.425 E.02222
G1 X133.335 Y141.928 E.02222
G1 X132.991 Y142.415 E.02222
G1 X132.624 Y142.886 E.02222
G1 X132.235 Y143.338 E.02223
G1 X131.824 Y143.771 E.02222
G1 X131.394 Y144.184 E.02223
G1 X130.944 Y144.576 E.02222
G1 X130.475 Y144.946 E.02222
G1 X129.99 Y145.293 E.02222
G1 X129.489 Y145.616 E.02222
G1 X128.972 Y145.915 E.02223
G1 X128.442 Y146.189 E.02222
G1 X127.899 Y146.437 E.02222
G1 X127.345 Y146.658 E.02222
G1 X126.781 Y146.853 E.02222
G1 X126.209 Y147.021 E.02222
G1 X125.629 Y147.161 E.02222
G1 X125.043 Y147.273 E.02223
G1 X124.452 Y147.356 E.02222
G1 X123.858 Y147.412 E.02222
G1 X123.262 Y147.439 E.02222
G1 X122.665 Y147.437 E.02222
G1 X122.069 Y147.406 E.02222
G1 X121.475 Y147.347 E.02222
G1 X120.885 Y147.26 E.02222
G1 X120.293 Y147.143 E.02247
G1 X119.513 Y146.942 E.03003
G1 X118.945 Y146.761 E.02219
G1 X118.386 Y146.553 E.02222
G1 X117.837 Y146.319 E.02222
G1 X117.3 Y146.058 E.02223
G1 X116.777 Y145.772 E.02222
G1 X116.267 Y145.461 E.02223
G1 X115.773 Y145.127 E.02222
G1 X115.296 Y144.768 E.02222
G1 X114.837 Y144.388 E.02222
G1 X114.396 Y143.986 E.02222
G1 X113.975 Y143.563 E.02223
G1 X113.576 Y143.121 E.02216
G1 X112.965 Y142.353 E.03655
G1 X112.625 Y141.865 E.02216
G1 X112.308 Y141.36 E.02222
G1 X112.015 Y140.84 E.02223
G1 X111.748 Y140.306 E.02222
G1 X111.507 Y139.761 E.02223
G1 X111.292 Y139.204 E.02222
G1 X111.104 Y138.638 E.02223
G1 X110.943 Y138.063 E.02223
G1 X110.81 Y137.481 E.02222
G1 X110.705 Y136.894 E.02222
G1 X110.628 Y136.302 E.02223
G1 X110.58 Y135.708 E.02222
G1 X110.56 Y135.111 E.02222
G1 X110.569 Y134.515 E.02222
G1 X110.607 Y133.919 E.02222
G1 X110.673 Y133.326 E.02222
G1 X110.767 Y132.737 E.02223
G1 X110.89 Y132.153 E.02222
G1 X111.04 Y131.576 E.02222
G1 X111.218 Y131.006 E.02223
G1 X111.423 Y130.446 E.02223
G1 X111.655 Y129.896 E.02222
G1 X111.913 Y129.358 E.02223
G1 X112.196 Y128.833 E.02222
G1 X112.504 Y128.322 E.02223
G1 X112.836 Y127.827 E.02219
G1 X113.326 Y127.178 E.03031
G1 X113.712 Y126.724 E.02219
G1 X114.092 Y126.317 E.02074
G1 X114.426 Y126.629 F18000
G1 F1800
G1 X114.444 Y126.61 E.00095
G1 X114.856 Y126.21 E.02141
G1 X115.287 Y125.829 E.02141
G1 X115.735 Y125.47 E.02141
G1 X116.206 Y125.129 E.02165
G1 X116.687 Y124.814 E.02141
G1 X117.182 Y124.523 E.0214
G1 X117.691 Y124.256 E.02141
G1 X118.213 Y124.014 E.02141
G1 X118.745 Y123.797 E.02141
G1 X119.287 Y123.606 E.02141
G1 X119.837 Y123.441 E.02141
G1 X120.395 Y123.303 E.02141
G1 X120.959 Y123.191 E.02141
G1 X121.528 Y123.107 E.02141
G1 X122.099 Y123.05 E.0214
G1 X122.677 Y123.02 E.02155
G1 X123.255 Y123.019 E.02151
G1 X124.186 Y123.075 E.03475
G1 X124.752 Y123.145 E.02125
G1 X125.319 Y123.242 E.02141
G1 X125.88 Y123.367 E.02141
G1 X126.434 Y123.518 E.02141
G1 X126.981 Y123.696 E.02141
G1 X127.518 Y123.9 E.02141
G1 X128.045 Y124.129 E.0214
G1 X128.561 Y124.384 E.02141
G1 X129.063 Y124.662 E.02141
G1 X129.552 Y124.965 E.02141
G1 X130.026 Y125.29 E.02141
G1 X130.483 Y125.638 E.02141
G1 X130.923 Y126.008 E.02141
G1 X131.345 Y126.398 E.02141
G1 X131.748 Y126.808 E.02141
G1 X132.131 Y127.237 E.02141
G1 X132.492 Y127.683 E.02141
G1 X132.832 Y128.147 E.02141
G1 X133.15 Y128.626 E.02141
G1 X133.447 Y129.126 E.02165
G1 X133.716 Y129.633 E.02141
G1 X133.961 Y130.153 E.02141
G1 X134.181 Y130.684 E.02141
G1 X134.375 Y131.225 E.02141
G1 X134.543 Y131.775 E.02141
G1 X134.684 Y132.332 E.02141
G1 X134.799 Y132.895 E.02141
G1 X134.886 Y133.463 E.02141
G1 X134.946 Y134.033 E.02132
G1 X134.984 Y134.812 E.02906
G1 X134.979 Y135.384 E.02132
G1 X134.946 Y135.965 E.02165
G1 X134.886 Y136.536 E.02141
G1 X134.799 Y137.104 E.02141
G1 X134.685 Y137.667 E.0214
G1 X134.544 Y138.22 E.02125
G1 X134.255 Y139.119 E.03515
G1 X134.046 Y139.65 E.02125
G1 X133.811 Y140.174 E.02141
G1 X133.55 Y140.686 E.02141
G1 X133.265 Y141.186 E.02141
G1 X132.957 Y141.671 E.02141
G1 X132.626 Y142.14 E.02141
G1 X132.272 Y142.594 E.02141
G1 X131.898 Y143.029 E.02141
G1 X131.502 Y143.447 E.0214
G1 X131.088 Y143.844 E.02141
G1 X130.654 Y144.222 E.02141
G1 X130.203 Y144.578 E.02141
G1 X129.736 Y144.913 E.02141
G1 X129.253 Y145.224 E.02141
G1 X128.755 Y145.512 E.02141
G1 X128.245 Y145.776 E.0214
G1 X127.722 Y146.015 E.02141
G1 X127.189 Y146.229 E.02141
G1 X126.645 Y146.416 E.02141
G1 X126.094 Y146.578 E.02141
G1 X125.535 Y146.713 E.02141
G1 X124.971 Y146.821 E.02141
G1 X124.402 Y146.902 E.02141
G1 X123.83 Y146.955 E.02141
G1 X123.255 Y146.981 E.02141
G1 X122.681 Y146.98 E.02141
G1 X122.1 Y146.95 E.02165
G1 X121.528 Y146.893 E.02141
G1 X120.96 Y146.809 E.0214
G1 X120.391 Y146.696 E.02159
G1 X119.643 Y146.504 E.02878
G1 X119.097 Y146.33 E.02132
G1 X118.558 Y146.13 E.0214
G1 X118.03 Y145.904 E.02141
G1 X117.513 Y145.653 E.02141
G1 X117.008 Y145.378 E.0214
G1 X116.518 Y145.079 E.02141
G1 X116.042 Y144.756 E.02141
G1 X115.577 Y144.407 E.02165
G1 X115.134 Y144.041 E.02141
G1 X114.71 Y143.653 E.02141
G1 X114.305 Y143.245 E.02141
G1 X113.922 Y142.822 E.02125
G1 X113.335 Y142.083 E.03515
G1 X113.008 Y141.615 E.02125
G1 X112.703 Y141.129 E.02141
G1 X112.421 Y140.628 E.02141
G1 X112.163 Y140.114 E.0214
G1 X111.93 Y139.589 E.02141
G1 X111.723 Y139.053 E.0214
G1 X111.542 Y138.507 E.02141
G1 X111.387 Y137.954 E.02141
G1 X111.259 Y137.393 E.0214
G1 X111.157 Y136.828 E.02141
G1 X111.083 Y136.258 E.02141
G1 X111.037 Y135.685 E.0214
G1 X111.018 Y135.111 E.02141
G1 X111.026 Y134.536 E.02141
G1 X111.062 Y133.962 E.02141
G1 X111.126 Y133.391 E.0214
G1 X111.216 Y132.823 E.02141
G1 X111.336 Y132.255 E.02165
G1 X111.481 Y131.698 E.0214
G1 X111.652 Y131.15 E.02141
G1 X111.85 Y130.61 E.02141
G1 X112.073 Y130.081 E.0214
G1 X112.322 Y129.562 E.02141
G1 X112.595 Y129.057 E.0214
G1 X112.892 Y128.564 E.02141
G1 X113.211 Y128.089 E.02132
G1 X113.681 Y127.467 E.02905
G1 X114.051 Y127.03 E.02132
G1 X114.399 Y126.658 E.01896
G1 X114.733 Y126.97 F18000
G1 F1800
G1 X114.768 Y126.933 E.00191
G1 X115.164 Y126.547 E.02059
G1 X115.578 Y126.181 E.02059
G1 X116.01 Y125.836 E.02059
G1 X116.462 Y125.507 E.02083
G1 X116.925 Y125.205 E.02059
G1 X117.402 Y124.925 E.02059
G1 X117.891 Y124.668 E.02059
G1 X118.392 Y124.435 E.02059
G1 X118.904 Y124.226 E.02059
G1 X119.426 Y124.042 E.02059
G1 X119.961 Y123.881 E.02083
G1 X120.498 Y123.748 E.02059
G1 X121.04 Y123.641 E.02059
G1 X121.587 Y123.56 E.02059
G1 X122.137 Y123.506 E.02059
G1 X122.693 Y123.477 E.02072
G1 X123.246 Y123.476 E.0206
G1 X124.14 Y123.53 E.03337
G1 X124.682 Y123.597 E.02035
G1 X125.227 Y123.69 E.02059
G1 X125.767 Y123.81 E.02059
G1 X126.3 Y123.955 E.02059
G1 X126.826 Y124.126 E.02059
G1 X127.343 Y124.322 E.02059
G1 X127.85 Y124.543 E.02059
G1 X128.346 Y124.787 E.02059
G1 X128.829 Y125.055 E.02059
G1 X129.299 Y125.346 E.02059
G1 X129.755 Y125.659 E.02059
G1 X130.195 Y125.994 E.02059
G1 X130.618 Y126.349 E.02059
G1 X131.024 Y126.724 E.02059
G1 X131.412 Y127.118 E.02059
G1 X131.78 Y127.531 E.02059
G1 X132.132 Y127.965 E.02083
G1 X132.459 Y128.411 E.02059
G1 X132.764 Y128.872 E.02059
G1 X133.05 Y129.353 E.02083
G1 X133.309 Y129.841 E.02059
G1 X133.544 Y130.341 E.02059
G1 X133.756 Y130.852 E.02059
G1 X133.942 Y131.372 E.02059
G1 X134.104 Y131.901 E.02059
G1 X134.239 Y132.437 E.02059
G1 X134.349 Y132.979 E.02059
G1 X134.433 Y133.525 E.02059
G1 X134.49 Y134.071 E.02045
G1 X134.526 Y134.817 E.02781
G1 X134.522 Y135.366 E.02045
G1 X134.491 Y135.925 E.02083
G1 X134.433 Y136.474 E.02059
G1 X134.349 Y137.021 E.02059
G1 X134.238 Y137.569 E.02083
G1 X134.103 Y138.098 E.02034
G1 X133.826 Y138.961 E.03376
G1 X133.626 Y139.469 E.02034
G1 X133.4 Y139.974 E.02059
G1 X133.149 Y140.467 E.02059
G1 X132.875 Y140.947 E.02059
G1 X132.579 Y141.413 E.02059
G1 X132.26 Y141.865 E.02059
G1 X131.921 Y142.301 E.02059
G1 X131.56 Y142.721 E.02059
G1 X131.18 Y143.122 E.02059
G1 X130.782 Y143.505 E.02059
G1 X130.365 Y143.868 E.02059
G1 X129.931 Y144.211 E.02059
G1 X129.482 Y144.533 E.02059
G1 X129.017 Y144.832 E.02059
G1 X128.539 Y145.109 E.02059
G1 X128.048 Y145.363 E.02059
G1 X127.545 Y145.593 E.02059
G1 X127.032 Y145.799 E.02059
G1 X126.51 Y145.98 E.02059
G1 X125.979 Y146.135 E.02059
G1 X125.442 Y146.265 E.02059
G1 X124.899 Y146.369 E.02059
G1 X124.352 Y146.447 E.02059
G1 X123.801 Y146.499 E.02059
G1 X123.249 Y146.524 E.02059
G1 X122.696 Y146.523 E.02059
G1 X122.138 Y146.494 E.02083
G1 X121.581 Y146.439 E.02083
G1 X121.034 Y146.358 E.02058
G1 X120.489 Y146.249 E.02072
G1 X119.773 Y146.065 E.02754
G1 X119.249 Y145.899 E.02046
G1 X118.731 Y145.707 E.02059
G1 X118.222 Y145.49 E.02059
G1 X117.725 Y145.248 E.02059
G1 X117.234 Y144.98 E.02083
G1 X116.762 Y144.692 E.02059
G1 X116.305 Y144.382 E.02059
G1 X115.863 Y144.05 E.02058
G1 X115.437 Y143.698 E.02059
G1 X115.024 Y143.32 E.02083
G1 X114.634 Y142.928 E.02059
G1 X114.268 Y142.523 E.02034
G1 X113.704 Y141.813 E.03376
G1 X113.392 Y141.366 E.02034
G1 X113.097 Y140.898 E.02059
G1 X112.826 Y140.416 E.02059
G1 X112.578 Y139.922 E.02058
G1 X112.354 Y139.417 E.02059
G1 X112.155 Y138.901 E.02059
G1 X111.98 Y138.376 E.02059
G1 X111.831 Y137.844 E.02059
G1 X111.707 Y137.305 E.02059
G1 X111.61 Y136.761 E.02059
G1 X111.538 Y136.213 E.02059
G1 X111.493 Y135.662 E.02059
G1 X111.475 Y135.11 E.02059
G1 X111.483 Y134.557 E.02059
G1 X111.518 Y133.999 E.02083
G1 X111.579 Y133.449 E.02059
G1 X111.667 Y132.903 E.02059
G1 X111.78 Y132.362 E.02058
G1 X111.92 Y131.828 E.02059
G1 X112.087 Y131.294 E.02084
G1 X112.277 Y130.775 E.02059
G1 X112.492 Y130.265 E.02059
G1 X112.731 Y129.767 E.02059
G1 X112.993 Y129.281 E.02059
G1 X113.279 Y128.807 E.02059
G1 X113.585 Y128.351 E.02045
G1 X114.036 Y127.756 E.02781
G1 X114.391 Y127.337 E.02045
G1 X114.706 Y127 E.01719
G1 X115.04 Y127.311 F18000
G1 F1800
G1 X115.092 Y127.255 E.00286
G1 X115.473 Y126.885 E.01977
G1 X115.87 Y126.533 E.01977
G1 X116.284 Y126.201 E.01977
G1 X116.719 Y125.886 E.02001
G1 X117.163 Y125.595 E.01977
G1 X117.627 Y125.323 E.02001
G1 X118.097 Y125.076 E.01978
G1 X118.578 Y124.853 E.01977
G1 X119.07 Y124.652 E.01977
G1 X119.57 Y124.476 E.01977
G1 X120.085 Y124.322 E.02001
G1 X120.6 Y124.194 E.01977
G1 X121.121 Y124.091 E.01977
G1 X121.646 Y124.014 E.01977
G1 X122.175 Y123.961 E.01977
G1 X122.708 Y123.935 E.0199
G1 X123.237 Y123.934 E.01969
