; HEADER_BLOCK_START
; generated by OrcaSlicer 2.2.0 on 2024-11-28 at 18:56:46
; total layer number: 55
; filament_density: 1.27
; filament_diameter: 1.75
; max_z_height: 11.00
; HEADER_BLOCK_END

; THUMBNAIL_BLOCK_START

;
; THUMBNAIL_BLOCK_END

; THUMBNAIL_BLOCK_START

;
; THUMBNAIL_BLOCK_END

; external perimeters extrusion width = 0.42mm
; perimeters extrusion width = 0.45mm
; infill extrusion width = 0.45mm
; solid infill extrusion width = 0.45mm
; top infill extrusion width = 0.42mm
; first layer extrusion width = 0.50mm

; EXECUTABLE_BLOCK_START
EXCLUDE_OBJECT_DEFINE NAME=Corps26.stl_id_0_copy_0 CENTER=115,115 POLYGON=[[23.0858,104.005],[23.101,102.652],[90.6667,102.348],[139.333,102.348],[206.899,102.652],[206.914,104.005],[206.86,105.357],[206.737,106.705],[206.545,108.045],[206.284,109.373],[205.956,110.686],[205.561,111.98],[205.101,113.253],[204.576,114.5],[203.987,115.719],[203.337,116.906],[202.628,118.059],[201.86,119.173],[201.036,120.247],[200.158,121.277],[199.229,122.261],[198.25,123.196],[197.225,124.079],[196.156,124.909],[195.046,125.684],[193.898,126.4],[192.714,127.057],[191.499,127.652],[38.501,127.652],[37.2855,127.057],[36.1022,126.4],[34.9539,125.684],[33.8439,124.909],[32.7749,124.079],[31.7498,123.196],[30.7713,122.261],[29.842,121.277],[28.9642,120.247],[28.1403,119.173],[27.3724,118.059],[26.6626,116.906],[26.0127,115.719],[25.4244,114.5],[24.8993,113.253],[24.4387,111.98],[24.0438,110.686],[23.7158,109.373],[23.4553,108.045],[23.2632,106.705],[23.14,105.357],[23.0858,104.005]]
M73 P0 R43
;TYPE:Custom
M220 S100
G90 ; use absolute coordinates
M83 ; extruder relative mode
M104 S150 ; set temporary nozzle temp to prevent oozing during homing
M140 S70 ; set final bed temp
G4 S30 ; allow partial nozzle warmup
G28 ; home all axis and restore leveling
BED_MESH_CALIBRATE
G1 Z25 F240
G1 X10.0 Y30 F3000
M104 S245 ; set final nozzle temp
M190 S70 ; wait for bed temp to stabilize
M109 S245 ; wait for nozzle temp to stabilize
G1 Z0.28 F240
G92 E0 ; Move Z Axis up
LINE_PURGE
G92 E0 ; Move Z Axis up
G1 Z2.0 F3000
M117 Start Printing..
G90
G21
M83 ; use relative distances for extrusion
; filament start gcode
M106 S0
;LAYER_CHANGE
;Z:0.2
;HEIGHT:0.2
;BEFORE_LAYER_CHANGE
;0.2
G92 E0

G1 E-.5 F1800
;_SET_FAN_SPEED_CHANGING_LAYER
SET_VELOCITY_LIMIT ACCEL=1000
SET_VELOCITY_LIMIT SQUARE_CORNER_VELOCITY=7
; printing object Corps26.stl id:0 copy 0
EXCLUDE_OBJECT_START NAME=Corps26.stl_id_0_copy_0
G1 Z.4 F24000
G1 X205.305 Y123.409
G1 Z.4
G1 Z.2
G1 E.5 F1800
;TYPE:Inner wall
;WIDTH:0.499999
G1 F3000
G1 X214.15 Y123.409 E.31936
G1 X214.157 Y123.994 E.02113
G1 X214.104 Y125.308 E.04747
G1 X213.985 Y126.617 E.04747
G1 X213.798 Y127.918 E.04746
G1 X213.545 Y129.208 E.04746
G1 X213.226 Y130.484 E.04747
G1 X212.843 Y131.741 E.04746
G1 X212.395 Y132.977 E.04746
G1 X211.885 Y134.189 E.04747
G1 X211.314 Y135.373 E.04746
G1 X210.683 Y136.526 E.04747
G1 X209.993 Y137.645 E.04745
G1 X209.234 Y138.745 E.04828
G1 X208.447 Y139.77 E.04666
G1 X207.595 Y140.771 E.04745
G1 X206.676 Y141.742 E.04828
G1 X205.741 Y142.635 E.04666
G1 X204.745 Y143.493 E.04746
G1 X203.707 Y144.299 E.04747
G1 X202.629 Y145.051 E.04746
G1 X201.514 Y145.747 E.04746
G1 X200.364 Y146.385 E.04747
G1 X199.324 Y146.895 E.04183
G1 X46.677 Y146.895 E5.51146
G1 X45.616 Y146.374 E.04264
G1 X44.486 Y145.747 E.04666
G1 X43.371 Y145.051 E.04746
G1 X42.293 Y144.299 E.04746
G1 X41.255 Y143.493 E.04747
G1 X40.259 Y142.635 E.04747
G1 X39.308 Y141.727 E.04746
G1 X38.406 Y140.771 E.04747
G1 X37.553 Y139.77 E.04746
G1 X36.753 Y138.728 E.04747
G1 X36.007 Y137.645 E.04746
G1 X35.317 Y136.526 E.04746
G1 X34.686 Y135.373 E.04747
G1 X34.115 Y134.189 E.04746
G1 X33.605 Y132.977 E.04747
G1 X33.157 Y131.741 E.04745
G1 X32.768 Y130.462 E.04828
G1 X32.455 Y129.208 E.04666
G1 X32.202 Y127.918 E.04746
G1 X32.015 Y126.617 E.04746
G1 X31.896 Y125.308 E.04746
G1 X31.843 Y123.994 E.04747
G1 X31.85 Y123.409 E.02113
G1 X40.695 Y123.409 E.31936
G1 X40.825 Y124.093 E.02516
G1 X41.04 Y124.767 E.02553
G1 X41.335 Y125.41 E.02553
G1 X41.705 Y126.012 E.02553
G1 X42.145 Y126.566 E.02553
G1 X42.649 Y127.063 E.02553
G1 X43.428 Y127.627 E.03473
G1 X43.934 Y127.909 E.02092
G1 X44.474 Y128.145 E.0213
G1 X45.216 Y128.361 E.02789
G1 X45.836 Y128.47 E.02274
G1 X46.499 Y128.509 E.02396
G1 X84.422 Y128.509 E1.36926
G1 X86.131 Y128.597 E.06178
G1 X86.891 Y128.604 E.02746
G1 X88.005 Y128.537 E.04028
G1 X88.538 Y128.469 E.01941
G1 X89.375 Y128.34 E.03057
G1 X90.155 Y128.184 E.02873
G1 X91.171 Y127.91 E.03798
G1 X91.644 Y127.748 E.01808
G1 X92.254 Y127.535 E.02331
G1 X93.265 Y127.104 E.03968
G1 X94.243 Y126.604 E.03968
G1 X95.166 Y126.051 E.03883
G1 X96.086 Y125.408 E.04053
G1 X96.941 Y124.718 E.03968
G1 X97.729 Y123.99 E.03874
G1 X98.522 Y123.159 E.04146
G1 X98.705 Y123.122 E.00675
G1 X98.852 Y123.202 E.00602
G1 X99.608 Y123.993 E.03951
G1 X100.417 Y124.741 E.03978
G1 X101.41 Y125.524 E.04567
G1 X102.22 Y126.084 E.03555
G1 X102.854 Y126.462 E.02667
G1 X103.473 Y126.801 E.02544
G1 X104.14 Y127.137 E.02698
G1 X105.039 Y127.517 E.03525
G1 X105.538 Y127.696 E.01913
G1 X106.202 Y127.922 E.02535
G1 X107.27 Y128.205 E.03987
G1 X108.307 Y128.407 E.03816
G1 X109.45 Y128.548 E.04158
G1 X110.318 Y128.595 E.0314
G1 X110.955 Y128.599 E.02298
G1 X111.674 Y128.586 E.02598
G1 X112.433 Y128.521 E.02749
G1 X113.009 Y128.453 E.02098
G1 X113.847 Y128.321 E.03062
G1 X114.673 Y128.134 E.03057
G1 X115.289 Y127.966 E.02305
G1 X115.981 Y127.756 E.02611
G1 X116.726 Y127.474 E.02878
G1 X117.213 Y127.272 E.01903
G1 X118.015 Y126.901 E.03192
G1 X118.943 Y126.394 E.03815
G1 X119.913 Y125.774 E.04158
G1 X120.371 Y125.433 E.02063
G1 X120.792 Y125.119 E.01896
G1 X121.867 Y124.221 E.05058
G1 X122.403 Y123.966 E.02143
G1 X123 Y123.876 E.0218
G1 X123.591 Y123.964 E.02158
G1 X124.133 Y124.221 E.02164
G1 X125.226 Y125.135 E.05145
G1 X126.126 Y125.801 E.04042
G1 X127.057 Y126.394 E.03987
G1 X127.706 Y126.749 E.02668
G1 X129.031 Y127.382 E.05303
G1 X130.364 Y127.861 E.05115
G1 X131.122 Y128.087 E.02857
G1 X131.983 Y128.283 E.03186
G1 X133.291 Y128.498 E.04786
G1 X134.196 Y128.575 E.03282
G1 X135.496 Y128.605 E.04694
G1 X136.615 Y128.542 E.04047
G1 X137.575 Y128.424 E.03493
G1 X138.777 Y128.195 E.04417
G1 X139.617 Y127.97 E.03141
G1 X140.264 Y127.763 E.02453
G1 X140.887 Y127.548 E.02378
G1 X141.586 Y127.253 E.02742
G1 X142.184 Y126.975 E.02378
G1 X142.887 Y126.616 E.02852
G1 X143.501 Y126.25 E.02578
G1 X144.122 Y125.849 E.0267
G1 X144.74 Y125.417 E.02723
G1 X145.608 Y124.717 E.04027
G1 X146.392 Y123.993 E.03852
G1 X147.189 Y123.159 E.04165
G1 X147.374 Y123.122 E.0068
G1 X147.519 Y123.202 E.00597
G1 X148.271 Y123.99 E.03933
G1 X149.076 Y124.734 E.03959
G1 X149.952 Y125.436 E.04053
G1 X150.854 Y126.063 E.03968
G1 X151.785 Y126.621 E.03916
M73 P0 R42
M73 P0 R42
G1 X152.778 Y127.124 E.0402
G1 X153.79 Y127.552 E.03968
G1 X154.356 Y127.748 E.0216
G1 X154.981 Y127.951 E.02373
G1 X155.891 Y128.195 E.03404
G1 X156.94 Y128.401 E.0386
G1 X157.462 Y128.469 E.01898
G1 X158.059 Y128.543 E.02174
G1 X159.157 Y128.605 E.03968
G1 X160.255 Y128.591 E.03967
G1 X161.271 Y128.509 E.0368
G1 X198.885 Y128.509 E1.35809
G1 X199.731 Y128.496 E.03052
G1 X200.247 Y128.46 E.01871
G1 X201.1 Y128.278 E.03149
G1 X201.616 Y128.112 E.01956
G1 X202.257 Y127.818 E.02547
G1 X202.86 Y127.448 E.02553
G1 X203.413 Y127.008 E.02553
G1 X203.91 Y126.504 E.02553
G1 X204.432 Y125.795 E.0318
G1 X204.703 Y125.337 E.01924
G1 X204.99 Y124.688 E.02558
G1 X205.197 Y124.003 E.02585
G1 X205.298 Y123.448 E.02036
G1 X204.858 Y123.316 F24000
;TYPE:Outer wall
G1 F3000
G1 X204.881 Y122.952 E.01319
G1 X214.602 Y122.952 E.35098
G1 X214.614 Y124.001 E.03788
G1 X214.561 Y125.338 E.04831
G1 X214.439 Y126.67 E.04831
G1 X214.249 Y127.995 E.04831
G1 X213.991 Y129.308 E.04831
G1 X213.667 Y130.606 E.04831
G1 X213.277 Y131.886 E.04831
G1 X212.821 Y133.144 E.04831
G1 X212.302 Y134.377 E.04831
G1 X211.721 Y135.582 E.04831
G1 X211.078 Y136.756 E.04831
G1 X210.376 Y137.895 E.0483
G1 X209.603 Y139.014 E.04913
G1 X208.803 Y140.058 E.0475
G1 X207.935 Y141.076 E.04831
G1 X207 Y142.065 E.04912
G1 X206.048 Y142.973 E.0475
G1 X205.035 Y143.847 E.04831
G1 X203.978 Y144.668 E.04831
G1 X202.881 Y145.433 E.04831
G1 X201.746 Y146.141 E.04831
G1 X200.576 Y146.791 E.04831
G1 X199.429 Y147.352 E.04608
G1 X46.571 Y147.352 E5.51911
G1 X45.405 Y146.78 E.04689
M73 P1 R42
M73 P1 R42
G1 X44.254 Y146.141 E.0475
G1 X43.119 Y145.433 E.04831
G1 X42.022 Y144.668 E.04831
G1 X40.965 Y143.847 E.04831
G1 X39.952 Y142.973 E.04831
G1 X38.984 Y142.049 E.04831
G1 X38.065 Y141.076 E.04831
G1 X37.198 Y140.058 E.04831
G1 X36.383 Y138.997 E.04831
G1 X35.624 Y137.895 E.04831
G1 X34.922 Y136.756 E.04831
G1 X34.28 Y135.582 E.04831
G1 X33.698 Y134.377 E.04831
G1 X33.179 Y133.144 E.04831
G1 X32.723 Y131.886 E.04831
G1 X32.328 Y130.584 E.04912
G1 X32.009 Y129.308 E.0475
G1 X31.751 Y127.995 E.04831
G1 X31.561 Y126.67 E.04831
G1 X31.439 Y125.338 E.04831
G1 X31.386 Y124.001 E.04831
G1 X31.398 Y122.952 E.03788
G1 X41.119 Y122.952 E.35098
G1 X41.142 Y123.316 E.01319
G1 X41.261 Y123.957 E.02354
G1 X41.457 Y124.579 E.02354
G1 X41.726 Y125.173 E.02354
G1 X42.065 Y125.731 E.02354
G1 X42.468 Y126.243 E.02354
G1 X42.931 Y126.703 E.02354
G1 X43.664 Y127.236 E.03274
G1 X44.121 Y127.492 E.01893
G1 X44.61 Y127.709 E.01931
G1 X45.298 Y127.912 E.0259
G1 X45.864 Y128.014 E.02075
G1 X46.499 Y128.052 E.02297
G1 X84.422 Y128.052 E1.36926
G1 X86.136 Y128.14 E.06197
G1 X86.865 Y128.147 E.0263
G1 X87.947 Y128.083 E.03916
G1 X88.481 Y128.016 E.01941
G1 X89.286 Y127.892 E.02943
G1 X90.036 Y127.743 E.0276
G1 X90.9 Y127.509 E.03231
G1 X91.495 Y127.316 E.02259
G1 X92.075 Y127.114 E.02217
G1 X93.057 Y126.696 E.03854
G1 X94.008 Y126.212 E.03854
G1 X94.918 Y125.667 E.03826
G1 X95.797 Y125.054 E.0387
G1 X96.631 Y124.383 E.03867
G1 X97.408 Y123.664 E.03823
G1 X98.151 Y122.886 E.03882
G1 X98.435 Y122.692 E.01242
G1 X98.667 Y122.652 E.0085
G1 X98.899 Y122.692 E.0085
G1 X99.182 Y122.886 E.01242
G1 X99.928 Y123.667 E.039
G1 X100.716 Y124.394 E.0387
G1 X101.559 Y125.071 E.03902
G1 X102.734 Y125.858 E.05106
G1 X103.361 Y126.231 E.02635
G1 X104.591 Y126.831 E.04943
G1 X105.306 Y127.133 E.028
G1 X105.884 Y127.331 E.02207
G1 X106.501 Y127.528 E.02339
G1 X107.357 Y127.757 E.03198
G1 X108.386 Y127.957 E.03786
G1 X109.474 Y128.092 E.03959
G1 X110.343 Y128.139 E.0314
G1 X110.947 Y128.142 E.02182
G1 X111.635 Y128.13 E.02485
G1 X112.686 Y128.041 E.03809
G1 X113.589 Y127.9 E.03299
G1 X114.792 Y127.638 E.04445
G1 X115.504 Y127.423 E.02685
G1 X116.178 Y127.192 E.0257
G1 X117.022 Y126.856 E.03281
G1 X117.796 Y126.5 E.03078
G1 X118.724 Y125.993 E.03815
G1 X119.767 Y125.313 E.04498
G1 X120.499 Y124.769 E.03293
G1 X121.42 Y123.998 E.04336
G1 X121.778 Y123.745 E.01583
G1 X122.269 Y123.527 E.01938
G1 X122.817 Y123.432 E.0201
G1 X123.37 Y123.446 E.01994
G1 X123.919 Y123.601 E.02063
G1 X124.395 Y123.844 E.01928
G1 X125.265 Y124.572 E.04096
G1 X125.901 Y125.066 E.02906
G1 X126.373 Y125.416 E.02121
G1 X127.276 Y125.993 E.03873
G1 X127.925 Y126.347 E.02668
G1 X128.603 Y126.684 E.02731
G1 X129.436 Y127.046 E.03281
G1 X130.196 Y127.333 E.02935
G1 X130.843 Y127.528 E.02439
G1 X131.428 Y127.688 E.02191
G1 X132.269 Y127.879 E.03114
G1 X133.314 Y128.041 E.03816
G1 X134.396 Y128.133 E.03922
G1 X135.656 Y128.139 E.04548
G1 X136.559 Y128.088 E.03266
G1 X137.519 Y127.97 E.03493
G1 X138.659 Y127.753 E.04188
G1 X139.499 Y127.528 E.03141
G1 X140.709 Y127.127 E.04602
G1 X141.408 Y126.832 E.02742
G1 X141.977 Y126.567 E.02264
G1 X142.653 Y126.224 E.02738
G1 X143.266 Y125.858 E.02578
G1 X143.861 Y125.474 E.02556
G1 X144.454 Y125.061 E.02609
G1 X145.298 Y124.382 E.03913
G1 X146.071 Y123.667 E.03801
G1 X146.818 Y122.886 E.039
G1 X147.101 Y122.692 E.0124
G1 X147.338 Y122.652 E.00869
G1 X147.565 Y122.692 E.00833
G1 X147.849 Y122.886 E.01243
G1 X148.592 Y123.664 E.03882
G1 X149.375 Y124.388 E.03851
G1 X150.213 Y125.061 E.03883
G1 X151.089 Y125.671 E.03854
G1 X152.001 Y126.217 E.03837
G1 X152.957 Y126.703 E.03871
G1 X153.94 Y127.12 E.03854
G1 X154.505 Y127.316 E.0216
G1 X155.1 Y127.509 E.02259
G1 X155.98 Y127.747 E.03289
G1 X156.711 Y127.89 E.02693
G1 X157.519 Y128.016 E.02952
G1 X158.086 Y128.087 E.02061
G1 X159.151 Y128.148 E.03854
G1 X160.219 Y128.135 E.03854
G1 X161.253 Y128.052 E.03746
G1 X199.515 Y128.051 E1.38149
G1 X200.164 Y128.01 E.02348
G1 X200.815 Y127.888 E.0239
G1 X201.428 Y127.695 E.02324
G1 X202.021 Y127.427 E.02348
G1 X202.578 Y127.088 E.02354
G1 X203.09 Y126.684 E.02354
G1 X203.55 Y126.222 E.02354
G1 X204.005 Y125.618 E.0273
G1 X204.287 Y125.149 E.01976
G1 X204.553 Y124.553 E.02356
G1 X204.747 Y123.92 E.0239
G1 X204.85 Y123.356 E.02073
G1 E-.5 F1800
;WIPE_START
G1 F12000
G1 X204.881 Y122.952
G1 X206.476 Y122.952
;WIPE_END
G1 Z.4 F24000
G1 X201.677 Y134.28 Z.4
G1 Z.2
G1 E.5 F1800
;TYPE:Inner wall
G1 F3000
G1 X201.561 Y134.182 E.00549
G1 X201.181 Y133.716 E.02169
G1 X200.955 Y133.133 E.02257
G1 X200.914 Y132.899 E.0086
G1 X200.919 Y132.322 E.02083
G1 X201.124 Y131.706 E.02343
G1 X201.243 Y131.5 E.0086
G1 X201.606 Y131.073 E.02023
G1 X202.035 Y130.8 E.01835
G1 X202.313 Y130.66 E.01127
G1 X202.881 Y130.555 E.02084
G1 X203.119 Y130.555 E.0086
G1 X203.621 Y130.643 E.01839
G1 X203.908 Y130.767 E.01131
G1 X204.36 Y131.042 E.01909
G1 X204.757 Y131.5 E.02188
G1 X204.928 Y131.849 E.01403
G1 X205.075 Y132.28 E.01645
G1 X205.086 Y132.899 E.02234
G1 X205.045 Y133.133 E.0086
G1 X204.864 Y133.628 E.01903
G1 X204.439 Y134.182 E.02519
G1 X204.257 Y134.335 E.0086
G1 X203.687 Y134.644 E.02342
G1 X203.119 Y134.749 E.02084
G1 X202.881 Y134.749 E.0086
G1 X202.283 Y134.634 E.02197
G1 X201.743 Y134.335 E.0223
G1 X201.708 Y134.305 E.00167
G1 X201.96 Y133.926 F24000
;TYPE:Outer wall
G1 F3000
G1 X201.593 Y133.51 E.02003
G1 X201.385 Y132.977 E.02066
G1 X201.371 Y132.405 E.02066
G1 X201.554 Y131.863 E.02066
G1 X201.872 Y131.461 E.0185
G1 X202.051 Y131.319 E.00826
G1 X202.447 Y131.097 E.01638
G1 X202.96 Y131.005 E.01883
G1 X203.526 Y131.09 E.02066
G1 X204.028 Y131.364 E.02066
G1 X204.407 Y131.794 E.02066
G1 X204.615 Y132.327 E.02066
G1 X204.629 Y132.899 E.02066
G1 X204.446 Y133.441 E.02066
G1 X204.089 Y133.888 E.02066
G1 X203.601 Y134.186 E.02066
G1 X203.04 Y134.299 E.02066
G1 X202.518 Y134.221 E.01903
G1 X201.992 Y133.949 E.0214
G1 E-.5 F1800
;WIPE_START
G1 F12000
G1 X201.593 Y133.51
G1 X201.385 Y132.977
G1 X201.371 Y132.405
G1 X201.455 Y132.156
;WIPE_END
G1 Z.4 F24000
G1 X194.999 Y133.251 Z.4
G1 Z.2
G1 E.5 F1800
;TYPE:Inner wall
G1 F3000
G1 X194.819 Y133.716 E.01803
G1 X194.439 Y134.182 E.0217
G1 X194.257 Y134.335 E.0086
G1 X193.728 Y134.63 E.02186
G1 X193.119 Y134.749 E.02241
G1 X192.881 Y134.749 E.0086
G1 X192.272 Y134.63 E.02241
G1 X191.743 Y134.335 E.02186
G1 X191.561 Y134.182 E.0086
G1 X191.181 Y133.716 E.02169
G1 X190.955 Y133.133 E.02257
G1 X190.914 Y132.899 E.0086
G1 X190.919 Y132.322 E.02083
G1 X191.124 Y131.706 E.02343
G1 X191.243 Y131.5 E.0086
G1 X191.561 Y131.122 E.01783
G1 X191.743 Y130.969 E.0086
G1 X192.171 Y130.722 E.01783
G1 X192.395 Y130.64 E.0086
G1 X193 Y130.544 E.02213
G1 X193.605 Y130.64 E.02213
G1 X193.829 Y130.722 E.0086
G1 X194.257 Y130.969 E.01783
G1 X194.439 Y131.122 E.0086
G1 X194.757 Y131.5 E.01783
G1 X194.876 Y131.706 E.0086
G1 X195.067 Y132.243 E.02055
G1 X195.086 Y132.899 E.0237
G1 X195.045 Y133.133 E.0086
G1 X195.014 Y133.213 E.0031
G1 X194.568 Y133.08 F24000
;TYPE:Outer wall
G1 F3000
G1 X194.446 Y133.441 E.01374
G1 X194.089 Y133.888 E.02066
G1 X193.601 Y134.186 E.02066
G1 X193.04 Y134.299 E.02066
G1 X192.474 Y134.213 E.02066
G1 X191.972 Y133.939 E.02066
G1 X191.593 Y133.51 E.02066
G1 X191.385 Y132.977 E.02066
G1 X191.371 Y132.405 E.02066
G1 X191.554 Y131.863 E.02066
G1 X191.911 Y131.416 E.02066
G1 X192.399 Y131.118 E.02066
G1 X192.96 Y131.005 E.02066
G1 X193.526 Y131.09 E.02066
G1 X194.028 Y131.364 E.02066
G1 X194.407 Y131.794 E.02066
G1 X194.615 Y132.327 E.02066
G1 X194.629 Y132.899 E.02066
G1 X194.581 Y133.042 E.00547
G1 E-.5 F1800
;WIPE_START
G1 F12000
G1 X194.446 Y133.441
G1 X194.089 Y133.888
G1 X193.601 Y134.186
G1 X193.174 Y134.272
;WIPE_END
G1 Z.4 F24000
G1 X193.807 Y140.718 Z.4
G1 Z.2
