; HEADER_BLOCK_START
; generated by OrcaSlicer 2.0.0 on 2024-05-14 at 15:42:58
; total layer number: 275
; filament_density: 1.24
; filament_diameter: 1.75
; max_z_height: 55.00
; HEADER_BLOCK_END

; THUMBNAIL_BLOCK_START

;
; THUMBNAIL_BLOCK_END

; THUMBNAIL_BLOCK_START

;
; THUMBNAIL_BLOCK_END

; external perimeters extrusion width = 0.40mm
; perimeters extrusion width = 0.42mm
; infill extrusion width = 0.45mm
; solid infill extrusion width = 0.42mm
; top infill extrusion width = 0.40mm
; first layer extrusion width = 0.50mm

; EXECUTABLE_BLOCK_START
EXCLUDE_OBJECT_DEFINE NAME=Corps1.stl_id_0_copy_0 CENTER=110,110 POLYGON=[[70,50],[150,50],[150,170],[70,170],[70,50]]
M73 P0 R95
;TYPE:Custom
M220 S100
G90 ; use absolute coordinates
M83 ; extruder relative mode
M104 S150 ; set temporary nozzle temp to prevent oozing during homing
M140 S55 ; set final bed temp
G4 S30 ; allow partial nozzle warmup
G28 ; home all axis and restore leveling
G1 Z25 F240
G1 X10.0 Y30 F3000
M104 S210 ; set final nozzle temp
M190 S55 ; wait for bed temp to stabilize
M109 S210 ; wait for nozzle temp to stabilize
G1 Z0.28 F240
G92 E0 ; Move Z Axis up
G1 Z2.0 F5000 ; Move to start position
G1 X10 Y30 Z0.28 F300 ; Draw the first line
G1 X10 Y200 Z0.28 F1500 E15 ; Move to side a little
G1 X10.4 Y200 Z0.28 F5000.0 ; Draw the second line
G1 X10.4 Y50 Z0.28 F1500.0 E30 ; Reset Extruder
G92 E0 ; Move Z Axis up
G1 Z2.0 F3000
M117 Start Printing..
G90
G21
M83 ; use relative distances for extrusion
; filament start gcode
M106 S0
;LAYER_CHANGE
;Z:0.2
;HEIGHT:0.2
;BEFORE_LAYER_CHANGE
;0.2
G92 E0

G1 E-.5 F2400
;_SET_FAN_SPEED_CHANGING_LAYER
SET_VELOCITY_LIMIT ACCEL=500 ACCEL_TO_DECEL=250
SET_VELOCITY_LIMIT SQUARE_CORNER_VELOCITY=7
G1 Z.2 F18000
G1 X75.484 Y68.543
G1 Z.2
G1 E.5 F2400
;TYPE:Skirt
;WIDTH:0.5
G1 F3000
G1 X76.557 Y67.476 E.05638
G1 X78.003 Y67.091 E.05571
G1 X158 Y67.086 E2.9796
G1 X159.462 Y67.479 E.05638
G1 X160.529 Y68.552 E.05638
G1 X160.914 Y70 E.0558
G1 X160.914 Y190 E4.46954
G1 X160.521 Y191.462 E.05638
G1 X159.448 Y192.529 E.05638
G1 X158 Y192.914 E.0558
G1 X78.003 Y192.909 E2.9796
G1 X76.541 Y192.515 E.05638
G1 X75.475 Y191.441 E.05638
G1 X75.091 Y189.995 E.05571
G1 X75.091 Y70.005 E4.46918
G1 X75.474 Y68.582 E.05489
G1 X75.927 Y68.715 F18000
G1 F3000
G1 X75.94 Y68.674 E.00162
G1 X76.99 Y67.767 E.05169
G1 X78.003 Y67.548 E.03859
G1 X158 Y67.543 E2.97959
G1 X159.331 Y67.935 E.05169
G1 X160.238 Y68.985 E.05169
G1 X160.457 Y70 E.03866
G1 X160.457 Y190 E4.46954
G1 X160.065 Y191.331 E.05169
G1 X159.015 Y192.238 E.05169
G1 X158 Y192.457 E.03866
G1 X78.003 Y192.452 E2.97959
G1 X76.672 Y192.059 E.05169
G1 X75.766 Y191.008 E.05169
G1 X75.548 Y189.995 E.03859
G1 X75.548 Y70.005 E4.46918
G1 X75.916 Y68.754 E.04858
; printing object Corps1.stl id:0 copy 0
G1 E-.35 F2400
;WIPE_START
G1 F3000
G1 X75.94 Y68.674 E-.01252
G1 X76.634 Y68.075 E-.13748
;WIPE_END
EXCLUDE_OBJECT_START NAME=Corps1.stl_id_0_copy_0
G1 Z.4 F18000
G1 X78.712 Y70.712 Z.4
G1 Z.2
G1 E.5 F2400
;TYPE:Inner wall
;WIDTH:0.499999
G1 F1800
G1 X157.293 Y70.707 E2.92684
G1 X157.293 Y189.293 E4.41686
M73 P0 R94
G1 X78.712 Y189.288 E2.92684
G1 X78.712 Y70.752 E4.41501
G1 X78.255 Y70.255 F18000
;TYPE:Outer wall
M73 P1 R94
G1 F1800
G1 X157.75 Y70.25 E2.96089
G1 X157.75 Y189.75 E4.45091
G1 X78.255 Y189.745 E2.96089
G1 X78.255 Y70.295 E4.44906
G1 E-.35 F2400
;WIPE_START
G1 F1800
G1 X79.255 Y70.294 E-.15
;WIPE_END
G1 Z.4 F18000
G1 X148.884 Y137.641 Z.4
G1 Z.2
G1 E.5 F2400
;TYPE:Inner wall
G1 F1800
G1 X148.674 Y139.839 E.08226
G1 X148.381 Y142.209 E.08894
G1 X148.026 Y144.552 E.08828
G1 X147.571 Y147.057 E.09483
G1 X147.087 Y149.331 E.08657
G1 X146.543 Y151.561 E.08552
G1 X145.939 Y153.745 E.08438
G1 X145.276 Y155.876 E.08312
G1 X144.555 Y157.95 E.08179
G1 X143.742 Y160.054 E.08401
G1 X142.908 Y161.999 E.07884
G1 X142.019 Y163.873 E.07724
G1 X141.079 Y165.671 E.07559
G1 X140.087 Y167.39 E.0739
G1 X139.047 Y169.024 E.07216
G1 X137.968 Y170.556 E.06978
G1 X136.824 Y172.023 E.06929
G1 X135.658 Y173.365 E.0662
G1 X135.047 Y174.012 E.03317
G1 X134.421 Y174.637 E.03295
G1 X133.253 Y175.705 E.05896
G1 X132.603 Y176.248 E.03154
G1 X131.951 Y176.757 E.0308
G1 X131.29 Y177.237 E.03043
G1 X130.621 Y177.688 E.03007
G1 X130.027 Y178.06 E.02611
G1 X129.345 Y178.455 E.02935
G1 X128.653 Y178.82 E.02911
G1 X127.955 Y179.154 E.02882
G1 X127.34 Y179.42 E.02497
G1 X126.633 Y179.694 E.02823
G1 X125.918 Y179.937 E.02811
G1 X125.199 Y180.146 E.02792
G1 X124.569 Y180.302 E.02416
G1 X123.845 Y180.45 E.02752
G1 X123.116 Y180.565 E.0275
G1 X122.384 Y180.646 E.02742
G1 X121.747 Y180.689 E.02376
G1 X121.016 Y180.707 E.02725
G1 X120.282 Y180.69 E.02734
G1 X119.644 Y180.648 E.02381
G1 X118.916 Y180.569 E.02731
G1 X118.185 Y180.456 E.02752
G1 X117.458 Y180.309 E.02763
G1 X116.828 Y180.154 E.02418
G1 X116.11 Y179.946 E.02784
G1 X115.394 Y179.704 E.02814
G1 X114.684 Y179.43 E.02835
G1 X114.068 Y179.164 E.02498
G1 X113.371 Y178.832 E.02877
G1 X112.679 Y178.468 E.02914
G1 X111.994 Y178.073 E.02944
G1 X111.398 Y177.701 E.02616
G1 X110.729 Y177.251 E.03001
G1 X110.067 Y176.771 E.03046
G1 X109.414 Y176.263 E.03083
G1 X108.758 Y175.716 E.0318
G1 X107.59 Y174.647 E.05899
G1 X106.967 Y174.026 E.03276
G1 X106.351 Y173.375 E.03337
G1 X105.176 Y172.023 E.06674
G1 X104.041 Y170.57 E.06866
G1 X102.953 Y169.024 E.07041
G1 X101.913 Y167.39 E.07216
G1 X100.921 Y165.671 E.07389
G1 X99.981 Y163.873 E.07559
G1 X99.092 Y161.999 E.07724
G1 X98.258 Y160.054 E.07884
G1 X97.444 Y157.95 E.08401
G1 X96.724 Y155.876 E.08179
G1 X96.061 Y153.745 E.08313
G1 X95.457 Y151.561 E.08439
G1 X94.913 Y149.33 E.08553
G1 X94.429 Y147.057 E.08658
G1 X93.974 Y144.552 E.09482
G1 X93.618 Y142.208 E.08828
G1 X93.326 Y139.839 E.08893
G1 X93.097 Y137.447 E.08947
G1 X92.932 Y135.04 E.08989
G1 X92.825 Y132.424 E.09751
G1 X92.793 Y130 E.0903
G1 X92.825 Y127.576 E.09028
G1 X92.922 Y125.157 E.09015
G1 X93.097 Y122.553 E.09724
G1 X93.326 Y120.161 E.08948
G1 X93.619 Y117.791 E.08894
G1 X93.974 Y115.448 E.08828
G1 X94.429 Y112.943 E.09483
G1 X94.913 Y110.67 E.08657
G1 X95.457 Y108.439 E.08552
G1 X96.062 Y106.255 E.08439
G1 X96.724 Y104.124 E.08313
G1 X97.445 Y102.05 E.08179
G1 X98.258 Y99.946 E.08401
G1 X99.092 Y98.001 E.07883
G1 X99.981 Y96.127 E.07724
G1 X100.921 Y94.329 E.07559
G1 X101.913 Y92.61 E.07389
G1 X102.953 Y90.976 E.07216
G1 X104.041 Y89.43 E.07042
G1 X105.176 Y87.977 E.06866
G1 X106.342 Y86.635 E.0662
G1 X106.953 Y85.988 E.03316
G1 X107.579 Y85.363 E.03295
G1 X108.747 Y84.295 E.05895
G1 X109.397 Y83.752 E.03154
G1 X110.048 Y83.243 E.0308
G1 X110.709 Y82.763 E.03043
G1 X111.379 Y82.312 E.03007
G1 X111.973 Y81.94 E.02612
G1 X112.656 Y81.545 E.02935
G1 X113.347 Y81.18 E.02911
G1 X114.045 Y80.846 E.02883
G1 X114.66 Y80.58 E.02497
G1 X115.367 Y80.306 E.02824
G1 X116.081 Y80.063 E.02811
G1 X116.801 Y79.854 E.02792
G1 X117.431 Y79.697 E.02416
G1 X118.155 Y79.55 E.02752
G1 X118.884 Y79.435 E.0275
G1 X119.521 Y79.363 E.02387
G1 X120.347 Y79.308 E.03081
G1 X120.985 Y79.293 E.02377
G1 X121.624 Y79.307 E.0238
G1 X122.352 Y79.351 E.02719
G1 X123.084 Y79.431 E.02743
G1 X123.814 Y79.544 E.02752
G1 X124.542 Y79.691 E.02763
G1 X125.172 Y79.846 E.02418
G1 X125.89 Y80.054 E.02784
G1 X126.606 Y80.296 E.02814
G1 X127.316 Y80.57 E.02835
G1 X127.932 Y80.836 E.02498
G1 X128.629 Y81.168 E.02877
G1 X129.321 Y81.532 E.02914
G1 X130.006 Y81.927 E.02944
G1 X130.602 Y82.299 E.02616
G1 X131.271 Y82.749 E.03002
G1 X131.933 Y83.229 E.03046
G1 X132.586 Y83.737 E.03083
G1 X133.242 Y84.284 E.03179
G1 X134.41 Y85.353 E.05898
G1 X135.033 Y85.973 E.03275
G1 X135.649 Y86.624 E.03336
G1 X136.812 Y87.963 E.06606
G1 X137.959 Y89.43 E.06934
G1 X139.047 Y90.976 E.07042
G1 X140.087 Y92.61 E.07216
G1 X141.031 Y94.243 E.07024
G1 X142.019 Y96.126 E.07923
G1 X142.908 Y98.001 E.07725
G1 X143.742 Y99.946 E.07884
G1 X144.555 Y102.05 E.08402
G1 X145.276 Y104.125 E.08179
G1 X145.939 Y106.256 E.08313
G1 X146.543 Y108.439 E.08438
G1 X147.087 Y110.67 E.08552
G1 X147.571 Y112.943 E.08657
G1 X148.026 Y115.448 E.09483
G1 X148.382 Y117.792 E.08828
G1 X148.674 Y120.161 E.08894
G1 X148.903 Y122.553 E.08948
G1 X149.078 Y125.158 E.09724
G1 X149.175 Y127.576 E.09015
G1 X149.207 Y130 E.09029
G1 X149.175 Y132.424 E.09029
G1 X149.078 Y134.843 E.09016
G1 X148.903 Y137.447 E.09724
G1 X148.888 Y137.601 E.00574
G1 X148.429 Y137.597 F18000
;TYPE:Outer wall
G1 F1800
G1 X148.219 Y139.789 E.08202
G1 X147.929 Y142.147 E.08847
G1 X147.575 Y144.477 E.08779
G1 X147.123 Y146.969 E.09433
G1 X146.642 Y149.229 E.08606
G1 X146.1 Y151.446 E.085
G1 X145.5 Y153.616 E.08385
G1 X144.842 Y155.733 E.08258
G1 X144.126 Y157.793 E.08122
G1 X143.319 Y159.881 E.08341
G1 X142.491 Y161.811 E.07821
G1 X141.61 Y163.669 E.07659
G1 X140.678 Y165.451 E.0749
G1 X139.696 Y167.153 E.07317
G1 X138.667 Y168.77 E.07139
G1 X137.594 Y170.293 E.06938
G1 X136.471 Y171.732 E.068
G1 X135.313 Y173.065 E.06575
G1 X134.715 Y173.698 E.03245
G1 X134.105 Y174.307 E.03209
G1 X132.945 Y175.368 E.05858
G1 X132.311 Y175.897 E.03076
G1 X131.67 Y176.396 E.03023
G1 X131.022 Y176.867 E.02984
G1 X130.366 Y177.309 E.02947
G1 X129.784 Y177.673 E.02555
G1 X129.116 Y178.059 E.02875
G1 X128.44 Y178.415 E.02845
G1 X127.758 Y178.741 E.02815
G1 X127.159 Y179 E.02433
G1 X126.468 Y179.268 E.02758
G1 X125.772 Y179.504 E.02738
G1 X125.071 Y179.707 E.02718
G1 X124.459 Y179.859 E.02347
G1 X123.754 Y180.002 E.02682
G1 X123.045 Y180.113 E.02673
G1 X122.334 Y180.191 E.02663
G1 X121.717 Y180.233 E.02305
G1 X121.005 Y180.25 E.02651
G1 X120.293 Y180.233 E.02654
G1 X119.675 Y180.192 E.02306
G1 X118.965 Y180.115 E.02659
G1 X118.256 Y180.004 E.02673
G1 X117.55 Y179.861 E.02685
G1 X116.938 Y179.71 E.02348
G1 X116.238 Y179.507 E.02715
G1 X115.541 Y179.271 E.02739
G1 X114.849 Y179.003 E.02762
G1 X114.249 Y178.745 E.02433
G1 X113.568 Y178.419 E.02813
G1 X112.892 Y178.063 E.02846
G1 X112.222 Y177.677 E.02878
G1 X111.641 Y177.313 E.02556
G1 X110.985 Y176.872 E.02945
G1 X110.336 Y176.401 E.02985
G1 X109.695 Y175.902 E.03024
G1 X109.059 Y175.372 E.03085
G1 X107.898 Y174.31 E.0586
G1 X107.29 Y173.703 E.03203
G1 X106.69 Y173.068 E.03252
G1 X105.529 Y171.732 E.06593
G1 X104.409 Y170.297 E.06779
G1 X103.333 Y168.769 E.0696
G1 X102.303 Y167.153 E.07139
G1 X101.322 Y165.451 E.07317
G1 X100.39 Y163.669 E.0749
G1 X99.509 Y161.811 E.07659
G1 X98.681 Y159.881 E.07821
G1 X97.874 Y157.793 E.0834
G1 X97.158 Y155.733 E.08122
G1 X96.5 Y153.616 E.08258
G1 X95.899 Y151.446 E.08386
G1 X95.358 Y149.228 E.08501
G1 X94.877 Y146.968 E.08607
G1 X94.425 Y144.477 E.09432
G1 X94.071 Y142.146 E.08779
G1 X93.781 Y139.789 E.08846
G1 X93.553 Y137.41 E.08901
G1 X93.389 Y135.015 E.08942
G1 X93.282 Y132.412 E.09704
G1 X93.25 Y130 E.08984
G1 X93.282 Y127.588 E.08983
G1 X93.378 Y125.182 E.08969
G1 X93.553 Y122.59 E.09676
G1 X93.781 Y120.211 E.08901
G1 X94.071 Y117.854 E.08847
G1 X94.425 Y115.523 E.08779
G1 X94.877 Y113.031 E.09433
G1 X95.358 Y110.771 E.08606
G1 X95.9 Y108.554 E.08501
G1 X96.5 Y106.384 E.08386
G1 X97.159 Y104.267 E.08258
G1 X97.874 Y102.207 E.08122
G1 X98.681 Y100.118 E.0834
G1 X99.509 Y98.189 E.0782
G1 X100.39 Y96.331 E.07659
G1 X101.322 Y94.549 E.0749
G1 X102.304 Y92.847 E.07317
G1 X103.333 Y91.23 E.07139
G1 X104.409 Y89.702 E.0696
G1 X105.529 Y88.268 E.06779
G1 X106.687 Y86.935 E.06575
G1 X107.285 Y86.302 E.03245
G1 X107.895 Y85.693 E.03208
G1 X109.055 Y84.632 E.05858
G1 X109.689 Y84.103 E.03076
G1 X110.329 Y83.604 E.03023
G1 X110.978 Y83.133 E.02984
G1 X111.634 Y82.691 E.02947
G1 X112.216 Y82.327 E.02555
G1 X112.884 Y81.941 E.02875
G1 X113.56 Y81.585 E.02845
G1 X114.242 Y81.259 E.02815
G1 X114.841 Y81 E.02433
G1 X115.532 Y80.732 E.02758
G1 X116.228 Y80.496 E.02738
G1 X116.929 Y80.292 E.02718
G1 X117.54 Y80.141 E.02347
G1 X118.246 Y79.997 E.02682
G1 X118.955 Y79.886 E.02673
G1 X119.572 Y79.817 E.02313
G1 X120.377 Y79.764 E.03004
G1 X120.995 Y79.75 E.02304
G1 X121.613 Y79.764 E.02304
G1 X122.324 Y79.808 E.02651
G1 X123.035 Y79.885 E.02664
G1 X123.744 Y79.996 E.02673
G1 X124.45 Y80.139 E.02685
G1 X125.062 Y80.29 E.02348
G1 X125.762 Y80.493 E.02715
G1 X126.459 Y80.729 E.02739
G1 X127.151 Y80.997 E.02762
G1 X127.751 Y81.255 E.02433
G1 X128.432 Y81.581 E.02813
G1 X129.108 Y81.937 E.02846
G1 X129.777 Y82.323 E.02878
G1 X130.359 Y82.687 E.02556
G1 X131.015 Y83.128 E.02945
G1 X131.664 Y83.599 E.02986
G1 X132.305 Y84.098 E.03025
G1 X132.941 Y84.628 E.03085
G1 X134.102 Y85.69 E.05859
G1 X134.71 Y86.297 E.03202
G1 X135.31 Y86.931 E.03252
G1 X136.467 Y88.263 E.0657
G1 X137.591 Y89.702 E.06802
G1 X138.667 Y91.23 E.06961
G1 X139.696 Y92.847 E.0714
G1 X140.631 Y94.463 E.06953
G1 X141.61 Y96.331 E.07853
G1 X142.491 Y98.189 E.07659
G1 X143.319 Y100.118 E.07821
G1 X144.126 Y102.207 E.08341
G1 X144.842 Y104.267 E.08122
G1 X145.5 Y106.384 E.08258
G1 X146.1 Y108.554 E.08385
G1 X146.642 Y110.771 E.08501
G1 X147.123 Y113.032 E.08607
G1 X147.575 Y115.523 E.09432
G1 X147.929 Y117.854 E.0878
G1 X148.219 Y120.211 E.08847
G1 X148.447 Y122.59 E.08901
G1 X148.622 Y125.182 E.09677
G1 X148.718 Y127.588 E.08969
G1 X148.75 Y130 E.08983
G1 X148.718 Y132.412 E.08983
G1 X148.622 Y134.818 E.08969
G1 X148.447 Y137.41 E.09677
G1 X148.433 Y137.557 E.0055
G1 E-.35 F2400
;WIPE_START
G1 F1800
G1 X148.338 Y138.553 E-.15
;WIPE_END
G1 Z.4 F18000
G1 X157.156 Y71.769
G1 Z.4
G1 Z.2
G1 E.5 F2400
;TYPE:Bottom surface
;WIDTH:0.500457
G1 F3600
G1 X156.437 Y71.05 E.03792
G1 X155.79 Y71.05 E.02412
G1 X156.95 Y72.211 E.06119
G1 X156.95 Y72.858 E.02412
G1 X155.143 Y71.05 E.09531
G1 X154.496 Y71.05 E.02412
G1 X156.95 Y73.505 E.12942
G1 X156.95 Y74.152 E.02412
G1 X153.849 Y71.05 E.16354
G1 X153.202 Y71.05 E.02412
G1 X156.95 Y74.799 E.19765
G1 X156.95 Y75.446 E.02412
G1 X152.554 Y71.05 E.23177
G1 X151.907 Y71.05 E.02412
G1 X156.95 Y76.093 E.26588
G1 X156.95 Y76.74 E.02412
G1 X151.26 Y71.05 E.3
G1 X150.613 Y71.05 E.02412
G1 X156.95 Y77.387 E.33411
G1 X156.95 Y78.034 E.02412
G1 X149.966 Y71.05 E.36823
G1 X149.319 Y71.05 E.02412
G1 X156.95 Y78.681 E.40234
G1 X156.95 Y79.328 E.02412
G1 X148.672 Y71.05 E.43646
G1 X148.025 Y71.051 E.02412
G1 X156.95 Y79.975 E.47057
G1 X156.95 Y80.622 E.02412
G1 X147.378 Y71.051 E.50469
G1 X146.731 Y71.051 E.02412
G1 X156.95 Y81.269 E.5388
G1 X156.95 Y81.916 E.02412
G1 X146.084 Y71.051 E.57292
G1 X145.437 Y71.051 E.02412
G1 X156.95 Y82.563 E.60703
G1 X156.95 Y83.211 E.02412
G1 X144.79 Y71.051 E.64115
G1 X144.143 Y71.051 E.02412
G1 X156.95 Y83.858 E.67526
G1 X156.95 Y84.505 E.02412
G1 X143.496 Y71.051 E.70938
G1 X142.849 Y71.051 E.02412
G1 X156.95 Y85.152 E.74349
G1 X156.95 Y85.799 E.02412
G1 X142.202 Y71.051 E.77761
G1 X141.555 Y71.051 E.02412
G1 X156.95 Y86.446 E.81172
G1 X156.95 Y87.093 E.02412
G1 X140.908 Y71.051 E.84584
G1 X140.261 Y71.051 E.02412
G1 X156.95 Y87.74 E.87995
G1 X156.95 Y88.387 E.02412
G1 X139.614 Y71.051 E.91407
G1 X138.967 Y71.051 E.02412
G1 X156.95 Y89.034 E.94818
G1 X156.95 Y89.681 E.02412
G1 X138.32 Y71.051 E.9823
G1 X137.673 Y71.051 E.02412
G1 X156.95 Y90.328 E1.01641
G1 X156.95 Y90.975 E.02412
G1 X137.026 Y71.051 E1.05053
G1 X136.379 Y71.051 E.02412
G1 X156.95 Y91.622 E1.08464
G1 X156.95 Y92.269 E.02412
G1 X135.732 Y71.051 E1.11876
G1 X135.085 Y71.051 E.02412
G1 X156.95 Y92.916 E1.15287
G1 X156.95 Y93.563 E.02412
G1 X134.438 Y71.051 E1.18699
G1 X133.791 Y71.051 E.02412
G1 X156.95 Y94.21 E1.2211
G1 X156.95 Y94.857 E.02412
G1 X133.144 Y71.051 E1.25522
G1 X132.497 Y71.051 E.02412
G1 X156.95 Y95.505 E1.28933
G1 X156.95 Y96.152 E.02412
G1 X131.85 Y71.051 E1.32345
G1 X131.203 Y71.052 E.02412
M73 P1 R93
G1 X156.95 Y96.799 E1.35756
G1 X156.95 Y97.446 E.02412
G1 X130.556 Y71.052 E1.39168
G1 X129.909 Y71.052 E.02412
G1 X156.95 Y98.093 E1.42579
G1 X156.95 Y98.74 E.02412
G1 X129.262 Y71.052 E1.45991
G1 X128.615 Y71.052 E.02412
G1 X156.95 Y99.387 E1.49402
G1 X156.95 Y100.034 E.02412
G1 X127.968 Y71.052 E1.52814
G1 X127.321 Y71.052 E.02412
G1 X156.95 Y100.681 E1.56225
G1 X156.95 Y101.328 E.02412
G1 X126.674 Y71.052 E1.59637
G1 X126.027 Y71.052 E.02412
G1 X156.95 Y101.975 E1.63048
G1 X156.95 Y102.622 E.02412
M73 P2 R93
G1 X125.38 Y71.052 E1.6646
G1 X124.733 Y71.052 E.02412
G1 X156.95 Y103.269 E1.69871
G1 X156.95 Y103.916 E.02412
