; HEADER_BLOCK_START
; generated by OrcaSlicer 2.1.1 on 2024-07-21 at 07:23:51
; total layer number: 50
; filament_density: 1.27
; filament_diameter: 1.75
; max_z_height: 10.00
; HEADER_BLOCK_END

; THUMBNAIL_BLOCK_START

;
; THUMBNAIL_BLOCK_END

; THUMBNAIL_BLOCK_START

;
; THUMBNAIL_BLOCK_END

; external perimeters extrusion width = 0.42mm
; perimeters extrusion width = 0.45mm
; infill extrusion width = 0.45mm
; solid infill extrusion width = 0.45mm
; top infill extrusion width = 0.42mm
; first layer extrusion width = 0.50mm

; external perimeters extrusion width = 0.42mm
; perimeters extrusion width = 0.45mm
; infill extrusion width = 0.45mm
; solid infill extrusion width = 0.45mm
; top infill extrusion width = 0.42mm
; first layer extrusion width = 0.50mm

; external perimeters extrusion width = 0.42mm
; perimeters extrusion width = 0.45mm
; infill extrusion width = 0.45mm
; solid infill extrusion width = 0.45mm
; top infill extrusion width = 0.42mm
; first layer extrusion width = 0.50mm

; EXECUTABLE_BLOCK_START
EXCLUDE_OBJECT_DEFINE NAME=Corps1.stl_id_0_copy_0 CENTER=128.745,130 POLYGON=[[105.745,129.96],[105.758,129.409],[105.792,128.86],[105.847,128.312],[105.925,127.766],[106.023,127.225],[106.143,126.687],[106.284,126.155],[106.445,125.628],[106.628,125.108],[106.83,124.596],[107.053,124.092],[107.295,123.598],[107.556,123.113],[107.837,122.639],[108.135,122.176],[108.452,121.726],[108.786,121.288],[109.137,120.864],[109.505,120.453],[109.888,120.058],[110.287,119.678],[110.7,119.314],[111.127,118.967],[111.568,118.636],[112.021,118.323],[112.486,118.029],[112.963,117.752],[113.45,117.495],[113.947,117.257],[114.452,117.039],[114.966,116.841],[115.487,116.663],[116.015,116.506],[116.549,116.37],[117.087,116.254],[117.63,116.161],[118.176,116.088],[118.724,116.037],[119.274,116.008],[119.825,116],[120.376,116.014],[120.925,116.05],[121.473,116.107],[122.018,116.186],[122.56,116.286],[123.097,116.407],[123.629,116.549],[151.027,124.04],[151.161,124.09],[151.286,124.159],[151.4,124.244],[151.501,124.345],[151.586,124.459],[151.655,124.584],[151.705,124.718],[151.735,124.857],[151.745,125],[151.745,143],[151.735,143.142],[151.705,143.282],[151.655,143.415],[151.586,143.54],[151.501,143.655],[151.4,143.756],[151.286,143.841],[151.161,143.909],[151.027,143.959],[150.888,143.99],[150.745,144],[119.745,144],[119.195,143.989],[118.645,143.956],[118.097,143.902],[117.551,143.827],[117.009,143.73],[116.471,143.612],[115.938,143.472],[115.411,143.312],[114.891,143.131],[114.378,142.93],[113.874,142.709],[113.379,142.468],[112.893,142.208],[112.418,141.929],[111.955,141.632],[111.503,141.317],[111.065,140.984],[110.639,140.634],[110.228,140.267],[109.832,139.885],[109.451,139.488],[109.085,139.075],[108.737,138.649],[108.405,138.209],[108.091,137.757],[107.795,137.293],[107.517,136.817],[107.258,136.331],[107.019,135.835],[106.799,135.33],[106.6,134.816],[106.421,134.296],[106.262,133.768],[106.124,133.235],[106.007,132.697],[105.912,132.154],[105.838,131.609],[105.785,131.06],[105.755,130.511],[105.745,129.96]]
EXCLUDE_OBJECT_DEFINE NAME=Corps1.stl_id_1_copy_0 CENTER=128.745,100 POLYGON=[[105.745,99.9601],[105.758,99.4095],[105.792,98.8598],[105.847,98.3119],[105.925,97.7666],[106.023,97.2247],[106.143,96.6871],[106.284,96.1547],[106.445,95.6282],[106.628,95.1085],[106.83,94.5964],[107.053,94.0926],[107.295,93.5979],[107.556,93.1132],[107.837,92.6391],[108.135,92.1764],[108.452,91.7259],[108.786,91.2881],[109.137,90.8638],[109.505,90.4536],[109.888,90.0583],[110.287,89.6783],[110.7,89.3142],[111.127,88.9668],[111.568,88.6363],[112.021,88.3235],[112.486,88.0288],[112.963,87.7525],[113.45,87.4952],[113.947,87.2573],[114.452,87.0391],[114.966,86.841],[115.487,86.6632],[116.015,86.506],[116.549,86.3698],[117.087,86.2546],[117.63,86.1607],[118.176,86.0882],[118.724,86.0373],[119.274,86.0079],[119.825,86.0002],[120.376,86.0142],[120.925,86.0498],[121.473,86.107],[122.018,86.1857],[122.56,86.2858],[123.097,86.4071],[123.629,86.5494],[151.027,94.0405],[151.161,94.0904],[151.286,94.1587],[151.4,94.2442],[151.501,94.3451],[151.586,94.4594],[151.655,94.5846],[151.705,94.7183],[151.735,94.8577],[151.745,95],[151.745,113],[151.735,113.142],[151.705,113.282],[151.655,113.415],[151.586,113.541],[151.501,113.655],[151.4,113.756],[151.286,113.841],[151.161,113.91],[151.027,113.959],[150.888,113.99],[150.745,114],[119.745,114],[119.195,113.989],[118.645,113.957],[118.097,113.903],[117.551,113.827],[117.009,113.73],[116.471,113.612],[115.938,113.472],[115.411,113.312],[114.891,113.132],[114.378,112.93],[113.874,112.709],[113.379,112.469],[112.893,112.209],[112.418,111.93],[111.955,111.632],[111.503,111.317],[111.065,110.984],[110.639,110.634],[110.228,110.268],[109.832,109.885],[109.451,109.488],[109.085,109.076],[108.737,108.649],[108.405,108.21],[108.091,107.757],[107.795,107.293],[107.517,106.817],[107.258,106.331],[107.019,105.835],[106.799,105.33],[106.6,104.817],[106.421,104.296],[106.262,103.768],[106.124,103.235],[106.007,102.697],[105.912,102.155],[105.838,101.609],[105.785,101.061],[105.755,100.511],[105.745,99.9601]]
EXCLUDE_OBJECT_DEFINE NAME=Corps1.stl_id_2_copy_0 CENTER=92.2546,121 POLYGON=[[78.2548,112],[78.2656,111.449],[78.2981,110.899],[78.3522,110.351],[78.4278,109.806],[78.5247,109.264],[78.643,108.726],[78.7823,108.193],[78.9424,107.666],[79.1232,107.146],[79.3243,106.633],[79.5454,106.129],[79.7861,105.633],[80.0462,105.148],[80.3251,104.673],[80.6225,104.209],[80.9379,103.758],[81.2708,103.319],[81.6208,102.894],[81.9871,102.483],[82.3694,102.086],[82.767,101.705],[83.1792,101.34],[83.6055,100.991],[84.0452,100.66],[84.4975,100.345],[84.9619,100.049],[85.4376,99.7717],[85.9238,99.5131],[86.4198,99.2737],[86.9249,99.0541],[87.4382,98.8545],[87.9589,98.6752],[88.4863,98.5165],[89.0195,98.3788],[89.5578,98.2621],[90.1002,98.1666],[90.6459,98.0926],[91.1941,98.04],[91.744,98.0091],[92.2947,97.9999],[92.8453,98.0123],[93.395,98.0463],[93.9429,98.102],[94.4882,98.1791],[95.0301,98.2777],[95.5676,98.3974],[96.1,98.5382],[96.6265,98.6999],[97.1462,98.8821],[97.6584,99.0847],[98.1622,99.3072],[98.6568,99.5494],[99.1416,99.8108],[99.6156,100.091],[100.078,100.39],[100.529,100.707],[100.967,101.041],[101.391,101.392],[101.801,101.759],[102.197,102.143],[102.576,102.541],[102.941,102.955],[103.288,103.382],[103.618,103.823],[103.931,104.276],[104.226,104.741],[104.502,105.218],[104.76,105.704],[104.997,106.201],[105.216,106.707],[105.414,107.221],[105.592,107.742],[105.749,108.27],[105.885,108.803],[106,109.342],[106.094,109.885],[106.167,110.431],[106.217,110.979],[106.247,111.529],[106.255,112.08],[106.241,112.63],[106.205,113.18],[106.148,113.728],[106.069,114.273],[105.969,114.814],[105.848,115.351],[105.705,115.883],[98.2143,143.282],[98.1644,143.415],[98.096,143.54],[98.0105,143.655],[97.9096,143.756],[97.7954,143.841],[97.6702,143.909],[97.5365,143.959],[97.3971,143.99],[97.2548,144],[79.2548,144],[79.1124,143.99],[78.973,143.959],[78.8393,143.909],[78.7141,143.841],[78.5999,143.756],[78.499,143.655],[78.4135,143.54],[78.3451,143.415],[78.2953,143.282],[78.2649,143.142],[78.2548,143],[78.2548,112]]
M73 P0 R34
;TYPE:Custom
M220 S100
G90 ; use absolute coordinates
M83 ; extruder relative mode
M104 S150 ; set temporary nozzle temp to prevent oozing during homing
M140 S70 ; set final bed temp
G4 S30 ; allow partial nozzle warmup
G28 ; home all axis and restore leveling
BED_MESH_CALIBRATE PROFILE=adaptive ADAPTIVE=1 ADAPTIVE_MARGIN=0
G1 Z25 F240
G1 X10.0 Y30 F3000
M104 S245 ; set final nozzle temp
M190 S70 ; wait for bed temp to stabilize
M109 S245 ; wait for nozzle temp to stabilize
M73 P0 R33
G1 Z0.28 F240
G92 E0 ; Move Z Axis up
G1 Z2.0 F5000 ; Move to start position
G1 X5 Y30 Z0.28 F300 ; Draw the first line
G1 X5 Y200 Z0.28 F1500 E15 ; Move to side a little
G1 X5.4 Y200 Z0.28 F5000.0 ; Draw the second line
M73 P1 R33
G1 X5.4 Y50 Z0.28 F1500.0 E30 ; Reset Extruder
G92 E0 ; Move Z Axis up
G1 Z2.0 F3000
M117 Start Printing..
G90
G21
M83 ; use relative distances for extrusion
; filament start gcode
M106 S0
;LAYER_CHANGE
;Z:0.2
;HEIGHT:0.2
;BEFORE_LAYER_CHANGE
;0.2
G92 E0

G1 E-.5 F1800
;_SET_FAN_SPEED_CHANGING_LAYER
SET_VELOCITY_LIMIT ACCEL=1000
SET_VELOCITY_LIMIT SQUARE_CORNER_VELOCITY=7
; printing object Corps1.stl id:2 copy 0
EXCLUDE_OBJECT_START NAME=Corps1.stl_id_2_copy_0
G1 Z.2 F24000
G1 X102.596 Y161.662
G1 Z.2
G1 E.5 F1800
;TYPE:Inner wall
;WIDTH:0.499999
G1 X102.684 Y161.624 E.00345
G1 X104.535 Y160.279 E.0826
G1 X105.435 Y159.707 E.03851
G1 X105.497 Y160.777 E.0387
G1 X105.498 Y162.885 E.07612
G1 X105.467 Y163.066 E.00664
G1 X105.403 Y163.18 E.0047
G1 X105.203 Y163.243 E.00758
G1 X87.277 Y163.243 E.64721
G1 X87.069 Y163.141 E.00836
G1 X87.012 Y162.948 E.00729
G1 X87.022 Y131.486 E1.13595
G1 X87.105 Y130.441 E.03786
G1 X87.269 Y129.407 E.03781
G1 X87.511 Y128.399 E.03742
G1 X87.836 Y127.402 E.03786
G1 X88.021 Y126.93 E.01831
G1 X88.461 Y125.978 E.03786
G1 X88.971 Y125.069 E.03761
G1 X89.55 Y124.204 E.03761
G1 X90.196 Y123.387 E.03761
G1 X90.904 Y122.623 E.03761
G1 X91.67 Y121.917 E.03761
G1 X92.489 Y121.273 E.03761
G1 X93.357 Y120.696 E.03761
G1 X94.266 Y120.189 E.03761
G1 X95.213 Y119.755 E.03761
G1 X96.191 Y119.396 E.03761
G1 X97.195 Y119.116 E.03761
G1 X98.217 Y118.915 E.03761
G1 X99.258 Y118.795 E.03786
G1 X99.767 Y118.766 E.01839
G1 X100.556 Y118.763 E.02847
G1 X101.338 Y118.801 E.02828
G1 X102.366 Y118.927 E.03739
G1 X103.388 Y119.134 E.03767
G1 X104.397 Y119.422 E.03786
G1 X104.882 Y119.592 E.01855
G1 X105.365 Y119.783 E.01876
G1 X106.31 Y120.223 E.03767
G1 X107.223 Y120.739 E.03786
G1 X107.649 Y121.014 E.01831
G1 X108.501 Y121.638 E.03811
G1 X109.28 Y122.309 E.03711
G1 X110.023 Y123.058 E.03812
G1 X110.358 Y123.439 E.01831
G1 X111.008 Y124.27 E.03811
G1 X111.299 Y124.692 E.01851
G1 X111.853 Y125.61 E.0387
G1 X112.171 Y126.238 E.02543
G1 X112.525 Y127.02 E.03098
G1 X112.706 Y127.493 E.01831
G1 X113.025 Y128.5 E.03812
G1 X113.278 Y129.628 E.04174
G1 X113.417 Y130.544 E.03346
G1 X113.472 Y131.342 E.02888
G1 X113.484 Y132.589 E.04503
G1 X113.395 Y133.641 E.03811
G1 X113.322 Y134.15 E.01855
G1 X113.227 Y134.66 E.01876
G1 X112.976 Y135.68 E.03791
G1 X112.824 Y136.169 E.01851
G1 X112.454 Y137.152 E.03792
G1 X112.248 Y137.616 E.01831
G1 X111.764 Y138.549 E.03794
G1 X111.356 Y139.215 E.02822
G1 X110.916 Y139.855 E.02803
G1 X110.26 Y140.676 E.03795
G1 X109.916 Y141.057 E.01856
G1 X109.557 Y141.425 E.01856
G1 X108.777 Y142.136 E.03811
G1 X108.378 Y142.458 E.0185
G1 X107.529 Y143.065 E.03767
G1 X106.632 Y143.605 E.03781
G1 X105.699 Y144.072 E.03767
G1 X104.741 Y144.459 E.0373
G1 X103.747 Y144.774 E.03767
G1 X102.76 Y145.002 E.03657
G1 X101.673 Y145.166 E.03969
G1 X101.05 Y145.214 E.02257
G1 X100.113 Y145.241 E.03384
G1 X99.606 Y145.226 E.01831
G1 X98.555 Y145.131 E.03812
G1 X97.528 Y144.958 E.0376
G1 X96.954 Y144.821 E.02132
G1 X95.834 Y144.475 E.0423
G1 X94.819 Y144.073 E.03944
G1 X94.323 Y143.904 E.01891
G1 X93.144 Y143.887 E.04257
G1 X92.583 Y143.967 E.02048
G1 X91.904 Y144.159 E.02547
G1 X91.211 Y144.471 E.02743
G1 X90.639 Y144.827 E.02433
G1 X89.86 Y145.515 E.03753
G1 X89.41 Y146.08 E.02606
G1 X88.903 Y147.007 E.03815
G1 X88.595 Y148.017 E.03815
G1 X88.498 Y148.998 E.03559
G1 X88.498 Y154.021 E.18136
G1 X88.549 Y154.89 E.03142
G1 X88.692 Y155.732 E.03085
G1 X88.933 Y156.571 E.0315
G1 X89.42 Y157.695 E.04423
G1 X90.114 Y158.772 E.04626
G1 X90.969 Y159.715 E.04597
G1 X91.661 Y160.291 E.0325
G1 X92.389 Y160.771 E.03149
G1 X93.483 Y161.304 E.04395
G1 X94.339 Y161.58 E.03248
G1 X95.248 Y161.757 E.03342
G1 X102.373 Y161.757 E.25724
G1 X102.559 Y161.677 E.00732
G1 X102.422 Y161.249 F24000
;TYPE:Outer wall
G1 F1800
G1 X104.073 Y160.038 E.07394
G1 X105.058 Y159.383 E.04271
G1 X105.57 Y159.132 E.02059
G1 X105.748 Y159.105 E.00651
G1 X105.879 Y159.475 E.01419
G1 X105.954 Y160.764 E.0466
G1 X105.955 Y162.885 E.0766
G1 X105.907 Y163.192 E.01122
G1 X105.782 Y163.456 E.01056
G1 X105.547 Y163.625 E.01045
G1 X105.235 Y163.7 E.01157
G1 X87.33 Y163.7 E.6465
G1 X87.066 Y163.67 E.00956
G1 X86.793 Y163.521 E.01124
G1 X86.633 Y163.3 E.00986
G1 X86.555 Y162.98 E.01188
G1 X86.565 Y131.463 E1.13794
G1 X86.65 Y130.387 E.039
G1 X86.82 Y129.317 E.03911
G1 X87.071 Y128.275 E.03871
G1 X87.406 Y127.247 E.039
G1 X87.6 Y126.75 E.01928
G1 X88.053 Y125.77 E.039
G1 X88.581 Y124.83 E.03891
G1 X89.181 Y123.935 E.03891
G1 X89.849 Y123.089 E.03891
G1 X90.581 Y122.299 E.03891
G1 X91.374 Y121.568 E.03891
G1 X92.221 Y120.903 E.03891
G1 X93.118 Y120.306 E.03891
G1 X94.06 Y119.781 E.03891
G1 X95.039 Y119.332 E.03891
G1 X96.051 Y118.961 E.03891
G1 X97.089 Y118.671 E.03891
G1 X98.146 Y118.463 E.03891
G1 X99.219 Y118.339 E.039
G1 X99.753 Y118.309 E.01931
G1 X100.566 Y118.306 E.02934
G1 X101.372 Y118.346 E.02914
G1 X102.443 Y118.476 E.03896
G1 X103.497 Y118.689 E.0388
G1 X104.535 Y118.986 E.039
G1 X105.041 Y119.163 E.01937
G1 X105.545 Y119.363 E.01957
G1 X106.52 Y119.816 E.0388
G1 X107.46 Y120.348 E.039
G1 X107.909 Y120.637 E.01928
G1 X108.782 Y121.277 E.03908
G1 X109.595 Y121.977 E.03873
G1 X110.357 Y122.746 E.03909
G1 X110.71 Y123.147 E.01928
G1 X111.376 Y124 E.03908
G1 X111.683 Y124.444 E.01948
G1 X112.257 Y125.396 E.04016
G1 X112.587 Y126.049 E.0264
G1 X112.951 Y126.855 E.03195
G1 X113.142 Y127.354 E.01928
G1 X113.47 Y128.395 E.03942
G1 X113.73 Y129.559 E.04304
G1 X113.872 Y130.502 E.03444
G1 X113.929 Y131.327 E.02985
G1 X113.941 Y132.614 E.04649
G1 X113.85 Y133.693 E.03909
G1 X113.773 Y134.224 E.01937
G1 X113.674 Y134.757 E.01957
G1 X113.416 Y135.803 E.03889
G1 X113.256 Y136.318 E.01948
G1 X112.877 Y137.326 E.03889
G1 X112.66 Y137.814 E.01928
G1 X112.163 Y138.774 E.03903
G1 X111.739 Y139.464 E.02925
G1 X111.283 Y140.127 E.02905
G1 X110.608 Y140.972 E.03903
G1 X110.249 Y141.37 E.01937
G1 X109.875 Y141.754 E.01937
G1 X109.074 Y142.483 E.03908
G1 X108.655 Y142.822 E.01948
G1 X107.781 Y143.447 E.0388
G1 X106.853 Y144.006 E.03911
G1 X105.891 Y144.486 E.0388
G1 X104.892 Y144.891 E.03893
G1 X103.867 Y145.215 E.0388
G1 X102.817 Y145.458 E.03891
G1 X101.749 Y145.618 E.039
G1 X101.212 Y145.666 E.01948
G1 X100.135 Y145.699 E.03889
G1 X99.601 Y145.684 E.01928
G1 X98.525 Y145.59 E.039
G1 X97.46 Y145.412 E.039
G1 X96.939 Y145.293 E.01928
G1 X95.903 Y144.99 E.039
G1 X94.893 Y144.607 E.039
G1 X94.388 Y144.38 E.01999
G1 X93.927 Y144.344 E.01669
G1 X93.203 Y144.341 E.02612
G1 X92.703 Y144.408 E.01822
G1 X92.084 Y144.58 E.02321
G1 X91.447 Y144.863 E.02517
G1 X90.938 Y145.172 E.0215
G1 X90.214 Y145.805 E.03472
G1 X89.808 Y146.305 E.02325
G1 X89.338 Y147.146 E.03477
G1 X89.05 Y148.064 E.03477
G1 X88.955 Y148.998 E.03389
G1 X88.955 Y154.008 E.18087
G1 X89 Y154.815 E.02922
G1 X89.133 Y155.609 E.02905
G1 X89.353 Y156.389 E.02926
G1 X89.825 Y157.479 E.04287
G1 X90.478 Y158.493 E.04355
G1 X91.286 Y159.384 E.04344
G1 X91.915 Y159.911 E.02962
G1 X92.589 Y160.36 E.02925
G1 X93.654 Y160.879 E.04278
G1 X94.434 Y161.133 E.0296
G1 X95.248 Y161.3 E.03001
G1 X102.278 Y161.3 E.25384
G1 X102.385 Y161.265 E.00406
G1 E-.5
;WIPE_START
G1 F12000
G1 X104.003 Y160.089
;WIPE_END
G1 Z.4 F24000
G1 X105.301 Y142.638 Z.4
G1 Z.2
G1 E.5 F1800
;TYPE:Inner wall
G1 X105.122 Y142.729 E.00721
G1 X104.229 Y143.087 E.03475
G1 X103.343 Y143.362 E.03349
G1 X102.448 Y143.566 E.03317
G1 X101.526 Y143.702 E.03366
G1 X101.017 Y143.757 E.01847
G1 X100.023 Y143.779 E.0359
G1 X98.975 Y143.712 E.0379
G1 X97.944 Y143.552 E.03769
G1 X97.411 Y143.433 E.01971
G1 X96.49 Y143.16 E.03469
G1 X95.619 Y142.824 E.03369
G1 X94.718 Y142.391 E.03611
G1 X93.55 Y141.686 E.04925
G1 X92.386 Y140.767 E.05353
G1 X91.771 Y140.164 E.03112
G1 X90.925 Y139.197 E.0464
G1 X90.075 Y137.93 E.05509
G1 X89.581 Y136.987 E.03844
G1 X89.179 Y136.017 E.0379
G1 X88.855 Y134.98 E.03925
G1 X88.568 Y133.485 E.05494
G1 X88.481 Y132.424 E.03844
G1 X88.488 Y131.53 E.03228
G1 X88.565 Y130.601 E.03367
G1 X88.712 Y129.689 E.03336
G1 X88.921 Y128.782 E.03358
G1 X89.22 Y127.882 E.03427
G1 X89.668 Y126.831 E.04122
G1 X90.17 Y125.909 E.0379
G1 X90.748 Y125.041 E.03767
G1 X91.323 Y124.324 E.03318
G1 X91.951 Y123.654 E.03317
