; HEADER_BLOCK_START
; generated by OrcaSlicer 2.1.1 on 2024-09-19 at 17:56:32
; total layer number: 15
; filament_density: 1.24
; filament_diameter: 1.75
; max_z_height: 3.00
; HEADER_BLOCK_END

; THUMBNAIL_BLOCK_START

;
; THUMBNAIL_BLOCK_END

; THUMBNAIL_BLOCK_START

;
; THUMBNAIL_BLOCK_END

; external perimeters extrusion width = 0.42mm
; perimeters extrusion width = 0.45mm
; infill extrusion width = 0.45mm
; solid infill extrusion width = 0.45mm
; top infill extrusion width = 0.42mm
; first layer extrusion width = 0.50mm

; EXECUTABLE_BLOCK_START
EXCLUDE_OBJECT_DEFINE NAME=Corps1.stl_id_0_copy_0 CENTER=115,115 POLYGON=[[105.001,115],[105.006,114.664],[105.023,114.329],[105.051,113.994],[105.091,113.66],[105.141,113.328],[105.203,112.998],[105.276,112.67],[105.36,112.344],[105.454,112.022],[105.56,111.703],[105.676,111.388],[105.803,111.076],[105.94,110.77],[106.087,110.468],[106.244,110.171],[106.411,109.879],[106.588,109.594],[106.775,109.314],[106.97,109.041],[107.175,108.774],[107.388,108.515],[107.611,108.263],[107.841,108.019],[108.08,107.782],[108.326,107.554],[108.58,107.334],[108.841,107.122],[109.109,106.92],[109.384,106.726],[109.665,106.542],[109.952,106.368],[110.245,106.203],[110.543,106.048],[110.847,105.904],[111.154,105.769],[111.467,105.645],[111.783,105.532],[112.103,105.429],[112.426,105.337],[112.752,105.256],[113.081,105.186],[113.411,105.127],[113.744,105.079],[114.078,105.043],[114.413,105.017],[114.749,105.003],[115.085,105],[115.421,105.009],[115.756,105.029],[116.091,105.06],[116.424,105.102],[116.756,105.155],[117.085,105.22],[117.413,105.295],[117.737,105.382],[118.059,105.479],[118.377,105.587],[118.691,105.706],[119.001,105.835],[119.307,105.975],[119.608,106.125],[119.903,106.284],[120.193,106.454],[120.478,106.633],[120.756,106.822],[121.027,107.02],[121.292,107.227],[121.549,107.443],[121.799,107.667],[122.042,107.899],[122.277,108.14],[122.503,108.388],[122.721,108.644],[122.93,108.907],[123.13,109.177],[123.321,109.453],[123.503,109.736],[123.675,110.024],[123.837,110.318],[123.989,110.618],[124.132,110.922],[124.263,111.231],[124.385,111.545],[124.496,111.862],[124.596,112.183],[124.685,112.507],[124.763,112.833],[124.83,113.163],[124.887,113.494],[124.932,113.827],[124.965,114.161],[124.988,114.496],[124.999,114.832],[124.999,115.168],[124.988,115.504],[124.965,115.839],[124.932,116.173],[124.887,116.506],[124.83,116.837],[124.763,117.167],[124.685,117.493],[124.596,117.817],[124.496,118.138],[124.385,118.455],[124.263,118.769],[124.132,119.078],[123.989,119.382],[123.837,119.682],[123.675,119.976],[123.503,120.264],[123.321,120.547],[123.13,120.823],[122.93,121.093],[122.721,121.356],[122.503,121.612],[122.277,121.86],[122.042,122.101],[121.799,122.333],[121.549,122.557],[121.292,122.773],[121.027,122.98],[120.756,123.178],[120.478,123.367],[120.193,123.546],[119.903,123.716],[119.608,123.875],[119.307,124.025],[119.001,124.165],[118.691,124.294],[118.377,124.413],[118.059,124.521],[117.737,124.618],[117.413,124.705],[117.085,124.78],[116.756,124.845],[116.424,124.898],[116.091,124.94],[115.756,124.971],[115.421,124.991],[115.085,125],[114.749,124.997],[114.413,124.983],[114.078,124.957],[113.744,124.921],[113.411,124.873],[113.081,124.814],[112.752,124.744],[112.426,124.663],[112.103,124.571],[111.783,124.468],[111.467,124.355],[111.154,124.231],[110.847,124.096],[110.543,123.952],[110.245,123.797],[109.952,123.632],[109.665,123.458],[109.384,123.274],[109.109,123.08],[108.841,122.878],[108.58,122.666],[108.326,122.446],[108.08,122.218],[107.841,121.981],[107.611,121.737],[107.388,121.485],[107.175,121.226],[106.97,120.959],[106.775,120.686],[106.588,120.406],[106.411,120.121],[106.244,119.829],[106.087,119.532],[105.94,119.23],[105.803,118.924],[105.676,118.612],[105.56,118.297],[105.454,117.978],[105.36,117.656],[105.276,117.33],[105.203,117.002],[105.141,116.672],[105.091,116.34],[105.051,116.006],[105.023,115.671],[105.006,115.336],[105.001,115]]
M73 P0 R3
;TYPE:Custom
M220 S100
G90 ; use absolute coordinates
M83 ; extruder relative mode
M104 S150 ; set temporary nozzle temp to prevent oozing during homing
M140 S75 ; set final bed temp
G4 S30 ; allow partial nozzle warmup
G28 ; home all axis and restore leveling
BED_MESH_CALIBRATE PROFILE=adaptive ADAPTIVE=1 ADAPTIVE_MARGIN=0
G1 Z25 F240
G1 X10.0 Y30 F3000
M104 S257 ; set final nozzle temp
M190 S75 ; wait for bed temp to stabilize
M109 S257 ; wait for nozzle temp to stabilize
M73 P3 R3
G1 Z0.28 F240
G92 E0 ; Move Z Axis up
G1 Z2.0 F5000 ; Move to start position
M73 P6 R2
G1 X5 Y30 Z0.28 F300 ; Draw the first line
G1 X5 Y200 Z0.28 F1500 E15 ; Move to side a little
M73 P7 R2
G1 X5.4 Y200 Z0.28 F5000.0 ; Draw the second line
M73 P11 R2
G1 X5.4 Y50 Z0.28 F1500.0 E30 ; Reset Extruder
G92 E0 ; Move Z Axis up
G1 Z2.0 F3000
M117 Start Printing..
G90
G21
M83 ; use relative distances for extrusion
; filament start gcode
M106 S0
;LAYER_CHANGE
;Z:0.2
;HEIGHT:0.2
;BEFORE_LAYER_CHANGE
;0.2
G92 E0

M73 P14 R2
G1 E-.5 F1800
;_SET_FAN_SPEED_CHANGING_LAYER
SET_VELOCITY_LIMIT ACCEL=1000
SET_VELOCITY_LIMIT SQUARE_CORNER_VELOCITY=7
; printing object Corps1.stl id:0 copy 0
EXCLUDE_OBJECT_START NAME=Corps1.stl_id_0_copy_0
G1 Z.2 F24000
G1 X116.841 Y141.89
G1 Z.2
G1 E.5 F1800
;TYPE:Inner wall
;WIDTH:0.499999
G1 X116.832 Y141.882 E.00045
G1 X116.171 Y141.226 E.03468
G1 X115.579 Y140.507 E.0347
G1 X115.079 Y139.76 E.03348
G1 X114.626 Y138.909 E.03589
G1 X114.275 Y138.047 E.03466
G1 X114.013 Y137.154 E.03468
G1 X113.841 Y136.233 E.0349
G1 X113.78 Y135.627 E.02269
G1 X113.764 Y134.69 E.0349
G1 X113.842 Y133.761 E.0347
G1 X114.006 Y132.878 E.03348
G1 X114.276 Y131.952 E.03589
G1 X114.626 Y131.09 E.03466
G1 X115.062 Y130.267 E.03468
G1 X115.579 Y129.493 E.03468
G1 X116.175 Y128.769 E.0349
G1 X116.6 Y128.333 E.02269
G1 X117.308 Y127.719 E.0349
G1 X118.07 Y127.183 E.03468
M73 P15 R2
G1 X118.881 Y126.727 E.03468
G1 X119.735 Y126.354 E.03469
G1 X120.621 Y126.07 E.03468
G1 X121.532 Y125.875 E.03469
G1 X122.458 Y125.774 E.0347
G1 X123.362 Y125.765 E.03369
G1 X124.003 Y125.812 E.02392
G1 X124.927 Y125.961 E.03487
G1 X125.827 Y126.201 E.03468
G1 X126.698 Y126.53 E.03468
G1 X127.532 Y126.945 E.03468
G1 X128.319 Y127.442 E.03469
G1 X129.053 Y128.015 E.03468
G1 X129.725 Y128.66 E.03468
G1 X130.329 Y129.369 E.03469
G1 X130.859 Y130.135 E.0347
G1 X131.294 Y130.922 E.03348
G1 X131.674 Y131.807 E.03589
G1 X131.864 Y132.416 E.02376
G1 X132.016 Y133.016 E.02303
G1 X132.151 Y133.745 E.02764
G1 X132.242 Y135.149 E.0524
G1 X132.179 Y136.084 E.03491
G1 X132.023 Y137.002 E.03468
G1 X131.776 Y137.9 E.03468
G1 X131.439 Y138.769 E.03469
G1 X131.017 Y139.599 E.03468
G1 X130.514 Y140.382 E.03468
G1 X129.934 Y141.111 E.03468
G1 X129.284 Y141.777 E.03468
G1 X128.57 Y142.375 E.03468
G1 X127.8 Y142.898 E.03468
G1 X126.981 Y143.341 E.03468
G1 X126.121 Y143.699 E.0347
G1 X125.255 Y143.963 E.03369
G1 X124.628 Y144.098 E.02392
G1 X123.699 Y144.216 E.03488
G1 X122.768 Y144.239 E.03468
G1 X121.839 Y144.169 E.03469
G1 X120.922 Y144.005 E.03468
G1 X120.027 Y143.75 E.03468
G1 X119.161 Y143.407 E.03468
G1 X118.335 Y142.978 E.03468
G1 X117.556 Y142.468 E.03469
G1 X116.872 Y141.915 E.03275
G1 X116.554 Y142.245 F24000
;TYPE:Outer wall
G1 F1800
G1 X116.527 Y142.223 E.0013
G1 X115.833 Y141.535 E.0364
G1 X115.211 Y140.78 E.03641
G1 X114.686 Y139.995 E.03517
G1 X114.212 Y139.103 E.03762
G1 X113.843 Y138.198 E.0364
G1 X113.568 Y137.26 E.0364
G1 X113.388 Y136.298 E.03648
G1 X113.323 Y135.653 E.02412
G1 X113.307 Y134.674 E.03648
G1 X113.389 Y133.7 E.03641
G1 X113.561 Y132.772 E.03518
G1 X113.843 Y131.802 E.03762
G1 X114.212 Y130.897 E.0364
G1 X114.669 Y130.033 E.0364
G1 X115.211 Y129.22 E.0364
G1 X115.834 Y128.464 E.03648
M73 P16 R2
G1 X116.286 Y128 E.02412
G1 X117.026 Y127.359 E.03648
G1 X117.825 Y126.796 E.0364
G1 X118.677 Y126.317 E.0364
G1 X119.573 Y125.926 E.0364
G1 X120.503 Y125.627 E.0364
G1 X121.459 Y125.424 E.0364
G1 X122.431 Y125.317 E.0364
G1 X123.377 Y125.308 E.03524
G1 X124.056 Y125.358 E.02536
G1 X125.023 Y125.513 E.03647
G1 X125.967 Y125.765 E.0364
G1 X126.881 Y126.11 E.0364
G1 X127.756 Y126.546 E.0364
G1 X128.583 Y127.068 E.0364
G1 X129.353 Y127.67 E.0364
G1 X130.058 Y128.346 E.0364
G1 X130.692 Y129.09 E.0364
G1 X131.248 Y129.894 E.0364
G1 X131.705 Y130.72 E.03518
G1 X132.103 Y131.649 E.03762
G1 X132.394 Y132.581 E.0364
G1 X132.606 Y133.699 E.04238
G1 X132.691 Y134.647 E.03545
G1 X132.699 Y135.161 E.01912
G1 X132.633 Y136.138 E.03648
G1 X132.47 Y137.102 E.0364
G1 X132.21 Y138.044 E.0364
G1 X131.857 Y138.955 E.03641
G1 X131.414 Y139.826 E.0364
G1 X130.886 Y140.648 E.0364
G1 X130.278 Y141.413 E.0364
G1 X129.595 Y142.113 E.0364
G1 X128.846 Y142.741 E.0364
G1 X128.037 Y143.289 E.0364
G1 X127.178 Y143.754 E.0364
G1 X126.275 Y144.13 E.03641
G1 X125.37 Y144.405 E.03524
G1 X124.705 Y144.549 E.02536
G1 X123.733 Y144.672 E.03647
G1 X122.756 Y144.697 E.0364
G1 X121.782 Y144.623 E.0364
G1 X120.82 Y144.451 E.0364
G1 X119.88 Y144.184 E.0364
G1 X118.971 Y143.823 E.0364
G1 X118.104 Y143.373 E.0364
G1 X117.286 Y142.838 E.0364
G1 X116.585 Y142.27 E.03361
G1 E-.5
;WIPE_START
G1 F12000
G1 X116.527 Y142.223
G1 X115.833 Y141.535
G1 X115.23 Y140.803
;WIPE_END
G1 Z.4 F24000
G1 X119.291 Y134.304 Z.4
G1 Z.2
G1 E.5 F1800
;TYPE:Inner wall
M73 P17 R2
G1 X119.454 Y133.694 E.02352
G1 X119.754 Y133.065 E.02596
G1 X120.297 Y132.362 E.03307
G1 X120.718 Y132 E.02068
G1 X120.966 Y131.814 E.01156
G1 X121.469 Y131.544 E.02126
G1 X122.13 Y131.322 E.02599
G1 X122.821 Y131.224 E.02598
G1 X123.517 Y131.256 E.02595
G1 X124.197 Y131.414 E.026
G1 X124.976 Y131.783 E.0321
G1 X125.556 Y132.219 E.02704
G1 X126.049 Y132.765 E.02738
G1 X126.408 Y133.363 E.02597
G1 X126.65 Y134.016 E.02598
G1 X126.777 Y134.895 E.03306
G1 X126.737 Y135.522 E.02339
G1 X126.704 Y135.757 E.00885
G1 X126.548 Y136.306 E.02127
G1 X126.247 Y136.936 E.02598
G1 X125.836 Y137.499 E.02598
G1 X125.329 Y137.978 E.02598
G1 X124.742 Y138.355 E.02598
G1 X124.208 Y138.574 E.02152
G1 X123.746 Y138.688 E.01772
G1 X123.201 Y138.773 E.02053
G1 X122.484 Y138.744 E.02674
G1 X121.805 Y138.586 E.02597
G1 X120.984 Y138.195 E.03384
G1 X120.415 Y137.757 E.02674
G1 X119.953 Y137.235 E.02598
G1 X119.594 Y136.637 E.02597
G1 X119.308 Y135.797 E.03306
G1 X119.235 Y135.202 E.02231
G1 X119.221 Y134.936 E.00992
G1 X119.274 Y134.368 E.02127
G1 X119.281 Y134.343 E.00097
G1 X119.728 Y134.42 F24000
;TYPE:Outer wall
G1 F1800
G1 X119.893 Y133.819 E.02323
G1 X120.163 Y133.268 E.02283
G1 X120.653 Y132.648 E.02946
G1 X121.147 Y132.241 E.02381
G1 X121.61 Y131.987 E.01969
G1 X122.269 Y131.757 E.02598
G1 X122.877 Y131.678 E.02285
G1 X123.489 Y131.712 E.02282
G1 X124.085 Y131.858 E.02287
G1 X124.773 Y132.192 E.0285
G1 X125.271 Y132.576 E.02342
G1 X125.702 Y133.062 E.02418
G1 X126.012 Y133.591 E.02284
G1 X126.219 Y134.168 E.02284
G1 X126.323 Y134.952 E.02945
G1 X126.282 Y135.481 E.01977
G1 X126.111 Y136.169 E.02639
G1 X125.838 Y136.732 E.02331
G1 X125.471 Y137.224 E.02285
G1 X125.021 Y137.64 E.02285
G1 X124.501 Y137.966 E.02285
G1 X123.931 Y138.191 E.02284
G1 X123.131 Y138.321 E.03019
G1 X122.512 Y138.288 E.02309
G1 X121.916 Y138.142 E.02284
G1 X121.188 Y137.786 E.03019
G1 X120.702 Y137.401 E.02309
G1 X120.3 Y136.938 E.02285
G1 X119.99 Y136.409 E.02284
G1 X119.743 Y135.657 E.02945
G1 X119.69 Y135.158 E.01869
G1 X119.726 Y134.46 E.02604
G1 E-.5
;WIPE_START
G1 F12000
G1 X119.893 Y133.819
G1 X120.163 Y133.268
G1 X120.612 Y132.7
;WIPE_END
G1 Z.4 F24000
G1 X127.933 Y127.36
G1 Z.4
G1 Z.2
G1 E.5 F1800
;TYPE:Bottom surface
;WIDTH:0.510651
M73 P18 R2
G1 F3600
G1 X129.518 Y128.945 E.08543
G1 X130.057 Y129.578 E.0317
G1 X130.567 Y130.316 E.03419
G1 X130.987 Y131.075 E.03307
G1 X126.949 Y127.038 E.21764
G1 X126.561 Y126.844 E.01652
G1 X125.811 Y126.561 E.03056
G1 X131.431 Y132.182 E.30296
G1 X131.618 Y132.781 E.02394
G1 X131.682 Y133.094 E.01217
G1 X124.896 Y126.307 E.36581
G1 X124.102 Y126.175 E.03065
G1 X131.822 Y133.895 E.41609
G1 X131.89 Y134.625 E.02794
G1 X123.381 Y126.116 E.45865
G1 X122.72 Y126.116 E.02519
G1 X131.889 Y135.285 E.49421
G1 X131.847 Y135.905 E.02368
G1 X122.1 Y126.158 E.52538
G1 X121.511 Y126.23 E.02262
M73 P19 R2
G1 X131.764 Y136.483 E.55262
G1 X131.658 Y137.038 E.02156
G1 X120.966 Y126.347 E.5763
G1 X120.71 Y126.401 E.00999
G1 X120.444 Y126.486 E.01062
G1 X131.515 Y137.557 E.59672
G1 X131.45 Y137.792 E.00931
G1 X131.349 Y138.053 E.01064
G1 X126.844 Y133.548 E.24284
G1 X126.758 Y133.298 E.01006
G1 X126.374 Y132.625 E.02953
G1 X125.869 Y132.035 E.02961
G1 X125.244 Y131.539 E.03041
G1 X124.433 Y131.136 E.03451
G1 X119.944 Y126.647 E.24198
G1 X119.476 Y126.841 E.01929
G1 X123.554 Y130.919 E.21982
G1 X122.854 Y130.881 E.02672
G1 X119.017 Y127.044 E.20683
G1 X118.594 Y127.282 E.01851
G1 X122.263 Y130.951 E.19778
G1 X122.123 Y130.969 E.00539
M73 P20 R2
G1 X121.741 Y131.091 E.01526
G1 X118.177 Y127.527 E.1921
G1 X117.789 Y127.8 E.01809
G1 X121.261 Y131.271 E.18712
G1 X120.832 Y131.504 E.01859
G1 X117.411 Y128.084 E.18438
G1 X117.057 Y128.391 E.01787
G1 X120.448 Y131.782 E.18282
G1 X120.087 Y132.082 E.0179
G1 X116.713 Y128.708 E.18188
G1 X116.39 Y129.047 E.01783
G1 X119.793 Y132.449 E.18341
G1 X119.501 Y132.819 E.01795
G1 X116.091 Y129.41 E.1838
G1 X115.8 Y129.779 E.01795
G1 X119.279 Y133.259 E.18754
G1 X119.16 Y133.495 E.01009
G1 X119.091 Y133.733 E.00942
G1 X115.535 Y130.176 E.19169
G1 X115.282 Y130.585 E.01831
G1 X118.945 Y134.247 E.19742
G1 X118.89 Y134.854 E.02321
G1 X115.053 Y131.017 E.20681
G1 X114.937 Y131.235 E.00942
G1 X114.843 Y131.468 E.00958
G1 X119.171 Y135.797 E.23331
G1 E-.5 F1800
;WIPE_START
M73 P21 R2
G1 F12000
G1 X117.757 Y134.383
;WIPE_END
G1 Z.4 F24000
G1 X126.823 Y134.188 Z.4
G1 Z.2
G1 E.5 F1800
G1 F3600
G1 X131.164 Y138.529 E.23402
G1 X130.949 Y138.976 E.01889
G1 X127.111 Y135.137 E.20692
G1 X127.058 Y135.746 E.02329
G1 X130.726 Y139.414 E.19775
G1 X130.469 Y139.818 E.01826
G1 X126.912 Y136.262 E.19171
G1 X126.848 Y136.49 E.00906
G1 X126.725 Y136.736 E.01046
G1 X130.207 Y140.218 E.18768
G1 X129.914 Y140.586 E.01794
G1 X126.504 Y137.177 E.18377
G1 X126.219 Y137.553 E.01799
G1 X129.614 Y140.948 E.18301
G1 X129.288 Y141.283 E.01783
G1 X125.912 Y137.907 E.18195
G1 X125.565 Y138.222 E.01785
G1 X128.952 Y141.609 E.18256
G1 X128.592 Y141.91 E.0179
M73 P22 R2
G1 X125.169 Y138.487 E.18449
G1 X124.75 Y138.729 E.01846
G1 X128.219 Y142.199 E.18702
G1 X127.825 Y142.467 E.01815
G1 X124.268 Y138.909 E.19175
G1 X124.07 Y138.983 E.00806
G1 X123.731 Y139.034 E.01307
G1 X127.414 Y142.717 E.19855
G1 X126.985 Y142.949 E.0186
G1 X123.155 Y139.119 E.20644
G1 X122.455 Y139.08 E.02673
G1 X126.531 Y143.157 E.21974
G1 X126.064 Y143.352 E.01928
G1 X121.588 Y138.875 E.24132
G1 X120.727 Y138.443 E.03669
G1 X120.121 Y137.954 E.02966
G1 X119.619 Y137.363 E.02958
G1 X119.236 Y136.685 E.02969
G1 X119.161 Y136.448 E.00947
G1 X114.651 Y131.938 E.24307
G1 X114.491 Y132.439 E.02005
G1 X125.562 Y143.511 E.59677
G1 X125.047 Y143.657 E.02042
G1 X114.342 Y132.952 E.57703
G1 X114.238 Y133.509 E.02161
M73 P23 R2
G1 X124.497 Y143.769 E.55302
G1 X123.91 Y143.843 E.02256
G1 X114.158 Y134.091 E.52565
G1 X114.107 Y134.701 E.02334
G1 X123.289 Y143.883 E.49491
G1 X122.629 Y143.885 E.02515
G1 X114.118 Y135.374 E.45874
G1 X114.122 Y135.606 E.00885
G1 X114.171 Y136.088 E.01846
G1 X121.913 Y143.831 E.41732
G1 X121.112 Y143.691 E.03099
G1 X114.313 Y136.892 E.36649
G1 X114.347 Y137.074 E.00706
M73 P24 R2
G1 X114.56 Y137.801 E.02888
G1 X120.204 Y143.445 E.30421
G1 X119.304 Y143.095 E.03682
G1 X119.073 Y142.975 E.00992
G1 X115.023 Y138.924 E.21831
G1 X115.374 Y139.584 E.02846
G1 X115.854 Y140.302 E.03295
G1 X116.39 Y140.953 E.03213
G1 X118.091 Y142.654 E.09169
; stop printing object Corps1.stl id:0 copy 0
M106 S48
;LAYER_CHANGE
;Z:0.4
;HEIGHT:0.2
;BEFORE_LAYER_CHANGE
;0.4
G92 E0

G1 E-.5 F1800
;WIPE_START
G1 F12000
G1 X116.677 Y141.24
;WIPE_END
EXCLUDE_OBJECT_END NAME=Corps1.stl_id_0_copy_0
;_SET_FAN_SPEED_CHANGING_LAYER
SET_VELOCITY_LIMIT ACCEL=5000
M140 S70 ; set bed temperature
; printing object Corps1.stl id:0 copy 0
EXCLUDE_OBJECT_START NAME=Corps1.stl_id_0_copy_0
G1 Z.4 F24000
