; HEADER_BLOCK_START
; generated by OrcaSlicer 2.1.1 on 2024-08-12 at 19:17:02
; total layer number: 18
; filament_density: 1.27
; filament_diameter: 1.75
; max_z_height: 3.60
; HEADER_BLOCK_END

; THUMBNAIL_BLOCK_START

;
; THUMBNAIL_BLOCK_END

; THUMBNAIL_BLOCK_START

;
; THUMBNAIL_BLOCK_END

; external perimeters extrusion width = 0.42mm
; perimeters extrusion width = 0.45mm
; infill extrusion width = 0.45mm
; solid infill extrusion width = 0.45mm
; top infill extrusion width = 0.42mm
; first layer extrusion width = 0.50mm

; external perimeters extrusion width = 0.42mm
; perimeters extrusion width = 0.45mm
; infill extrusion width = 0.45mm
; solid infill extrusion width = 0.45mm
; top infill extrusion width = 0.42mm
; first layer extrusion width = 0.50mm

; external perimeters extrusion width = 0.42mm
; perimeters extrusion width = 0.45mm
; infill extrusion width = 0.45mm
; solid infill extrusion width = 0.45mm
; top infill extrusion width = 0.42mm
; first layer extrusion width = 0.50mm

; EXECUTABLE_BLOCK_START
EXCLUDE_OBJECT_DEFINE NAME=Corps1.stl_id_0_copy_0 CENTER=115,123.999 POLYGON=[[100,122.498],[111.846,115.576],[111.917,115.538],[111.994,115.513],[112.073,115.5],[117.927,115.5],[118.006,115.513],[118.083,115.538],[118.154,115.576],[130,122.498],[130,132.498],[100,132.498],[100,123.498],[100,122.498]]
EXCLUDE_OBJECT_DEFINE NAME=Corps1.stl_id_1_copy_0 CENTER=115,106.001 POLYGON=[[100,104.5],[111.846,97.5774],[111.917,97.54],[111.994,97.5145],[112.073,97.5016],[117.927,97.5016],[118.006,97.5145],[118.083,97.54],[118.154,97.5774],[130,104.5],[130,114.5],[100,114.5],[100,105.5],[100,104.5]]
EXCLUDE_OBJECT_DEFINE NAME=Corps1.stl_id_2_copy_0 CENTER=115,123.999 POLYGON=[[100,122.498],[111.846,115.576],[111.917,115.538],[111.994,115.513],[112.073,115.5],[117.927,115.5],[118.006,115.513],[118.083,115.538],[118.154,115.576],[130,122.498],[130,132.498],[100,132.498],[100,123.498],[100,122.498]]
M73 P0 R5
;TYPE:Custom
M220 S100
G90 ; use absolute coordinates
M83 ; extruder relative mode
M104 S150 ; set temporary nozzle temp to prevent oozing during homing
M140 S70 ; set final bed temp
G4 S30 ; allow partial nozzle warmup
G28 ; home all axis and restore leveling
BED_MESH_CALIBRATE PROFILE=adaptive ADAPTIVE=1 ADAPTIVE_MARGIN=0
G1 Z25 F240
G1 X10.0 Y30 F3000
M104 S245 ; set final nozzle temp
M190 S70 ; wait for bed temp to stabilize
M109 S245 ; wait for nozzle temp to stabilize
M73 P1 R5
G1 Z0.28 F240
G92 E0 ; Move Z Axis up
G1 Z2.0 F5000 ; Move to start position
M73 P3 R5
G1 X5 Y30 Z0.28 F300 ; Draw the first line
G1 X5 Y200 Z0.28 F1500 E15 ; Move to side a little
M73 P4 R5
G1 X5.4 Y200 Z0.28 F5000.0 ; Draw the second line
M73 P5 R5
G1 X5.4 Y50 Z0.28 F1500.0 E30 ; Reset Extruder
G92 E0 ; Move Z Axis up
G1 Z2.0 F3000
M117 Start Printing..
G90
G21
M83 ; use relative distances for extrusion
; filament start gcode
M106 S0
;LAYER_CHANGE
;Z:0.2
;HEIGHT:0.2
;BEFORE_LAYER_CHANGE
;0.2
G92 E0

M73 P7 R5
G1 E-.5 F1800
;_SET_FAN_SPEED_CHANGING_LAYER
SET_VELOCITY_LIMIT ACCEL=1000
SET_VELOCITY_LIMIT SQUARE_CORNER_VELOCITY=7
; printing object Corps1.stl id:1 copy 0
EXCLUDE_OBJECT_START NAME=Corps1.stl_id_1_copy_0
G1 Z.2 F24000
G1 X117.428 Y127.938
G1 Z.2
G1 E.5 F1800
;TYPE:Outer wall
;WIDTH:0.38292
G1 X117.27 Y128.572 E.01847
;WIDTH:0.411068
G1 X117.14 Y128.824 E.00868
;WIDTH:0.439216
G1 X117.01 Y129.076 E.00934
;WIDTH:0.506756
G1 X116.76 Y129.987 E.03642
G1 X116.505 Y128.789 E.04722
G1 X116.781 Y128.783 E.01064
G1 X116.972 Y128.746 E.00751
;WIDTH:0.472986
G1 X117.163 Y128.709 E.00696
;WIDTH:0.439216
G1 X117.216 Y128.641 E.00287
;WIDTH:0.411068
G1 X117.245 Y128.604 E.00144
G1 X116.756 Y130.498 F24000
;WIDTH:0.38292
G1 F1800
G1 X116.953 Y131.331 E.0242
G1 E-.5
;WIPE_START
G1 F12000
G1 X116.756 Y130.498
;WIPE_END
G1 Z.4 F24000
M73 P8 R5
G1 X118.376 Y129.82 Z.4
G1 Z.2
G1 E.5 F1800
;TYPE:Inner wall
;WIDTH:0.499999
G1 X118.03 Y131.029 E.04779
G1 X117.859 Y131.515 E.01957
G1 X117.706 Y131.762 E.01106
G1 X117.634 Y131.792 E.00297
G1 X117.677 Y132.121 E.01259
G1 X117.574 Y132.704 E.02253
G1 X117.388 Y133.061 E.0153
G1 X117.194 Y133.148 E.00808
;WIDTH:0.471114
G1 X117 Y133.236 E.00757
;WIDTH:0.442229
G1 X114.994 Y133.249 E.0666
;WIDTH:0.466888
G1 X114.758 Y133.174 E.00874
;WIDTH:0.499999
G1 X114.522 Y133.099 E.00942
G1 X114.322 Y132.755 E.01512
G1 X113.09 Y127.572 E.20247
G1 X112.82 Y127.353 E.01321
G1 X112.636 Y126.929 E.01757
G1 X112.603 Y126.686 E.00933
G1 X112.678 Y126.403 E.01112
G1 X112.799 Y126.168 E.01006
G1 X113.124 Y125.857 E.01709
G1 X113.544 Y125.718 E.01682
G1 X115.485 Y125.721 E.07378
G1 X116.138 Y125.765 E.02485
G1 X116.454 Y125.869 E.01264
G1 X116.687 Y126.052 E.01126
G1 X116.894 Y125.886 E.01009
G1 X117.19 Y125.752 E.01233
G1 X118.673 Y125.722 E.05636
G1 X119.013 Y125.784 E.01315
G1 X119.291 Y125.93 E.01193
G1 X119.443 Y126.102 E.00873
;WIDTH:0.474227
G1 X119.594 Y126.275 E.00824
;WIDTH:0.448454
G1 X119.635 Y126.449 E.00603
;WIDTH:0.420578
G1 X119.675 Y126.623 E.00561
;WIDTH:0.421155
G1 X119.657 Y126.851 E.0072
;WIDTH:0.449608
G1 X119.638 Y127.08 E.00775
;WIDTH:0.474804
G1 X119.59 Y127.195 E.00448
;WIDTH:0.499999
G1 X119.541 Y127.31 E.00474
G1 X119.295 Y127.566 E.01352
G1 X118.953 Y127.8 E.01575
G1 X118.387 Y129.782 E.07831
G1 E-.5
;WIPE_START
G1 F12000
G1 X118.03 Y131.029
G1 X117.859 Y131.515
G1 X117.761 Y131.674
;WIPE_END
G1 Z.4 F24000
G1 X120.66 Y126.237 Z.4
G1 Z.2
G1 E.5 F1800
;TYPE:Outer wall
;WIDTH:0.475758
G1 X120.678 Y126.237 E.00065
;WIDTH:0.475
G1 X122.717 Y126.237 E.07323
;WIDTH:0.477744
G1 X124.882 Y126.239 E.07828
;WIDTH:0.48816
G1 X124.949 Y126.244 E.00249
G1 E-.5
;WIPE_START
G1 F12000
G1 X124.882 Y126.239
G1 X122.949 Y126.238
;WIPE_END
G1 Z.4 F24000
G1 X122.562 Y127.052 Z.4
G1 Z.2
G1 E.5 F1800
;WIDTH:0.38292
G1 X122.563 Y126.454 E.01691
;WIDTH:0.426962
G1 X122.563 Y126.388 E.00209
;WIDTH:0.471003
G1 X122.563 Y126.323 E.00233
;WIDTH:0.515044
G1 X122.563 Y126.258 E.00257
G1 E-.5
;WIPE_START
G1 F12000
G1 X122.563 Y126.323
G1 X122.563 Y126.388
G1 X122.563 Y126.454
G1 X122.562 Y127.052
;WIPE_END
G1 Z.4 F24000
G1 X132.949 Y130.379 Z.4
G1 Z.2
G1 E.5 F1800
;TYPE:Inner wall
;WIDTH:0.499999
G1 X132.95 Y131.452 E.04076
G1 X133.114 Y131.581 E.00796
G1 X133.273 Y131.797 E.01018
G1 X133.369 Y132.047 E.01017
G1 X133.373 Y132.415 E.01398
G1 X133.216 Y132.833 E.01698
G1 X133.115 Y132.956 E.00608
G1 X132.796 Y133.17 E.01458
;WIDTH:0.494518
G1 X132.579 Y133.208 E.00827
;WIDTH:0.464906
G1 X132.362 Y133.247 E.00772
;WIDTH:0.435294
G1 X131.853 Y133.249 E.01662
;WIDTH:0.442223
G1 X131.014 Y133.236 E.02787
;WIDTH:0.459165
G1 X130.142 Y133.211 E.03018
G1 X129.548 Y133.232 E.02057
;WIDTH:0.463274
G1 X128.934 Y133.205 E.02149
;WIDTH:0.499999
G1 X128.316 Y133.086 E.0239
G1 X127.677 Y132.758 E.02731
G1 X127.178 Y132.283 E.0262
G1 X127.031 Y132.089 E.00925
G1 X126.802 Y131.628 E.01957
G1 X126.678 Y131.086 E.02113
G1 X126.647 Y130.643 E.01686
G1 X126.704 Y130.07 E.0219
G1 X126.828 Y129.65 E.01661
G1 X127.155 Y129.057 E.02574
G1 X127.547 Y128.655 E.02133
G1 X128.106 Y128.319 E.02478
G1 X128.421 Y128.193 E.01291
G1 X129.035 Y128.064 E.02385
G1 X129.47 Y128.042 E.01658
G1 X129.433 Y127.633 E.01563
G1 X129.192 Y127.47 E.01107
G1 X128.987 Y127.148 E.01452
G1 X128.886 Y126.767 E.01495
G1 X128.983 Y126.317 E.01753
G1 X129.153 Y126.072 E.01132
G1 X129.441 Y125.849 E.01383
G1 X129.98 Y125.718 E.0211
G1 X132.359 Y125.721 E.09042
G1 X132.793 Y125.825 E.01695
G1 X133.099 Y126.026 E.01391
G1 X133.197 Y126.137 E.00564
G1 X133.352 Y126.447 E.01315
G1 X133.398 Y126.731 E.01095
G1 X133.328 Y127.085 E.0137
G1 X133.146 Y127.4 E.01386
G1 X132.948 Y127.564 E.00975
G1 X132.949 Y130.339 E.10549
G1 E-.5
;WIPE_START
G1 F12000
G1 X132.95 Y131.452
G1 X133.114 Y131.581
G1 X133.273 Y131.797
G1 X133.369 Y132.047
G1 X133.37 Y132.189
;WIPE_END
G1 Z.4 F24000
G1 X130.027 Y128.758 Z.4
G1 Z.2
M73 P9 R5
G1 E.5 F1800
;TYPE:Outer wall
;WIDTH:0.421947
G1 X129.997 Y128.585 E.00554
;WIDTH:0.460973
G1 X129.967 Y128.412 E.00611
;WIDTH:0.499999
G1 X129.937 Y128.238 E.00668
G1 X129.88 Y127.317 E.03509
G1 X129.541 Y127.16 E.01421
G1 X129.419 Y126.999 E.00767
G1 X129.342 Y126.747 E.01002
G1 X129.42 Y126.462 E.01125
G1 X129.637 Y126.262 E.0112
G1 X130.059 Y126.175 E.0164
G1 X132.359 Y126.178 E.08738
G1 X132.653 Y126.261 E.01164
G1 X132.854 Y126.439 E.01019
G1 X132.941 Y126.731 E.01157
G1 X132.86 Y127.03 E.01178
G1 X132.654 Y127.221 E.01068
G1 X132.503 Y127.284 E.0062
G1 X132.493 Y131.539 E.16171
G1 X132.493 Y131.711 E.00657
G1 X132.747 Y131.853 E.01106
G1 X132.919 Y132.125 E.01221
G1 X132.916 Y132.403 E.01055
G1 X132.864 Y132.542 E.00566
G1 X132.656 Y132.738 E.01084
G1 X132.36 Y132.822 E.0117
G1 X131.022 Y132.808 E.05085
G1 X130.159 Y132.775 E.03283
G1 X130.098 Y132.764 E.00237
G1 X130.075 Y132.695 E.00275
;WIDTH:0.460973
G1 X130.052 Y132.627 E.00251
;WIDTH:0.421947
G1 X130.03 Y132.558 E.00228
G1 X130.006 Y132.626 E.00228
;WIDTH:0.460973
G1 X129.983 Y132.695 E.00251
;WIDTH:0.499999
G1 X129.96 Y132.763 E.00275
G1 X129.483 Y132.803 E.0182
G1 X128.963 Y132.768 E.01978
G1 X128.422 Y132.642 E.02112
G1 X127.9 Y132.359 E.02255
G1 X127.506 Y131.966 E.02117
G1 X127.243 Y131.498 E.02038
G1 X127.133 Y131.043 E.01779
G1 X127.103 Y130.68 E.01386
G1 X127.147 Y130.185 E.01886
G1 X127.239 Y129.85 E.01322
G1 X127.482 Y129.376 E.02024
G1 X127.874 Y128.975 E.02133
G1 X128.322 Y128.722 E.01954
G1 X128.514 Y128.64 E.00795
G1 X129.128 Y128.511 E.02385
G1 X129.688 Y128.494 E.02129
G1 X129.849 Y128.514 E.00618
;WIDTH:0.486132
G1 X129.948 Y128.582 E.00441
;WIDTH:0.444679
G1 X129.987 Y128.67 E.00322
;WIDTH:0.4138
G1 X130.01 Y128.722 E.00174
G1 X130.026 Y129.329 F24000
;WIDTH:0.38292
G1 F1800
G1 X130.027 Y128.758 E.01614
G1 X130.026 Y129.329 F24000
;WIDTH:0.42889
G1 F1800
G1 X129.974 Y129.989 E.02123
G1 X129.974 Y131.431 E.04628
;WIDTH:0.428784
G1 X130.03 Y131.989 E.01802
;WIDTH:0.403938
G1 X129.939 Y131.83 E.00549
;WIDTH:0.421241
G1 X129.643 Y131.673 E.01055
;WIDTH:0.428784
G1 X129.589 Y131.443 E.00757
;WIDTH:0.42889
G1 X129.588 Y129.989 E.04668
G1 X129.646 Y129.642 E.01127
;WIDTH:0.422292
G1 X129.946 Y129.457 E.01113
;WIDTH:0.400593
G1 X130.004 Y129.363 E.00329
G1 E-.5
;WIPE_START
G1 F12000
G1 X129.974 Y129.989
G1 X129.974 Y131.362
;WIPE_END
G1 Z.4 F24000
G1 X130.03 Y132.558 Z.4
G1 Z.2
G1 E.5 F1800
;WIDTH:0.38292
G1 X130.03 Y131.989 E.01607
G1 E-.5
;WIPE_START
G1 F12000
G1 X130.03 Y132.558
;WIPE_END
G1 Z.4 F24000
G1 X133.629 Y133.609 Z.4
G1 Z.2
G1 E.5 F1800
;TYPE:Inner wall
;WIDTH:0.499999
G1 X132.865 Y133.61 E.02904
;WIDTH:0.494518
G1 X132.614 Y133.624 E.00944
;WIDTH:0.464906
G1 X132.363 Y133.639 E.00882
;WIDTH:0.435294
G1 X131.849 Y133.64 E.01678
;WIDTH:0.442464
G1 X130.993 Y133.636 E.02843
;WIDTH:0.4607
G1 X129.44 Y133.634 E.05397
;WIDTH:0.474378
G1 X128.773 Y133.62 E.02393
;WIDTH:0.499999
G1 X125.33 Y133.609 E.13085
;WIDTH:0.495677
G1 X125.072 Y133.624 E.00974
;WIDTH:0.464757
G1 X124.813 Y133.64 E.00907
;WIDTH:0.434501
G1 X122.47 Y133.64 E.0763
;WIDTH:0.46725
G1 X122.039 Y133.623 E.01522
;WIDTH:0.499999
G1 X121.608 Y133.607 E.01639
G1 X117.616 Y133.607 E.15172
G1 X117.262 Y133.621 E.01348
;WIDTH:0.471114
G1 X116.907 Y133.636 E.01263
;WIDTH:0.442229
G1 X114.989 Y133.64 E.0637
;WIDTH:0.46688
G1 X114.655 Y133.623 E.01176
;WIDTH:0.499999
G1 X114.322 Y133.607 E.01268
G1 X108.893 Y133.607 E.20634
G1 X108.893 Y125.183 E.32015
G1 X117.412 Y122.87 E.33549
G1 X117.815 Y122.485 E.02116
G1 X118.189 Y123.178 E.02991
G1 X119.354 Y125.193 E.08847
M73 P10 R5
G1 X120.043 Y126.244 E.04776
;WIDTH:0.451262
G1 X120.016 Y126.306 E.0023
G1 X120.016 Y126.559 E.00859
;WIDTH:0.41445
G1 X120.017 Y126.812 E.00782
;WIDTH:0.418425
G1 X119.987 Y127.01 E.00626
;WIDTH:0.459212
G1 X119.956 Y127.208 E.00694
;WIDTH:0.499999
G1 X119.926 Y127.406 E.00762
G1 X119.948 Y128.569 E.04422
G1 X120.132 Y128.983 E.0172
G1 X120.509 Y129.276 E.01816
G1 X120.795 Y129.337 E.01111
G1 X121.323 Y129.267 E.02025
G1 X121.506 Y129.161 E.00803
G1 X121.801 Y128.818 E.0172
G1 X121.985 Y128.346 E.01923
G1 X121.961 Y128.834 E.01856
G1 X121.957 Y131.384 E.09692
G1 X121.807 Y131.475 E.00666
G1 X121.544 Y131.765 E.01488
G1 X121.436 Y132.078 E.01257
G1 X121.449 Y132.487 E.01558
G1 X121.513 Y132.67 E.00737
G1 X121.713 Y132.964 E.01349
G1 X122.095 Y133.188 E.01686
;WIDTH:0.481047
G1 X122.507 Y133.248 E.01515
;WIDTH:0.434501
G1 X124.814 Y133.249 E.07511
;WIDTH:0.464757
G1 X125.045 Y133.217 E.00821
;WIDTH:0.495677
G1 X125.277 Y133.184 E.00881
;WIDTH:0.499999
G1 X125.632 Y132.966 E.01585
G1 X125.868 Y132.6 E.01654
G1 X125.922 Y132.316 E.011
G1 X125.859 Y131.968 E.01342
G1 X125.683 Y131.601 E.01547
G1 X125.476 Y131.437 E.01003
G1 X125.474 Y127.572 E.14691
G1 X125.705 Y127.344 E.01234
G1 X125.788 Y127.203 E.00622
G1 X125.889 Y126.878 E.01293
G1 X125.836 Y126.471 E.01562
G1 X126.658 Y125.178 E.05822
G1 X127.821 Y123.16 E.08853
G1 X128.185 Y122.485 E.02915
G1 X128.222 Y122.552 E.0029
G1 X128.645 Y122.888 E.02052
G1 X137.107 Y125.183 E.33323
G1 X137.107 Y133.607 E.32015
G1 X133.669 Y133.609 E.13065
G1 E-.5
;WIPE_START
G1 F12000
G1 X132.865 Y133.61
G1 X132.614 Y133.624
G1 X132.363 Y133.639
G1 X131.849 Y133.64
G1 X131.67 Y133.639
;WIPE_END
G1 Z.4 F24000
G1 X127.872 Y122.072 Z.4
G1 Z.2
G1 E.5 F1800
;TYPE:Outer wall
;WIDTH:0.500804
G1 X127.885 Y121.927 E.00556
G1 X127.772 Y121.723 E.00889
;WIDTH:0.5
G1 X125.636 Y118.013 E.1627
;WIDTH:0.486658
G1 X125.714 Y117.89 E.00536
G1 X125.889 Y117.805 E.00716
G1 X126.023 Y117.863 E.0054
;WIDTH:0.499999
G1 X126.323 Y118.298 E.02007
G1 X128.159 Y121.478 E.13957
G1 X128.623 Y122.335 E.03704
G1 X128.765 Y122.446 E.00684
G1 X137.564 Y124.834 E.34652
G1 X137.564 Y134.064 E.35081
;WIDTH:0.5
G1 X108.436 Y134.064 E1.10704
G1 X108.436 Y124.834 E.35081
M73 P11 R5
G1 X117.235 Y122.446 E.34652
G1 X117.377 Y122.335 E.00684
G1 X117.83 Y121.497 E.03622
G1 X119.679 Y118.296 E.14048
G1 X119.95 Y117.882 E.0188
;WIDTH:0.489558
G1 X120.131 Y117.807 E.00727
G1 X120.251 Y117.858 E.00485
G1 X120.359 Y118.017 E.00716
;WIDTH:0.499998
G1 X118.135 Y121.883 E.16951
G1 X118.131 Y122.108 E.00855
G1 X118.585 Y122.949 E.03632
G1 X119.744 Y124.954 E.08803
G1 X120.482 Y126.135 E.05292
;WIDTH:0.495856
G1 X120.66 Y126.237 E.00773
G1 X120.474 Y126.324 E.00773
;WIDTH:0.499999
G1 X120.437 Y126.402 E.00328
G1 X120.383 Y127.407 E.03823
G1 X120.385 Y128.405 E.03793
G1 X120.473 Y128.678 E.01093
G1 X120.659 Y128.844 E.00946
G1 X120.88 Y128.888 E.00856
G1 X121.094 Y128.872 E.00816
G1 X121.277 Y128.766 E.00803
G1 X121.393 Y128.604 E.00759
G1 X121.782 Y127.711 E.03701
G1 X121.989 Y127.431 E.01322
G1 X122.232 Y127.317 E.01022
;WIDTH:0.470365
G1 X122.476 Y127.203 E.00956
;WIDTH:0.440731
G1 X122.519 Y127.128 E.00288
;WIDTH:0.411826
G1 X122.562 Y127.052 E.00267
G1 X122.538 Y127.142 E.00287
;WIDTH:0.440731
G1 X122.514 Y127.233 E.0031
;WIDTH:0.470365
G1 X122.49 Y127.441 E.00744
;WIDTH:0.499999
G1 X122.466 Y127.649 E.00796
G1 X122.418 Y128.835 E.0451
G1 X122.41 Y131.68 E.10813
G1 X122.222 Y131.743 E.00753
G1 X121.968 Y131.959 E.01269
G1 X121.874 Y132.209 E.01016
G1 X121.945 Y132.52 E.0121
G1 X122.113 Y132.706 E.00953
G1 X122.507 Y132.824 E.01563
G1 X124.814 Y132.825 E.08767
G1 X125.166 Y132.743 E.01373
G1 X125.386 Y132.55 E.01114
G1 X125.466 Y132.285 E.01053
G1 X125.355 Y131.928 E.0142
G1 X125.019 Y131.711 E.01519
G1 X125.016 Y127.295 E.16784
G1 X125.342 Y127.066 E.01515
G1 X125.424 Y126.892 E.0073
G1 X125.399 Y126.602 E.01108
G1 X125.26 Y126.377 E.01005
;WIDTH:0.499483
G1 X124.949 Y126.244 E.01285
G1 X125.321 Y126.25 E.01413
;WIDTH:0.499999
G1 X125.481 Y126.185 E.00657
G1 X126.262 Y124.95 E.05552
G1 X127.419 Y122.943 E.08804
G1 X127.867 Y122.112 E.03591
G1 E-.5
;WIPE_START
G1 F12000
G1 X127.885 Y121.927
G1 X127.772 Y121.723
G1 X126.983 Y120.353
;WIPE_END
G1 Z.4 F24000
G1 X117.428 Y127.938 Z.4
G1 Z.2
G1 E.5 F1800
;WIDTH:0.421947
M73 P12 R5
G1 X117.434 Y127.766 E.00542
;WIDTH:0.460973
G1 X117.441 Y127.594 E.00598
;WIDTH:0.499999
G1 X117.448 Y127.422 E.00654
G1 X117.366 Y127.277 E.00633
G1 X117.031 Y127.078 E.01479
G1 X116.895 Y126.74 E.01386
G1 X116.983 Y126.424 E.01247
G1 X117.107 Y126.29 E.00694
G1 X117.318 Y126.207 E.00861
G1 X118.682 Y126.179 E.05187
