; HEADER_BLOCK_START
; generated by OrcaSlicer 2.2.0 on 2024-12-01 at 19:30:23
; total layer number: 100
; filament_density: 1.27
; filament_diameter: 1.75
; max_z_height: 20.00
; HEADER_BLOCK_END

; THUMBNAIL_BLOCK_START

;
; THUMBNAIL_BLOCK_END

; THUMBNAIL_BLOCK_START

;
; THUMBNAIL_BLOCK_END

; external perimeters extrusion width = 0.42mm
; perimeters extrusion width = 0.45mm
; infill extrusion width = 0.45mm
; solid infill extrusion width = 0.45mm
; top infill extrusion width = 0.42mm
; first layer extrusion width = 0.50mm

; EXECUTABLE_BLOCK_START
EXCLUDE_OBJECT_DEFINE NAME=Corps29_id_0_copy_0 CENTER=115,115 POLYGON=[[92.0003,102.185],[114.873,102.034],[115.127,102.034],[138,102.185],[137.996,122.387],[137.681,122.81],[137.667,122.828],[137.35,123.22],[137.321,123.255],[137.003,123.617],[136.957,123.668],[136.641,124],[136.576,124.065],[136.264,124.368],[136.18,124.446],[135.872,124.721],[135.767,124.811],[135.467,125.058],[135.341,125.158],[135.048,125.379],[134.9,125.487],[134.617,125.683],[134.446,125.797],[134.175,125.97],[133.979,126.089],[133.721,126.239],[133.501,126.361],[133.258,126.489],[133.012,126.613],[132.784,126.721],[132.513,126.844],[132.302,126.934],[132.005,127.055],[131.812,127.128],[131.488,127.244],[131.314,127.303],[130.964,127.412],[130.81,127.457],[130.434,127.558],[130.3,127.591],[129.898,127.682],[129.786,127.705],[129.357,127.784],[129.267,127.799],[128.813,127.864],[128.745,127.872],[128.266,127.92],[128.22,127.924],[127.717,127.955],[127.694,127.955],[127.167,127.966],[102.833,127.966],[102.306,127.955],[102.283,127.955],[101.78,127.924],[101.734,127.92],[101.255,127.872],[101.187,127.864],[100.733,127.799],[100.643,127.784],[100.214,127.705],[100.102,127.682],[99.6996,127.591],[99.5661,127.558],[99.1898,127.457],[99.0358,127.412],[98.6858,127.303],[98.5119,127.244],[98.1882,127.128],[97.9954,127.055],[97.6979,126.934],[97.4873,126.844],[97.2157,126.721],[96.9882,126.613],[96.7424,126.489],[96.4992,126.361],[96.2786,126.239],[96.021,126.089],[95.8251,125.97],[95.5544,125.797],[95.3826,125.683],[95.1003,125.487],[94.9518,125.379],[94.6594,125.158],[94.5335,125.058],[94.2326,124.811],[94.1281,124.721],[93.8204,124.446],[93.7364,124.368],[93.4236,124.065],[93.3591,124],[93.043,123.668],[92.9966,123.617],[92.6791,123.255],[92.6495,123.22],[92.3326,122.828],[92.3185,122.81],[92.004,122.387],[92.0003,102.185]]
M73 P0 R24
;TYPE:Custom
M220 S100
G90 ; use absolute coordinates
M83 ; extruder relative mode
M104 S150 ; set temporary nozzle temp to prevent oozing during homing
M140 S70 ; set final bed temp
G4 S30 ; allow partial nozzle warmup
G28 ; home all axis and restore leveling
BED_MESH_CALIBRATE
G1 Z25 F240
G1 X10.0 Y30 F3000
M104 S245 ; set final nozzle temp
M190 S70 ; wait for bed temp to stabilize
M109 S245 ; wait for nozzle temp to stabilize
G1 Z0.28 F240
G92 E0 ; Move Z Axis up
LINE_PURGE
G92 E0 ; Move Z Axis up
G1 Z2.0 F3000
M117 Start Printing..
G90
G21
M83 ; use relative distances for extrusion
; filament start gcode
M106 S0
;LAYER_CHANGE
;Z:0.2
;HEIGHT:0.2
;BEFORE_LAYER_CHANGE
;0.2
G92 E0

G1 E-.5 F1800
TIMELAPSE_TAKE_FRAME
;_SET_FAN_SPEED_CHANGING_LAYER
SET_VELOCITY_LIMIT ACCEL=1000
SET_VELOCITY_LIMIT SQUARE_CORNER_VELOCITY=7
; printing object Corps29 id:0 copy 0
EXCLUDE_OBJECT_START NAME=Corps29_id_0_copy_0
G1 Z.4 F24000
G1 X145.268 Y123.871
G1 Z.4
G1 Z.2
G1 E.5 F1800
;TYPE:Inner wall
;WIDTH:0.499999
G1 F3000
G1 X145.242 Y124.648 E.02808
G1 X145.239 Y142.128 E.63113
G1 X144.722 Y142.786 E.03019
M73 P1 R23
;WIDTH:0.539601
M73 P1 R23
G1 X143.702 Y143.844 E.05767
;WIDTH:0.497037
G1 X143.048 Y144.416 E.03117
;WIDTH:0.531927
G1 X142.186 Y145.053 E.0414
;WIDTH:0.510737
G1 X141.735 Y145.339 E.01976
;WIDTH:0.499999
G1 X140.915 Y145.814 E.03421
G1 X140.012 Y146.235 E.03597
G1 X139.075 Y146.584 E.03611
G1 X138.16 Y146.844 E.03434
G1 X137.645 Y146.961 E.01908
G1 X136.65 Y147.12 E.03636
G1 X135.679 Y147.197 E.03516
G1 X135.159 Y147.209 E.01879
G1 X110.848 Y147.209 E.87778
G1 X109.88 Y147.171 E.03497
G1 X109.351 Y147.121 E.01917
G1 X108.362 Y146.962 E.03616
G1 X107.396 Y146.728 E.03591
G1 X106.451 Y146.418 E.03591
G1 X105.534 Y146.033 E.03591
G1 X104.665 Y145.586 E.03527
G1 X104.232 Y145.331 E.01815
G1 X103.402 Y144.77 E.03616
G1 X102.625 Y144.149 E.03591
G1 X101.899 Y143.469 E.03591
G1 X101.23 Y142.733 E.03591
G1 X100.761 Y142.128 E.02763
G1 X100.758 Y124.637 E.63154
G1 X100.745 Y123.884 E.02721
G1 X101.329 Y124.357 E.02714
G1 X101.795 Y124.695 E.0208
G1 X102.316 Y125.041 E.02256
G1 X103.359 Y125.652 E.04365
G1 X104.477 Y126.193 E.04484
G1 X105.695 Y126.665 E.04717
G1 X106.408 Y126.89 E.02702
G1 X107.121 Y127.072 E.02656
G1 X107.971 Y127.262 E.03145
G1 X108.721 Y127.371 E.02737
G1 X109.27 Y127.443 E.01998
G1 X110.09 Y127.503 E.02967
G1 X110.964 Y127.522 E.03157
G1 X111.475 Y127.499 E.01848
G1 X112.234 Y127.461 E.02742
G1 X113.4 Y127.313 E.04244
G1 X114.63 Y127.062 E.04535
G1 X115.234 Y126.9 E.02256
G1 X116.382 Y126.52 E.04366
G1 X116.968 Y126.288 E.02277
G1 X118.071 Y125.774 E.04392
G1 X119.368 Y125.02 E.05417
G1 X120.15 Y124.497 E.03397
G1 X121.099 Y123.751 E.04358
G1 X121.677 Y123.249 E.02764
G1 X122.026 Y123.048 E.01455
G1 X122.386 Y122.889 E.01422
G1 X122.892 Y122.795 E.01857
G1 X123.463 Y122.845 E.0207
G1 X124.001 Y123.041 E.02069
G1 X124.315 Y123.242 E.01344
G1 X125.554 Y124.269 E.05811
G1 X126.382 Y124.867 E.03687
G1 X127.062 Y125.29 E.0289
G1 X127.855 Y125.729 E.03273
G1 X128.646 Y126.118 E.03185
G1 X129.107 Y126.318 E.01812
G1 X129.936 Y126.632 E.03201
G1 X130.771 Y126.901 E.03168
G1 X131.994 Y127.202 E.04547
G1 X132.612 Y127.315 E.02271
G1 X133.819 Y127.465 E.04392
G1 X135.036 Y127.522 E.04398
G1 X136.28 Y127.476 E.04495
G1 X137.068 Y127.406 E.02854
G1 X137.796 Y127.296 E.02659
G1 X138.498 Y127.163 E.02581
G1 X139.266 Y126.984 E.02846
G1 X140.441 Y126.62 E.04442
G1 X141.565 Y126.175 E.04365
G1 X142.131 Y125.911 E.02257
G1 X143.186 Y125.346 E.04318
G1 X144.211 Y124.691 E.04393
G1 X144.733 Y124.311 E.0233
G1 X145.237 Y123.897 E.02359
G1 X145.743 Y122.793 F24000
;TYPE:Outer wall
G1 F3000
G1 X145.749 Y123.168 E.01353
G1 X145.699 Y124.649 E.05348
G1 X145.696 Y142.285 E.63678
G1 X145.12 Y143.028 E.03393
G1 X144.43 Y143.786 E.03703
G1 X143.674 Y144.495 E.03742
G1 X142.871 Y145.137 E.03711
G1 X142.45 Y145.434 E.01864
G1 X141.569 Y145.98 E.0374
G1 X141.12 Y146.222 E.01844
G1 X140.188 Y146.657 E.03711
G1 X139.217 Y147.019 E.03742
G1 X138.229 Y147.3 E.03711
G1 X137.73 Y147.411 E.01843
G1 X136.704 Y147.574 E.0375
G1 X135.68 Y147.656 E.03712
G1 X110.839 Y147.666 E.8969
G1 X109.806 Y147.625 E.03731
G1 X109.293 Y147.574 E.01863
G1 X108.272 Y147.411 E.03731
G1 X107.271 Y147.168 E.03722
G1 X106.291 Y146.846 E.03722
G1 X105.34 Y146.448 E.03722
G1 X104.427 Y145.977 E.03711
G1 X103.987 Y145.717 E.01844
G1 X103.131 Y145.138 E.03731
G1 X102.326 Y144.495 E.03722
G1 X101.574 Y143.79 E.03722
G1 X100.88 Y143.028 E.03722
G1 X100.304 Y142.285 E.03393
G1 X100.299 Y124.575 E.63943
G1 X100.257 Y122.793 E.06435
G1 X101.103 Y123.592 E.042
G1 X101.597 Y123.987 E.02285
G1 X102.049 Y124.315 E.02016
G1 X102.547 Y124.646 E.0216
G1 X103.567 Y125.244 E.0427
G1 X104.645 Y125.767 E.04324
G1 X105.838 Y126.231 E.04622
G1 X106.534 Y126.451 E.02638
G1 X108.037 Y126.81 E.05578
G1 X109.304 Y126.987 E.04619
G1 X110.1 Y127.046 E.02883
G1 X110.821 Y127.062 E.02604
G1 X112.176 Y127.007 E.04897
G1 X113.158 Y126.883 E.03573
G1 X114.513 Y126.62 E.04982
G1 X115.091 Y126.466 E.02161
G1 X116.214 Y126.095 E.0427
G1 X116.776 Y125.873 E.02182
G1 X117.847 Y125.376 E.04265
G1 X119.115 Y124.64 E.0529
G1 X119.869 Y124.136 E.03277
G1 X120.799 Y123.406 E.04268
G1 X121.41 Y122.875 E.02923
G1 X122.014 Y122.527 E.02515
G1 X122.249 Y122.453 E.00891
G1 X122.882 Y122.335 E.02324
G1 X123.563 Y122.395 E.02469
G1 X124.205 Y122.629 E.02467
G1 X124.587 Y122.873 E.01636
G1 X125.822 Y123.899 E.05797
G1 X126.628 Y124.482 E.03591
G1 X127.288 Y124.892 E.02805
G1 X128.06 Y125.321 E.03189
G1 X128.698 Y125.642 E.02579
G1 X129.269 Y125.891 E.02248
G1 X130.076 Y126.197 E.03116
G1 X130.911 Y126.466 E.03168
G1 X132.077 Y126.753 E.04335
G1 X132.669 Y126.862 E.02176
G1 X133.841 Y127.009 E.04265
G1 X135.026 Y127.065 E.04281
G1 X136.246 Y127.02 E.0441
G1 X137.01 Y126.953 E.0277
G1 X137.715 Y126.846 E.02574
G1 X138.395 Y126.718 E.02495
G1 X139.14 Y126.544 E.02762
G1 X140.273 Y126.195 E.04283
G1 X141.373 Y125.76 E.04269
G1 X141.916 Y125.508 E.02161
G1 X142.954 Y124.952 E.04254
G1 X143.953 Y124.314 E.04279
G1 X144.446 Y123.955 E.022
G1 X144.911 Y123.58 E.02158
G1 X145.714 Y122.821 E.03991
G1 E-.5 F1800
;WIPE_START
G1 F12000
G1 X145.749 Y123.168
G1 X145.699 Y124.649
G1 X145.699 Y124.818
;WIPE_END
G1 Z.4 F24000
G1 X139.609 Y132.853 Z.4
G1 Z.2
G1 E.5 F1800
;TYPE:Inner wall
G1 F3000
G1 X139.175 Y132.84 E.01566
G1 X138.925 Y132.793 E.00921
G1 X138.415 Y132.585 E.01986
G1 X138.008 Y132.292 E.01813
G1 X137.671 Y131.901 E.01862
G1 X137.438 Y131.443 E.01856
G1 X137.351 Y131.114 E.01229
G1 X137.297 Y130.719 E.01437
G1 X137.356 Y130.159 E.02035
G1 X137.554 Y129.632 E.02035
G1 X137.88 Y129.172 E.02035
G1 X138.312 Y128.81 E.02035
G1 X138.761 Y128.586 E.01811
G1 X139.376 Y128.466 E.02264
G1 X139.883 Y128.492 E.01831
G1 X140.396 Y128.648 E.01936
G1 X140.937 Y128.994 E.02319
G1 X141.317 Y129.419 E.02058
G1 X141.574 Y129.921 E.02035
G1 X141.695 Y130.471 E.02035
G1 X141.685 Y130.979 E.01834
G1 X141.574 Y131.411 E.0161
G1 X141.485 Y131.611 E.00789
G1 X141.169 Y132.098 E.02097
G1 X140.862 Y132.403 E.01564
G1 X140.354 Y132.701 E.02125
G1 X139.703 Y132.855 E.02416
G1 X139.649 Y132.854 E.00195
G1 X139.641 Y132.401 F24000
;TYPE:Outer wall
G1 F3000
G1 X139.601 Y132.41 E.00148
G1 X139.09 Y132.367 E.0185
G1 X138.665 Y132.203 E.01644
G1 X138.258 Y131.888 E.01858
G1 X138.019 Y131.595 E.01365
G1 X137.831 Y131.189 E.01615
G1 X137.753 Y130.749 E.01615
G1 X137.789 Y130.303 E.01615
G1 X137.937 Y129.881 E.01615
G1 X138.188 Y129.51 E.01615
G1 X138.524 Y129.215 E.01615
G1 X138.924 Y129.015 E.01615
G1 X139.436 Y128.925 E.01878
G1 X139.807 Y128.944 E.01341
G1 X140.234 Y129.079 E.01619
G1 X140.613 Y129.317 E.01615
G1 X140.919 Y129.644 E.01615
G1 X141.132 Y130.037 E.01615
G1 X141.238 Y130.471 E.01615
G1 X141.23 Y130.918 E.01615
G1 X141.102 Y131.362 E.01665
G1 X140.786 Y131.848 E.02097
G1 X140.567 Y132.051 E.01075
G1 X140.167 Y132.28 E.01666
G1 X139.68 Y132.392 E.01805
G1 E-.5 F1800
;WIPE_START
G1 F12000
G1 X139.601 Y132.41
G1 X139.09 Y132.367
G1 X138.665 Y132.203
G1 X138.258 Y131.888
G1 X138.019 Y131.595
G1 X137.994 Y131.542
;WIPE_END
G1 Z.4 F24000
G1 X130.758 Y131.68 Z.4
G1 Z.2
G1 E.5 F1800
;TYPE:Inner wall
G1 F3000
G1 X130.583 Y131.276 E.01588
G1 X130.496 Y130.763 E.01879
G1 X130.571 Y130.136 E.0228
G1 X130.717 Y129.695 E.01678
G1 X131.079 Y129.173 E.02295
G1 X131.332 Y128.944 E.0123
G1 X131.857 Y128.63 E.0221
G1 X132.402 Y128.483 E.02038
G1 X132.964 Y128.478 E.02028
G1 X133.511 Y128.617 E.02039
G1 X134.004 Y128.89 E.02035
G1 X134.412 Y129.279 E.02035
G1 X134.708 Y129.758 E.02033
G1 X134.873 Y130.297 E.02037
G1 X134.895 Y130.861 E.02035
G1 X134.774 Y131.411 E.02035
G1 X134.517 Y131.913 E.02035
G1 X134.166 Y132.307 E.01907
G1 X133.732 Y132.607 E.01906
G1 X133.469 Y132.726 E.01041
G1 X132.902 Y132.855 E.021
G1 X132.375 Y132.84 E.01902
G1 X132.125 Y132.793 E.00921
G1 X131.615 Y132.585 E.01986
G1 X131.207 Y132.292 E.01815
G1 X130.807 Y131.795 E.02303
G1 X130.774 Y131.717 E.00307
G1 X131.175 Y131.501 F24000
;TYPE:Outer wall
G1 F3000
G1 X131.031 Y131.189 E.01239
G1 X130.961 Y130.684 E.01842
G1 X131.029 Y130.158 E.01913
G1 X131.138 Y129.88 E.01078
G1 X131.387 Y129.511 E.01609
G1 X131.639 Y129.282 E.0123
G1 X132.11 Y129.018 E.0195
G1 X132.562 Y128.923 E.01666
G1 X133.007 Y128.944 E.01609
G1 X133.434 Y129.079 E.01619
G1 X133.813 Y129.317 E.01615
G1 X134.119 Y129.643 E.01615
G1 X134.332 Y130.036 E.01613
G1 X134.438 Y130.471 E.01616
G1 X134.43 Y130.918 E.01615
G1 X134.31 Y131.349 E.01615
G1 X134.084 Y131.735 E.01615
G1 X133.767 Y132.051 E.01615
G1 X133.367 Y132.28 E.01666
G1 X132.801 Y132.41 E.02098
G1 X132.29 Y132.367 E.0185
G1 X131.865 Y132.203 E.01644
G1 X131.458 Y131.888 E.01857
G1 X131.219 Y131.595 E.01366
G1 X131.192 Y131.537 E.00231
G1 E-.5 F1800
;WIPE_START
G1 F12000
G1 X131.031 Y131.189
G1 X130.961 Y130.684
G1 X131.029 Y130.158
G1 X131.138 Y129.88
G1 X131.293 Y129.65
;WIPE_END
G1 Z.4 F24000
G1 X133.199 Y134 Z.4
G1 Z.2
G1 E.5 F1800
;TYPE:Inner wall
G1 F3000
G1 X133.503 Y134.058 E.01115
G1 X133.989 Y134.309 E.01977
G1 X134.373 Y134.663 E.01885
G1 X134.675 Y135.18 E.02163
G1 X134.805 Y135.721 E.02009
G1 X134.777 Y136.277 E.02007
G1 X134.622 Y136.753 E.0181
G1 X134.323 Y137.203 E.0195
G1 X133.833 Y137.596 E.02268
G1 X133.316 Y137.801 E.02007
G1 X132.763 Y137.853 E.02007
G1 X132.232 Y137.753 E.01951
G1 X131.766 Y137.524 E.01874
G1 X131.385 Y137.189 E.0183
G1 X131.082 Y136.721 E.02013
G1 X130.923 Y136.183 E.02028
G1 X130.923 Y135.622 E.02024
G1 X131.08 Y135.09 E.02003
G1 X131.322 Y134.7 E.01659
G1 X131.696 Y134.338 E.0188
G1 X131.888 Y134.209 E.00834
G1 X132.361 Y134.011 E.01852
G1 X132.949 Y133.952 E.02132
G1 X133.16 Y133.992 E.00778
G1 X133.116 Y134.442 F24000
;TYPE:Outer wall
G1 F3000
G1 X133.313 Y134.474 E.00723
G1 X133.691 Y134.656 E.01514
G1 X134.054 Y135.008 E.01824
G1 X134.237 Y135.31 E.01275
G1 X134.348 Y135.722 E.0154
G1 X134.338 Y136.149 E.01543
G1 X134.185 Y136.592 E.01692
G1 X133.971 Y136.908 E.01379
G1 X133.643 Y137.18 E.0154
G1 X133.186 Y137.358 E.01772
G1 X132.799 Y137.396 E.01402
G1 X132.407 Y137.331 E.01436
G1 X132.023 Y137.145 E.0154
G1 X131.707 Y136.859 E.0154
G1 X131.484 Y136.495 E.0154
G1 X131.373 Y136.083 E.0154
G1 X131.383 Y135.654 E.0155
G1 X131.519 Y135.241 E.01569
G1 X131.707 Y134.946 E.01264
G1 X132.078 Y134.625 E.01773
G1 X132.469 Y134.456 E.01539
G1 X132.887 Y134.405 E.01518
G1 X133.076 Y134.436 E.00693
G1 E-.5 F1800
;WIPE_START
G1 F12000
G1 X133.313 Y134.474
G1 X133.691 Y134.656
G1 X134.054 Y135.008
G1 X134.237 Y135.31
G1 X134.348 Y135.722
G1 X134.347 Y135.777
;WIPE_END
G1 Z.4 F24000
G1 X127.646 Y134.796 Z.4
G1 Z.2
G1 E.5 F1800
;TYPE:Inner wall
G1 F3000
G1 X127.794 Y135.003 E.00918
G1 X127.977 Y135.528 E.02009
G1 X128.005 Y136.083 E.02007
G1 X127.875 Y136.624 E.02007
G1 X127.598 Y137.106 E.02007
G1 X127.197 Y137.491 E.02007
G1 X126.711 Y137.744 E.01979
G1 X126.161 Y137.853 E.02025
G1 X125.604 Y137.801 E.02016
G1 X125.088 Y137.596 E.02007
G1 X124.656 Y137.259 E.0198
G1 X124.328 Y136.804 E.02025
G1 X124.144 Y136.277 E.02016
G1 X124.116 Y135.721 E.02007
G1 X124.245 Y135.181 E.02007
G1 X124.521 Y134.701 E.02
G1 X124.924 Y134.314 E.02014
G1 X125.417 Y134.058 E.02007
G1 X125.955 Y133.952 E.01979
G1 X126.514 Y134.003 E.02025
G1 X127.033 Y134.209 E.02016
G1 X127.471 Y134.551 E.02007
G1 X127.623 Y134.764 E.00943
G1 X127.285 Y135.061 F24000
;TYPE:Outer wall
G1 F3000
G1 X127.439 Y135.319 E.01086
G1 X127.548 Y135.721 E.01504
G1 X127.539 Y136.148 E.0154
G1 X127.41 Y136.554 E.0154
G1 X127.171 Y136.908 E.0154
G1 X126.843 Y137.18 E.01539
G1 X126.458 Y137.346 E.01514
G1 X126.028 Y137.4 E.01567
G1 X125.607 Y137.331 E.0154
G1 X125.223 Y137.145 E.01539
G1 X124.897 Y136.841 E.01612
G1 X124.681 Y136.486 E.01499
G1 X124.573 Y136.083 E.01505
G1 X124.582 Y135.657 E.0154
G1 X124.711 Y135.25 E.0154
G1 X125.002 Y134.851 E.01785
G1 X125.223 Y134.66 E.01054
G1 X125.669 Y134.456 E.01771
G1 X126.087 Y134.405 E.01518
G1 X126.514 Y134.474 E.01562
G1 X126.898 Y134.66 E.0154
G1 X127.254 Y135.008 E.01799
G1 X127.265 Y135.026 E.00078
G1 E-.5 F1800
;WIPE_START
G1 F12000
G1 X127.439 Y135.319
G1 X127.548 Y135.721
G1 X127.539 Y136.148
G1 X127.41 Y136.554
G1 X127.192 Y136.877
;WIPE_END
G1 Z.4 F24000
G1 X125.865 Y132.852 Z.4
G1 Z.2
G1 E.5 F1800
;TYPE:Inner wall
G1 F3000
G1 X125.601 Y132.849 E.00953
G1 X125.089 Y132.717 E.01911
G1 X124.522 Y132.38 E.02381
G1 X124.356 Y132.238 E.00791
G1 X124.007 Y131.795 E.02034
G1 X123.783 Y131.276 E.0204
G1 X123.696 Y130.763 E.01879
G1 X123.735 Y130.235 E.01914
G1 X123.917 Y129.696 E.02055
G1 X124.2 Y129.259 E.0188
G1 X124.767 Y128.781 E.02677
G1 X125.097 Y128.611 E.01339
G1 X125.602 Y128.483 E.01882
G1 X126.164 Y128.478 E.02028
G1 X126.711 Y128.617 E.02039
