; HEADER_BLOCK_START
; generated by OrcaSlicer 2.1.1 on 2024-07-27 at 16:19:07
; total layer number: 50
; filament_density: 1.24
; filament_diameter: 1.75
; max_z_height: 10.00
; HEADER_BLOCK_END

; THUMBNAIL_BLOCK_START

;
; THUMBNAIL_BLOCK_END

; THUMBNAIL_BLOCK_START

;
; THUMBNAIL_BLOCK_END

; external perimeters extrusion width = 0.42mm
; perimeters extrusion width = 0.45mm
; infill extrusion width = 0.45mm
; solid infill extrusion width = 0.45mm
; top infill extrusion width = 0.42mm
; first layer extrusion width = 0.50mm

; EXECUTABLE_BLOCK_START
EXCLUDE_OBJECT_DEFINE NAME=Corps1.stl_id_0_copy_0 CENTER=115,115 POLYGON=[[102.501,115],[102.508,114.571],[102.53,114.142],[102.567,113.715],[102.619,113.289],[102.685,112.865],[102.765,112.443],[102.86,112.025],[102.97,111.61],[103.093,111.199],[103.23,110.792],[103.382,110.39],[103.547,109.994],[103.726,109.604],[103.917,109.22],[104.122,108.843],[104.34,108.473],[104.57,108.111],[104.813,107.757],[105.068,107.412],[105.334,107.075],[105.612,106.748],[105.901,106.431],[106.2,106.123],[106.51,105.826],[106.83,105.54],[107.159,105.265],[107.498,105.002],[107.846,104.75],[108.202,104.511],[108.566,104.284],[108.938,104.069],[109.316,103.867],[109.702,103.679],[110.094,103.503],[110.491,103.342],[110.894,103.194],[111.302,103.06],[111.714,102.94],[112.13,102.834],[112.549,102.743],[112.971,102.666],[113.396,102.603],[113.822,102.556],[114.25,102.523],[114.679,102.504],[115.108,102.5],[115.537,102.512],[115.966,102.537],[116.393,102.578],[116.818,102.633],[117.242,102.703],[117.663,102.787],[118.08,102.885],[118.494,102.998],[118.904,103.125],[119.31,103.266],[119.71,103.421],[120.105,103.589],[120.493,103.771],[120.876,103.967],[121.251,104.175],[121.619,104.396],[121.979,104.629],[122.331,104.875],[122.674,105.132],[123.008,105.401],[123.333,105.682],[123.648,105.974],[123.953,106.276],[124.247,106.588],[124.53,106.91],[124.802,107.242],[125.063,107.583],[125.312,107.933],[125.548,108.291],[125.772,108.657],[125.984,109.031],[126.182,109.411],[126.367,109.798],[126.539,110.192],[126.697,110.591],[126.842,110.995],[126.972,111.404],[127.089,111.817],[127.191,112.233],[127.279,112.654],[127.352,113.076],[127.411,113.501],[127.455,113.928],[127.484,114.357],[127.499,114.785],[127.499,115.215],[127.484,115.643],[127.455,116.072],[127.411,116.499],[127.352,116.924],[127.279,117.346],[127.191,117.767],[127.089,118.183],[126.972,118.596],[126.842,119.005],[126.697,119.409],[126.539,119.808],[126.367,120.202],[126.182,120.589],[125.984,120.969],[125.772,121.343],[125.548,121.709],[125.312,122.067],[125.063,122.417],[124.802,122.758],[124.53,123.09],[124.247,123.412],[123.953,123.724],[123.648,124.026],[123.333,124.318],[123.008,124.599],[122.674,124.868],[122.331,125.125],[121.979,125.371],[121.619,125.604],[121.251,125.825],[120.876,126.033],[120.493,126.229],[120.105,126.411],[119.71,126.579],[119.31,126.734],[118.904,126.875],[118.494,127.002],[118.08,127.115],[117.663,127.213],[117.242,127.297],[116.818,127.367],[116.393,127.422],[115.966,127.463],[115.537,127.488],[115.108,127.5],[114.679,127.496],[114.25,127.477],[113.822,127.444],[113.396,127.397],[112.971,127.334],[112.549,127.257],[112.13,127.166],[111.714,127.06],[111.302,126.94],[110.894,126.806],[110.491,126.658],[110.094,126.497],[109.702,126.321],[109.316,126.133],[108.938,125.931],[108.566,125.716],[108.202,125.489],[107.846,125.25],[107.498,124.998],[107.159,124.735],[106.83,124.46],[106.51,124.174],[106.2,123.877],[105.901,123.569],[105.612,123.252],[105.334,122.925],[105.068,122.588],[104.813,122.243],[104.57,121.889],[104.34,121.527],[104.122,121.157],[103.917,120.78],[103.726,120.396],[103.547,120.006],[103.382,119.61],[103.23,119.208],[103.093,118.801],[102.97,118.39],[102.86,117.975],[102.765,117.557],[102.685,117.135],[102.619,116.711],[102.567,116.285],[102.53,115.858],[102.508,115.429],[102.501,115]]
M73 P0 R9
;TYPE:Custom
M220 S100
G90 ; use absolute coordinates
M83 ; extruder relative mode
M104 S150 ; set temporary nozzle temp to prevent oozing during homing
M140 S55 ; set final bed temp
G4 S30 ; allow partial nozzle warmup
G28 ; home all axis and restore leveling
BED_MESH_CALIBRATE PROFILE=adaptive ADAPTIVE=1 ADAPTIVE_MARGIN=0
G1 Z25 F240
G1 X10.0 Y30 F3000
M104 S210 ; set final nozzle temp
M190 S55 ; wait for bed temp to stabilize
M109 S210 ; wait for nozzle temp to stabilize
M73 P1 R9
G1 Z0.28 F240
G92 E0 ; Move Z Axis up
G1 Z2.0 F5000 ; Move to start position
M73 P2 R9
G1 X5 Y30 Z0.28 F300 ; Draw the first line
G1 X5 Y200 Z0.28 F1500 E15 ; Move to side a little
G1 X5.4 Y200 Z0.28 F5000.0 ; Draw the second line
M73 P3 R8
G1 X5.4 Y50 Z0.28 F1500.0 E30 ; Reset Extruder
G92 E0 ; Move Z Axis up
G1 Z2.0 F3000
M117 Start Printing..
G90
G21
M83 ; use relative distances for extrusion
; filament start gcode
M106 S0
;LAYER_CHANGE
;Z:0.2
;HEIGHT:0.2
;BEFORE_LAYER_CHANGE
;0.2
G92 E0

M73 P4 R8
G1 E-.5 F1800
;_SET_FAN_SPEED_CHANGING_LAYER
SET_VELOCITY_LIMIT ACCEL=1000
SET_VELOCITY_LIMIT SQUARE_CORNER_VELOCITY=7
; printing object Corps1.stl id:0 copy 0
EXCLUDE_OBJECT_START NAME=Corps1.stl_id_0_copy_0
G1 Z.2 F24000
G1 X133.382 Y140.474
G1 Z.2
M73 P5 R8
G1 E.5 F1800
;TYPE:Inner wall
;WIDTH:0.499999
G1 X133.318 Y140.607 E.00553
G1 X132.686 Y141.638 E.04503
G1 X131.952 Y142.599 E.04503
G1 X131.12 Y143.483 E.04524
G1 X130.523 Y144.017 E.02981
G1 X129.887 Y144.512 E.03002
G1 X129.223 Y144.959 E.02982
G1 X128.155 Y145.55 E.04545
G1 X127.412 Y145.882 E.03034
G1 X126.668 Y146.155 E.0295
G1 X125.88 Y146.384 E.03055
G1 X125.112 Y146.551 E.0293
G1 X123.907 Y146.707 E.04525
G1 X122.698 Y146.738 E.04502
G1 X121.493 Y146.645 E.04503
G1 X120.304 Y146.428 E.04503
G1 X119.138 Y146.089 E.04523
G1 X118.378 Y145.794 E.03033
G1 X117.666 Y145.461 E.02929
G1 X116.609 Y144.85 E.04547
G1 X115.953 Y144.392 E.02979
G1 X115.33 Y143.89 E.02982
G1 X114.448 Y143.046 E.04546
G1 X113.92 Y142.444 E.02981
G1 X113.431 Y141.804 E.03001
G1 X112.989 Y141.136 E.02982
G1 X112.407 Y140.064 E.04545
G1 X112.081 Y139.317 E.03033
G1 X111.815 Y138.571 E.02951
G1 X111.596 Y137.795 E.03002
G1 X111.432 Y137.012 E.02982
G1 X111.287 Y135.806 E.04525
G1 X111.266 Y134.597 E.04503
G1 X111.37 Y133.387 E.04524
G1 X111.506 Y132.604 E.02959
G1 X111.815 Y131.429 E.04525
G1 X112.242 Y130.298 E.04503
G1 X112.785 Y129.211 E.04524
G1 X113.2 Y128.534 E.02959
G1 X113.924 Y127.551 E.04546
G1 X114.462 Y126.94 E.03032
G1 X115.025 Y126.382 E.02952
G1 X115.63 Y125.859 E.02981
G1 X116.631 Y125.136 E.04599
G1 X117.305 Y124.731 E.02929
G1 X118.023 Y124.365 E.03002
G1 X118.759 Y124.051 E.02982
G1 X119.913 Y123.671 E.04525
G1 X121.1 Y123.413 E.04524
G1 X121.894 Y123.31 E.02982
G1 X122.698 Y123.261 E.03001
G1 X123.505 Y123.268 E.03004
G1 X124.309 Y123.331 E.03003
G1 X125.1 Y123.447 E.02981
G1 X126.283 Y123.726 E.04525
G1 X127.425 Y124.123 E.04503
G1 X128.525 Y124.638 E.04524
G1 X129.218 Y125.038 E.0298
G1 X129.898 Y125.497 E.03054
G1 X130.523 Y125.983 E.02951
G1 X131.12 Y126.517 E.02981
G1 X131.965 Y127.416 E.04599
G1 X132.453 Y128.033 E.02928
G1 X132.916 Y128.71 E.03054
G1 X133.318 Y129.392 E.02951
G1 X133.676 Y130.109 E.02982
G1 X134.124 Y131.238 E.04525
G1 X134.407 Y132.241 E.03884
G1 X134.516 Y132.735 E.01882
G1 X134.62 Y133.33 E.02249
G1 X134.707 Y134.131 E.03004
G1 X134.741 Y134.793 E.02466
G1 X134.699 Y136.013 E.04547
G1 X134.604 Y136.807 E.02979
G1 X134.453 Y137.593 E.02982
G1 X134.122 Y138.768 E.04546
G1 X133.842 Y139.512 E.0296
G1 X133.399 Y140.437 E.03823
G1 X133.794 Y140.671 F24000
;TYPE:Outer wall
G1 F1800
G1 X133.72 Y140.826 E.0064
G1 X133.064 Y141.897 E.04678
G1 X132.301 Y142.895 E.04679
G1 X131.439 Y143.811 E.04685
G1 X130.816 Y144.368 E.03113
G1 X130.155 Y144.882 E.03118
G1 X129.461 Y145.349 E.03114
G1 X128.36 Y145.96 E.04692
G1 X127.584 Y146.306 E.03165
G1 X126.811 Y146.59 E.03067
G1 X125.993 Y146.827 E.03171
G1 X125.19 Y147.002 E.03061
G1 X123.942 Y147.163 E.04686
G1 X122.687 Y147.196 E.04678
G1 X121.434 Y147.099 E.04678
G1 X120.199 Y146.873 E.04678
G1 X118.991 Y146.522 E.04685
G1 X118.199 Y146.215 E.03165
G1 X117.455 Y145.866 E.0306
G1 X116.363 Y145.236 E.04693
G1 X115.679 Y144.758 E.03111
G1 X115.028 Y144.234 E.03114
G1 X114.118 Y143.362 E.04692
G1 X113.566 Y142.734 E.03113
G1 X113.058 Y142.069 E.03118
G1 X112.597 Y141.371 E.03114
G1 X111.996 Y140.265 E.04692
G1 X111.656 Y139.486 E.03165
G1 X111.379 Y138.71 E.03068
G1 X111.152 Y137.904 E.03118
G1 X110.981 Y137.086 E.03114
G1 X110.83 Y135.837 E.04685
G1 X110.808 Y134.581 E.04678
G1 X110.916 Y133.328 E.04685
G1 X111.059 Y132.506 E.03106
G1 X111.379 Y131.29 E.04686
G1 X111.822 Y130.114 E.04678
G1 X112.385 Y128.989 E.04685
G1 X112.82 Y128.278 E.03106
G1 X113.568 Y127.264 E.04693
G1 X114.129 Y126.626 E.03164
G1 X114.714 Y126.047 E.03068
G1 X115.346 Y125.5 E.03113
G1 X116.379 Y124.754 E.04745
G1 X117.083 Y124.331 E.0306
G1 X117.829 Y123.951 E.03119
G1 X118.598 Y123.622 E.03114
G1 X119.793 Y123.23 E.04686
G1 X121.022 Y122.962 E.04685
G1 X121.851 Y122.854 E.03113
G1 X122.687 Y122.804 E.03118
G1 X123.524 Y122.811 E.03121
G1 X124.359 Y122.876 E.0312
G1 X125.186 Y122.998 E.03113
G1 X126.411 Y123.287 E.04686
G1 X127.597 Y123.699 E.04678
G1 X128.736 Y124.232 E.04685
G1 X129.46 Y124.65 E.03113
G1 X130.166 Y125.126 E.03171
G1 X130.816 Y125.632 E.03067
G1 X131.439 Y126.189 E.03113
G1 X132.312 Y127.117 E.04745
G1 X132.821 Y127.762 E.0306
G1 X133.302 Y128.464 E.03171
G1 X133.72 Y129.174 E.03068
G1 X134.094 Y129.922 E.03113
G1 X134.557 Y131.091 E.04686
G1 X134.847 Y132.118 E.03972
G1 X134.965 Y132.649 E.02028
G1 X135.074 Y133.275 E.02366
G1 X135.164 Y134.108 E.03121
G1 X135.199 Y134.789 E.0254
G1 X135.156 Y136.048 E.04693
G1 X135.055 Y136.877 E.03111
G1 X134.899 Y137.698 E.03114
G1 X134.557 Y138.911 E.04692
G1 X134.263 Y139.691 E.03106
G1 X133.811 Y140.635 E.03896
G1 E-.5
;WIPE_START
G1 F12000
G1 X133.72 Y140.826
G1 X133.064 Y141.897
G1 X132.741 Y142.32
;WIPE_END
G1 Z.4 F24000
G1 X126.315 Y136.28 Z.4
G1 Z.2
M73 P6 R8
G1 E.5 F1800
;TYPE:Inner wall
G1 X126.24 Y136.443 E.00666
G1 X125.939 Y136.917 E.02092
G1 X125.468 Y137.418 E.02562
G1 X124.953 Y137.789 E.02364
G1 X124.39 Y138.052 E.02315
G1 X123.509 Y138.256 E.0337
G1 X122.893 Y138.296 E.02297
G1 X122.251 Y138.21 E.02415
G1 X121.801 Y138.07 E.01754
G1 X121.32 Y137.836 E.01994
G1 X120.768 Y137.424 E.02565
G1 X120.431 Y137.046 E.01887
G1 X120.221 Y136.774 E.01279
G1 X119.982 Y136.329 E.01883
G1 X119.768 Y135.625 E.0274
G1 X119.67 Y134.655 E.03629
G1 X119.734 Y134.089 E.02123
G1 X119.946 Y133.384 E.02744
G1 X120.214 Y132.891 E.02086
G1 X120.553 Y132.455 E.02059
G1 X120.814 Y132.174 E.01427
G1 X121.222 Y131.855 E.01932
G1 X121.786 Y131.546 E.02396
G1 X122.366 Y131.347 E.02283
G1 X123.07 Y131.241 E.02649
G1 X123.664 Y131.26 E.02216
G1 X124.18 Y131.363 E.01961
G1 X124.604 Y131.497 E.01654
G1 X125.164 Y131.811 E.02391
G1 X125.763 Y132.314 E.02913
G1 X126.2 Y132.901 E.02727
G1 X126.488 Y133.551 E.02647
G1 X126.634 Y134.172 E.02377
G1 X126.675 Y134.913 E.02763
G1 X126.587 Y135.518 E.02276
G1 X126.415 Y136.06 E.02119
G1 X126.331 Y136.243 E.00751
G1 X125.913 Y136.097 F24000
;TYPE:Outer wall
G1 F1800
G1 X125.553 Y136.672 E.02524
G1 X125.142 Y137.098 E.02207
G1 X124.694 Y137.413 E.02041
G1 X124.204 Y137.635 E.02001
G1 X123.413 Y137.809 E.03017
G1 X122.877 Y137.839 E.02002
G1 X122.319 Y137.758 E.02097
G1 X122.001 Y137.66 E.01241
G1 X121.52 Y137.425 E.01994
G1 X121.049 Y137.064 E.02211
G1 X120.65 Y136.595 E.02294
G1 X120.394 Y136.132 E.0197
G1 X120.208 Y135.499 E.02457
G1 X120.125 Y134.619 E.03294
G1 X120.199 Y134.064 E.02084
G1 X120.378 Y133.532 E.02088
G1 X120.654 Y133.042 E.02096
G1 X121.063 Y132.565 E.02342
G1 X121.504 Y132.215 E.02094
G1 X121.999 Y131.95 E.02094
G1 X122.508 Y131.781 E.01995
G1 X123.13 Y131.694 E.02341
G1 X123.641 Y131.716 E.01905
G1 X124.325 Y131.873 E.02615
G1 X124.935 Y132.207 E.02588
G1 X125.463 Y132.659 E.02591
G1 X125.826 Y133.164 E.02315
G1 X126.067 Y133.727 E.0228
G1 X126.187 Y134.269 E.02067
G1 X126.218 Y134.925 E.02447
G1 X126.136 Y135.443 E.01954
G1 X125.926 Y136.059 E.02425
G1 E-.5
;WIPE_START
G1 F12000
G1 X125.553 Y136.672
G1 X125.142 Y137.098
G1 X124.694 Y137.413
G1 X124.563 Y137.472
;WIPE_END
G1 Z.4 F24000
G1 X132.594 Y128.482
G1 Z.4
G1 Z.2
G1 E.5 F1800
;TYPE:Bottom surface
;WIDTH:0.507871
G1 F3600
G1 X130.829 Y126.717 E.09455
G1 X130.303 Y126.246 E.02674
G1 X129.696 Y125.774 E.02913
G1 X129.036 Y125.329 E.03017
G1 X128.44 Y124.985 E.02608
G1 X133.022 Y129.567 E.24552
G1 X133.363 Y130.249 E.02886
G1 X133.571 Y130.774 E.0214
G1 X127.208 Y124.411 E.34092
G1 X126.2 Y124.06 E.04045
G1 X133.921 Y131.781 E.41369
G1 X134.119 Y132.486 E.02775
G1 X134.155 Y132.673 E.00721
G1 X125.337 Y123.855 E.47247
G1 X125.036 Y123.784 E.01173
G1 X124.535 Y123.71 E.01919
G1 X134.291 Y133.467 E.52275
G1 X134.368 Y134.2 E.02795
G1 X123.802 Y123.635 E.5661
G1 X123.117 Y123.608 E.02597
G1 X134.395 Y134.886 E.60427
G1 X134.373 Y135.521 E.0241
G1 X122.476 Y123.624 E.63749
G1 X121.855 Y123.66 E.02356
G1 X134.338 Y136.144 E.66887
G1 X134.268 Y136.73 E.02239
G1 X121.273 Y123.736 E.69627
G1 X120.725 Y123.845 E.02118
G1 X134.163 Y137.284 E.72006
G1 X134.035 Y137.813 E.02063
G1 X120.185 Y123.963 E.74211
M73 P7 R8
G1 X120.004 Y124.002 E.00703
G1 X119.675 Y124.11 E.01311
G1 X133.891 Y138.326 E.76169
G1 X133.734 Y138.827 E.01988
G1 X119.18 Y124.273 E.7798
G1 X118.699 Y124.449 E.01942
G1 X133.554 Y139.304 E.79596
G1 X133.346 Y139.754 E.01877
G1 X126.643 Y133.051 E.35913
G1 X126.527 Y132.776 E.01134
G1 X126.064 Y132.128 E.03015
G1 X125.399 Y131.554 E.03329
G1 X124.833 Y131.241 E.02452
G1 X118.238 Y124.646 E.35337
G1 X117.799 Y124.864 E.01858
G1 X123.869 Y130.934 E.32524
G1 X123.176 Y130.899 E.02628
G1 X117.369 Y125.093 E.31111
G1 X116.958 Y125.339 E.01816
G1 X122.582 Y130.963 E.30134
G1 X122.358 Y130.994 E.00858
G1 X122.054 Y131.093 E.0121
G1 X116.567 Y125.605 E.29403
G1 X116.185 Y125.881 E.01784
G1 X121.577 Y131.272 E.28888
G1 X121.149 Y131.503 E.01839
G1 X115.806 Y126.16 E.28627
G1 X115.454 Y126.465 E.01766
G1 X120.769 Y131.78 E.28481
G1 X120.5 Y131.996 E.01307
G1 X120.42 Y132.088 E.00464
G1 X115.111 Y126.779 E.28445
G1 X114.781 Y127.107 E.01762
G1 X120.115 Y132.441 E.2858
G1 X120.023 Y132.546 E.0053
G1 X119.854 Y132.838 E.01276
G1 X114.468 Y127.452 E.28858
G1 X114.163 Y127.804 E.01766
G1 X119.63 Y133.271 E.29291
G1 X119.458 Y133.757 E.01953
G1 X113.884 Y128.183 E.29866
G1 X113.605 Y128.561 E.01782
G1 X119.358 Y134.314 E.30826
G1 X119.328 Y134.517 E.00778
G1 X119.361 Y134.975 E.01739
G1 X113.343 Y128.956 E.32249
G1 X113.093 Y129.364 E.01812
G1 X119.739 Y136.01 E.35608
G1 E-.5 F1800
;WIPE_START
G1 F12000
G1 X118.324 Y134.596
;WIPE_END
G1 Z.4 F24000
G1 X126.68 Y133.746 Z.4
G1 Z.2
M73 P8 R8
G1 E.5 F1800
G1 F3600
G1 X133.133 Y140.199 E.34577
G1 X133.016 Y140.443 E.01028
G1 X132.904 Y140.627 E.00815
G1 X127.011 Y134.734 E.31576
G1 X127.017 Y134.969 E.00893
G1 X126.958 Y135.339 E.01418
G1 X132.654 Y141.035 E.30518
G1 X132.404 Y141.443 E.01812
G1 X126.842 Y135.881 E.29801
G1 X126.664 Y136.36 E.01938
G1 X132.12 Y141.815 E.2923
G1 X131.835 Y142.188 E.01777
G1 X126.426 Y136.78 E.28979
G1 X126.171 Y137.182 E.01805
G1 X131.533 Y142.544 E.28732
G1 X131.214 Y142.883 E.01762
G1 X125.847 Y137.516 E.28756
G1 X125.663 Y137.707 E.01006
G1 X125.496 Y137.823 E.00767
G1 X130.895 Y143.221 E.28928
G1 X130.55 Y143.533 E.01764
G1 X125.109 Y138.092 E.29152
G1 X124.663 Y138.304 E.01871
G1 X130.196 Y143.837 E.29648
G1 X129.826 Y144.125 E.01775
G1 X124.161 Y138.46 E.30354
G1 X123.622 Y138.578 E.02091
G1 X129.442 Y144.398 E.31183
G1 X129.049 Y144.662 E.01795
G1 X123.019 Y138.632 E.3231
G1 X122.851 Y138.639 E.00635
G1 X122.288 Y138.559 E.02156
G1 X128.626 Y144.897 E.33962
G1 X128.203 Y145.132 E.01832
G1 X112.873 Y129.802 E.82142
G1 X112.654 Y130.24 E.01857
G1 X127.764 Y145.35 E.80961
G1 X127.309 Y145.553 E.01886
G1 X112.456 Y130.7 E.79582
G1 X112.276 Y131.178 E.01933
G1 X126.829 Y145.731 E.77978
G1 X126.336 Y145.895 E.01971
G1 X112.107 Y131.666 E.76238
G1 X111.97 Y132.187 E.02039
G1 X125.826 Y146.043 E.74242
G1 X125.288 Y146.162 E.02089
M73 P9 R8
G1 X111.835 Y132.709 E.7208
G1 X111.738 Y133.27 E.02155
