; HEADER_BLOCK_START
; generated by OrcaSlicer 2.1.1 on 2024-07-28 at 19:06:51
; total layer number: 25
; filament_density: 1.24
; filament_diameter: 1.75
; max_z_height: 5.00
; HEADER_BLOCK_END

; THUMBNAIL_BLOCK_START

;
; THUMBNAIL_BLOCK_END

; THUMBNAIL_BLOCK_START

;
; THUMBNAIL_BLOCK_END

; external perimeters extrusion width = 0.42mm
; perimeters extrusion width = 0.45mm
; infill extrusion width = 0.45mm
; solid infill extrusion width = 0.45mm
; top infill extrusion width = 0.42mm
; first layer extrusion width = 0.50mm

; EXECUTABLE_BLOCK_START
EXCLUDE_OBJECT_DEFINE NAME=Corps2.stl_id_0_copy_0 CENTER=115,115 POLYGON=[[79.0051,114.754],[79.0109,114.308],[79.0565,113.864],[79.1415,113.426],[79.2651,112.997],[79.4265,112.581],[88.7554,90.8641],[88.946,90.4607],[89.1718,90.0758],[89.431,89.7126],[89.7216,89.374],[90.0412,89.0626],[90.3873,88.781],[90.7571,88.5313],[91.1477,88.3156],[91.556,88.1356],[113.509,79.3756],[113.929,79.2251],[114.361,79.1126],[114.801,79.0391],[115.246,79.0051],[115.692,79.0109],[116.136,79.0565],[116.574,79.1415],[117.003,79.2651],[117.419,79.4265],[139.136,88.7554],[139.539,88.946],[139.924,89.1718],[140.287,89.431],[140.626,89.7216],[140.937,90.0412],[141.219,90.3873],[141.469,90.7571],[141.684,91.1477],[141.864,91.556],[150.624,113.509],[150.775,113.929],[150.887,114.361],[150.961,114.801],[150.995,115.246],[150.989,115.692],[150.943,116.136],[150.859,116.574],[150.735,117.003],[150.573,117.419],[141.245,139.136],[141.054,139.539],[140.828,139.924],[140.569,140.287],[140.278,140.626],[139.959,140.937],[139.613,141.219],[139.243,141.469],[138.852,141.684],[138.444,141.864],[116.491,150.624],[116.071,150.775],[115.639,150.887],[115.199,150.961],[114.754,150.995],[114.308,150.989],[113.864,150.943],[113.426,150.859],[112.997,150.735],[112.581,150.573],[90.8641,141.245],[90.4607,141.054],[90.0758,140.828],[89.7126,140.569],[89.374,140.278],[89.0626,139.959],[88.781,139.613],[88.5313,139.243],[88.3156,138.852],[88.1356,138.444],[79.3756,116.491],[79.2251,116.071],[79.1126,115.639],[79.0391,115.199],[79.0051,114.754]]
M73 P0 R16
;TYPE:Custom
M220 S100
G90 ; use absolute coordinates
M83 ; extruder relative mode
M104 S150 ; set temporary nozzle temp to prevent oozing during homing
M140 S55 ; set final bed temp
G4 S30 ; allow partial nozzle warmup
G28 ; home all axis and restore leveling
BED_MESH_CALIBRATE PROFILE=adaptive ADAPTIVE=1 ADAPTIVE_MARGIN=0
G1 Z25 F240
G1 X10.0 Y30 F3000
M104 S210 ; set final nozzle temp
M190 S55 ; wait for bed temp to stabilize
M109 S210 ; wait for nozzle temp to stabilize
G1 Z0.28 F240
G92 E0 ; Move Z Axis up
G1 Z2.0 F5000 ; Move to start position
M73 P1 R16
G1 X5 Y30 Z0.28 F300 ; Draw the first line
G1 X5 Y200 Z0.28 F1500 E15 ; Move to side a little
G1 X5.4 Y200 Z0.28 F5000.0 ; Draw the second line
M73 P2 R16
G1 X5.4 Y50 Z0.28 F1500.0 E30 ; Reset Extruder
G92 E0 ; Move Z Axis up
G1 Z2.0 F3000
M117 Start Printing..
G90
G21
M83 ; use relative distances for extrusion
; filament start gcode
M106 S0
;LAYER_CHANGE
;Z:0.2
;HEIGHT:0.2
;BEFORE_LAYER_CHANGE
;0.2
G92 E0

G1 E-.5 F1800
;_SET_FAN_SPEED_CHANGING_LAYER
SET_VELOCITY_LIMIT ACCEL=1000
SET_VELOCITY_LIMIT SQUARE_CORNER_VELOCITY=7
; printing object Corps2.stl id:0 copy 0
EXCLUDE_OBJECT_START NAME=Corps2.stl_id_0_copy_0
G1 Z.2 F24000
G1 X127.78 Y104.94
G1 Z.2
G1 E.5 F1800
;TYPE:Inner wall
;WIDTH:0.499999
G1 X127.885 Y105.069 E.0062
G1 X128.176 Y105.202 E.01194
G1 X129.306 Y105.422 E.04288
G1 X130.354 Y105.665 E.04007
G1 X131.393 Y105.945 E.04007
G1 X132.421 Y106.262 E.04007
G1 X133.437 Y106.615 E.04007
G1 X134.44 Y107.005 E.04007
G1 X135.429 Y107.429 E.04007
G1 X136.402 Y107.889 E.04008
G1 X137.357 Y108.382 E.04007
G1 X138.295 Y108.91 E.04007
G1 X139.245 Y109.491 E.04149
G1 X140.244 Y110.158 E.04474
G1 X141.119 Y110.775 E.03989
G1 X141.403 Y110.857 E.01099
G1 X141.599 Y110.841 E.00733
G1 X141.893 Y110.693 E.01226
G1 X142.265 Y110.309 E.01993
G1 X142.861 Y109.833 E.02842
G1 X143.526 Y109.473 E.02817
G1 X144.245 Y109.237 E.02816
G1 X144.993 Y109.132 E.02816
G1 X145.749 Y109.162 E.02816
G1 X146.487 Y109.326 E.02816
G1 X147.184 Y109.618 E.02816
G1 X147.819 Y110.029 E.02816
G1 X148.37 Y110.547 E.02816
G1 X148.821 Y111.154 E.02816
G1 X149.156 Y111.831 E.02814
G1 X149.367 Y112.566 E.02848
G1 X149.444 Y113.309 E.02785
G1 X149.387 Y114.063 E.02817
G1 X149.196 Y114.795 E.02816
G1 X148.879 Y115.482 E.02816
G1 X148.446 Y116.1 E.02812
G1 X147.73 Y116.825 E.03795
G1 X147.62 Y117.109 E.01136
G1 X147.621 Y117.306 E.00732
G1 X147.731 Y117.59 E.01135
G1 X148.374 Y118.544 E.04288
G1 X148.943 Y119.457 E.04007
G1 X149.48 Y120.39 E.04007
G1 X149.982 Y121.341 E.04006
G1 X150.46 Y122.329 E.04089
G1 X150.885 Y123.294 E.03926
G1 X151.284 Y124.293 E.04007
G1 X151.647 Y125.306 E.04007
G1 X151.974 Y126.331 E.04007
G1 X152.264 Y127.366 E.04006
G1 X152.521 Y128.434 E.04089
G1 X152.732 Y129.466 E.03925
G1 X152.923 Y130.602 E.04288
G1 X153.027 Y130.867 E.01062
G1 X153.184 Y131.034 E.00854
G1 X153.34 Y131.123 E.00667
G1 X153.562 Y131.173 E.00848
G1 X154.074 Y131.163 E.01906
G1 X154.84 Y131.248 E.02873
G1 X155.565 Y131.464 E.02816
G1 X156.24 Y131.805 E.02816
M73 P3 R16
G1 X156.843 Y132.26 E.02816
G1 X157.356 Y132.816 E.02816
G1 X157.762 Y133.453 E.02816
G1 X158.049 Y134.153 E.02816
G1 X158.207 Y134.892 E.02816
G1 X158.23 Y135.648 E.02816
G1 X158.12 Y136.396 E.02816
G1 X157.878 Y137.112 E.02816
G1 X157.513 Y137.774 E.02814
G1 X157.03 Y138.367 E.02848
G1 X156.463 Y138.854 E.02785
G1 X155.811 Y139.236 E.02815
G1 X155.093 Y139.5 E.02848
G1 X154.358 Y139.628 E.02781
G1 X153.401 Y139.625 E.03562
G1 X153.07 Y139.751 E.0132
G1 X152.907 Y139.918 E.0087
G1 X152.799 Y140.171 E.01024
G1 X152.578 Y141.306 E.04309
G1 X152.335 Y142.354 E.04007
G1 X152.055 Y143.393 E.04007
G1 X151.738 Y144.421 E.04007
G1 X151.385 Y145.437 E.04007
G1 X150.995 Y146.44 E.04007
G1 X150.571 Y147.429 E.04007
G1 X150.111 Y148.402 E.04007
G1 X149.618 Y149.357 E.04007
G1 X149.09 Y150.295 E.04007
G1 X148.53 Y151.213 E.04008
G1 X147.937 Y152.111 E.04006
G1 X147.269 Y153.048 E.04288
G1 X147.158 Y153.297 E.01015
G1 X147.147 Y153.534 E.00883
G1 X147.26 Y153.832 E.01186
G1 X147.685 Y154.259 E.02246
G1 X148.167 Y154.862 E.02873
G1 X148.527 Y155.526 E.02816
G1 X148.763 Y156.245 E.02816
G1 X148.868 Y156.993 E.02816
G1 X148.838 Y157.749 E.02816
G1 X148.674 Y158.487 E.02816
G1 X148.382 Y159.184 E.02816
G1 X147.971 Y159.819 E.02816
G1 X147.453 Y160.37 E.02816
G1 X146.846 Y160.821 E.02816
G1 X146.169 Y161.156 E.02816
G1 X145.443 Y161.366 E.02814
G1 X144.682 Y161.443 E.02848
G1 X143.937 Y161.387 E.02785
G1 X143.205 Y161.196 E.02816
G1 X142.518 Y160.879 E.02816
G1 X141.9 Y160.446 E.02812
G1 X141.135 Y159.705 E.03968
G1 X140.928 Y159.627 E.00823
G1 X140.68 Y159.623 E.00923
G1 X140.41 Y159.731 E.01084
G1 X139.455 Y160.374 E.04288
G1 X138.543 Y160.943 E.04007
G1 X137.61 Y161.48 E.04007
G1 X136.659 Y161.983 E.04007
G1 X135.691 Y162.451 E.04007
G1 X134.261 Y163.063 E.05791
G1 X133.679 Y163.294 E.02334
G1 X132.666 Y163.656 E.04006
G1 X131.556 Y164.01 E.04341
G1 X129.538 Y164.527 E.07759
G1 X128.505 Y164.737 E.03927
G1 X127.317 Y164.936 E.04486
G1 X127.003 Y165.14 E.01394
G1 X126.846 Y165.434 E.0124
G1 X126.837 Y166.074 E.02384
G1 X126.752 Y166.84 E.02873
G1 X126.536 Y167.564 E.02814
G1 X126.19 Y168.246 E.02848
G1 X125.74 Y168.843 E.02785
G1 X125.185 Y169.356 E.02815
G1 X124.539 Y169.766 E.02848
G1 X123.847 Y170.049 E.02785
G1 X123.108 Y170.206 E.02815
G1 X122.344 Y170.23 E.02848
G1 X121.604 Y170.12 E.02785
G1 X120.888 Y169.878 E.02817
G1 X120.226 Y169.513 E.02816
G1 X119.639 Y169.036 E.02816
G1 X119.146 Y168.462 E.02816
G1 X118.763 Y167.811 E.02816
G1 X118.502 Y167.101 E.02816
G1 X118.371 Y166.357 E.02812
G1 X118.378 Y165.476 E.03283
G1 X118.323 Y165.202 E.0104
G1 X118.11 Y164.927 E.01298
G1 X117.824 Y164.798 E.01169
G1 X116.694 Y164.578 E.04288
G1 X115.646 Y164.335 E.04007
G1 X114.607 Y164.055 E.04006
G1 X113.558 Y163.731 E.04089
G1 X112.563 Y163.385 E.03926
G1 X111.56 Y162.995 E.04007
G1 X110.571 Y162.571 E.04007
G1 X109.598 Y162.111 E.04007
G1 X108.643 Y161.618 E.04007
G1 X107.705 Y161.09 E.04007
G1 X106.787 Y160.53 E.04008
G1 X105.889 Y159.937 E.04006
G1 X105.08 Y159.36 E.03703
G1 X104.695 Y159.156 E.0162
G1 X104.453 Y159.149 E.00903
G1 X104.173 Y159.257 E.01116
G1 X103.741 Y159.685 E.02269
G1 X103.138 Y160.167 E.02873
G1 X102.474 Y160.527 E.02816
G1 X101.755 Y160.763 E.02816
G1 X101.006 Y160.868 E.02816
G1 X100.251 Y160.838 E.02816
G1 X99.513 Y160.674 E.02816
G1 X98.816 Y160.382 E.02816
G1 X98.181 Y159.971 E.02816
G1 X97.63 Y159.453 E.02816
G1 X97.179 Y158.846 E.02816
G1 X96.844 Y158.169 E.02816
G1 X96.634 Y157.443 E.02814
G1 X96.557 Y156.682 E.02848
G1 X96.613 Y155.937 E.02785
G1 X96.804 Y155.205 E.02817
G1 X97.121 Y154.518 E.02816
G1 X97.554 Y153.9 E.02812
G1 X98.182 Y153.282 E.03283
G1 X98.339 Y153.045 E.01059
G1 X98.385 Y152.752 E.01102
G1 X98.269 Y152.41 E.01346
G1 X97.626 Y151.456 E.04288
G1 X97.057 Y150.543 E.04007
G1 X96.52 Y149.61 E.04007
G1 X96.017 Y148.659 E.04007
G1 X95.549 Y147.691 E.04007
G1 X95.115 Y146.706 E.04007
G1 X94.716 Y145.707 E.04007
G1 X94.353 Y144.694 E.04007
G1 X94.026 Y143.669 E.04007
G1 X93.736 Y142.634 E.04006
G1 X93.479 Y141.566 E.04089
G1 X93.268 Y140.534 E.03925
G1 X93.127 Y139.696 E.03164
G1 X93.007 Y139.192 E.0193
G1 X92.774 Y138.937 E.01288
G1 X92.444 Y138.828 E.01294
G1 X91.926 Y138.837 E.01929
G1 X91.16 Y138.752 E.02873
G1 X90.435 Y138.536 E.02816
G1 X89.76 Y138.195 E.02816
G1 X89.157 Y137.74 E.02816
G1 X88.644 Y137.184 E.02816
G1 X88.238 Y136.547 E.02816
G1 X87.951 Y135.847 E.02816
G1 X87.793 Y135.108 E.02816
G1 X87.77 Y134.352 E.02816
G1 X87.88 Y133.604 E.02816
G1 X88.122 Y132.888 E.02816
G1 X88.487 Y132.226 E.02814
G1 X88.97 Y131.633 E.02848
G1 X89.537 Y131.146 E.02785
G1 X90.189 Y130.764 E.02815
G1 X90.907 Y130.5 E.02848
G1 X91.642 Y130.372 E.02781
G1 X92.62 Y130.372 E.0364
G1 X92.882 Y130.28 E.01037
G1 X93.082 Y130.098 E.01006
G1 X93.202 Y129.824 E.01116
G1 X93.422 Y128.694 E.04288
G1 X93.665 Y127.646 E.04007
G1 X93.945 Y126.607 E.04006
G1 X94.269 Y125.558 E.04089
G1 X94.615 Y124.563 E.03926
G1 X95.005 Y123.56 E.04007
G1 X95.429 Y122.571 E.04007
M73 P3 R15
G1 X95.889 Y121.598 E.04007
G1 X96.382 Y120.643 E.04007
G1 X96.91 Y119.705 E.04006
G1 X97.482 Y118.769 E.04089
G1 X98.063 Y117.889 E.03925
G1 X98.698 Y116.998 E.04075
G1 X98.835 Y116.73 E.01121
G1 X98.858 Y116.522 E.0078
G1 X98.813 Y116.308 E.00813
G1 X98.718 Y116.138 E.00727
G1 X98.315 Y115.741 E.02108
G1 X97.833 Y115.138 E.02873
G1 X97.473 Y114.474 E.02816
G1 X97.237 Y113.755 E.02816
G1 X97.132 Y113.006 E.02816
G1 X97.162 Y112.251 E.02816
G1 X97.326 Y111.513 E.02816
G1 X97.618 Y110.816 E.02816
G1 X98.029 Y110.181 E.02816
G1 X98.547 Y109.63 E.02816
G1 X99.154 Y109.179 E.02816
G1 X99.831 Y108.844 E.02814
G1 X100.566 Y108.633 E.02848
G1 X101.309 Y108.556 E.02785
G1 X102.063 Y108.613 E.02817
G1 X102.795 Y108.804 E.02816
G1 X103.482 Y109.121 E.02816
G1 X104.1 Y109.554 E.02812
G1 X104.575 Y110.037 E.02523
G1 X104.894 Y110.311 E.01566
G1 X105.194 Y110.386 E.01153
G1 X105.466 Y110.335 E.01032
G1 X105.59 Y110.27 E.00521
G1 X106.544 Y109.626 E.04289
G1 X107.457 Y109.057 E.04007
G1 X108.39 Y108.52 E.04007
G1 X109.341 Y108.017 E.04007
G1 X110.309 Y107.549 E.04007
G1 X111.294 Y107.115 E.04007
G1 X112.293 Y106.716 E.04007
G1 X113.306 Y106.353 E.04007
G1 X114.331 Y106.026 E.04007
G1 X115.367 Y105.736 E.04007
G1 X116.832 Y105.397 E.05604
G1 X118.785 Y105.019 E.07407
G1 X118.948 Y104.909 E.00734
G1 X119.072 Y104.761 E.0072
G1 X119.172 Y104.454 E.012
G1 X119.163 Y103.926 E.01966
G1 X119.248 Y103.16 E.02873
G1 X119.464 Y102.435 E.02816
G1 X119.805 Y101.76 E.02816
G1 X120.26 Y101.157 E.02816
G1 X120.816 Y100.644 E.02816
G1 X121.453 Y100.238 E.02816
G1 X122.153 Y99.951 E.02816
G1 X122.731 Y99.828 E.02199
G1 X123.263 Y99.764 E.01996
G1 X124.024 Y99.808 E.02843
G1 X124.76 Y99.985 E.02816
G1 X125.451 Y100.29 E.02814
G1 X126.085 Y100.718 E.02848
G1 X126.62 Y101.24 E.02785
G1 X127.059 Y101.855 E.02815
G1 X127.386 Y102.546 E.02848
G1 X127.58 Y103.268 E.02785
G1 X127.621 Y103.754 E.01816
G1 X127.622 Y104.53 E.0289
G1 X127.693 Y104.833 E.01158
G1 X127.754 Y104.909 E.00365
G1 X128.126 Y104.667 F24000
;TYPE:Outer wall
G1 F1800
G1 X128.264 Y104.753 E.00606
G1 X129.402 Y104.975 E.04318
G1 X130.466 Y105.222 E.04067
G1 X131.52 Y105.506 E.04068
G1 X132.564 Y105.828 E.04068
G1 X133.595 Y106.186 E.04068
G1 X134.613 Y106.581 E.04068
G1 X135.617 Y107.012 E.04067
G1 X136.604 Y107.479 E.04068
G1 X137.574 Y107.98 E.04067
G1 X138.526 Y108.515 E.04067
G1 X139.458 Y109.085 E.04068
G1 X140.369 Y109.686 E.04067
G1 X141.262 Y110.323 E.04084
G1 X141.445 Y110.401 E.00742
G1 X141.607 Y110.336 E.00648
G1 X141.956 Y109.971 E.01882
G1 X142.608 Y109.45 E.03108
G1 X143.345 Y109.051 E.03121
G1 X144.141 Y108.79 E.03121
G1 X144.971 Y108.674 E.0312
G1 X145.808 Y108.707 E.03121
G1 X146.626 Y108.888 E.03121
G1 X147.399 Y109.212 E.03121
G1 X148.102 Y109.668 E.03121
G1 X148.713 Y110.241 E.03121
G1 X149.212 Y110.914 E.03121
G1 X149.584 Y111.665 E.0312
G1 X149.818 Y112.478 E.03153
G1 X149.903 Y113.303 E.03088
G1 X149.839 Y114.139 E.03121
G1 X149.628 Y114.95 E.0312
G1 X149.277 Y115.71 E.03121
G1 X148.796 Y116.396 E.0312
G1 X148.177 Y117.006 E.03238
G1 X148.073 Y117.174 E.00736
G1 X148.11 Y117.334 E.00612
G1 X148.758 Y118.296 E.04318
G1 X149.335 Y119.222 E.04067
G1 X149.88 Y120.169 E.04068
G1 X150.39 Y121.134 E.04067
G1 X150.875 Y122.138 E.0415
G1 X151.307 Y123.117 E.03986
G1 X151.712 Y124.131 E.04067
G1 X152.08 Y125.159 E.04067
G1 X152.412 Y126.2 E.04068
G1 X152.706 Y127.251 E.04067
G1 X152.967 Y128.334 E.0415
G1 X153.182 Y129.383 E.03985
G1 X153.373 Y130.526 E.04318
G1 X153.461 Y130.67 E.00628
G1 X153.586 Y130.716 E.00499
G1 X154.094 Y130.705 E.01889
G1 X154.931 Y130.799 E.0314
G1 X155.734 Y131.038 E.03121
G1 X156.482 Y131.416 E.03121
G1 X157.151 Y131.92 E.03121
G1 X157.72 Y132.536 E.03121
G1 X158.17 Y133.242 E.03121
G1 X158.487 Y134.018 E.03121
G1 X158.662 Y134.837 E.03121
G1 X158.689 Y135.675 E.03121
G1 X158.566 Y136.503 E.03121
G1 X158.298 Y137.297 E.03121
G1 X157.893 Y138.031 E.0312
G1 X157.359 Y138.687 E.03153
G1 X156.729 Y139.227 E.03088
G1 X156.007 Y139.651 E.0312
G1 X155.212 Y139.943 E.03153
G1 X154.396 Y140.086 E.03087
G1 X153.473 Y140.079 E.03438
G1 X153.337 Y140.122 E.00529
G1 X153.247 Y140.262 E.0062
G1 X153.025 Y141.402 E.04325
G1 X152.778 Y142.466 E.04067
G1 X152.494 Y143.52 E.04068
G1 X152.172 Y144.564 E.04068
G1 X151.814 Y145.595 E.04067
G1 X151.419 Y146.613 E.04068
G1 X150.988 Y147.617 E.04067
G1 X150.521 Y148.604 E.04068
G1 X150.038 Y149.539 E.03919
G1 X149.268 Y150.881 E.05763
G1 X148.713 Y151.765 E.03889
G1 X147.604 Y153.397 E.07346
G1 X147.638 Y153.575 E.00676
G1 X148.023 Y153.95 E.02002
G1 X148.55 Y154.608 E.0314
G1 X148.949 Y155.345 E.03121
G1 X149.21 Y156.141 E.03121
G1 X149.326 Y156.971 E.0312
G1 X149.293 Y157.808 E.03121
G1 X149.112 Y158.626 E.03121
G1 X148.788 Y159.399 E.03121
G1 X148.332 Y160.102 E.03121
G1 X147.759 Y160.713 E.03121
G1 X147.086 Y161.212 E.03121
G1 X146.335 Y161.584 E.03121
G1 X145.53 Y161.817 E.0312
G1 X144.688 Y161.902 E.03153
G1 X143.861 Y161.839 E.03088
G1 X143.05 Y161.628 E.03121
G1 X142.29 Y161.277 E.03121
G1 X141.604 Y160.796 E.03119
G1 X140.956 Y160.139 E.03438
G1 X140.838 Y160.075 E.00499
G1 X140.666 Y160.11 E.00656
G1 X139.704 Y160.758 E.04318
G1 X138.778 Y161.335 E.04067
G1 X137.831 Y161.88 E.04068
G1 X136.865 Y162.39 E.04068
M73 P4 R15
G1 X135.883 Y162.866 E.04067
G1 X134.883 Y163.307 E.04068
G1 X133.869 Y163.712 E.04068
G1 X132.841 Y164.08 E.04067
G1 X131.8 Y164.412 E.04068
G1 X130.749 Y164.706 E.04067
G1 X129.666 Y164.967 E.0415
G1 X128.617 Y165.182 E.03985
G1 X127.521 Y165.366 E.04142
G1 X127.342 Y165.446 E.00729
G1 X127.29 Y165.544 E.00413
G1 X127.295 Y166.094 E.02048
G1 X127.201 Y166.931 E.0314
G1 X126.962 Y167.734 E.0312
G1 X126.58 Y168.489 E.03153
G1 X126.08 Y169.151 E.03088
G1 X125.464 Y169.719 E.0312
G1 X124.75 Y170.173 E.03153
G1 X123.982 Y170.487 E.03088
G1 X123.163 Y170.662 E.0312
G1 X122.317 Y170.688 E.03153
G1 X121.497 Y170.566 E.03088
G1 X120.703 Y170.298 E.03121
