; HEADER_BLOCK_START
; generated by OrcaSlicer 2.2.0 on 2024-10-29 at 18:18:44
; total layer number: 30
; filament_density: 1.24
; filament_diameter: 1.75
; max_z_height: 6.00
; HEADER_BLOCK_END

; THUMBNAIL_BLOCK_START

;
; THUMBNAIL_BLOCK_END

; THUMBNAIL_BLOCK_START

;
; THUMBNAIL_BLOCK_END

; external perimeters extrusion width = 0.42mm
; perimeters extrusion width = 0.45mm
; infill extrusion width = 0.45mm
; solid infill extrusion width = 0.45mm
; top infill extrusion width = 0.42mm
; first layer extrusion width = 0.50mm

; EXECUTABLE_BLOCK_START
EXCLUDE_OBJECT_DEFINE NAME=Corps1.stl_id_0_copy_0 CENTER=115,115 POLYGON=[[93.5,96.5],[93.5127,96.1433],[93.5509,95.7884],[93.6143,95.4372],[93.7025,95.0913],[93.8153,94.7527],[93.9518,94.4229],[94.1116,94.1038],[94.2937,93.7968],[94.4973,93.5036],[94.7213,93.2257],[94.9645,92.9645],[95.2257,92.7213],[95.5036,92.4973],[95.7968,92.2937],[96.1038,92.1116],[96.4229,91.9518],[96.7527,91.8153],[97.0913,91.7025],[97.4372,91.6143],[97.7884,91.5509],[98.1433,91.5127],[98.5,91.5],[136.5,91.5],[136.5,138.5],[98.5,138.5],[98.1433,138.487],[97.7884,138.449],[97.4372,138.386],[97.0913,138.297],[96.7527,138.185],[96.4229,138.048],[96.1038,137.888],[95.7968,137.706],[95.5036,137.503],[95.2257,137.279],[94.9645,137.036],[94.7213,136.774],[94.4973,136.496],[94.2937,136.203],[94.1116,135.896],[93.9518,135.577],[93.8153,135.247],[93.7025,134.909],[93.6143,134.563],[93.5509,134.212],[93.5127,133.857],[93.5,133.5],[93.5,96.5]]
M73 P0 R7
;TYPE:Custom
M220 S100
G90 ; use absolute coordinates
M83 ; extruder relative mode
M104 S150 ; set temporary nozzle temp to prevent oozing during homing
M140 S55 ; set final bed temp
G4 S30 ; allow partial nozzle warmup
G28 ; home all axis and restore leveling
BED_MESH_CALIBRATE PROFILE=adaptive ADAPTIVE=1 ADAPTIVE_MARGIN=0
G1 Z25 F240
G1 X10.0 Y30 F3000
M73 P1 R7
M104 S210 ; set final nozzle temp
M190 S55 ; wait for bed temp to stabilize
M109 S210 ; wait for nozzle temp to stabilize
M73 P1 R7
G1 Z0.28 F240
G92 E0 ; Move Z Axis up
G1 Z2.0 F5000 ; Move to start position
M73 P2 R7
M73 P2 R7
G1 X5 Y30 Z0.28 F300 ; Draw the first line
G1 X5 Y200 Z0.28 F1500 E15 ; Move to side a little
M73 P3 R7
M73 P3 R7
G1 X5.4 Y200 Z0.28 F5000.0 ; Draw the second line
M73 P4 R7
M73 P4 R7
G1 X5.4 Y50 Z0.28 F1500.0 E30 ; Reset Extruder
G92 E0 ; Move Z Axis up
G1 Z2.0 F3000
M73 P5 R7
M117 Start Printing..
G90
G21
M83 ; use relative distances for extrusion
; filament start gcode
M106 S0
;LAYER_CHANGE
;Z:0.2
;HEIGHT:0.2
;BEFORE_LAYER_CHANGE
;0.2
G92 E0

M73 P5 R7
G1 E-.5 F1800
;_SET_FAN_SPEED_CHANGING_LAYER
SET_VELOCITY_LIMIT ACCEL=1000
SET_VELOCITY_LIMIT SQUARE_CORNER_VELOCITY=7
; printing object Corps1.stl id:0 copy 0
EXCLUDE_OBJECT_START NAME=Corps1.stl_id_0_copy_0
G1 Z.4 F24000
G1 X143.743 Y112.257
G1 Z.4
M73 P6 R7
M73 P6 R7
G1 Z.2
G1 E.5 F1800
;TYPE:Inner wall
;WIDTH:0.499999
G1 F3000
G1 X143.743 Y157.743 E1.52994
G1 X106.526 Y157.743 E1.25181
G1 X105.891 Y157.697 E.02142
G1 X105.305 Y157.569 E.02017
G1 X104.738 Y157.358 E.02036
G1 X104.207 Y157.068 E.02034
G1 X103.719 Y156.701 E.02055
G1 X103.295 Y156.277 E.02017
G1 X102.932 Y155.793 E.02035
G1 X102.642 Y155.262 E.02035
G1 X102.431 Y154.695 E.02035
G1 X102.302 Y154.104 E.02035
G1 X102.257 Y153.474 E.02122
G1 X102.257 Y116.526 E1.24278
G1 X102.302 Y115.896 E.02122
G1 X102.431 Y115.305 E.02035
G1 X102.642 Y114.738 E.02035
G1 X102.932 Y114.207 E.02035
G1 X103.295 Y113.723 E.02035
G1 X103.723 Y113.295 E.02035
G1 X104.207 Y112.932 E.02035
G1 X104.738 Y112.642 E.02035
G1 X105.305 Y112.431 E.02035
G1 X105.896 Y112.302 E.02035
G1 X106.526 Y112.257 E.02122
G1 X143.703 Y112.257 E1.25047
G1 X144.2 Y111.8 F24000
;TYPE:Outer wall
G1 F3000
G1 X144.2 Y158.2 E1.56069
G1 X106.51 Y158.2 E1.26774
M73 P7 R7
M73 P7 R7
G1 X105.826 Y158.151 E.02307
G1 X105.176 Y158.009 E.02236
G1 X104.548 Y157.775 E.02255
G1 X103.959 Y157.453 E.02255
G1 X103.418 Y157.048 E.02275
G1 X102.948 Y156.577 E.02236
G1 X102.547 Y156.041 E.02255
G1 X102.225 Y155.452 E.02255
G1 X101.991 Y154.824 E.02255
G1 X101.848 Y154.169 E.02255
G1 X101.8 Y153.491 E.02287
G1 X101.8 Y116.509 E1.24388
G1 X101.848 Y115.831 E.02287
G1 X101.991 Y115.176 E.02255
G1 X102.225 Y114.548 E.02255
G1 X102.547 Y113.959 E.02255
G1 X102.948 Y113.423 E.02255
G1 X103.423 Y112.948 E.02255
G1 X103.959 Y112.547 E.02255
G1 X104.548 Y112.225 E.02255
G1 X105.176 Y111.991 E.02255
G1 X105.831 Y111.848 E.02255
G1 X106.509 Y111.8 E.02287
G1 X144.16 Y111.8 E1.2664
G1 E-.5 F1800
;WIPE_START
G1 F12000
G1 X144.162 Y113.8
;WIPE_END
G1 Z.4 F24000
G1 X143.606 Y113.319
G1 Z.4
G1 Z.2
G1 E.5 F1800
;TYPE:Bottom surface
;WIDTH:0.500247
G1 F6300
G1 X142.887 Y112.6 E.03421
G1 X142.24 Y112.6 E.02177
G1 X143.4 Y113.76 E.0552
G1 X143.4 Y114.407 E.02177
G1 X141.593 Y112.6 E.08598
G1 X140.947 Y112.6 E.02177
G1 X143.4 Y115.053 E.11677
G1 X143.4 Y115.7 E.02177
G1 X140.3 Y112.6 E.14755
G1 X139.653 Y112.6 E.02177
G1 X143.4 Y116.347 E.17833
G1 X143.4 Y116.994 E.02177
G1 X139.006 Y112.6 E.20911
G1 X138.36 Y112.6 E.02177
G1 X143.4 Y117.64 E.23989
G1 X143.4 Y118.287 E.02177
G1 X137.713 Y112.6 E.27067
G1 X137.066 Y112.6 E.02177
G1 X143.4 Y118.934 E.30146
G1 X143.4 Y119.581 E.02177
G1 X136.419 Y112.6 E.33224
G1 X135.773 Y112.6 E.02177
M73 P8 R7
M73 P8 R7
G1 X143.4 Y120.227 E.36302
G1 X143.4 Y120.874 E.02177
G1 X135.126 Y112.6 E.3938
G1 X134.479 Y112.6 E.02177
G1 X143.4 Y121.521 E.42458
G1 X143.4 Y122.168 E.02177
G1 X133.832 Y112.6 E.45536
G1 X133.186 Y112.6 E.02177
G1 X143.4 Y122.814 E.48615
G1 X143.4 Y123.461 E.02177
G1 X132.539 Y112.6 E.51693
G1 X131.892 Y112.6 E.02177
G1 X143.4 Y124.108 E.54771
G1 X143.4 Y124.755 E.02177
G1 X131.245 Y112.6 E.57849
G1 X130.599 Y112.6 E.02177
G1 X143.4 Y125.401 E.60927
G1 X143.4 Y126.048 E.02177
G1 X129.952 Y112.6 E.64005
G1 X129.305 Y112.6 E.02177
G1 X143.4 Y126.695 E.67083
G1 X143.4 Y127.342 E.02177
G1 X128.658 Y112.6 E.70162
G1 X128.012 Y112.6 E.02177
G1 X143.4 Y127.988 E.7324
G1 X143.4 Y128.635 E.02177
G1 X127.365 Y112.6 E.76318
G1 X126.718 Y112.6 E.02177
G1 X143.4 Y129.282 E.79396
G1 X143.4 Y129.929 E.02177
G1 X126.071 Y112.6 E.82474
G1 X125.425 Y112.6 E.02177
M73 P9 R7
M73 P9 R7
G1 X143.4 Y130.575 E.85552
G1 X143.4 Y131.222 E.02177
G1 X124.778 Y112.6 E.88631
G1 X124.131 Y112.6 E.02177
G1 X143.4 Y131.869 E.91709
G1 X143.4 Y132.516 E.02177
G1 X123.484 Y112.6 E.94787
G1 X122.837 Y112.6 E.02177
G1 X143.4 Y133.163 E.97865
G1 X143.4 Y133.809 E.02177
G1 X122.191 Y112.6 E1.00943
G1 X121.544 Y112.6 E.02177
G1 X143.4 Y134.456 E1.04021
G1 X143.4 Y135.103 E.02177
G1 X120.897 Y112.6 E1.071
G1 X120.25 Y112.6 E.02177
G1 X143.4 Y135.75 E1.10178
G1 X143.4 Y136.396 E.02177
M73 P9 R6
M73 P9 R6
G1 X119.604 Y112.6 E1.13256
G1 X118.957 Y112.6 E.02177
G1 X143.4 Y137.043 E1.16334
G1 X143.4 Y137.69 E.02177
M73 P10 R6
M73 P10 R6
G1 X118.31 Y112.6 E1.19412
G1 X117.663 Y112.6 E.02177
G1 X143.4 Y138.337 E1.2249
G1 X143.4 Y138.983 E.02177
G1 X117.017 Y112.6 E1.25568
G1 X116.37 Y112.6 E.02177
G1 X143.4 Y139.63 E1.28647
G1 X143.4 Y140.277 E.02177
G1 X115.723 Y112.6 E1.31725
G1 X115.076 Y112.6 E.02177
G1 X143.4 Y140.924 E1.34803
G1 X143.4 Y141.57 E.02177
G1 X114.43 Y112.6 E1.37881
G1 X113.783 Y112.6 E.02177
G1 X143.4 Y142.217 E1.40959
G1 X143.4 Y142.864 E.02177
G1 X113.136 Y112.6 E1.44037
G1 X112.489 Y112.6 E.02177
G1 X143.4 Y143.511 E1.47116
G1 X143.4 Y144.157 E.02177
M73 P11 R6
M73 P11 R6
G1 X111.843 Y112.6 E1.50194
G1 X111.196 Y112.6 E.02177
G1 X143.4 Y144.804 E1.53272
G1 X143.4 Y145.451 E.02177
G1 X110.549 Y112.6 E1.5635
G1 X109.902 Y112.6 E.02177
G1 X143.4 Y146.098 E1.59428
G1 X143.4 Y146.744 E.02177
G1 X109.256 Y112.6 E1.62506
G1 X108.609 Y112.6 E.02177
G1 X143.4 Y147.391 E1.65585
G1 X143.4 Y148.038 E.02177
G1 X107.962 Y112.6 E1.68663
G1 X107.315 Y112.6 E.02177
G1 X143.4 Y148.685 E1.71741
G1 X143.4 Y149.331 E.02177
M73 P12 R6
M73 P12 R6
G1 X106.669 Y112.6 E1.74819
G1 X106.056 Y112.634 E.02064
G1 X143.4 Y149.978 E1.77733
G1 X143.4 Y150.625 E.02177
G1 X105.512 Y112.737 E1.80325
G1 X105.402 Y112.76 E.00378
G1 X105.028 Y112.9 E.01342
G1 X143.4 Y151.272 E1.82626
G1 X143.4 Y151.918 E.02177
G1 X104.593 Y113.112 E1.84695
G1 X104.393 Y113.221 E.00769
G1 X104.2 Y113.365 E.0081
G1 X143.4 Y152.565 E1.86566
G1 X143.4 Y153.212 E.02177
G1 X103.845 Y113.657 E1.88256
G1 X103.526 Y113.985 E.01539
M73 P13 R6
M73 P13 R6
G1 X143.4 Y153.859 E1.89773
G1 X143.4 Y154.506 E.02177
G1 X103.25 Y114.355 E1.91091
G1 X103.016 Y114.768 E.01598
G1 X143.4 Y155.152 E1.92202
G1 X143.4 Y155.799 E.02177
G1 X102.826 Y115.225 E1.93105
G1 X102.76 Y115.402 E.00635
G1 X102.688 Y115.734 E.01143
G1 X143.4 Y156.446 E1.93763
G1 X143.4 Y157.093 E.02177
G1 X102.616 Y116.309 E1.94105
G1 X102.6 Y116.939 E.02122
G1 X143.061 Y157.4 E1.92569
G1 X142.414 Y157.4 E.02177
M73 P14 R6
M73 P14 R6
G1 X102.6 Y117.586 E1.89491
G1 X102.6 Y118.233 E.02177
G1 X141.767 Y157.4 E1.86412
G1 X141.121 Y157.4 E.02177
G1 X102.6 Y118.879 E1.83334
G1 X102.6 Y119.526 E.02177
G1 X140.474 Y157.4 E1.80256
G1 X139.827 Y157.4 E.02177
G1 X102.6 Y120.173 E1.77178
G1 X102.6 Y120.82 E.02177
G1 X139.18 Y157.4 E1.741
G1 X138.534 Y157.4 E.02177
G1 X102.6 Y121.466 E1.71022
G1 X102.6 Y122.113 E.02177
M73 P15 R6
M73 P15 R6
G1 X137.887 Y157.4 E1.67944
G1 X137.24 Y157.4 E.02177
G1 X102.6 Y122.76 E1.64865
G1 X102.6 Y123.407 E.02177
G1 X136.593 Y157.4 E1.61787
G1 X135.947 Y157.4 E.02177
G1 X102.6 Y124.053 E1.58709
G1 X102.6 Y124.7 E.02177
G1 X135.3 Y157.4 E1.55631
G1 X134.653 Y157.4 E.02177
G1 X102.6 Y125.347 E1.52553
G1 X102.6 Y125.994 E.02177
G1 X134.006 Y157.4 E1.49475
G1 X133.36 Y157.4 E.02177
G1 X102.6 Y126.64 E1.46396
G1 X102.6 Y127.287 E.02177
M73 P16 R6
M73 P16 R6
G1 X132.713 Y157.4 E1.43318
G1 X132.066 Y157.4 E.02177
G1 X102.6 Y127.934 E1.4024
G1 X102.6 Y128.581 E.02177
G1 X131.419 Y157.4 E1.37162
G1 X130.773 Y157.4 E.02177
G1 X102.6 Y129.227 E1.34084
G1 X102.6 Y129.874 E.02177
G1 X130.126 Y157.4 E1.31006
G1 X129.479 Y157.4 E.02177
G1 X102.6 Y130.521 E1.27927
G1 X102.6 Y131.168 E.02177
G1 X128.832 Y157.4 E1.24849
G1 X128.185 Y157.4 E.02177
G1 X102.6 Y131.815 E1.21771
G1 X102.6 Y132.461 E.02177
G1 X127.539 Y157.4 E1.18693
G1 X126.892 Y157.4 E.02177
G1 X102.6 Y133.108 E1.15615
G1 X102.6 Y133.755 E.02177
M73 P17 R6
M73 P17 R6
G1 X126.245 Y157.4 E1.12537
G1 X125.598 Y157.4 E.02177
G1 X102.6 Y134.402 E1.09459
G1 X102.6 Y135.048 E.02177
G1 X124.952 Y157.4 E1.0638
G1 X124.305 Y157.4 E.02177
G1 X102.6 Y135.695 E1.03302
G1 X102.6 Y136.342 E.02177
G1 X123.658 Y157.4 E1.00224
G1 X123.011 Y157.4 E.02177
G1 X102.6 Y136.989 E.97146
G1 X102.6 Y137.635 E.02177
G1 X122.365 Y157.4 E.94068
G1 X121.718 Y157.4 E.02177
G1 X102.6 Y138.282 E.9099
G1 X102.6 Y138.929 E.02177
G1 X121.071 Y157.4 E.87911
G1 X120.424 Y157.4 E.02177
G1 X102.6 Y139.576 E.84833
G1 X102.6 Y140.222 E.02177
G1 X119.778 Y157.4 E.81755
G1 X119.131 Y157.4 E.02177
M73 P18 R6
M73 P18 R6
G1 X102.6 Y140.869 E.78677
G1 X102.6 Y141.516 E.02177
G1 X118.484 Y157.4 E.75599
G1 X117.837 Y157.4 E.02177
G1 X102.6 Y142.163 E.72521
G1 X102.6 Y142.809 E.02177
G1 X117.191 Y157.4 E.69442
G1 X116.544 Y157.4 E.02177
G1 X102.6 Y143.456 E.66364
G1 X102.6 Y144.103 E.02177
G1 X115.897 Y157.4 E.63286
G1 X115.25 Y157.4 E.02177
G1 X102.6 Y144.75 E.60208
G1 X102.6 Y145.396 E.02177
G1 X114.604 Y157.4 E.5713
G1 X113.957 Y157.4 E.02177
G1 X102.6 Y146.043 E.54052
G1 X102.6 Y146.69 E.02177
G1 X113.31 Y157.4 E.50974
G1 X112.663 Y157.4 E.02177
G1 X102.6 Y147.337 E.47895
G1 X102.6 Y147.983 E.02177
G1 X112.017 Y157.4 E.44817
G1 X111.37 Y157.4 E.02177
G1 X102.6 Y148.63 E.41739
G1 X102.6 Y149.277 E.02177
G1 X110.723 Y157.4 E.38661
G1 X110.076 Y157.4 E.02177
G1 X102.6 Y149.924 E.35583
G1 X102.6 Y150.571 E.02177
G1 X109.429 Y157.4 E.32505
G1 X108.783 Y157.4 E.02177
G1 X102.6 Y151.217 E.29426
G1 X102.6 Y151.864 E.02177
M73 P19 R6
M73 P19 R6
G1 X108.136 Y157.4 E.26348
G1 X107.489 Y157.4 E.02177
G1 X102.6 Y152.511 E.2327
G1 X102.6 Y153.158 E.02177
G1 X106.842 Y157.4 E.20192
G1 X106.538 Y157.4 E.01023
G1 X106.169 Y157.373 E.01247
G1 X102.626 Y153.831 E.16861
G1 X102.642 Y154.055 E.00756
G1 X102.769 Y154.62 E.01948
G1 X105.38 Y157.231 E.12431
G1 X104.881 Y157.045 E.01794
G1 X104.393 Y156.779 E.0187
G1 X103.944 Y156.442 E.01889
G1 X102.84 Y155.338 E.05256
; stop printing object Corps1.stl id:0 copy 0
M106 S255
;LAYER_CHANGE
;Z:0.4
;HEIGHT:0.2
;BEFORE_LAYER_CHANGE
;0.4
G92 E0

G1 E-.5 F1800
;WIPE_START
G1 F12000
G1 X103.944 Y156.442
G1 X104.295 Y156.705
;WIPE_END
EXCLUDE_OBJECT_END NAME=Corps1.stl_id_0_copy_0
;_SET_FAN_SPEED_CHANGING_LAYER
SET_VELOCITY_LIMIT ACCEL=5000
M104 S205 ; set nozzle temperature
M140 S55 ; set bed temperature
; printing object Corps1.stl id:0 copy 0
EXCLUDE_OBJECT_START NAME=Corps1.stl_id_0_copy_0
G1 Z.6 F24000
G1 X143.898 Y112.102 Z.6
G1 Z.4
G1 E.5 F1800
;TYPE:Inner wall
;WIDTH:0.449999
G1 F10317.406
G1 X143.898 Y157.898 E1.37187
G1 X106.521 Y157.898 E1.11967
G1 X105.874 Y157.852 E.01942
G1 X105.261 Y157.718 E.01879
G1 X104.674 Y157.499 E.01879
G1 X104.123 Y157.199 E.01879
G1 X103.621 Y156.823 E.01879
G1 X103.177 Y156.379 E.01879
G1 X102.801 Y155.877 E.01879
G1 X102.501 Y155.326 E.01879
G1 X102.282 Y154.739 E.01879
G1 X102.148 Y154.126 E.01879
G1 X102.102 Y153.479 E.01942
G1 X102.102 Y116.521 E1.10711
G1 X102.148 Y115.874 E.01942
G1 X102.282 Y115.261 E.01879
G1 X102.501 Y114.674 E.01879
G1 X102.801 Y114.123 E.01879
G1 X103.177 Y113.621 E.01879
G1 X103.621 Y113.177 E.01879
G1 X104.123 Y112.801 E.01879
G1 X104.674 Y112.501 E.01879
G1 X105.261 Y112.282 E.01879
G1 X105.874 Y112.148 E.01879
G1 X106.521 Y112.102 E.01942
G1 X143.858 Y112.102 E1.11847
G1 X144.29 Y111.71 F24000
SET_VELOCITY_LIMIT ACCEL=2000
;TYPE:Outer wall
;WIDTH:0.419999
G1 F11138.25
G1 X144.29 Y158.29 E1.29253
G1 X106.507 Y158.29 E1.04842
G1 X105.818 Y158.241 E.01916
G1 X105.151 Y158.095 E.01896
G1 X104.51 Y157.857 E.01896
G1 X103.911 Y157.529 E.01896
G1 X103.364 Y157.12 E.01896
G1 X102.88 Y156.636 E.01896
G1 X102.471 Y156.089 E.01896
G1 X102.143 Y155.49 E.01896
G1 X101.905 Y154.849 E.01896
G1 X101.759 Y154.182 E.01896
G1 X101.71 Y153.493 E.01916
G1 X101.71 Y116.507 E1.0263
G1 X101.759 Y115.818 E.01916
G1 X101.905 Y115.151 E.01896
G1 X102.143 Y114.51 E.01896
G1 X102.471 Y113.911 E.01896
G1 X102.88 Y113.364 E.01896
G1 X103.364 Y112.88 E.01896
G1 X103.911 Y112.471 E.01896
G1 X104.51 Y112.143 E.01896
G1 X105.151 Y111.905 E.01896
G1 X105.818 Y111.759 E.01896
G1 X106.507 Y111.71 E.01916
G1 X144.25 Y111.71 E1.04731
G1 E-.5 F1800
;WIPE_START
G1 F12000
G1 X144.252 Y113.71
;WIPE_END
SET_VELOCITY_LIMIT ACCEL=5000
G1 Z.6 F24000
G1 X143.519 Y157.451
G1 Z.6
G1 Z.4
G1 E.5 F1800
;TYPE:Internal solid infill
;WIDTH:0.442794
G1 F10503.308
G1 X143.444 Y157.494 E.00255
G1 X143.524 Y157.529 E.00256
G1 X142.699 Y157.776 F24000
;WIDTH:0.451683
G1 F10274.903
G1 X143.593 Y156.882 E.03802
G1 X143.593 Y156.304 E.01739
M73 P20 R6
M73 P20 R6
G1 X142.304 Y157.593 E.05482
G1 X141.726 Y157.593 E.01739
G1 X143.593 Y155.726 E.07941
G1 X143.593 Y155.148 E.01739
G1 X141.148 Y157.593 E.104
G1 X140.57 Y157.593 E.01739
G1 X143.593 Y154.57 E.12859
G1 X143.593 Y153.992 E.01739
G1 X139.992 Y157.593 E.15319
G1 X139.414 Y157.593 E.01739
G1 X143.593 Y153.414 E.17778
G1 X143.593 Y152.835 E.01739
G1 X138.835 Y157.593 E.20237
G1 X138.257 Y157.593 E.01739
G1 X143.593 Y152.257 E.22696
G1 X143.593 Y151.679 E.01739
G1 X137.679 Y157.593 E.25155
G1 X137.101 Y157.593 E.01739
G1 X143.593 Y151.101 E.27614
G1 X143.593 Y150.523 E.01739
G1 X136.523 Y157.593 E.30073
G1 X135.945 Y157.593 E.01739
G1 X143.593 Y149.945 E.32532
G1 X143.593 Y149.367 E.01739
G1 X135.367 Y157.593 E.34992
G1 X134.789 Y157.593 E.01739
G1 X143.593 Y148.789 E.37451
G1 X143.593 Y148.211 E.01739
G1 X134.211 Y157.593 E.3991
G1 X133.633 Y157.593 E.01739
G1 X143.593 Y147.633 E.42369
G1 X143.593 Y147.055 E.01739
G1 X133.055 Y157.593 E.44828
G1 X132.477 Y157.593 E.01739
G1 X143.593 Y146.477 E.47287
G1 X143.593 Y145.899 E.01739
G1 X131.899 Y157.593 E.49746
G1 X131.32 Y157.593 E.01739
G1 X143.593 Y145.32 E.52205
G1 X143.593 Y144.742 E.01739
G1 X130.742 Y157.593 E.54665
G1 X130.164 Y157.593 E.01739
G1 X143.593 Y144.164 E.57124
G1 X143.593 Y143.586 E.01739
G1 X129.586 Y157.593 E.59583
