; HEADER_BLOCK_START
; generated by OrcaSlicer 2.1.1 on 2024-09-11 at 16:02:39
; total layer number: 110
; filament_density: 1.24
; filament_diameter: 1.75
; max_z_height: 22.00
; HEADER_BLOCK_END

; THUMBNAIL_BLOCK_START

;
; THUMBNAIL_BLOCK_END

; THUMBNAIL_BLOCK_START

;
; THUMBNAIL_BLOCK_END

; external perimeters extrusion width = 0.42mm
; perimeters extrusion width = 0.45mm
; infill extrusion width = 0.45mm
; solid infill extrusion width = 0.45mm
; top infill extrusion width = 0.42mm
; first layer extrusion width = 0.50mm

; EXECUTABLE_BLOCK_START
EXCLUDE_OBJECT_DEFINE NAME=Corps1.stl_id_0_copy_0 CENTER=115,115 POLYGON=[[84.5,105],[84.5126,104.776],[84.5501,104.555],[84.6122,104.339],[84.6981,104.132],[84.8066,103.936],[84.9363,103.753],[85.0858,103.586],[85.253,103.436],[85.4359,103.307],[85.6322,103.198],[85.8394,103.112],[86.055,103.05],[86.2761,103.013],[86.5,103],[143.5,103],[143.724,103.013],[143.945,103.05],[144.161,103.112],[144.368,103.198],[144.564,103.307],[144.747,103.436],[144.914,103.586],[145.064,103.753],[145.193,103.936],[145.302,104.132],[145.388,104.339],[145.45,104.555],[145.487,104.776],[145.5,105],[145.5,125],[145.487,125.224],[145.45,125.445],[145.388,125.661],[145.302,125.868],[145.193,126.064],[145.064,126.247],[144.914,126.414],[144.747,126.564],[144.564,126.693],[144.368,126.802],[144.161,126.888],[143.945,126.95],[143.724,126.987],[143.5,127],[86.5,127],[86.2761,126.987],[86.055,126.95],[85.8394,126.888],[85.6322,126.802],[85.4359,126.693],[85.253,126.564],[85.0858,126.414],[84.9363,126.247],[84.8066,126.064],[84.6981,125.868],[84.6122,125.661],[84.5501,125.445],[84.5126,125.224],[84.5,125],[84.5,105]]
M73 P0 R110
;TYPE:Custom
M220 S100
G90 ; use absolute coordinates
M83 ; extruder relative mode
M104 S150 ; set temporary nozzle temp to prevent oozing during homing
M140 S80 ; set final bed temp
G4 S30 ; allow partial nozzle warmup
G28 ; home all axis and restore leveling
BED_MESH_CALIBRATE PROFILE=adaptive ADAPTIVE=1 ADAPTIVE_MARGIN=0
G1 Z25 F240
G1 X10.0 Y30 F3000
M104 S253 ; set final nozzle temp
M190 S80 ; wait for bed temp to stabilize
M109 S253 ; wait for nozzle temp to stabilize
G1 Z0.28 F240
G92 E0 ; Move Z Axis up
G1 Z2.0 F5000 ; Move to start position
G1 X5 Y30 Z0.28 F300 ; Draw the first line
G1 X5 Y200 Z0.28 F1500 E15 ; Move to side a little
G1 X5.4 Y200 Z0.28 F5000.0 ; Draw the second line
G1 X5.4 Y50 Z0.28 F1500.0 E30 ; Reset Extruder
G92 E0 ; Move Z Axis up
G1 Z2.0 F3000
M117 Start Printing..
G90
G21
M83 ; use relative distances for extrusion
; filament start gcode
M106 S0
;LAYER_CHANGE
;Z:0.2
;HEIGHT:0.2
;BEFORE_LAYER_CHANGE
;0.2
G92 E0

G1 E-1.5 F1800
;_SET_FAN_SPEED_CHANGING_LAYER
SET_VELOCITY_LIMIT ACCEL=500
SET_VELOCITY_LIMIT SQUARE_CORNER_VELOCITY=7
G1 Z.2 F18000
G1 X91.311 Y121.263
G1 Z.2
G1 E1.5 F1800
;TYPE:Skirt
;WIDTH:0.5
G1 F3000
G1 X92.517 Y120.506 E.04871
G1 X93.567 Y120.177 E.03762
G1 X94.5 Y120.086 E.03208
G1 X151.663 Y120.09 E1.95531
G1 X152.433 Y120.177 E.0265
G1 X153.483 Y120.506 E.03763
G1 X154.25 Y120.93 E.02999
G1 X154.856 Y121.413 E.0265
G1 X155.44 Y122.067 E.02999
G1 X155.852 Y122.723 E.0265
G1 X156.188 Y123.533 E.02999
G1 X156.397 Y124.613 E.03762
G1 X156.414 Y145 E.69736
G1 X156.36 Y145.712 E.02442
G1 X156.08 Y146.776 E.03763
G1 X155.44 Y147.933 E.04524
G1 X154.689 Y148.737 E.03763
G1 X153.483 Y149.494 E.04871
G1 X152.433 Y149.823 E.03763
G1 X151.5 Y149.914 E.03207
G1 X94.337 Y149.91 E1.95531
G1 X93.033 Y149.688 E.04524
G1 X91.75 Y149.07 E.04871
G1 X90.763 Y148.189 E.04524
G1 X90.006 Y146.983 E.04871
G1 X89.677 Y145.933 E.03763
G1 X89.586 Y145 E.03207
G1 X89.603 Y124.613 E.69736
G1 X89.92 Y123.224 E.04871
G1 X90.456 Y122.212 E.03918
G1 X91.284 Y121.293 E.04231
G1 X91.616 Y121.604 F18000
G1 F3000
G1 X92.692 Y120.928 E.04348
G1 X93.643 Y120.628 E.03412
G1 X94.5 Y120.543 E.02945
G1 X151.638 Y120.547 E1.95443
G1 X152.357 Y120.628 E.02475
G1 X153.101 Y120.842 E.02649
G1 X153.753 Y121.156 E.02475
G1 X154.551 Y121.754 E.03413
G1 X155.068 Y122.331 E.02649
G1 X155.452 Y122.944 E.02474
G1 X155.749 Y123.659 E.02649
G1 X155.941 Y124.638 E.03413
G1 X155.941 Y145.362 E.70886
G1 X155.658 Y146.601 E.04348
G1 X155.068 Y147.669 E.04174
G1 X154.384 Y148.396 E.03413
G1 X153.308 Y149.072 E.04348
G1 X152.357 Y149.372 E.03413
G1 X151.5 Y149.457 E.02944
G1 X94.362 Y149.453 E1.95444
G1 X93.159 Y149.249 E.04174
G1 X92.014 Y148.697 E.04348
G1 X91.104 Y147.884 E.04174
G1 X90.428 Y146.808 E.04348
G1 X90.128 Y145.857 E.03413
G1 X90.043 Y145 E.02944
G1 X90.059 Y124.638 E.69649
G1 X90.342 Y123.399 E.04348
G1 X90.829 Y122.477 E.03568
G1 X91.589 Y121.634 E.03881
; printing object Corps1.stl id:0 copy 0
G1 E-1.5 F1800
;WIPE_START
G1 F12000
G1 X92.692 Y120.928
G1 X93.35 Y120.72
;WIPE_END
EXCLUDE_OBJECT_START NAME=Corps1.stl_id_0_copy_0
G1 Z.4 F18000
G1 X96.939 Y144.872 Z.4
G1 Z.2
G1 E1.5 F1800
;TYPE:Inner wall
;WIDTH:0.499999
G1 X94.675 Y144.872 E.07744
G1 X94.628 Y144.825 E.00228
G1 X94.628 Y125.128 E.67372
G1 X151.372 Y125.128 E1.94094
G1 X151.372 Y144.872 E.67533
G1 X96.979 Y144.872 E1.86053
G1 X96.939 Y145.329 F18000
G1 F1800
G1 X94.68 Y145.329 E.07729
G1 X94.401 Y145.289 E.00965
G1 X94.259 Y145.205 E.00564
G1 X94.171 Y144.863 E.01206
G1 X94.171 Y125.119 E.67537
G1 X94.202 Y124.894 E.00775
G1 X94.331 Y124.732 E.00708
G1 X94.591 Y124.671 E.00915
G1 X151.508 Y124.671 E1.94687
G1 X151.717 Y124.769 E.00791
G1 X151.829 Y125.053 E.01042
G1 X151.829 Y145.008 E.68257
G1 X151.731 Y145.217 E.00791
G1 X151.447 Y145.329 E.01042
G1 X96.979 Y145.329 E1.86311
G1 X96.939 Y145.786 F18000
G1 F1800
G1 X94.68 Y145.786 E.07729
G1 X94.213 Y145.72 E.01612
G1 X94.01 Y145.599 E.00809
G1 X93.814 Y145.358 E.01064
G1 X93.714 Y144.902 E.01597
G1 X93.714 Y125.119 E.67669
G1 X93.742 Y124.823 E.01015
G1 X93.891 Y124.515 E.01173
G1 X94.161 Y124.299 E.01181
G1 X94.566 Y124.214 E.01413
G1 X151.385 Y124.214 E1.94353
G1 X151.673 Y124.241 E.00991
G1 X151.985 Y124.391 E.01185
G1 X152.184 Y124.635 E.01074
G1 X152.286 Y125.045 E.01448
G1 X152.286 Y144.883 E.67857
G1 X152.259 Y145.173 E.00996
G1 X152.109 Y145.485 E.01184
G1 X151.865 Y145.684 E.01074
G1 X151.466 Y145.786 E.0141
G1 X96.979 Y145.786 E1.86376
G1 X96.939 Y146.243 F18000
G1 F1800
G1 X94.68 Y146.243 E.07729
G1 X94.073 Y146.16 E.02095
G1 X93.841 Y146.049 E.0088
G1 X93.544 Y145.775 E.01383
G1 X93.34 Y145.427 E.01379
G1 X93.257 Y144.94 E.0169
M73 P0 R109
G1 X93.257 Y125.119 E.67801
G1 X93.294 Y124.72 E.01368
G1 X93.457 Y124.347 E.01393
G1 X93.728 Y124.032 E.01423
G1 X94.093 Y123.839 E.01413
G1 X94.54 Y123.757 E.01554
G1 X151.461 Y123.757 E1.94702
G1 X151.903 Y123.837 E.01537
G1 X152.272 Y124.032 E.01426
G1 X152.529 Y124.325 E.01333
G1 X152.645 Y124.584 E.00971
G1 X152.743 Y125.045 E.01614
G1 X152.743 Y145.065 E.68479
G1 X152.616 Y145.537 E.01672
G1 X152.377 Y145.863 E.01382
G1 X152.054 Y146.105 E.01381
G1 X151.479 Y146.243 E.02023
G1 X96.979 Y146.243 E1.86419
G1 X96.939 Y146.7 F18000
;TYPE:Outer wall
G1 F1800
G1 X94.521 Y146.7 E.08271
G1 X93.933 Y146.6 E.02042
G1 X93.596 Y146.438 E.01277
G1 X93.299 Y146.201 E.01301
G1 X93.062 Y145.904 E.01301
G1 X92.9 Y145.567 E.01276
G1 X92.8 Y144.979 E.02043
G1 X92.8 Y125.119 E.67933
G1 X92.845 Y124.618 E.01721
G1 X92.97 Y124.263 E.01285
G1 X93.172 Y123.941 E.01301
G1 X93.441 Y123.672 E.01301
G1 X93.763 Y123.47 E.013
G1 X94.127 Y123.343 E.01317
G1 X94.515 Y123.3 E.01336
G1 X151.385 Y123.3 E1.94527
G1 X151.878 Y123.344 E.01694
G1 X152.237 Y123.47 E.01301
G1 X152.559 Y123.672 E.01301
G1 X152.828 Y123.941 E.01301
G1 X153.027 Y124.258 E.01278
G1 X153.149 Y124.681 E.01506
G1 X153.2 Y125.045 E.01261
G1 X153.2 Y144.883 E.67857
G1 X153.156 Y145.378 E.01698
G1 X153.03 Y145.737 E.01301
G1 X152.828 Y146.059 E.01301
G1 X152.559 Y146.328 E.01301
G1 X152.242 Y146.527 E.01279
G1 X151.887 Y146.629 E.01266
G1 X151.492 Y146.7 E.01373
G1 X96.979 Y146.7 E1.86463
G1 E-1.5
;WIPE_START
G1 F12000
G1 X94.979 Y146.7
;WIPE_END
G1 Z.4 F18000
G1 X132.9 Y129.172 Z.4
G1 Z.2
G1 E1.5 F1800
;TYPE:Inner wall
G1 X133.561 Y128.902 E.02443
G1 X134.565 Y128.67 E.03522
G1 X135.592 Y128.602 E.03523
G1 X136.617 Y128.699 E.03522
G1 X137.614 Y128.96 E.03522
G1 X138.555 Y129.378 E.03523
G1 X139.417 Y129.94 E.03522
G1 X140.178 Y130.634 E.03522
G1 X140.818 Y131.441 E.03522
G1 X141.32 Y132.34 E.03522
G1 X141.671 Y133.308 E.03523
G1 X141.863 Y134.32 E.03522
G1 X141.889 Y135.35 E.03523
G1 X141.751 Y136.365 E.03504
G1 X141.45 Y137.353 E.03535
G1 X140.995 Y138.279 E.03528
G1 X140.398 Y139.118 E.03522
G1 X139.674 Y139.85 E.03522
G1 X138.842 Y140.457 E.03523
G1 X137.923 Y140.922 E.03522
G1 X136.942 Y141.234 E.03523
G1 X135.923 Y141.385 E.03522
G1 X134.893 Y141.37 E.03523
G1 X133.879 Y141.19 E.03522
G1 X132.907 Y140.85 E.03522
G1 X132.002 Y140.358 E.03522
G1 X131.188 Y139.728 E.03523
G1 X130.486 Y138.975 E.03522
G1 X129.916 Y138.124 E.03504
G1 X129.486 Y137.184 E.03535
G1 X129.214 Y136.195 E.0351
G1 X129.139 Y135.606 E.02028
G1 X129.098 Y135.088 E.01778
G1 X129.16 Y134.137 E.03259
G1 X129.38 Y133.131 E.03522
G1 X129.759 Y132.174 E.03523
G1 X130.287 Y131.29 E.03522
G1 X130.946 Y130.505 E.03505
G1 X131.729 Y129.831 E.03535
G1 X132.608 Y129.292 E.03528
M73 P1 R109
G1 X132.863 Y129.187 E.00942
G1 X133.077 Y129.59 F18000
G1 F1800
G1 X133.723 Y129.329 E.02383
G1 X134.656 Y129.118 E.03271
G1 X135.611 Y129.059 E.03271
G1 X136.562 Y129.153 E.03271
G1 X137.486 Y129.399 E.03271
G1 X138.359 Y129.79 E.03271
G1 X139.158 Y130.317 E.03271
G1 X139.862 Y130.964 E.03271
G1 X140.453 Y131.716 E.03271
G1 X140.915 Y132.553 E.03271
G1 X141.238 Y133.453 E.03271
G1 X141.411 Y134.394 E.03271
G1 X141.432 Y135.35 E.03271
G1 X141.3 Y136.292 E.03254
G1 X141.017 Y137.209 E.03284
G1 X140.59 Y138.067 E.03276
G1 X140.032 Y138.843 E.03271
G1 X139.357 Y139.521 E.03271
G1 X138.582 Y140.081 E.03271
G1 X137.727 Y140.509 E.03271
G1 X136.814 Y140.795 E.03271
G1 X135.868 Y140.931 E.03271
G1 X134.912 Y140.913 E.03271
G1 X133.971 Y140.742 E.03271
G1 X133.069 Y140.423 E.03271
G1 X132.231 Y139.963 E.03271
G1 X131.477 Y139.374 E.03271
G1 X130.828 Y138.672 E.03271
G1 X130.302 Y137.879 E.03254
G1 X129.906 Y137.005 E.03284
G1 X129.658 Y136.085 E.03258
G1 X129.555 Y135.069 E.03495
G1 X129.615 Y134.174 E.03067
G1 X129.824 Y133.241 E.03271
G1 X130.18 Y132.353 E.03271
G1 X130.673 Y131.534 E.03271
G1 X131.288 Y130.808 E.03254
G1 X132.018 Y130.184 E.03284
G1 X132.837 Y129.688 E.03276
G1 X133.04 Y129.605 E.00751
G1 X133.252 Y130.009 F18000
G1 F1800
G1 X133.886 Y129.757 E.02334
G1 X134.747 Y129.566 E.0302
G1 X135.629 Y129.515 E.0302
G1 X136.507 Y129.607 E.0302
G1 X137.359 Y129.838 E.0302
G1 X138.163 Y130.203 E.0302
G1 X138.898 Y130.693 E.0302
G1 X139.545 Y131.294 E.0302
G1 X140.087 Y131.99 E.0302
G1 X140.511 Y132.765 E.0302
G1 X140.804 Y133.598 E.0302
G1 X140.96 Y134.467 E.0302
G1 X140.975 Y135.35 E.0302
G1 X140.849 Y136.219 E.03003
G1 X140.583 Y137.065 E.03034
G1 X140.185 Y137.854 E.03023
G1 X139.667 Y138.569 E.0302
G1 X139.041 Y139.191 E.0302
G1 X138.322 Y139.705 E.0302
G1 X137.531 Y140.096 E.0302
G1 X136.687 Y140.356 E.0302
G1 X135.813 Y140.477 E.0302
G1 X134.93 Y140.457 E.0302
G1 X134.062 Y140.295 E.0302
G1 X133.231 Y139.995 E.0302
G1 X132.46 Y139.567 E.0302
G1 X131.766 Y139.02 E.0302
G1 X131.17 Y138.369 E.0302
G1 X130.688 Y137.635 E.03003
G1 X130.326 Y136.825 E.03034
G1 X130.101 Y135.976 E.03006
G1 X130.015 Y135.093 E.03034
G1 X130.071 Y134.211 E.03023
G1 X130.268 Y133.35 E.0302
G1 X130.6 Y132.532 E.0302
G1 X131.059 Y131.778 E.0302
G1 X131.63 Y131.111 E.03003
G1 X132.307 Y130.538 E.03034
G1 X133.065 Y130.084 E.03023
G1 X133.214 Y130.024 E.00549
G1 X133.422 Y130.429 F18000
G1 F1800
G1 X134.048 Y130.184 E.02299
G1 X134.839 Y130.013 E.02769
G1 X135.647 Y129.972 E.02769
G1 X136.452 Y130.061 E.02769
G1 X137.232 Y130.277 E.02769
G1 X137.967 Y130.616 E.02769
G1 X138.638 Y131.069 E.02769
G1 X139.228 Y131.623 E.02769
G1 X139.722 Y132.265 E.02769
G1 X140.106 Y132.978 E.02769
G1 X140.371 Y133.743 E.02769
G1 X140.509 Y134.54 E.02769
G1 X140.518 Y135.35 E.02769
G1 X140.398 Y136.145 E.02752
G1 X140.149 Y136.92 E.02784
G1 X139.781 Y137.642 E.02771
G1 X139.302 Y138.294 E.02769
G1 X138.724 Y138.861 E.02769
G1 X138.063 Y139.328 E.02769
G1 X137.335 Y139.684 E.02769
G1 X136.56 Y139.917 E.02769
G1 X135.758 Y140.024 E.02769
G1 X134.948 Y140 E.02769
G1 X134.154 Y139.847 E.02769
G1 X133.394 Y139.568 E.02769
G1 X132.688 Y139.171 E.02769
G1 X132.055 Y138.666 E.02769
G1 X131.512 Y138.066 E.02769
G1 X131.074 Y137.391 E.02752
G1 X130.747 Y136.646 E.02784
G1 X130.545 Y135.866 E.02754
G1 X130.47 Y135.056 E.02784
G1 X130.526 Y134.248 E.02771
G1 X130.711 Y133.46 E.02769
G1 X131.021 Y132.711 E.02769
G1 X131.446 Y132.022 E.02769
G1 X131.972 Y131.414 E.02752
G1 X132.597 Y130.892 E.02784
G1 X133.294 Y130.479 E.02771
G1 X133.385 Y130.444 E.00333
G1 X133.587 Y130.85 F18000
;TYPE:Outer wall
G1 F1800
G1 X134.21 Y130.611 E.02282
G1 X134.93 Y130.461 E.02518
G1 X135.666 Y130.429 E.02518
G1 X136.397 Y130.514 E.02518
G1 X137.105 Y130.716 E.02518
G1 X137.771 Y131.029 E.02518
G1 X138.379 Y131.445 E.02518
G1 X138.912 Y131.953 E.02518
G1 X139.356 Y132.54 E.02518
G1 X139.701 Y133.19 E.02518
G1 X139.937 Y133.887 E.02518
G1 X140.058 Y134.614 E.02518
G1 X140.061 Y135.35 E.02518
G1 X139.947 Y136.072 E.02502
G1 X139.716 Y136.776 E.02534
G1 X139.376 Y137.429 E.02519
G1 X138.936 Y138.02 E.02518
G1 X138.407 Y138.532 E.02518
G1 X137.803 Y138.952 E.02518
G1 X137.139 Y139.271 E.02518
G1 X136.433 Y139.478 E.02518
G1 X135.703 Y139.57 E.02518
G1 X134.967 Y139.543 E.02518
G1 X134.245 Y139.399 E.02518
G1 X133.556 Y139.141 E.02518
G1 X132.917 Y138.775 E.02518
G1 X132.345 Y138.312 E.02518
G1 X131.854 Y137.763 E.02518
G1 X131.461 Y137.146 E.02502
G1 X131.167 Y136.466 E.02534
G1 X130.989 Y135.757 E.02502
G1 X130.926 Y135.019 E.02534
G1 X130.982 Y134.284 E.02519
G1 X131.155 Y133.569 E.02518
G1 X131.441 Y132.89 E.02518
G1 X131.832 Y132.267 E.02518
G1 X132.315 Y131.717 E.02502
G1 X132.886 Y131.246 E.02534
G1 X133.522 Y130.875 E.02519
G1 X133.549 Y130.865 E.00099
G1 E-1.5
;WIPE_START
G1 F12000
G1 X134.21 Y130.611
G1 X134.93 Y130.461
G1 X135.487 Y130.437
;WIPE_END
G1 Z.4 F18000
G1 X105.044 Y138.315 Z.4
G1 Z.2
G1 E1.5 F1800
;TYPE:Inner wall
G1 X104.913 Y138.119 E.00806
G1 X104.662 Y137.598 E.01981
G1 X104.38 Y136.869 E.02673
G1 X104.213 Y136.189 E.02393
G1 X104.103 Y135.166 E.03522
G1 X104.16 Y134.137 E.03522
G1 X104.38 Y133.131 E.03522
G1 X104.662 Y132.402 E.02673
G1 X104.913 Y131.881 E.0198
G1 X105.287 Y131.29 E.02393
G1 X105.949 Y130.501 E.03523
G1 X106.73 Y129.83 E.03523
G1 X107.608 Y129.292 E.03522
G1 X108.561 Y128.902 E.03523
G1 X109.565 Y128.67 E.03522
G1 X110.592 Y128.602 E.03522
G1 X111.617 Y128.699 E.03522
G1 X112.614 Y128.96 E.03523
G1 X113.555 Y129.378 E.03522
G1 X114.417 Y129.94 E.03522
G1 X115.178 Y130.634 E.03522
G1 X115.818 Y131.441 E.03523
G1 X116.32 Y132.34 E.03523
G1 X116.671 Y133.308 E.03522
G1 X116.863 Y134.32 E.03522
G1 X116.889 Y135 E.02327
G1 X116.881 Y135.539 E.01845
G1 X116.75 Y136.37 E.02877
G1 X116.45 Y137.355 E.03523
G1 X115.998 Y138.274 E.03504
G1 X115.399 Y139.117 E.03535
G1 X114.674 Y139.85 E.03528
G1 X113.842 Y140.457 E.03522
G1 X112.923 Y140.922 E.03523
G1 X111.942 Y141.234 E.03523
G1 X110.923 Y141.385 E.03522
G1 X109.893 Y141.37 E.03523
G1 X108.879 Y141.19 E.03522
G1 X107.907 Y140.85 E.03522
G1 X107.002 Y140.358 E.03522
G1 X106.188 Y139.728 E.03522
G1 X105.486 Y138.975 E.03522
G1 X105.066 Y138.348 E.0258
G1 X105.42 Y138.057 F18000
G1 F1800
G1 X105.299 Y137.875 E.00746
G1 X105.082 Y137.418 E.01729
G1 X104.824 Y136.759 E.02422
G1 X104.656 Y136.08 E.02393
G1 X104.559 Y135.129 E.03271
G1 X104.615 Y134.174 E.03271
G1 X104.824 Y133.241 E.03271
G1 X105.082 Y132.582 E.02422
G1 X105.299 Y132.125 E.01729
G1 X105.673 Y131.534 E.02393
G1 X106.292 Y130.804 E.03271
G1 X107.019 Y130.184 E.03271
G1 X107.837 Y129.688 E.03271
G1 X108.723 Y129.329 E.03271
G1 X109.656 Y129.118 E.03271
G1 X110.611 Y129.059 E.03271
G1 X111.562 Y129.153 E.03271
G1 X112.486 Y129.399 E.03271
G1 X113.359 Y129.79 E.03271
G1 X114.158 Y130.317 E.03271
G1 X114.862 Y130.964 E.03271
G1 X115.453 Y131.716 E.03271
G1 X115.915 Y132.553 E.03271
G1 X116.238 Y133.453 E.03271
G1 X116.412 Y134.394 E.03271
