; HEADER_BLOCK_START
; generated by OrcaSlicer 2.1.1 on 2024-07-22 at 18:04:54
; total layer number: 15
; filament_density: 1.27
; filament_diameter: 1.75
; max_z_height: 3.00
; HEADER_BLOCK_END

; THUMBNAIL_BLOCK_START

;
; THUMBNAIL_BLOCK_END

; THUMBNAIL_BLOCK_START

;
; THUMBNAIL_BLOCK_END

; external perimeters extrusion width = 0.42mm
; perimeters extrusion width = 0.45mm
; infill extrusion width = 0.45mm
; solid infill extrusion width = 0.45mm
; top infill extrusion width = 0.42mm
; first layer extrusion width = 0.50mm

; EXECUTABLE_BLOCK_START
EXCLUDE_OBJECT_DEFINE NAME=Corps1.stl_id_0_copy_0 CENTER=115,115 POLYGON=[[73.0017,115.002],[73.0073,114.484],[73.0241,113.966],[73.052,113.449],[73.091,112.932],[73.1411,112.416],[73.202,111.9],[73.2739,111.386],[73.3566,110.873],[73.4501,110.36],[73.5543,109.85],[73.6691,109.34],[73.7946,108.833],[74.0771,107.823],[74.4012,106.821],[74.7665,105.828],[75.1726,104.846],[75.619,103.875],[76.1051,102.917],[76.6305,101.972],[77.1948,101.041],[77.7975,100.127],[78.438,99.2289],[78.8148,98.7316],[79.2031,98.2399],[79.6028,97.7542],[80.0137,97.2744],[80.4356,96.8007],[80.8684,96.3332],[81.3118,95.872],[81.7658,95.4172],[82.23,94.9689],[82.7044,94.5273],[83.1888,94.0924],[83.683,93.6643],[84.1868,93.2432],[84.7001,92.8291],[85.2227,92.4222],[85.7543,92.0226],[86.2949,91.6303],[86.8443,91.2456],[87.4022,90.8684],[87.9685,90.4989],[88.5431,90.1373],[89.1257,89.7836],[89.7162,89.4379],[90.3145,89.1003],[90.9202,88.771],[91.5333,88.45],[92.1537,88.1375],[92.781,87.8336],[93.4152,87.5384],[94.056,87.2519],[94.7033,86.9743],[95.357,86.7057],[96.0334,86.4398],[96.716,86.1836],[97.4044,85.937],[98.0986,85.7001],[98.7981,85.473],[99.5029,85.2556],[100.213,85.0481],[100.927,84.8503],[101.646,84.6625],[102.369,84.4845],[103.827,84.1584],[105.299,83.8722],[106.784,83.6263],[108.279,83.4208],[109.782,83.2561],[111.292,83.1324],[112.806,83.0499],[114.324,83.0089],[115.842,83.0097],[117.359,83.0525],[118.874,83.1376],[120.362,83.263],[121.844,83.4292],[123.317,83.6357],[124.779,83.8821],[126.23,84.168],[127.666,84.4929],[129.087,84.8562],[130.491,85.2577],[131.876,85.6967],[132.56,85.9301],[133.239,86.1728],[133.913,86.4246],[134.581,86.6856],[135.242,86.9556],[135.898,87.2346],[136.547,87.5226],[137.189,87.8194],[137.824,88.125],[138.452,88.4394],[139.073,88.7625],[139.686,89.0943],[140.292,89.4346],[140.889,89.7835],[141.924,90.4201],[142.932,91.0822],[143.912,91.7692],[144.865,92.4802],[145.787,93.2147],[146.68,93.9718],[147.541,94.7508],[148.371,95.551],[149.168,96.3716],[149.93,97.212],[150.659,98.0714],[151.351,98.949],[152.007,99.8442],[152.626,100.756],[153.207,101.684],[153.748,102.628],[154.224,103.536],[154.664,104.456],[155.066,105.387],[155.431,106.328],[155.759,107.278],[156.049,108.237],[156.301,109.202],[156.514,110.173],[156.689,111.15],[156.825,112.13],[156.922,113.113],[156.98,114.098],[156.998,115.085],[156.977,116.071],[156.915,117.056],[156.813,118.039],[156.741,118.566],[156.658,119.092],[156.564,119.617],[156.458,120.14],[156.34,120.661],[156.211,121.181],[156.072,121.698],[155.921,122.214],[155.759,122.727],[155.586,123.238],[155.402,123.747],[155.208,124.253],[155.002,124.756],[154.787,125.256],[154.56,125.754],[154.323,126.248],[154.076,126.739],[153.819,127.227],[153.551,127.711],[153.274,128.192],[152.986,128.668],[152.688,129.141],[152.063,130.074],[151.4,130.99],[150.698,131.888],[149.959,132.766],[149.182,133.624],[148.737,134.09],[148.281,134.549],[147.815,135.002],[147.338,135.447],[146.851,135.885],[146.353,136.317],[145.846,136.741],[145.329,137.158],[144.803,137.568],[144.267,137.97],[143.723,138.365],[143.169,138.752],[142.607,139.132],[142.036,139.503],[141.456,139.867],[140.869,140.223],[140.274,140.57],[139.671,140.91],[139.06,141.241],[138.442,141.563],[137.817,141.878],[137.184,142.183],[136.545,142.48],[135.899,142.768],[135.247,143.048],[134.588,143.318],[133.924,143.579],[133.253,143.831],[132.577,144.074],[131.896,144.308],[131.209,144.532],[130.516,144.746],[129.804,144.956],[129.086,145.155],[128.364,145.344],[127.638,145.523],[126.907,145.692],[126.173,145.85],[125.435,145.999],[124.693,146.137],[123.202,146.382],[121.699,146.586],[120.189,146.75],[118.671,146.872],[117.149,146.952],[115.624,146.991],[114.099,146.988],[112.575,146.944],[111.053,146.858],[109.537,146.729],[108.781,146.649],[108.028,146.559],[107.276,146.458],[106.527,146.346],[105.062,146.096],[103.61,145.805],[102.172,145.475],[100.75,145.105],[99.3462,144.698],[97.9615,144.252],[97.2769,144.015],[96.5979,143.769],[95.9245,143.514],[95.2571,143.249],[94.5957,142.976],[93.9407,142.693],[93.2922,142.402],[92.6504,142.102],[92.0156,141.793],[91.388,141.475],[90.7677,141.149],[90.155,140.815],[89.5501,140.472],[88.9531,140.12],[88.3644,139.761],[87.7841,139.393],[87.2125,139.017],[86.6496,138.633],[86.0958,138.24],[85.5513,137.84],[84.6188,137.12],[83.7164,136.376],[82.8447,135.609],[82.0047,134.821],[81.197,134.012],[80.4225,133.183],[79.682,132.335],[78.9763,131.469],[78.3062,130.585],[77.6725,129.684],[77.0759,128.767],[76.5173,127.836],[75.9975,126.889],[75.5173,125.93],[75.0774,124.958],[74.8728,124.467],[74.6787,123.974],[74.4774,123.428],[74.2887,122.88],[74.1128,122.329],[73.9496,121.775],[73.7991,121.219],[73.6615,120.661],[73.5368,120.101],[73.425,119.539],[73.3262,118.975],[73.2404,118.41],[73.1676,117.844],[73.108,117.277],[73.0616,116.709],[73.0283,116.14],[73.0084,115.571],[73.0017,115.002]]
M73 P0 R23
;TYPE:Custom
M220 S100
G90 ; use absolute coordinates
M83 ; extruder relative mode
M104 S150 ; set temporary nozzle temp to prevent oozing during homing
M140 S70 ; set final bed temp
G4 S30 ; allow partial nozzle warmup
G28 ; home all axis and restore leveling
BED_MESH_CALIBRATE PROFILE=adaptive ADAPTIVE=1 ADAPTIVE_MARGIN=0
G1 Z25 F240
G1 X10.0 Y30 F3000
M104 S245 ; set final nozzle temp
M190 S70 ; wait for bed temp to stabilize
M109 S245 ; wait for nozzle temp to stabilize
G1 Z0.28 F240
G92 E0 ; Move Z Axis up
G1 Z2.0 F5000 ; Move to start position
G1 X5 Y30 Z0.28 F300 ; Draw the first line
G1 X5 Y200 Z0.28 F1500 E15 ; Move to side a little
M73 P1 R23
G1 X5.4 Y200 Z0.28 F5000.0 ; Draw the second line
G1 X5.4 Y50 Z0.28 F1500.0 E30 ; Reset Extruder
G92 E0 ; Move Z Axis up
G1 Z2.0 F3000
M117 Start Printing..
G90
G21
M83 ; use relative distances for extrusion
; filament start gcode
M106 S0
;LAYER_CHANGE
;Z:0.2
;HEIGHT:0.2
;BEFORE_LAYER_CHANGE
;0.2
G92 E0

G1 E-.5 F1800
;_SET_FAN_SPEED_CHANGING_LAYER
SET_VELOCITY_LIMIT ACCEL=1000
SET_VELOCITY_LIMIT SQUARE_CORNER_VELOCITY=7
; printing object Corps1.stl id:0 copy 0
EXCLUDE_OBJECT_START NAME=Corps1.stl_id_0_copy_0
G1 Z.2 F24000
G1 X83.674 Y144.407
G1 Z.2
G1 E.5 F1800
;TYPE:Inner wall
;WIDTH:0.499999
G1 X83.188 Y143.167 E.04807
G1 X83.009 Y142.645 E.01992
G1 X82.677 Y141.566 E.04078
G1 X82.533 Y141.034 E.0199
G1 X82.281 Y139.959 E.03985
G1 X82.17 Y139.403 E.02047
G1 X81.99 Y138.305 E.04018
G1 X81.862 Y137.202 E.04009
G1 X81.817 Y136.66 E.01965
G1 X81.765 Y135.549 E.04015
G1 X81.759 Y135.005 E.01965
G1 X81.781 Y134.002 E.03622
G1 X81.894 Y132.497 E.05453
G1 X82.103 Y131.001 E.05453
M73 P2 R23
G1 X82.406 Y129.514 E.05477
G1 X82.803 Y128.038 E.0552
G1 X83.117 Y127.068 E.03679
G1 X83.472 Y126.104 E.03711
G1 X83.867 Y125.149 E.03731
G1 X84.301 Y124.205 E.03752
G1 X84.774 Y123.272 E.03776
G1 X85.285 Y122.352 E.038
G1 X85.835 Y121.446 E.03826
G1 X86.42 Y120.558 E.0384
G1 X87.418 Y119.19 E.06115
G1 X87.79 Y118.718 E.02171
G1 X88.584 Y117.772 E.04457
G1 X89.417 Y116.855 E.04473
G1 X90.751 Y115.518 E.06819
G1 X92.174 Y114.241 E.06904
G1 X93.685 Y113.022 E.07011
G1 X94.732 Y112.249 E.04699
G1 X96.377 Y111.136 E.0717
G1 X98.094 Y110.094 E.0725
G1 X99.879 Y109.124 E.07338
G1 X101.73 Y108.227 E.07423
G1 X103.642 Y107.407 E.07513
G1 X104.974 Y106.895 E.05153
G1 X107.029 Y106.194 E.0784
G1 X108.417 Y105.777 E.05234
G1 X110.547 Y105.22 E.07947
G1 X111.982 Y104.9 E.05309
G1 X113.433 Y104.617 E.05338
G1 X114.897 Y104.375 E.05357
G1 X116.371 Y104.172 E.05373
G1 X117.854 Y104.01 E.05386
G1 X119.343 Y103.888 E.05395
G1 X120.835 Y103.807 E.05394
G1 X122.82 Y103.766 E.07169
G1 X123.781 Y103.767 E.0347
G1 X125.328 Y103.809 E.05587
G1 X126.821 Y103.893 E.05399
G1 X128.288 Y104.016 E.05318
G1 X129.749 Y104.18 E.05307
G1 X131.201 Y104.384 E.05295
G1 X132.643 Y104.627 E.05279
G1 X134.073 Y104.909 E.05262
G1 X135.489 Y105.229 E.05242
G1 X136.889 Y105.587 E.05219
G1 X138.27 Y105.982 E.05185
G1 X140.311 Y106.645 E.07747
G1 X142.3 Y107.389 E.07668
G1 X144.234 Y108.212 E.07591
G1 X146.108 Y109.114 E.07508
G1 X147.916 Y110.092 E.07421
G1 X149.52 Y111.061 E.06767
G1 X150.507 Y111.709 E.04262
G1 X151.469 Y112.383 E.04241
G1 X152.402 Y113.08 E.04207
G1 X153.307 Y113.8 E.04174
G1 X154.181 Y114.541 E.0414
G1 X155.025 Y115.304 E.04106
G1 X155.836 Y116.087 E.04073
G1 X156.615 Y116.89 E.04039
G1 X157.361 Y117.711 E.04006
G1 X158.072 Y118.551 E.03972
G1 X158.748 Y119.407 E.03941
G1 X159.389 Y120.281 E.03909
G1 X159.992 Y121.17 E.03879
G1 X160.557 Y122.074 E.03849
G1 X161.084 Y122.992 E.03824
G1 X161.547 Y123.875 E.03599
G1 X161.974 Y124.769 E.03579
G1 X162.365 Y125.674 E.03559
G1 X162.72 Y126.589 E.03541
G1 X163.038 Y127.512 E.03525
G1 X163.32 Y128.442 E.0351
G1 X163.671 Y129.865 E.05293
G1 X163.859 Y130.808 E.03472
G1 X164.009 Y131.756 E.03466
G1 X164.122 Y132.708 E.0346
G1 X164.196 Y133.663 E.03459
G1 X164.241 Y135.083 E.0513
G1 X164.22 Y136.039 E.03451
G1 X164.16 Y136.993 E.03453
G1 X164.062 Y137.941 E.03442
G1 X163.82 Y139.474 E.05603
G1 X163.478 Y140.991 E.05613
G1 X163.039 Y142.492 E.05647
G1 X162.503 Y143.974 E.0569
G1 X161.874 Y145.434 E.05739
G1 X161.153 Y146.867 E.05794
G1 X160.341 Y148.271 E.05854
G1 X159.44 Y149.644 E.0593
G1 X158.795 Y150.535 E.03972
G1 X158.11 Y151.411 E.04015
G1 X157.39 Y152.266 E.04035
G1 X156.191 Y153.566 E.06388
G1 X154.826 Y154.889 E.06862
G1 X153.864 Y155.738 E.04633
G1 X152.34 Y156.968 E.07071
G1 X151.286 Y157.747 E.04732
G1 X149.628 Y158.865 E.07222
G1 X147.897 Y159.913 E.07305
G1 X146.096 Y160.89 E.07395
G1 X144.231 Y161.791 E.07481
G1 X142.325 Y162.608 E.07486
G1 X140.994 Y163.12 E.05149
G1 X138.979 Y163.81 E.07691
G1 X136.886 Y164.425 E.07875
G1 X135.464 Y164.786 E.05298
G1 X133.291 Y165.255 E.08029
G1 X131.087 Y165.634 E.08074
G1 X129.608 Y165.835 E.05389
G1 X128.118 Y165.996 E.05411
G1 X126.621 Y166.116 E.05421
G1 X125.12 Y166.196 E.05429
G1 X123.615 Y166.234 E.05432
G1 X122.111 Y166.231 E.05433
G1 X120.607 Y166.187 E.05431
G1 X119.109 Y166.102 E.05417
G1 X116.864 Y165.897 E.0814
G1 X115.385 Y165.708 E.05382
G1 X113.198 Y165.351 E.08002
G1 X111.769 Y165.065 E.05261
G1 X110.352 Y164.739 E.0525
G1 X108.951 Y164.375 E.05226
G1 X107.57 Y163.974 E.05192
G1 X105.53 Y163.301 E.07758
G1 X103.541 Y162.547 E.07678
G1 X101.605 Y161.712 E.07613
G1 X100.355 Y161.116 E.05003
G1 X98.523 Y160.153 E.0747
G1 X96.765 Y159.118 E.07368
G1 X95.079 Y158.009 E.07284
G1 X94.004 Y157.234 E.04786
G1 X93.091 Y156.528 E.04167
G1 X92.207 Y155.799 E.04136
G1 X91.354 Y155.049 E.04103
G1 X90.532 Y154.278 E.0407
G1 X89.742 Y153.486 E.04037
G1 X88.984 Y152.676 E.04004
G1 X88.261 Y151.847 E.03972
G1 X87.572 Y151.001 E.0394
G1 X86.918 Y150.138 E.03909
G1 X86.299 Y149.26 E.03879
G1 X85.718 Y148.366 E.03849
G1 X85.174 Y147.458 E.03821
G1 X84.668 Y146.538 E.03794
G1 X84.201 Y145.604 E.03768
G1 X83.775 Y144.663 E.03732
G1 X83.689 Y144.444 E.00849
G1 X83.249 Y144.574 F24000
;TYPE:Outer wall
G1 F1800
G1 X82.759 Y143.325 E.04842
G1 X82.574 Y142.787 E.02055
G1 X82.238 Y141.693 E.04134
G1 X82.09 Y141.146 E.02045
G1 X81.834 Y140.056 E.0404
G1 X81.72 Y139.485 E.02103
G1 X81.538 Y138.369 E.04084
G1 X81.407 Y137.248 E.04076
G1 X81.361 Y136.689 E.02022
G1 X81.308 Y135.563 E.04073
G1 X81.302 Y135.003 E.02021
G1 X81.324 Y133.98 E.03693
G1 X81.439 Y132.448 E.05549
G1 X81.652 Y130.923 E.05557
G1 X81.961 Y129.409 E.05579
G1 X82.365 Y127.908 E.05612
G1 X82.685 Y126.919 E.03754
G1 X83.046 Y125.938 E.03776
G1 X83.448 Y124.966 E.03795
G1 X83.889 Y124.006 E.03816
G1 X84.37 Y123.058 E.03839
G1 X84.89 Y122.123 E.03863
G1 X85.448 Y121.202 E.03888
G1 X86.044 Y120.298 E.0391
G1 X87.054 Y118.913 E.06186
G1 X87.436 Y118.429 E.02227
G1 X88.24 Y117.472 E.04514
G1 X89.086 Y116.54 E.04545
G1 X90.437 Y115.187 E.06903
G1 X91.878 Y113.893 E.06993
G1 X93.406 Y112.66 E.0709
G1 X94.468 Y111.875 E.04769
G1 X96.13 Y110.752 E.07244
G1 X97.866 Y109.698 E.0733
G1 X99.67 Y108.717 E.07416
G1 X101.54 Y107.811 E.075
G1 X103.47 Y106.984 E.07582
G1 X104.818 Y106.466 E.05216
G1 X106.89 Y105.759 E.07902
G1 X108.294 Y105.337 E.05294
G1 X110.439 Y104.776 E.08007
G1 X111.888 Y104.452 E.05362
G1 X113.352 Y104.168 E.05384
G1 X114.829 Y103.923 E.05403
G1 X116.315 Y103.719 E.05418
G1 X117.811 Y103.555 E.05431
G1 X119.312 Y103.432 E.0544
G1 X120.818 Y103.35 E.05445
G1 X122.815 Y103.309 E.07214
G1 X123.787 Y103.31 E.03509
G1 X125.347 Y103.352 E.05633
G1 X126.853 Y103.437 E.05446
G1 X128.333 Y103.562 E.05363
G1 X129.806 Y103.727 E.05353
G1 X131.271 Y103.932 E.0534
G1 X132.725 Y104.177 E.05325
G1 X134.168 Y104.462 E.05307
G1 X135.596 Y104.785 E.05288
G1 X137.009 Y105.146 E.05265
G1 X138.403 Y105.545 E.05237
G1 X140.461 Y106.213 E.07813
G1 X142.469 Y106.964 E.07741
G1 X144.423 Y107.796 E.07666
G1 X146.316 Y108.707 E.07585
G1 X148.143 Y109.695 E.07499
G1 X149.764 Y110.674 E.06837
G1 X150.763 Y111.33 E.04318
G1 X151.737 Y112.012 E.0429
G1 X152.681 Y112.718 E.04257
G1 X153.597 Y113.447 E.04225
G1 X154.482 Y114.197 E.04192
G1 X155.337 Y114.97 E.04159
G1 X156.159 Y115.763 E.04126
G1 X156.949 Y116.577 E.04094
G1 X157.705 Y117.41 E.04061
G1 X158.426 Y118.261 E.04029
G1 X159.112 Y119.131 E.03999
G1 X159.762 Y120.017 E.03968
G1 X160.375 Y120.92 E.0394
G1 X160.949 Y121.839 E.03911
G1 X161.485 Y122.772 E.03887
G1 X161.956 Y123.67 E.03661
G1 X162.391 Y124.58 E.03641
G1 X162.788 Y125.501 E.03622
G1 X163.15 Y126.431 E.03604
G1 X163.473 Y127.371 E.03588
G1 X163.76 Y128.318 E.03573
G1 X164.009 Y129.272 E.0356
G1 X164.22 Y130.232 E.03549
G1 X164.393 Y131.197 E.03539
G1 X164.527 Y132.165 E.03531
G1 X164.623 Y133.137 E.03524
G1 X164.689 Y134.584 E.05232
G1 X164.698 Y135.084 E.01806
G1 X164.677 Y136.058 E.03518
G1 X164.616 Y137.031 E.0352
G1 X164.515 Y138.001 E.0352
G1 X164.269 Y139.56 E.05701
G1 X163.921 Y141.105 E.05719
G1 X163.473 Y142.634 E.0575
G1 X162.928 Y144.142 E.05791
G1 X162.288 Y145.627 E.05838
G1 X161.555 Y147.084 E.05891
G1 X160.73 Y148.511 E.05949
G1 X159.817 Y149.904 E.06015
G1 X159.16 Y150.81 E.0404
G1 X158.465 Y151.699 E.04075
G1 X157.733 Y152.568 E.04102
G1 X156.521 Y153.882 E.06456
G1 X156.071 Y154.335 E.02303
G1 X155.135 Y155.226 E.04667
G1 X154.159 Y156.088 E.047
G1 X152.62 Y157.33 E.07144
G1 X151.549 Y158.12 E.04803
G1 X149.874 Y159.251 E.07297
G1 X148.125 Y160.31 E.07384
G1 X146.305 Y161.296 E.07473
G1 X144.421 Y162.207 E.07557
G1 X142.498 Y163.031 E.07554
G1 X141.151 Y163.55 E.05211
G1 X139.118 Y164.246 E.07759
G1 X137.007 Y164.865 E.07942
G1 X135.569 Y165.231 E.05358
G1 X133.378 Y165.704 E.08094
G1 X131.156 Y166.086 E.08138
G1 X129.663 Y166.289 E.05441
G1 X128.161 Y166.451 E.05457
G1 X126.651 Y166.572 E.05466
G1 X125.137 Y166.652 E.05474
G1 X123.621 Y166.691 E.05477
G1 X122.104 Y166.688 E.05478
G1 X120.587 Y166.644 E.05477
G1 X119.075 Y166.558 E.05468
G1 X116.814 Y166.351 E.08198
G1 X115.319 Y166.161 E.05441
G1 X113.116 Y165.801 E.0806
G1 X111.673 Y165.512 E.05314
G1 X110.243 Y165.183 E.05296
G1 X108.83 Y164.816 E.05273
G1 X107.435 Y164.411 E.05245
G1 X105.377 Y163.732 E.07824
G1 X103.37 Y162.971 E.07751
G1 X101.416 Y162.129 E.07681
G1 X100.15 Y161.525 E.05066
G1 X98.301 Y160.553 E.07542
G1 X96.523 Y159.506 E.07449
G1 X94.82 Y158.386 E.0736
M73 P3 R23
G1 X93.731 Y157.6 E.04848
G1 X92.806 Y156.885 E.04221
G1 X91.911 Y156.147 E.04188
G1 X91.046 Y155.387 E.04156
G1 X90.213 Y154.606 E.04124
G1 X89.413 Y153.804 E.04091
G1 X88.645 Y152.982 E.0406
G1 X87.911 Y152.142 E.04029
G1 X87.212 Y151.283 E.03997
G1 X86.549 Y150.408 E.03967
G1 X85.921 Y149.516 E.03938
G1 X85.33 Y148.608 E.03909
G1 X84.778 Y147.686 E.03882
G1 X84.263 Y146.75 E.03857
G1 X83.788 Y145.801 E.03832
G1 X83.354 Y144.84 E.03806
