; HEADER_BLOCK_START
; generated by OrcaSlicer 2.0.0 on 2024-05-26 at 08:25:37
; total layer number: 50
; filament_density: 1.24
; filament_diameter: 1.75
; max_z_height: 10.00
; HEADER_BLOCK_END

; THUMBNAIL_BLOCK_START

;
; THUMBNAIL_BLOCK_END

; THUMBNAIL_BLOCK_START

;
; THUMBNAIL_BLOCK_END

; external perimeters extrusion width = 0.40mm
; perimeters extrusion width = 0.42mm
; infill extrusion width = 0.45mm
; solid infill extrusion width = 0.42mm
; top infill extrusion width = 0.40mm
; first layer extrusion width = 0.50mm

; EXECUTABLE_BLOCK_START
EXCLUDE_OBJECT_DEFINE NAME=Corps1.stl_id_0_copy_0 CENTER=115,115 POLYGON=[[94.501,115.233],[94.5022,114.702],[94.5235,114.172],[94.565,113.643],[94.6264,113.116],[94.7078,112.591],[94.809,112.07],[94.9298,111.554],[95.0702,111.042],[95.2298,110.536],[95.4086,110.036],[95.6061,109.544],[95.8221,109.059],[96.0564,108.583],[96.3085,108.116],[96.5782,107.659],[96.8649,107.212],[97.1684,106.777],[97.4882,106.353],[97.8238,105.942],[98.1747,105.544],[98.5405,105.16],[98.9205,104.79],[99.3144,104.434],[99.7214,104.093],[100.141,103.769],[100.573,103.46],[101.016,103.168],[101.47,102.893],[101.933,102.635],[102.407,102.395],[102.889,102.173],[103.379,101.97],[103.876,101.785],[104.381,101.619],[104.891,101.473],[105.406,101.346],[105.925,101.238],[106.449,101.151],[106.975,101.083],[107.504,101.035],[108.034,101.008],[108.564,101],[109.095,101.013],[109.624,101.045],[110.152,101.098],[110.678,101.171],[111.201,101.263],[111.719,101.375],[112.233,101.507],[112.742,101.658],[134.781,109.04],[134.882,109.076],[134.914,109.09],[134.999,109.134],[135.04,109.159],[135.108,109.207],[135.154,109.244],[135.206,109.293],[135.255,109.345],[135.292,109.391],[135.34,109.459],[135.365,109.5],[135.409,109.585],[135.423,109.617],[135.459,109.718],[135.465,109.741],[135.489,109.858],[135.49,109.869],[135.499,110],[135.499,128],[135.49,128.13],[135.489,128.142],[135.465,128.259],[135.459,128.282],[135.423,128.383],[135.409,128.415],[135.365,128.5],[135.34,128.541],[135.292,128.609],[135.255,128.655],[135.206,128.707],[135.154,128.756],[135.108,128.793],[135.04,128.841],[134.999,128.866],[134.914,128.91],[134.882,128.924],[134.781,128.959],[134.758,128.966],[134.641,128.99],[134.63,128.991],[134.499,129],[108.499,129],[107.968,128.99],[107.439,128.96],[106.91,128.909],[106.384,128.839],[105.861,128.749],[105.342,128.639],[104.828,128.51],[104.318,128.361],[103.815,128.193],[103.318,128.006],[102.829,127.8],[102.348,127.576],[101.876,127.334],[101.413,127.074],[100.961,126.797],[100.519,126.503],[100.089,126.192],[99.6707,125.865],[99.2653,125.523],[98.8731,125.166],[98.4948,124.794],[98.1308,124.407],[97.7817,124.008],[97.4481,123.595],[97.1303,123.17],[96.8288,122.733],[96.5441,122.286],[96.2766,121.827],[96.0266,121.359],[95.7946,120.882],[95.5808,120.396],[95.3856,119.903],[95.2092,119.402],[95.0519,118.895],[94.9139,118.383],[94.7955,117.866],[94.6967,117.344],[94.6178,116.82],[94.5588,116.292],[94.5198,115.763],[94.501,115.233]]
M73 P0 R11
;TYPE:Custom
M220 S100
G90 ; use absolute coordinates
M83 ; extruder relative mode
M104 S150 ; set temporary nozzle temp to prevent oozing during homing
M140 S55 ; set final bed temp
G4 S30 ; allow partial nozzle warmup
G28 ; home all axis and restore leveling
G1 Z25 F240
G1 X10.0 Y30 F3000
M104 S210 ; set final nozzle temp
M190 S55 ; wait for bed temp to stabilize
M109 S210 ; wait for nozzle temp to stabilize
G1 Z0.28 F240
G92 E0 ; Move Z Axis up
M73 P1 R11
G1 Z2.0 F5000 ; Move to start position
G1 X5 Y30 Z0.28 F300 ; Draw the first line
G1 X5 Y200 Z0.28 F1500 E15 ; Move to side a little
M73 P2 R11
G1 X5.4 Y200 Z0.28 F5000.0 ; Draw the second line
M73 P3 R11
G1 X5.4 Y50 Z0.28 F1500.0 E30 ; Reset Extruder
G92 E0 ; Move Z Axis up
G1 Z2.0 F3000
M117 Start Printing..
G90
G21
M83 ; use relative distances for extrusion
; filament start gcode
M106 S0
;LAYER_CHANGE
;Z:0.2
;HEIGHT:0.2
;BEFORE_LAYER_CHANGE
;0.2
G92 E0

G1 E-.5 F2400
;_SET_FAN_SPEED_CHANGING_LAYER
SET_VELOCITY_LIMIT ACCEL=500 ACCEL_TO_DECEL=250
SET_VELOCITY_LIMIT SQUARE_CORNER_VELOCITY=7
; printing object Corps1.stl id:0 copy 0
EXCLUDE_OBJECT_START NAME=Corps1.stl_id_0_copy_0
G1 Z.2 F18000
G1 X128.474 Y140.878
G1 Z.2
M73 P4 R11
G1 E.5 F2400
;TYPE:Inner wall
;WIDTH:0.499999
G1 F1800
G1 X128.472 Y141.234 E.01324
G1 X128.591 Y141.872 E.02417
G1 X128.856 Y142.683 E.0318
G1 X129.129 Y143.292 E.02486
G1 X129.52 Y143.946 E.02836
G1 X129.99 Y144.552 E.02858
G1 X130.535 Y145.102 E.02882
G1 X131.387 Y145.753 E.03994
G1 X132.098 Y146.139 E.03016
G1 X132.825 Y146.426 E.02908
G1 X133.867 Y146.677 E.03994
G1 X134.674 Y146.744 E.03015
G1 X135.435 Y146.717 E.02836
G1 X136.205 Y146.594 E.02907
G1 X137.232 Y146.281 E.03998
G1 X137.976 Y145.917 E.03086
G1 X138.866 Y145.318 E.03994
G1 X139.46 Y144.768 E.03017
G1 X139.957 Y144.182 E.0286
G1 X140.374 Y143.555 E.02807
G1 X140.717 Y142.875 E.02834
G1 X140.981 Y142.141 E.02908
G1 X141.206 Y141.073 E.04064
G1 X141.206 Y132.993 E.30096
G1 X141.073 Y132.587 E.0159
G1 X139.87 Y130.948 E.07574
G1 X139.29 Y130.083 E.03878
G1 X139.131 Y129.77 E.01309
G1 X139.964 Y129.712 E.0311
G1 X142.4 Y129.715 E.09075
G1 X142.641 Y129.758 E.00911
G1 X142.727 Y129.847 E.00459
G1 X142.792 Y130.108 E.01001
G1 X142.792 Y147.891 E.66238
G1 X142.757 Y148.107 E.00814
G1 X142.651 Y148.228 E.00598
G1 X142.43 Y148.293 E.00859
G1 X116.002 Y148.283 E.98434
G1 X115.007 Y148.208 E.03717
G1 X114.493 Y148.14 E.01931
G1 X113.502 Y147.95 E.03758
G1 X112.53 Y147.686 E.03753
G1 X111.58 Y147.349 E.03753
G1 X110.659 Y146.941 E.03752
G1 X109.767 Y146.461 E.03772
G1 X108.936 Y145.93 E.03674
G1 X108.519 Y145.631 E.01911
G1 X107.732 Y144.991 E.03778
G1 X107 Y144.299 E.03752
G1 X106.323 Y143.552 E.03753
G1 X105.705 Y142.757 E.03753
G1 X105.148 Y141.917 E.03752
G1 X104.657 Y141.038 E.03753
G1 X104.234 Y140.123 E.03752
G1 X103.881 Y139.18 E.03753
G1 X103.601 Y138.212 E.03752
G1 X103.394 Y137.226 E.03753
G1 X103.263 Y136.227 E.03753
G1 X103.208 Y135.221 E.03753
G1 X103.23 Y134.214 E.03753
G1 X103.328 Y133.211 E.03752
M73 P4 R10
G1 X103.501 Y132.218 E.03753
G1 X103.749 Y131.242 E.03752
G1 X104.07 Y130.287 E.03753
G1 X104.463 Y129.359 E.03753
G1 X104.925 Y128.464 E.03753
G1 X105.444 Y127.62 E.03693
G1 X105.737 Y127.198 E.01912
G1 X106.363 Y126.4 E.03778
G1 X107.044 Y125.657 E.03752
G1 X107.779 Y124.968 E.03753
G1 X108.563 Y124.336 E.03753
G1 X109.394 Y123.766 E.03753
G1 X110.265 Y123.26 E.03753
G1 X111.172 Y122.821 E.03752
G1 X112.11 Y122.453 E.03753
G1 X113.073 Y122.157 E.03753
G1 X114.056 Y121.934 E.03752
G1 X115.052 Y121.786 E.03753
G1 X116.057 Y121.715 E.03753
G1 X117.065 Y121.72 E.03753
G1 X118.053 Y121.799 E.03693
G1 X118.561 Y121.868 E.01911
G1 X119.541 Y122.061 E.03718
G1 X120.03 Y122.185 E.0188
G1 X120.521 Y122.33 E.01908
G1 X121.46 Y122.669 E.03717
G1 X121.938 Y122.871 E.01931
G1 X122.827 Y123.311 E.03698
G1 X123.279 Y123.566 E.01931
G1 X124.126 Y124.114 E.03758
G1 X124.916 Y124.713 E.03692
G1 X125.311 Y125.048 E.01931
G1 X126.041 Y125.746 E.03758
G1 X126.714 Y126.495 E.03753
G1 X127.32 Y127.281 E.03694
G1 X127.881 Y128.134 E.03806
G1 X128.361 Y129.003 E.03698
G1 X128.587 Y129.47 E.01931
G1 X128.971 Y130.403 E.03758
G1 X129.284 Y131.361 E.03753
G1 X129.523 Y132.34 E.03753
G1 X129.684 Y133.318 E.03693
G1 X129.74 Y133.828 E.01911
G1 X129.79 Y134.825 E.03717
G1 X129.787 Y135.338 E.01912
G1 X129.72 Y136.379 E.03887
G1 X129.624 Y137.064 E.02576
G1 X129.391 Y138.2 E.04317
G1 X129.222 Y138.846 E.02489
G1 X128.888 Y139.813 E.03811
G1 X128.475 Y140.783 E.03927
G1 X128.474 Y140.838 E.00205
G1 X128.941 Y140.848 F18000
;TYPE:Outer wall
G1 F1800
G1 X128.916 Y140.907 E.00242
G1 X128.922 Y141.153 E.00915
G1 X129.028 Y141.738 E.02216
G1 X129.274 Y142.499 E.02978
G1 X129.523 Y143.06 E.02285
G1 X129.884 Y143.668 E.02633
G1 X130.318 Y144.234 E.02657
G1 X130.812 Y144.739 E.02631
G1 X131.636 Y145.368 E.0386
G1 X132.27 Y145.716 E.02695
G1 X132.932 Y145.981 E.02656
G1 X133.94 Y146.225 E.0386
G1 X134.66 Y146.287 E.02694
G1 X135.367 Y146.265 E.02635
G1 X136.072 Y146.157 E.02655
G1 X137.063 Y145.854 E.03861
G1 X137.721 Y145.538 E.02718
G1 X138.581 Y144.959 E.0386
G1 X139.113 Y144.47 E.02694
G1 X139.578 Y143.927 E.0266
G1 X139.967 Y143.346 E.02606
G1 X140.288 Y142.716 E.02633
G1 X140.534 Y142.047 E.02656
G1 X140.749 Y141.026 E.03887
G1 X140.749 Y132.993 E.29919
G1 X140.705 Y132.858 E.0053
G1 X139.496 Y131.21 E.07611
G1 X138.887 Y130.302 E.04071
G1 X138.582 Y129.695 E.02531
G1 X138.554 Y129.505 E.00719
M73 P5 R10
G1 X138.694 Y129.4 E.00653
G1 X139.211 Y129.294 E.01965
G1 X139.952 Y129.255 E.02764
G1 X142.59 Y129.258 E.09825
G1 X142.95 Y129.412 E.01456
G1 X143.187 Y129.713 E.0143
G1 X143.249 Y130.108 E.01487
G1 X143.249 Y147.891 E.66238
G1 X143.187 Y148.286 E.01487
G1 X143.025 Y148.528 E.01088
G1 X142.786 Y148.688 E.01071
G1 X142.475 Y148.75 E.01179
G1 X115.98 Y148.74 E.98683
G1 X114.936 Y148.661 E.03899
G1 X114.419 Y148.592 E.01943
G1 X113.399 Y148.396 E.03871
G1 X112.393 Y148.122 E.03882
G1 X111.411 Y147.774 E.03882
G1 X110.458 Y147.352 E.03882
G1 X109.535 Y146.856 E.03901
G1 X108.66 Y146.296 E.03871
G1 X108.241 Y145.994 E.01924
G1 X107.43 Y145.335 E.03891
G1 X106.674 Y144.619 E.03882
G1 X105.973 Y143.847 E.03882
G1 X105.333 Y143.024 E.03882
G1 X104.758 Y142.155 E.03881
G1 X104.25 Y141.245 E.03882
G1 X103.812 Y140.3 E.03882
G1 X103.447 Y139.324 E.03882
G1 X103.157 Y138.323 E.03882
G1 X102.943 Y137.302 E.03882
G1 X102.808 Y136.269 E.03882
G1 X102.751 Y135.229 E.03882
G1 X102.773 Y134.187 E.03882
G1 X102.874 Y133.149 E.03882
G1 X103.054 Y132.123 E.03882
G1 X103.31 Y131.113 E.03881
G1 X103.642 Y130.125 E.03882
G1 X104.049 Y129.165 E.03882
G1 X104.526 Y128.239 E.03882
G1 X105.074 Y127.349 E.03891
G1 X105.369 Y126.926 E.01923
G1 X106.015 Y126.104 E.0389
G1 X106.718 Y125.336 E.03882
G1 X107.478 Y124.623 E.03882
G1 X108.29 Y123.969 E.03882
G1 X109.149 Y123.379 E.03882
G1 X110.051 Y122.856 E.03882
G1 X110.989 Y122.402 E.03882
G1 X111.959 Y122.021 E.03882
G1 X112.955 Y121.715 E.03882
G1 X113.971 Y121.484 E.03882
G1 X115.002 Y121.332 E.03882
G1 X116.042 Y121.258 E.03882
G1 X117.084 Y121.263 E.03882
G1 X118.125 Y121.347 E.03891
G1 X118.637 Y121.417 E.01923
G1 X119.664 Y121.619 E.03899
G1 X120.167 Y121.748 E.01932
G1 X120.664 Y121.896 E.01933
G1 X121.649 Y122.251 E.03899
G1 X122.129 Y122.455 E.01943
G1 X123.062 Y122.918 E.0388
G1 X123.516 Y123.175 E.01943
G1 X124.389 Y123.739 E.03871
G1 X125.221 Y124.37 E.0389
G1 X125.618 Y124.709 E.01943
G1 X126.369 Y125.427 E.03871
G1 X127.066 Y126.202 E.03882
G1 X127.703 Y127.03 E.03891
G1 X128.275 Y127.902 E.03884
G1 X128.779 Y128.814 E.0388
G1 X129.004 Y129.284 E.01943
G1 X129.4 Y130.245 E.03871
G1 X129.724 Y131.236 E.03882
G1 X129.971 Y132.248 E.03882
G1 X130.141 Y133.279 E.0389
G1 X130.196 Y133.792 E.01924
G1 X130.248 Y134.838 E.03899
G1 X130.244 Y135.354 E.01924
G1 X130.178 Y136.399 E.03899
G1 X130.115 Y136.912 E.01923
G1 X129.931 Y137.94 E.03891
G1 X129.67 Y138.949 E.03882
G1 X129.333 Y139.935 E.03882
G1 X128.957 Y140.811 E.0355
G1 E-.35 F2400
;WIPE_START
G1 F1800
G1 X128.916 Y140.907 E-.01576
G1 X128.922 Y141.153 E-.03686
G1 X129.028 Y141.738 E-.08924
G1 X129.045 Y141.79 E-.00815
;WIPE_END
G1 Z.4 F18000
G1 X110.801 Y124.798 Z.4
G1 Z.2
G1 E.5 F2400
;TYPE:Inner wall
G1 F1800
G1 X111.721 Y124.314 E.0387
G1 X112.662 Y123.94 E.03771
G1 X113.504 Y123.687 E.03276
G1 X114.363 Y123.497 E.03275
G1 X115.217 Y123.385 E.03209
G1 X116.08 Y123.302 E.03231
G1 X117.022 Y123.308 E.03509
G1 X117.913 Y123.385 E.03328
G1 X119.225 Y123.632 E.04972
G1 X120.029 Y123.848 E.03103
G1 X120.51 Y124.002 E.01881
G1 X121.299 Y124.328 E.03178
G1 X122.105 Y124.732 E.0336
G1 X123.221 Y125.438 E.04919
G1 X123.924 Y125.961 E.03261
G1 X124.348 Y126.314 E.02056
G1 X124.909 Y126.866 E.02932
G1 X125.474 Y127.517 E.03209
G1 X126.002 Y128.165 E.03115
G1 X126.531 Y128.971 E.03591
G1 X126.963 Y129.763 E.03362
G1 X127.431 Y130.812 E.04278
G1 X127.749 Y131.761 E.03726
G1 X128.067 Y133.212 E.05534
G1 X128.153 Y133.975 E.0286
G1 X128.183 Y134.865 E.03315
G1 X128.183 Y135.706 E.03135
G1 X128.087 Y136.641 E.03499
G1 X127.925 Y137.52 E.03328
G1 X127.456 Y139.119 E.06208
G1 X127.059 Y140.053 E.0378
G1 X126.644 Y140.833 E.0329
G1 X125.755 Y142.166 E.05967
G1 X125.331 Y142.67 E.02456
G1 X124.813 Y143.229 E.02836
G1 X124.365 Y143.672 E.02347
G1 X123.232 Y144.576 E.05398
G1 X122.347 Y145.143 E.03916
G1 X121.048 Y145.786 E.05398
G1 X120.097 Y146.14 E.0378
G1 X119.133 Y146.406 E.03726
G1 X118.149 Y146.59 E.03726
G1 X117.153 Y146.688 E.03726
G1 X116.505 Y146.698 E.02416
G1 X115.155 Y146.629 E.05033
G1 X113.826 Y146.389 E.05032
G1 X112.994 Y146.161 E.03211
G1 X112.167 Y145.865 E.03274
G1 X111.363 Y145.509 E.03273
G1 X110.89 Y145.275 E.01968
G1 X110.032 Y144.758 E.03728
G1 X109.474 Y144.354 E.02568
G1 X108.782 Y143.79 E.03327
G1 X108.143 Y143.186 E.03273
G1 X107.769 Y142.799 E.02005
G1 X106.984 Y141.799 E.04735
G1 X106.507 Y141.082 E.03209
G1 X106.095 Y140.325 E.03209
G1 X105.665 Y139.433 E.03687
G1 X105.387 Y138.662 E.03053
G1 X105.145 Y137.817 E.03274
G1 X104.967 Y136.957 E.03274
G1 X104.852 Y136.085 E.03273
G1 X104.805 Y135.529 E.02078
G1 X104.827 Y134.278 E.04662
G1 X104.909 Y133.42 E.0321
G1 X105.061 Y132.554 E.03274
G1 X105.168 Y132.059 E.01887
M73 P6 R10
G1 X105.46 Y131.102 E.03727
G1 X105.834 Y130.174 E.03726
G1 X106.285 Y129.281 E.03726
G1 X107.092 Y128.034 E.05534
G1 X107.588 Y127.419 E.02943
G1 X108.184 Y126.772 E.03274
G1 X108.825 Y126.172 E.03274
G1 X109.235 Y125.821 E.02009
G1 X110.394 Y125.013 E.05261
G1 X110.766 Y124.816 E.01568
G1 X111.013 Y125.2 F18000
;TYPE:Outer wall
G1 F1800
G1 X111.932 Y124.719 E.03864
G1 X112.829 Y124.366 E.03589
G1 X113.634 Y124.126 E.03131
G1 X114.455 Y123.945 E.03129
G1 X115.261 Y123.84 E.03027
G1 X116.124 Y123.757 E.03231
G1 X117.017 Y123.765 E.03328
G1 X117.869 Y123.84 E.03183
G1 X119.132 Y124.079 E.0479
G1 X119.89 Y124.283 E.02921
G1 X120.371 Y124.437 E.01881
G1 X121.123 Y124.75 E.03033
G1 X121.894 Y125.137 E.03214
G1 X122.968 Y125.819 E.04737
G1 X123.631 Y126.312 E.03079
G1 X124.055 Y126.665 E.02056
G1 X124.588 Y127.191 E.02787
G1 X125.12 Y127.806 E.03027
G1 X125.648 Y128.454 E.03115
G1 X126.148 Y129.22 E.03409
G1 X126.56 Y129.979 E.03216
G1 X127.011 Y130.993 E.04132
G1 X127.315 Y131.905 E.03581
G1 X127.621 Y133.309 E.05352
G1 X127.699 Y134.024 E.02679
G1 X127.726 Y134.865 E.03133
G1 X127.726 Y135.706 E.03135
G1 X127.633 Y136.592 E.03318
G1 X127.476 Y137.432 E.03183
G1 X127.019 Y138.984 E.06026
G1 X126.639 Y139.872 E.03598
G1 X126.241 Y140.617 E.03145
G1 X125.957 Y141.058 E.01952
G1 X125.378 Y141.908 E.03834
G1 X124.983 Y142.374 E.02275
G1 X124.491 Y142.904 E.02691
G1 X124.061 Y143.33 E.02256
G1 X122.947 Y144.218 E.05307
G1 X122.122 Y144.744 E.03644
G1 X120.845 Y145.376 E.05307
G1 X119.939 Y145.711 E.03598
G1 X119.012 Y145.966 E.03581
G1 X118.066 Y146.14 E.03581
G1 X117.11 Y146.233 E.03581
G1 X116.5 Y146.241 E.02271
G1 X115.189 Y146.173 E.04888
G1 X113.908 Y145.939 E.04851
G1 X113.124 Y145.723 E.03029
G1 X112.334 Y145.44 E.03128
G1 X111.566 Y145.1 E.03127
G1 X111.092 Y144.865 E.01968
G1 X110.269 Y144.367 E.03583
G1 X109.744 Y143.985 E.02422
G1 X109.082 Y143.445 E.03181
G1 X108.472 Y142.868 E.03128
G1 X108.097 Y142.481 E.02005
G1 X107.344 Y141.518 E.04553
G1 X106.895 Y140.841 E.03028
G1 X106.507 Y140.127 E.03027
G1 X106.077 Y139.235 E.03687
G1 X105.817 Y138.509 E.02871
G1 X105.587 Y137.701 E.03129
G1 X105.417 Y136.879 E.03128
G1 X105.308 Y136.046 E.03128
G1 X105.26 Y135.49 E.02078
G1 X105.284 Y134.288 E.0448
G1 X105.362 Y133.479 E.03028
G1 X105.507 Y132.651 E.03129
G1 X105.615 Y132.156 E.01887
G1 X105.897 Y131.237 E.03581
G1 X106.257 Y130.345 E.03581
G1 X106.692 Y129.488 E.03581
G1 X107.475 Y128.283 E.05352
G1 X107.942 Y127.707 E.02762
G1 X108.512 Y127.09 E.03128
G1 X109.125 Y126.517 E.03128
G1 X109.761 Y126.011 E.03027
G1 X110.655 Y125.387 E.04058
G1 X110.978 Y125.219 E.01356
G1 E-.35 F2400
;WIPE_START
G1 F1800
G1 X111.864 Y124.755 E-.15
;WIPE_END
G1 Z.4 F18000
G1 X127.846 Y128.355
G1 Z.4
G1 Z.2
G1 E.5 F2400
;TYPE:Bottom surface
;WIDTH:0.501326
G1 F3600
G1 X123.807 Y124.316 E.21337
