; HEADER_BLOCK_START
; generated by OrcaSlicer 2.2.0 on 2024-11-14 at 19:15:21
; total layer number: 30
; filament_density: 1.27
; filament_diameter: 1.75
; max_z_height: 6.00
; HEADER_BLOCK_END

; THUMBNAIL_BLOCK_START

;
; THUMBNAIL_BLOCK_END

; THUMBNAIL_BLOCK_START

;
; THUMBNAIL_BLOCK_END

; external perimeters extrusion width = 0.42mm
; perimeters extrusion width = 0.45mm
; infill extrusion width = 0.45mm
; solid infill extrusion width = 0.45mm
; top infill extrusion width = 0.42mm
; first layer extrusion width = 0.50mm

; EXECUTABLE_BLOCK_START
EXCLUDE_OBJECT_DEFINE NAME=Corps1.stl_id_0_copy_0 CENTER=115,115 POLYGON=[[87.1,94],[142.9,94],[142.9,126],[142.886,126.374],[142.844,126.745],[142.775,127.113],[142.678,127.474],[142.554,127.827],[142.405,128.169],[142.23,128.5],[142.031,128.817],[141.809,129.117],[141.565,129.401],[141.301,129.665],[141.017,129.909],[140.717,130.131],[140.4,130.33],[140.069,130.505],[129.768,135.802],[129.561,135.888],[129.345,135.95],[129.124,135.987],[128.9,136],[101.1,136],[100.876,135.987],[100.655,135.95],[100.439,135.888],[100.232,135.802],[89.9306,130.505],[89.6,130.33],[89.2834,130.131],[88.9826,129.909],[88.6991,129.665],[88.4347,129.401],[88.1908,129.117],[87.9688,128.817],[87.7699,128.5],[87.5952,128.169],[87.4456,127.827],[87.3221,127.474],[87.2254,127.113],[87.1558,126.745],[87.114,126.374],[87.1,126],[87.1,94]]
M73 P0 R15
;TYPE:Custom
M220 S100
G90 ; use absolute coordinates
M83 ; extruder relative mode
M104 S150 ; set temporary nozzle temp to prevent oozing during homing
M140 S70 ; set final bed temp
G4 S30 ; allow partial nozzle warmup
G28 ; home all axis and restore leveling
BED_MESH_CALIBRATE PROFILE=adaptive ADAPTIVE=1 ADAPTIVE_MARGIN=0
G1 Z25 F240
G1 X10.0 Y30 F3000
M104 S245 ; set final nozzle temp
M190 S70 ; wait for bed temp to stabilize
M109 S245 ; wait for nozzle temp to stabilize
G1 Z0.28 F240
G92 E0 ; Move Z Axis up
G1 Z2.0 F5000 ; Move to start position
M73 P1 R14
M73 P1 R14
G1 X5 Y30 Z0.28 F300 ; Draw the first line
G1 X5 Y200 Z0.28 F1500 E15 ; Move to side a little
G1 X5.4 Y200 Z0.28 F5000.0 ; Draw the second line
M73 P2 R14
M73 P2 R14
G1 X5.4 Y50 Z0.28 F1500.0 E30 ; Reset Extruder
G92 E0 ; Move Z Axis up
G1 Z2.0 F3000
M117 Start Printing..
G90
G21
M83 ; use relative distances for extrusion
; filament start gcode
M106 S0
;LAYER_CHANGE
;Z:0.2
;HEIGHT:0.2
;BEFORE_LAYER_CHANGE
;0.2
G92 E0

G1 E-.5 F1800
M73 P3 R14
;_SET_FAN_SPEED_CHANGING_LAYER
SET_VELOCITY_LIMIT ACCEL=1000
SET_VELOCITY_LIMIT SQUARE_CORNER_VELOCITY=7
; printing object Corps1.stl id:0 copy 0
EXCLUDE_OBJECT_START NAME=Corps1.stl_id_0_copy_0
M73 P3 R14
G1 Z.4 F24000
G1 X138.165 Y150.832
G1 Z.4
G1 Z.2
G1 E.5 F1800
;TYPE:Inner wall
;WIDTH:0.499999
G1 F3000
G1 X138.143 Y150.929 E.00357
G1 X138.143 Y153.883 E.10669
G1 X138.107 Y154.276 E.01422
G1 X137.942 Y154.654 E.01491
G1 X137.673 Y154.967 E.01491
G1 X137.304 Y155.163 E.01508
G1 X136.86 Y155.243 E.01629
G1 X109.14 Y155.243 E1.00083
G1 X108.702 Y155.165 E.01607
G1 X108.345 Y154.979 E.01455
G1 X108.122 Y154.73 E.01208
G1 X107.94 Y154.427 E.01274
G1 X107.857 Y153.82 E.02212
G1 X107.857 Y150.797 E.10915
G1 X107.709 Y150.503 E.01188
G1 X107.459 Y150.306 E.0115
G1 X107.171 Y150.243 E.01064
G1 X100.127 Y150.243 E.25435
G1 X99.468 Y150.194 E.02386
G1 X98.85 Y150.053 E.02288
G1 X98.261 Y149.821 E.02286
G1 X97.7 Y149.496 E.02341
G1 X97.216 Y149.109 E.02238
G1 X96.784 Y148.644 E.02289
G1 X96.427 Y148.121 E.02288
G1 X96.152 Y147.549 E.02289
G1 X95.965 Y146.944 E.02289
G1 X95.905 Y146.54 E.01472
G1 X95.857 Y145.986 E.0201
G1 X95.857 Y114.757 E1.12754
G1 X150.143 Y114.757 E1.96004
G1 X150.143 Y145.973 E1.12708
G1 X150.094 Y146.632 E.02386
G1 X149.953 Y147.25 E.02288
G1 X149.721 Y147.84 E.02289
G1 X149.404 Y148.389 E.02289
G1 X149.009 Y148.885 E.02289
G1 X148.544 Y149.316 E.02289
G1 X148.02 Y149.673 E.02289
G1 X147.449 Y149.948 E.02289
G1 X146.844 Y150.135 E.02289
G1 X146.44 Y150.195 E.01472
G1 X145.886 Y150.243 E.0201
G1 X139.511 Y150.243 E.23019
G1 X138.677 Y150.26 E.03011
G1 X138.396 Y150.396 E.01126
G1 X138.214 Y150.625 E.01056
G1 X138.174 Y150.793 E.00624
G1 X138.6 Y150.929 F24000
;TYPE:Outer wall
G1 F3000
G1 X138.6 Y153.883 E.10669
G1 X138.556 Y154.378 E.01793
G1 X138.43 Y154.737 E.01373
G1 X138.228 Y155.059 E.01373
G1 X137.959 Y155.328 E.01372
G1 X137.629 Y155.533 E.01404
G1 X137.278 Y155.656 E.01343
G1 X136.885 Y155.7 E.01428
G1 X109.28 Y155.7 E.99672
G1 X108.722 Y155.656 E.0202
G1 X108.363 Y155.53 E.01373
G1 X108.047 Y155.332 E.01347
G1 X107.659 Y154.898 E.02102
G1 X107.5 Y154.567 E.01323
G1 X107.4 Y153.979 E.02156
G1 X107.4 Y150.929 E.11013
G1 X107.331 Y150.765 E.00639
G1 X107.171 Y150.7 E.00624
G1 X100.11 Y150.7 E.25497
G1 X99.4 Y150.647 E.02572
G1 X98.715 Y150.491 E.02535
G1 X98.061 Y150.234 E.02535
G1 X97.441 Y149.874 E.02589
G1 X96.904 Y149.445 E.02483
G1 X96.426 Y148.93 E.02536
G1 X96.03 Y148.35 E.02536
G1 X95.726 Y147.717 E.02536
G1 X95.519 Y147.046 E.02536
G1 X95.453 Y146.609 E.01596
G1 X95.4 Y145.994 E.02226
G1 X95.4 Y114.3 E1.14436
G1 X150.6 Y114.3 E1.99305
G1 X150.6 Y145.99 E1.1442
G1 X150.547 Y146.7 E.02572
G1 X150.391 Y147.385 E.02536
G1 X150.134 Y148.039 E.02536
G1 X149.783 Y148.647 E.02536
G1 X149.345 Y149.196 E.02536
G1 X148.83 Y149.674 E.02536
G1 X148.25 Y150.07 E.02536
G1 X147.617 Y150.374 E.02536
G1 X146.946 Y150.581 E.02536
G1 X146.509 Y150.647 E.01596
G1 X145.894 Y150.7 E.02226
G1 X138.829 Y150.7 E.25512
G1 X138.67 Y150.764 E.00619
G1 X138.616 Y150.892 E.005
G1 E-.5 F1800
;WIPE_START
G1 F12000
G1 X138.605 Y152.892
;WIPE_END
G1 Z.4 F24000
M73 P4 R14
M73 P4 R14
G1 X142.341 Y132.674 Z.4
G1 Z.2
G1 E.5 F1800
;TYPE:Inner wall
G1 F3000
G1 X142.411 Y132.676 E.00252
G1 X143.059 Y132.85 E.02421
G1 X143.643 Y133.166 E.02399
G1 X144.137 Y133.608 E.02393
G1 X144.516 Y134.153 E.02395
G1 X144.756 Y134.761 E.0236
G1 X144.853 Y135.424 E.02422
G1 X144.795 Y136.077 E.02363
G1 X144.583 Y136.713 E.02424
G1 X144.239 Y137.27 E.02364
G1 X143.77 Y137.738 E.02391
G1 X143.206 Y138.086 E.02394
G1 X142.577 Y138.295 E.02393
G1 X141.916 Y138.353 E.02394
G1 X141.251 Y138.253 E.02429
G1 X140.643 Y138.011 E.02362
G1 X140.101 Y137.63 E.02392
G1 X139.661 Y137.135 E.02393
G1 X139.347 Y136.551 E.02394
G1 X139.175 Y135.9 E.0243
G1 X139.157 Y135.247 E.0236
G1 X139.29 Y134.607 E.02359
G1 X139.556 Y134.033 E.02285
G1 X139.985 Y133.479 E.02532
G1 X140.506 Y133.068 E.02394
G1 X141.107 Y132.789 E.02393
G1 X141.757 Y132.657 E.02395
G1 X142.301 Y132.673 E.01965
G1 X142.329 Y133.13 F24000
;TYPE:Outer wall
G1 F3000
G1 X142.385 Y133.132 E.00201
G1 X142.928 Y133.288 E.02041
G1 X143.414 Y133.562 E.02014
G1 X143.823 Y133.94 E.02012
G1 X144.133 Y134.403 E.02013
G1 X144.327 Y134.917 E.01981
G1 X144.399 Y135.478 E.02041
G1 X144.341 Y136.023 E.01982
G1 X144.153 Y136.557 E.02042
G1 X143.857 Y137.019 E.01982
G1 X143.456 Y137.406 E.02012
G1 X142.977 Y137.691 E.02012
G1 X142.445 Y137.857 E.02012
G1 X141.889 Y137.896 E.02012
G1 X141.331 Y137.803 E.02044
G1 X140.825 Y137.591 E.01982
G1 X140.374 Y137.264 E.02012
G1 X140.011 Y136.841 E.02011
G1 X139.755 Y136.346 E.02012
G1 X139.62 Y135.796 E.02044
G1 X139.614 Y135.247 E.01981
G1 X139.735 Y134.712 E.01981
G1 X139.965 Y134.237 E.01906
G1 X140.335 Y133.773 E.02146
G1 X140.779 Y133.435 E.02012
G1 X141.288 Y133.209 E.02012
G1 X141.836 Y133.107 E.02013
G1 X142.289 Y133.128 E.01636
G1 E-.5 F1800
;WIPE_START
G1 F12000
G1 X142.385 Y133.132
G1 X142.928 Y133.288
G1 X143.414 Y133.562
G1 X143.823 Y133.94
G1 X143.948 Y134.127
;WIPE_END
G1 Z.4 F24000
G1 X126.16 Y122.09 Z.4
G1 Z.2
G1 E.5 F1800
;TYPE:Inner wall
G1 F3000
G1 X125.94 Y122.615 E.02053
G1 X125.54 Y123.191 E.02533
G1 X125.091 Y123.615 E.02232
G1 X124.793 Y123.825 E.01316
G1 X124.328 Y124.082 E.01916
G1 X123.767 Y124.265 E.02131
G1 X123.072 Y124.354 E.02532
G1 X122.373 Y124.295 E.02532
G1 X121.706 Y124.094 E.02515
G1 X121.088 Y123.756 E.02546
G1 X120.556 Y123.297 E.02535
G1 X120.132 Y122.739 E.02532
G1 X119.833 Y122.104 E.02532
G1 X119.672 Y121.422 E.02532
G1 X119.657 Y120.721 E.02532
G1 X119.788 Y120.032 E.02532
G1 X120.06 Y119.385 E.02532
G1 X120.46 Y118.809 E.02532
G1 X120.971 Y118.329 E.02532
G1 X121.571 Y117.966 E.02532
G1 X122.233 Y117.735 E.02532
G1 X122.924 Y117.647 E.02515
G1 X123.626 Y117.705 E.02546
G1 X124.299 Y117.907 E.02535
G1 X124.913 Y118.245 E.02532
G1 X125.444 Y118.703 E.02532
G1 X125.868 Y119.261 E.02532
G1 X126.167 Y119.896 E.02532
G1 X126.328 Y120.578 E.02532
G1 X126.343 Y121.279 E.02532
G1 X126.212 Y121.968 E.02532
G1 X126.176 Y122.054 E.00334
G1 X125.745 Y121.917 F24000
;TYPE:Outer wall
G1 F3000
G1 X125.523 Y122.429 E.02014
G1 X125.17 Y122.922 E.02189
G1 X124.785 Y123.276 E.01889
G1 X124.201 Y123.639 E.02483
G1 X123.626 Y123.831 E.02188
G1 X123.024 Y123.899 E.02188
G1 X122.421 Y123.841 E.02188
G1 X121.847 Y123.66 E.02172
G1 X121.316 Y123.36 E.02204
G1 X120.862 Y122.958 E.02189
G1 X120.501 Y122.47 E.02188
G1 X120.25 Y121.919 E.02188
G1 X120.119 Y121.327 E.02188
G1 X120.114 Y120.721 E.02188
G1 X120.236 Y120.127 E.02188
G1 X120.477 Y119.571 E.02188
G1 X120.83 Y119.078 E.02188
G1 X121.277 Y118.669 E.02188
G1 X121.799 Y118.361 E.02188
G1 X122.374 Y118.169 E.02188
G1 X122.972 Y118.101 E.02172
G1 X123.579 Y118.159 E.02204
G1 X124.157 Y118.342 E.02189
G1 X124.685 Y118.641 E.02188
G1 X125.138 Y119.042 E.02188
G1 X125.499 Y119.53 E.02188
G1 X125.75 Y120.081 E.02188
G1 X125.881 Y120.673 E.02188
G1 X125.886 Y121.279 E.02188
G1 X125.764 Y121.873 E.02188
G1 X125.761 Y121.881 E.0003
G1 E-.5 F1800
;WIPE_START
G1 F12000
G1 X125.523 Y122.429
G1 X125.17 Y122.922
G1 X124.785 Y123.276
G1 X124.553 Y123.42
;WIPE_END
G1 Z.4 F24000
G1 X104.392 Y132.681 Z.4
G1 Z.2
G1 E.5 F1800
;TYPE:Inner wall
G1 F3000
G1 X104.567 Y132.703 E.00637
G1 X105.059 Y132.85 E.01851
G1 X105.643 Y133.166 E.02399
G1 X106.137 Y133.608 E.02393
G1 X106.516 Y134.153 E.02395
G1 X106.756 Y134.761 E.0236
G1 X106.853 Y135.424 E.02422
G1 X106.795 Y136.077 E.02363
G1 X106.583 Y136.713 E.02424
G1 X106.239 Y137.27 E.02364
G1 X105.77 Y137.738 E.02391
G1 X105.206 Y138.086 E.02394
G1 X104.577 Y138.295 E.02393
G1 X103.916 Y138.353 E.02394
G1 X103.251 Y138.253 E.02429
G1 X102.643 Y138.011 E.02362
G1 X102.101 Y137.63 E.02392
G1 X101.661 Y137.135 E.02393
G1 X101.347 Y136.551 E.02394
G1 X101.175 Y135.9 E.0243
G1 X101.157 Y135.247 E.0236
G1 X101.29 Y134.607 E.02359
G1 X101.573 Y134 E.0242
G1 X101.985 Y133.479 E.02401
G1 X102.506 Y133.068 E.02394
G1 X103.107 Y132.789 E.02393
G1 X103.757 Y132.657 E.02395
G1 X104.303 Y132.67 E.01973
G1 X104.353 Y132.676 E.00179
G1 X104.329 Y133.13 F24000
;TYPE:Outer wall
G1 F3000
G1 X104.385 Y133.132 E.00201
G1 X104.928 Y133.288 E.02041
G1 X105.414 Y133.562 E.02014
G1 X105.823 Y133.94 E.02012
G1 X106.133 Y134.403 E.02013
G1 X106.327 Y134.917 E.01981
G1 X106.399 Y135.478 E.02041
G1 X106.341 Y136.023 E.01982
G1 X106.153 Y136.557 E.02042
G1 X105.857 Y137.019 E.01982
G1 X105.456 Y137.406 E.02012
G1 X104.977 Y137.691 E.02012
G1 X104.445 Y137.857 E.02012
G1 X103.889 Y137.896 E.02012
G1 X103.331 Y137.803 E.02044
G1 X102.825 Y137.591 E.01982
G1 X102.374 Y137.264 E.02012
G1 X102.011 Y136.841 E.02011
G1 X101.755 Y136.346 E.02012
G1 X101.62 Y135.796 E.02044
G1 X101.614 Y135.247 E.01981
G1 X101.735 Y134.712 E.01981
G1 X101.981 Y134.204 E.02041
G1 X102.335 Y133.773 E.02015
G1 X102.779 Y133.435 E.02012
G1 X103.288 Y133.209 E.02012
G1 X103.836 Y133.107 E.02013
G1 X104.289 Y133.128 E.01637
G1 E-.5 F1800
;WIPE_START
G1 F12000
G1 X104.385 Y133.132
G1 X104.928 Y133.288
G1 X105.414 Y133.562
G1 X105.823 Y133.94
G1 X105.948 Y134.127
;WIPE_END
G1 Z.4 F24000
G1 X150.006 Y115.821
G1 Z.4
G1 Z.2
G1 E.5 F1800
;TYPE:Bottom surface
;WIDTH:0.501424
G1 F5888.717
G1 X149.284 Y115.1 E.03695
G1 X148.636 Y115.1 E.02348
G1 X149.8 Y116.264 E.05962
G1 X149.8 Y116.912 E.02348
G1 X147.988 Y115.1 E.09284
G1 X147.339 Y115.1 E.02348
G1 X149.8 Y117.561 E.12605
G1 X149.8 Y118.209 E.02348
G1 X146.691 Y115.1 E.15926
G1 X146.042 Y115.1 E.02348
G1 X149.8 Y118.858 E.19247
G1 X149.8 Y119.506 E.02348
G1 X145.394 Y115.1 E.22569
G1 X144.746 Y115.1 E.02348
G1 X149.8 Y120.154 E.2589
G1 X149.8 Y120.803 E.02348
G1 X144.097 Y115.1 E.29211
G1 X143.449 Y115.1 E.02348
G1 X149.8 Y121.451 E.32532
G1 X149.8 Y122.1 E.02348
G1 X142.8 Y115.1 E.35854
G1 X142.152 Y115.1 E.02348
G1 X149.8 Y122.748 E.39175
G1 X149.8 Y123.397 E.02348
G1 X141.503 Y115.1 E.42496
G1 X140.855 Y115.1 E.02348
G1 X149.8 Y124.045 E.45818
G1 X149.8 Y124.693 E.02348
G1 X140.207 Y115.1 E.49139
G1 X139.558 Y115.1 E.02348
G1 X149.8 Y125.342 E.5246
G1 X149.8 Y125.99 E.02348
G1 X138.91 Y115.1 E.55781
G1 X138.261 Y115.1 E.02348
G1 X149.8 Y126.639 E.59103
G1 X149.8 Y127.287 E.02348
G1 X137.613 Y115.1 E.62424
G1 X136.964 Y115.1 E.02348
G1 X149.8 Y127.936 E.65745
G1 X149.8 Y128.584 E.02348
G1 X136.316 Y115.1 E.69066
M73 P5 R14
M73 P5 R14
G1 X135.668 Y115.1 E.02348
G1 X149.8 Y129.232 E.72388
G1 X149.8 Y129.881 E.02348
G1 X135.019 Y115.1 E.75709
G1 X134.371 Y115.1 E.02348
G1 X149.8 Y130.529 E.7903
G1 X149.8 Y131.178 E.02348
G1 X133.722 Y115.1 E.82351
G1 X133.074 Y115.1 E.02348
G1 X149.8 Y131.826 E.85673
G1 X149.8 Y132.474 E.02348
G1 X132.426 Y115.1 E.88994
G1 X131.777 Y115.1 E.02348
G1 X149.8 Y133.123 E.92315
G1 X149.8 Y133.771 E.02348
G1 X131.129 Y115.1 E.95637
G1 X130.48 Y115.1 E.02348
G1 X149.8 Y134.42 E.98958
G1 X149.8 Y135.068 E.02348
G1 X129.832 Y115.1 E1.02279
G1 X129.183 Y115.1 E.02348
G1 X149.8 Y135.717 E1.056
G1 X149.8 Y136.365 E.02348
G1 X128.535 Y115.1 E1.08922
G1 X127.887 Y115.1 E.02348
G1 X149.8 Y137.013 E1.12243
G1 X149.8 Y137.662 E.02348
G1 X127.238 Y115.1 E1.15564
G1 X126.59 Y115.1 E.02348
G1 X149.8 Y138.31 E1.18885
G1 X149.8 Y138.959 E.02348
G1 X125.941 Y115.1 E1.22207
G1 X125.293 Y115.1 E.02348
G1 X142.539 Y132.346 E.88334
G1 X141.852 Y132.308 E.02489
G1 X124.644 Y115.1 E.88141
G1 X123.996 Y115.1 E.02348
G1 X141.29 Y132.394 E.88581
G1 X141.119 Y132.423 E.00629
G1 X140.801 Y132.554 E.01242
G1 X123.348 Y115.1 E.894
G1 X122.699 Y115.1 E.02348
G1 X140.355 Y132.756 E.90436
G1 X139.982 Y133.031 E.01679
G1 X121.845 Y114.894 E.92899
G1 E-.5 F1800
;WIPE_START
G1 F12000
G1 X123.259 Y116.308
;WIPE_END
G1 Z.4 F24000
G1 X123.953 Y117.651 Z.4
G1 Z.2
G1 E.5 F1800
G1 F5888.717
G1 X121.402 Y115.1 E.13066
G1 X120.754 Y115.1 E.02348
M73 P6 R14
M73 P6 R14
G1 X122.959 Y117.305 E.11295
G1 X122.368 Y117.362 E.02151
G1 X120.105 Y115.1 E.11589
G1 X119.457 Y115.1 E.02348
G1 X121.857 Y117.5 E.12293
G1 X121.59 Y117.583 E.01011
G1 X121.385 Y117.677 E.00817
G1 X118.809 Y115.1 E.13198
G1 X118.16 Y115.1 E.02348
G1 X120.974 Y117.914 E.14414
G1 X120.746 Y118.07 E.01002
G1 X120.607 Y118.195 E.00676
G1 X117.512 Y115.1 E.15855
G1 X116.863 Y115.1 E.02348
G1 X120.272 Y118.508 E.17457
G1 X119.989 Y118.874 E.01674
G1 X116.215 Y115.1 E.19331
G1 X115.567 Y115.1 E.02348
G1 X119.736 Y119.27 E.21357
G1 X119.536 Y119.718 E.01779
G1 X114.918 Y115.1 E.23655
G1 X114.27 Y115.1 E.02348
G1 X119.398 Y120.229 E.2627
G1 X119.319 Y120.618 E.01438
G1 X119.318 Y120.797 E.00648
G1 X113.621 Y115.1 E.29179
G1 X112.973 Y115.1 E.02348
G1 X119.596 Y121.723 E.33925
G1 E-.5 F1800
;WIPE_START
G1 F12000
G1 X118.182 Y120.309
;WIPE_END
G1 Z.4 F24000
G1 X126.356 Y120.054 Z.4
G1 Z.2
G1 E.5 F1800
G1 F5888.717
G1 X139.65 Y133.347 E.6809
G1 X139.358 Y133.704 E.01669
G1 X126.683 Y121.029 E.64924
G1 X126.68 Y121.393 E.01319
G1 X126.63 Y121.625 E.00858
G1 X139.132 Y134.127 E.64036
G1 X138.989 Y134.415 E.01167
G1 X138.947 Y134.59 E.00651
G1 X126.514 Y122.157 E.63684
G1 X126.315 Y122.606 E.01779
G1 X138.823 Y135.114 E.64068
G1 X138.815 Y135.754 E.02318
G1 X125.933 Y122.873 E.6598
G1 E-.5 F1800
;WIPE_START
G1 F12000
G1 X127.347 Y124.287
;WIPE_END
G1 Z.4 F24000
G1 X144.873 Y134.68 Z.4
G1 Z.2
G1 E.5 F1800
G1 F5888.717
G1 X149.8 Y139.607 E.25237
G1 X149.8 Y140.256 E.02348
G1 X145.186 Y135.641 E.23635
G1 X145.114 Y136.218 E.02104
G1 X149.8 Y140.904 E.24004
G1 X149.8 Y141.552 E.02348
G1 X144.949 Y136.701 E.24848
G1 X144.903 Y136.836 E.00515
G1 X144.736 Y137.137 E.01247
G1 X149.8 Y142.201 E.25937
G1 X149.8 Y142.849 E.02348
G1 X144.473 Y137.522 E.27287
G1 X144.152 Y137.849 E.01661
G1 X149.8 Y143.498 E.28931
G1 X149.8 Y144.146 E.02348
G1 X143.795 Y138.141 E.30758
