; HEADER_BLOCK_START
; generated by OrcaSlicer 2.0.0 on 2024-05-26 at 21:25:16
; total layer number: 98
; filament_density: 1.24
; filament_diameter: 1.75
; max_z_height: 19.60
; HEADER_BLOCK_END

; THUMBNAIL_BLOCK_START

;
; THUMBNAIL_BLOCK_END

; THUMBNAIL_BLOCK_START

;
; THUMBNAIL_BLOCK_END

; external perimeters extrusion width = 0.40mm
; perimeters extrusion width = 0.42mm
; infill extrusion width = 0.45mm
; solid infill extrusion width = 0.42mm
; top infill extrusion width = 0.40mm
; first layer extrusion width = 0.50mm

; EXECUTABLE_BLOCK_START
EXCLUDE_OBJECT_DEFINE NAME=Corps35.stl_id_0_copy_0 CENTER=115,115 POLYGON=[[80.9965,74.609],[81.0042,74.6047],[81.0274,74.592],[81.066,74.571],[81.1199,74.5418],[81.189,74.5045],[81.2732,74.4593],[81.3726,74.4062],[81.4869,74.3456],[81.6156,74.2777],[81.7575,74.2035],[81.9114,74.1238],[82.0761,74.0392],[82.2504,73.9505],[82.2836,73.9337],[82.433,73.8586],[82.6227,73.7643],[82.8201,73.6673],[83.0288,73.5661],[83.2484,73.4609],[83.4781,73.3525],[83.5914,73.2994],[83.7172,73.2412],[83.9648,73.1277],[84.2202,73.0124],[84.4825,72.8959],[84.7511,72.7787],[84.9186,72.7067],[85.0251,72.6614],[85.3033,72.5445],[85.5845,72.4284],[85.8677,72.3137],[86.1516,72.2007],[86.2639,72.1563],[86.4351,72.0899],[86.7172,71.9819],[86.9965,71.8771],[87.6259,71.6486],[88.3749,71.39],[89.0032,71.1842],[89.7682,70.947],[90.3945,70.7636],[91.1748,70.5485],[91.7984,70.3871],[92.5934,70.1949],[93.2136,70.0552],[94.0224,69.8865],[94.6385,69.7682],[95.4606,69.6237],[96.0717,69.5263],[96.9064,69.4068],[97.5119,69.3298],[98.3584,69.2359],[98.9575,69.179],[99.815,69.1112],[100.407,69.0738],[101.275,69.0329],[101.86,69.0146],[102.737,69.001],[103.313,69.0012],[104.198,69.0156],[104.766,69.0338],[105.659,69.0766],[106.218,69.1122],[107.117,69.184],[107.666,69.2365],[108.571,69.3377],[109.109,69.4065],[110.019,69.5375],[110.547,69.622],[111.46,69.7833],[111.977,69.8828],[112.893,70.0747],[113.398,70.1887],[114.316,70.4115],[114.808,70.5393],[115.727,70.7933],[116.207,70.9343],[117.125,71.2198],[117.593,71.3733],[118.509,71.6905],[118.964,71.8558],[119.878,72.205],[120.319,72.3814],[121.229,72.7626],[121.657,72.9496],[122.562,73.363],[122.976,73.5598],[123.876,74.0054],[124.275,74.2113],[125.168,74.6892],[125.553,74.9036],[126.438,75.4137],[126.809,75.6359],[127.684,76.1783],[128.041,76.4075],[128.905,76.982],[129.248,77.2176],[130.1,77.8241],[130.428,78.0655],[131.268,78.7038],[131.581,78.9502],[132.407,79.6202],[132.706,79.871],[133.516,80.5723],[133.801,80.8268],[134.595,81.5591],[134.866,81.8167],[135.642,82.5798],[135.898,82.8397],[136.656,83.6332],[136.898,83.8949],[137.635,84.7183],[137.864,84.9811],[138.58,85.8339],[138.795,86.0973],[139.489,86.979],[139.69,87.2424],[140.361,88.1525],[140.549,88.4152],[141.195,89.353],[141.37,89.6145],[141.991,90.5795],[142.153,90.8392],[142.747,91.8306],[142.896,92.0879],[143.464,93.1051],[143.6,93.3596],[144.139,94.4018],[144.264,94.6529],[144.773,95.7192],[144.886,95.9665],[145.364,97.0561],[145.467,97.299],[145.913,98.4112],[146.005,98.6493],[146.419,99.783],[146.5,100.016],[146.88,101.17],[146.951,101.397],[147.298,102.571],[147.359,102.793],[147.67,103.985],[147.723,104.2],[147.738,104.264],[147.805,104.547],[147.871,104.833],[147.935,105.119],[147.997,105.406],[148.042,105.618],[148.057,105.691],[148.114,105.974],[148.169,106.252],[148.221,106.525],[148.27,106.791],[148.316,107.045],[148.36,107.302],[148.4,107.543],[148.438,107.775],[148.472,107.995],[148.504,108.204],[148.533,108.402],[148.544,108.481],[148.56,108.592],[148.585,108.774],[148.608,108.946],[148.63,109.108],[148.649,109.258],[148.666,109.395],[148.681,109.519],[148.694,109.629],[148.705,109.723],[148.714,109.803],[148.722,109.868],[148.727,109.919],[148.731,109.955],[148.734,109.977],[148.734,109.984],[148.865,111.37],[148.868,111.406],[148.957,112.82],[148.957,112.831],[149.003,114.258],[149.003,114.273],[149.004,115.686],[149.003,115.727],[148.96,117.114],[148.957,117.18],[148.872,118.539],[148.865,118.63],[148.74,119.961],[148.74,119.968],[148.737,119.99],[148.733,120.026],[148.728,120.077],[148.72,120.142],[148.711,120.222],[148.7,120.316],[148.688,120.425],[148.673,120.549],[148.656,120.687],[148.637,120.837],[148.616,120.999],[148.593,121.171],[148.568,121.353],[148.544,121.519],[148.541,121.543],[148.512,121.741],[148.481,121.949],[148.446,122.17],[148.409,122.401],[148.369,122.643],[148.326,122.894],[148.316,122.954],[148.28,123.153],[148.231,123.42],[148.18,123.693],[148.125,123.972],[148.068,124.254],[148.042,124.382],[148.008,124.539],[147.946,124.826],[147.883,125.113],[147.818,125.399],[147.751,125.682],[147.723,125.8],[147.684,125.961],[147.359,127.207],[147.312,127.376],[146.951,128.602],[146.896,128.779],[146.5,129.984],[146.436,130.168],[146.005,131.351],[145.932,131.541],[145.467,132.701],[145.384,132.898],[144.886,134.033],[144.793,134.236],[144.264,135.347],[144.161,135.555],[143.6,136.64],[143.486,136.853],[142.896,137.912],[142.771,138.13],[142.153,139.161],[142.015,139.382],[141.37,140.385],[141.22,140.61],[140.549,141.585],[140.386,141.813],[139.69,142.758],[139.515,142.988],[138.795,143.903],[138.606,144.134],[137.864,145.019],[137.662,145.252],[136.898,146.105],[136.682,146.338],[135.898,147.16],[135.668,147.393],[134.866,148.183],[134.622,148.416],[133.801,149.173],[133.543,149.404],[132.706,150.129],[132.434,150.358],[131.581,151.05],[131.294,151.276],[130.428,151.934],[130.126,152.157],[129.248,152.782],[128.931,153],[128.041,153.592],[127.709,153.805],[126.809,154.364],[126.463,154.571],[125.553,155.096],[125.193,155.297],[124.275,155.789],[123.9,155.982],[122.976,156.44],[122.586,156.626],[121.657,157.05],[121.252,157.227],[120.319,157.619],[119.9,157.786],[118.964,158.144],[118.531,158.302],[117.593,158.627],[117.146,158.773],[116.207,159.066],[115.747,159.201],[114.808,159.461],[114.335,159.584],[113.398,159.811],[112.911,159.921],[111.977,160.117],[111.478,160.213],[110.547,160.378],[110.036,160.46],[109.109,160.593],[108.587,160.66],[107.666,160.763],[107.132,160.815],[106.218,160.888],[105.673,160.923],[104.766,160.966],[104.211,160.984],[103.313,160.999],[102.748,160.999],[101.86,160.985],[101.285,160.967],[100.407,160.926],[99.8244,160.889],[98.9575,160.821],[98.3667,160.765],[97.5119,160.67],[96.9137,160.594],[96.0717,160.474],[95.4668,160.377],[94.6385,160.232],[94.0276,160.114],[93.2136,159.945],[92.5974,159.806],[91.7984,159.613],[91.1778,159.452],[90.3945,159.236],[89.7702,159.054],[89.0032,158.816],[88.3759,158.61],[87.6259,158.351],[86.9965,158.123],[86.7172,158.018],[86.4351,157.91],[86.2639,157.844],[86.1516,157.799],[85.8677,157.686],[85.5845,157.572],[85.3033,157.455],[85.0251,157.338],[84.9186,157.293],[84.7511,157.221],[84.4825,157.104],[84.2202,156.988],[83.9648,156.872],[83.7172,156.759],[83.5914,156.701],[83.4781,156.647],[83.2484,156.539],[83.0288,156.434],[82.8201,156.333],[82.6227,156.236],[82.433,156.141],[82.2836,156.066],[82.2504,156.049],[82.0761,155.961],[81.9114,155.876],[81.7575,155.796],[81.6156,155.722],[81.4869,155.654],[81.3726,155.594],[81.2732,155.541],[81.189,155.495],[81.1199,155.458],[81.066,155.429],[81.0274,155.408],[81.0042,155.395],[80.9965,155.391],[80.9965,74.609]]
M73 P0 R40
;TYPE:Custom
M220 S100
G90 ; use absolute coordinates
M83 ; extruder relative mode
M104 S150 ; set temporary nozzle temp to prevent oozing during homing
M140 S55 ; set final bed temp
G4 S30 ; allow partial nozzle warmup
G28 ; home all axis and restore leveling
G1 Z25 F240
G1 X10.0 Y30 F3000
M104 S210 ; set final nozzle temp
M190 S55 ; wait for bed temp to stabilize
M109 S210 ; wait for nozzle temp to stabilize
G1 Z0.28 F240
G92 E0 ; Move Z Axis up
G1 Z2.0 F5000 ; Move to start position
G1 X5 Y30 Z0.28 F300 ; Draw the first line
G1 X5 Y200 Z0.28 F1500 E15 ; Move to side a little
G1 X5.4 Y200 Z0.28 F5000.0 ; Draw the second line
G1 X5.4 Y50 Z0.28 F1500.0 E30 ; Reset Extruder
G92 E0 ; Move Z Axis up
G1 Z2.0 F3000
M117 Start Printing..
G90
G21
M83 ; use relative distances for extrusion
; filament start gcode
M106 S0
;LAYER_CHANGE
;Z:0.2
;HEIGHT:0.2
;BEFORE_LAYER_CHANGE
;0.2
G92 E0

M73 P1 R40
G1 E-.5 F2400
;_SET_FAN_SPEED_CHANGING_LAYER
SET_VELOCITY_LIMIT ACCEL=500 ACCEL_TO_DECEL=250
SET_VELOCITY_LIMIT SQUARE_CORNER_VELOCITY=7
; printing object Corps35.stl id:0 copy 0
EXCLUDE_OBJECT_START NAME=Corps35.stl_id_0_copy_0
G1 Z.2 F18000
G1 X89.704 Y174.735
G1 Z.2
G1 E.5 F2400
;TYPE:Inner wall
;WIDTH:0.499999
G1 F1800
G1 X89.704 Y147.371 E1.01924
G1 X93.321 Y147.371 E.13474
G1 X94.238 Y147.346 E.03416
G1 X94.515 Y147.194 E.01178
G1 X95.087 Y146.679 E.02866
G1 X95.682 Y146.335 E.0256
G1 X96.336 Y146.123 E.02561
G1 X97.02 Y146.051 E.02561
G1 X97.703 Y146.123 E.02561
G1 X98.357 Y146.335 E.02561
G1 X98.846 Y146.618 E.02103
G1 X99.695 Y147.307 E.04072
G1 X99.983 Y147.371 E.01099
G1 X120.075 Y147.371 E.74834
G1 X120.882 Y147.341 E.0301
G1 X121.477 Y147.285 E.02225
G1 X121.994 Y147.21 E.01946
G1 X122.785 Y147.057 E.03
G1 X123.495 Y146.871 E.02734
G1 X123.671 Y146.796 E.00713
;WIDTH:0.463269
G1 X123.847 Y146.72 E.00656
;WIDTH:0.426539
G1 X124.023 Y146.645 E.00598
;WIDTH:0.415296
G1 X124.308 Y146.554 E.00909
;WIDTH:0.440783
G1 X124.594 Y146.464 E.00971
;WIDTH:0.470391
G1 X124.935 Y146.331 E.01274
;WIDTH:0.499999
G1 X125.275 Y146.199 E.01362
G1 X125.96 Y145.849 E.02864
G1 X126.83 Y145.314 E.03805
G1 X127.398 Y144.912 E.02593
G1 X127.945 Y144.477 E.02602
G1 X128.467 Y144.01 E.02608
G1 X128.972 Y143.504 E.02663
G1 X129.479 Y142.926 E.02864
G1 X129.967 Y142.291 E.02983
G1 X130.377 Y141.686 E.02722
G1 X130.745 Y141.063 E.02696
G1 X130.98 Y140.605 E.01916
G1 X131.276 Y139.965 E.02628
G1 X131.535 Y139.308 E.0263
G1 X131.755 Y138.637 E.0263
G1 X131.937 Y137.955 E.02629
G1 X132.079 Y137.264 E.02626
G1 X132.182 Y136.568 E.0262
G1 X132.244 Y135.87 E.02612
G1 X132.265 Y135.142 E.02713
G1 X132.24 Y134.375 E.02856
G1 X132.166 Y133.612 E.02856
G1 X132.045 Y132.855 E.02856
G1 X131.757 Y131.696 E.04446
G1 X131.541 Y131.037 E.02586
G1 X131.287 Y130.388 E.02595
G1 X130.996 Y129.753 E.02603
G1 X130.668 Y129.134 E.02608
G1 X130.306 Y128.536 E.02604
G1 X129.899 Y127.942 E.0268
G1 X129.45 Y127.366 E.02721
G1 X128.942 Y126.792 E.02856
G1 X128.399 Y126.25 E.02856
G1 X127.823 Y125.744 E.02856
G1 X126.94 Y125.088 E.04097
G1 X126.522 Y124.81 E.01871
G1 X125.705 Y124.346 E.03499
G1 X124.94 Y123.981 E.03156
G1 X124.374 Y123.749 E.02278
G1 X123.792 Y123.542 E.02301
G1 X122.996 Y123.318 E.0308
G1 X122.094 Y123.132 E.0343
G1 X121.425 Y123.037 E.02517
G1 X120.804 Y122.979 E.02325
G1 X120.059 Y122.956 E.02775
G1 X100.309 Y122.956 E.73559
G1 X100.019 Y123.021 E.01106
G1 X99.824 Y123.157 E.00887
G1 X99.277 Y123.711 E.029
G1 X98.698 Y124.09 E.02576
G1 X98.053 Y124.339 E.02577
G1 X97.37 Y124.448 E.02577
G1 X96.679 Y124.411 E.02577
G1 X96.011 Y124.231 E.02577
G1 X95.395 Y123.915 E.02577
G1 X94.919 Y123.526 E.02293
G1 X94.596 Y123.186 E.01747
G1 X94.375 Y123.021 E.01026
G1 X94.084 Y122.956 E.0111
G1 X89.704 Y122.956 E.16314
G1 X89.704 Y95.265 E1.03141
G1 X90.461 Y94.864 E.03192
G1 X91.738 Y94.236 E.05301
G1 X93.039 Y93.646 E.05322
G1 X94.359 Y93.097 E.05322
G1 X95.695 Y92.59 E.05322
G1 X97.046 Y92.126 E.05322
G1 X98.412 Y91.706 E.05322
G1 X99.79 Y91.328 E.05322
G1 X101.18 Y90.995 E.05322
G1 X102.579 Y90.705 E.05322
G1 X103.987 Y90.46 E.05322
G1 X105.401 Y90.26 E.05322
G1 X106.822 Y90.105 E.05322
G1 X108.246 Y89.995 E.05322
G1 X109.674 Y89.93 E.05322
G1 X111.103 Y89.91 E.05322
G1 X112.042 Y89.927 E.03499
G1 X113.961 Y90.007 E.07155
G1 X115.383 Y90.123 E.05312
G1 X116.802 Y90.284 E.05322
G1 X118.216 Y90.49 E.05322
G1 X119.623 Y90.741 E.05322
G1 X121.021 Y91.036 E.05322
G1 X122.409 Y91.375 E.05322
G1 X123.786 Y91.758 E.05322
G1 X125.149 Y92.185 E.05322
G1 X126.499 Y92.654 E.05322
G1 X127.833 Y93.167 E.05322
G1 X129.15 Y93.721 E.05322
G1 X130.449 Y94.316 E.05322
G1 X131.728 Y94.953 E.05322
G1 X132.987 Y95.629 E.05322
G1 X134.223 Y96.345 E.05322
G1 X135.021 Y96.842 E.03499
G1 X136.627 Y97.895 E.07156
G1 X137.788 Y98.724 E.05311
G1 X138.924 Y99.59 E.05322
G1 X140.032 Y100.493 E.05322
G1 X141.111 Y101.43 E.05322
G1 X142.159 Y102.4 E.05322
G1 X143.177 Y103.404 E.05322
G1 X144.162 Y104.439 E.05322
G1 X145.113 Y105.505 E.05322
G1 X146.031 Y106.6 E.05322
G1 X146.913 Y107.724 E.05323
G1 X147.469 Y108.481 E.03498
G1 X148.57 Y110.055 E.07156
G1 X149.34 Y111.256 E.05311
G1 X150.073 Y112.482 E.05322
G1 X150.767 Y113.731 E.05322
G1 X151.421 Y115.002 E.05322
G1 X152.035 Y116.292 E.05322
G1 X152.607 Y117.602 E.05322
G1 X153.137 Y118.928 E.05322
G1 X153.625 Y120.271 E.05322
G1 X154.071 Y121.629 E.05322
G1 X154.473 Y123 E.05322
G1 X154.708 Y123.91 E.03498
G1 X155.146 Y125.78 E.07155
G1 X155.415 Y127.181 E.05312
G1 X155.641 Y128.591 E.05322
G1 X155.822 Y130.009 E.05322
G1 X155.958 Y131.436 E.05338
G1 X156.043 Y132.785 E.05037
G1 X156.093 Y134.371 E.05909
G1 X156.093 Y135.714 E.05001
G1 X156.048 Y137.14 E.05316
G1 X155.958 Y138.564 E.05316
G1 X155.822 Y139.991 E.05338
G1 X155.641 Y141.409 E.05322
G1 X155.415 Y142.819 E.05322
G1 X155.145 Y144.223 E.05322
G1 X154.831 Y145.617 E.05322
G1 X154.473 Y147 E.05322
G1 X154.071 Y148.371 E.05322
G1 X153.625 Y149.729 E.05322
G1 X153.304 Y150.611 E.03498
G1 X152.606 Y152.401 E.07156
G1 X152.035 Y153.708 E.05311
G1 X151.631 Y154.556 E.03499
G1 X150.766 Y156.271 E.07155
G1 X150.073 Y157.518 E.05311
G1 X149.34 Y158.744 E.05322
G1 X148.569 Y159.947 E.05322
G1 X147.759 Y161.124 E.05322
G1 X146.913 Y162.276 E.05322
G1 X146.031 Y163.4 E.05323
G1 X145.113 Y164.495 E.05322
G1 X144.162 Y165.561 E.05322
G1 X143.514 Y166.242 E.03499
G1 X142.157 Y167.602 E.07155
G1 X141.111 Y168.57 E.05311
G1 X140.032 Y169.507 E.05322
G1 X138.924 Y170.41 E.05322
G1 X137.788 Y171.276 E.05322
G1 X136.625 Y172.107 E.05322
G1 X135.436 Y172.9 E.05322
G1 X134.223 Y173.655 E.05322
G1 X133.41 Y174.125 E.03499
G1 X131.726 Y175.049 E.07155
G1 X130.449 Y175.684 E.05311
G1 X129.15 Y176.279 E.05322
G1 X127.833 Y176.833 E.05322
G1 X126.499 Y177.345 E.05322
G1 X125.149 Y177.815 E.05322
G1 X123.786 Y178.242 E.05322
G1 X122.881 Y178.493 E.03499
G1 X121.018 Y178.965 E.07155
G1 X119.623 Y179.259 E.05311
G1 X118.216 Y179.51 E.05322
G1 X116.802 Y179.716 E.05322
G1 X115.383 Y179.877 E.05322
G1 X113.958 Y179.993 E.05322
G1 X112.531 Y180.064 E.05322
G1 X111.592 Y180.081 E.03498
G1 X109.671 Y180.07 E.07156
G1 X108.246 Y180.005 E.05311
G1 X106.822 Y179.895 E.05322
G1 X105.401 Y179.74 E.05322
G1 X103.987 Y179.54 E.05322
G1 X102.579 Y179.295 E.05322
G1 X101.659 Y179.104 E.03499
G1 X99.787 Y178.671 E.07156
G1 X98.412 Y178.294 E.05311
G1 X97.046 Y177.873 E.05322
G1 X95.695 Y177.41 E.05322
G1 X94.359 Y176.903 E.05322
G1 X93.039 Y176.354 E.05322
G1 X91.738 Y175.764 E.05322
G1 X90.461 Y175.136 E.05301
G1 X89.739 Y174.754 E.03042
G1 E-.35 F2400
;WIPE_START
G1 F1800
G1 X89.738 Y173.754 E-.15
;WIPE_END
G1 Z.4 F18000
G1 X141.754 Y137.962 Z.4
G1 Z.2
G1 E.5 F2400
G1 F1800
G1 X142.374 Y138.048 E.02331
G1 X143.061 Y138.188 E.02613
G1 X143.739 Y138.37 E.02613
G1 X144.404 Y138.594 E.02613
G1 X145.053 Y138.858 E.02613
G1 X145.685 Y139.163 E.02613
G1 X146.297 Y139.506 E.02613
G1 X146.887 Y139.887 E.02613
G1 X147.451 Y140.303 E.02613
G1 X147.914 Y140.692 E.0225
G1 X148.497 Y141.238 E.02975
G1 X148.975 Y141.752 E.02613
G1 X149.419 Y142.295 E.02613
G1 X149.808 Y142.834 E.02477
G1 X150.203 Y143.458 E.02749
G1 X150.539 Y144.074 E.02613
G1 X150.836 Y144.709 E.02613
G1 X151.093 Y145.362 E.02613
G1 X151.309 Y146.03 E.02613
G1 X151.483 Y146.709 E.02613
G1 X151.615 Y147.398 E.02613
G1 X151.703 Y148.094 E.02613
G1 X151.748 Y148.795 E.02613
G1 X151.749 Y149.414 E.02306
G1 X151.707 Y150.196 E.0292
G1 X151.621 Y150.893 E.02613
G1 X151.492 Y151.582 E.02613
G1 X151.321 Y152.263 E.02613
G1 X151.107 Y152.931 E.02613
G1 X150.853 Y153.585 E.02613
G1 X150.626 Y154.076 E.02015
G1 X150.224 Y154.839 E.0321
G1 X149.853 Y155.434 E.02613
G1 X149.445 Y156.005 E.02613
G1 X149.003 Y156.549 E.02613
G1 X148.527 Y157.065 E.02613
G1 X148.02 Y157.55 E.02613
G1 X147.485 Y158.003 E.02613
G1 X146.945 Y158.405 E.02505
G1 X146.334 Y158.805 E.02721
G1 X145.895 Y159.054 E.01879
