; HEADER_BLOCK_START
; generated by OrcaSlicer 2.1.1 on 2024-08-20 at 13:27:52
; total layer number: 50
; filament_density: 1.27
; filament_diameter: 1.75
; max_z_height: 10.00
; HEADER_BLOCK_END

; THUMBNAIL_BLOCK_START

;
; THUMBNAIL_BLOCK_END

; THUMBNAIL_BLOCK_START

;
; THUMBNAIL_BLOCK_END

; external perimeters extrusion width = 0.42mm
; perimeters extrusion width = 0.45mm
; infill extrusion width = 0.45mm
; solid infill extrusion width = 0.45mm
; top infill extrusion width = 0.42mm
; first layer extrusion width = 0.50mm

; external perimeters extrusion width = 0.42mm
; perimeters extrusion width = 0.45mm
; infill extrusion width = 0.45mm
; solid infill extrusion width = 0.45mm
; top infill extrusion width = 0.42mm
; first layer extrusion width = 0.50mm

; EXECUTABLE_BLOCK_START
EXCLUDE_OBJECT_DEFINE NAME=Corps1.stl_id_0_copy_0 CENTER=115,115 POLYGON=[[112,117.197],[112,112.129],[112.005,111.993],[112.016,111.857],[112.033,111.722],[112.056,111.588],[112.085,111.456],[112.121,111.324],[112.162,111.194],[112.209,111.067],[112.262,110.941],[112.32,110.819],[112.384,110.698],[112.453,110.581],[112.528,110.468],[112.607,110.357],[112.692,110.251],[112.781,110.148],[112.875,110.049],[112.973,109.955],[113.075,109.866],[113.076,109.865],[113.077,109.865],[113.08,109.864],[113.083,109.863],[113.092,109.859],[113.105,109.855],[113.12,109.851],[113.124,109.85],[113.126,109.849],[113.139,109.846],[113.16,109.841],[113.173,109.839],[113.178,109.838],[113.184,109.838],[113.209,109.835],[113.224,109.834],[113.231,109.834],[113.236,109.833],[116.761,109.833],[116.769,109.834],[116.776,109.834],[116.787,109.835],[116.812,109.837],[116.822,109.838],[116.827,109.839],[116.834,109.84],[116.854,109.844],[116.872,109.849],[116.874,109.849],[116.876,109.85],[116.888,109.853],[116.902,109.857],[116.914,109.861],[116.918,109.863],[116.922,109.864],[116.924,109.865],[116.925,109.866],[117.027,109.955],[117.125,110.049],[117.219,110.148],[117.308,110.251],[117.393,110.357],[117.472,110.468],[117.547,110.581],[117.616,110.698],[117.68,110.819],[117.738,110.941],[117.791,111.067],[117.838,111.194],[117.879,111.324],[117.915,111.456],[117.944,111.588],[117.967,111.722],[117.984,111.857],[117.995,111.993],[118,112.129],[118,117.197],[117.999,117.224],[117.995,117.333],[117.994,117.36],[117.985,117.468],[117.982,117.497],[117.968,117.603],[117.964,117.633],[117.945,117.736],[117.939,117.767],[117.917,117.869],[117.909,117.901],[117.882,118],[117.872,118.033],[117.841,118.13],[117.83,118.163],[117.795,118.257],[117.781,118.291],[117.743,118.382],[117.727,118.417],[117.685,118.505],[117.667,118.54],[117.622,118.625],[117.602,118.66],[117.553,118.742],[117.531,118.777],[117.479,118.856],[117.455,118.891],[117.4,118.966],[117.374,119.001],[117.316,119.073],[117.288,119.108],[117.228,119.176],[117.197,119.21],[117.135,119.275],[117.101,119.308],[117.037,119.369],[117.001,119.402],[116.935,119.459],[116.897,119.491],[116.83,119.544],[116.789,119.575],[116.72,119.624],[116.677,119.654],[116.607,119.7],[116.562,119.728],[116.491,119.77],[116.444,119.796],[116.372,119.835],[116.322,119.86],[116.25,119.894],[116.198,119.917],[116.125,119.948],[116.071,119.969],[115.998,119.996],[115.942,120.015],[115.869,120.038],[115.811,120.055],[115.739,120.074],[115.679,120.089],[115.606,120.105],[115.545,120.117],[115.473,120.129],[115.409,120.139],[115.339,120.147],[115.273,120.154],[115.203,120.16],[115.137,120.164],[115.068,120.166],[115,120.167],[114.932,120.166],[114.863,120.164],[114.797,120.16],[114.727,120.154],[114.661,120.147],[114.591,120.139],[114.527,120.129],[114.455,120.117],[114.394,120.105],[114.321,120.089],[114.261,120.074],[114.189,120.055],[114.131,120.038],[114.058,120.015],[114.002,119.996],[113.929,119.969],[113.875,119.948],[113.802,119.917],[113.75,119.894],[113.678,119.86],[113.628,119.835],[113.556,119.796],[113.509,119.77],[113.438,119.728],[113.393,119.7],[113.323,119.654],[113.28,119.624],[113.211,119.575],[113.17,119.544],[113.103,119.491],[113.065,119.459],[112.999,119.402],[112.963,119.369],[112.899,119.308],[112.865,119.275],[112.803,119.21],[112.772,119.176],[112.712,119.108],[112.684,119.073],[112.626,119.001],[112.6,118.966],[112.545,118.891],[112.521,118.856],[112.469,118.777],[112.447,118.742],[112.398,118.66],[112.378,118.625],[112.333,118.54],[112.315,118.505],[112.273,118.417],[112.257,118.382],[112.219,118.291],[112.205,118.257],[112.17,118.163],[112.159,118.13],[112.128,118.033],[112.118,118],[112.091,117.901],[112.083,117.869],[112.061,117.767],[112.055,117.736],[112.036,117.633],[112.032,117.603],[112.018,117.497],[112.015,117.468],[112.006,117.36],[112.005,117.333],[112.001,117.224],[112,117.197]]
EXCLUDE_OBJECT_DEFINE NAME=Corps1.stl_id_1_copy_0 CENTER=108,115 POLYGON=[[105,117.197],[105.001,112.129],[105.005,111.993],[105.016,111.857],[105.033,111.722],[105.057,111.588],[105.086,111.456],[105.121,111.324],[105.162,111.194],[105.209,111.067],[105.262,110.941],[105.32,110.819],[105.384,110.698],[105.453,110.581],[105.528,110.468],[105.607,110.357],[105.692,110.251],[105.781,110.148],[105.875,110.049],[105.973,109.955],[106.075,109.866],[106.076,109.865],[106.078,109.865],[106.08,109.864],[106.083,109.863],[106.092,109.859],[106.105,109.855],[106.121,109.851],[106.124,109.85],[106.126,109.849],[106.139,109.846],[106.16,109.841],[106.174,109.839],[106.178,109.838],[106.184,109.838],[106.209,109.835],[106.225,109.834],[106.231,109.834],[106.237,109.833],[109.761,109.833],[109.77,109.834],[109.776,109.834],[109.788,109.835],[109.812,109.837],[109.823,109.838],[109.827,109.839],[109.834,109.84],[109.855,109.844],[109.873,109.849],[109.875,109.849],[109.877,109.85],[109.888,109.853],[109.902,109.857],[109.914,109.861],[109.919,109.863],[109.922,109.864],[109.924,109.865],[109.925,109.866],[110.027,109.955],[110.126,110.049],[110.219,110.148],[110.309,110.251],[110.393,110.357],[110.473,110.468],[110.547,110.581],[110.616,110.698],[110.68,110.819],[110.739,110.941],[110.791,111.067],[110.838,111.194],[110.88,111.324],[110.915,111.456],[110.944,111.588],[110.967,111.722],[110.984,111.857],[110.995,111.993],[111,112.129],[111,117.197],[111,117.224],[110.996,117.333],[110.994,117.36],[110.985,117.468],[110.982,117.497],[110.968,117.603],[110.964,117.633],[110.946,117.736],[110.94,117.767],[110.917,117.869],[110.909,117.901],[110.882,118],[110.873,118.033],[110.842,118.13],[110.83,118.163],[110.795,118.257],[110.782,118.291],[110.743,118.382],[110.728,118.417],[110.685,118.505],[110.668,118.54],[110.622,118.625],[110.602,118.66],[110.553,118.742],[110.531,118.777],[110.479,118.856],[110.455,118.891],[110.4,118.966],[110.374,119.001],[110.317,119.073],[110.288,119.108],[110.228,119.176],[110.197,119.21],[110.135,119.275],[110.101,119.308],[110.037,119.369],[110.002,119.402],[109.936,119.459],[109.897,119.491],[109.83,119.544],[109.789,119.575],[109.721,119.624],[109.678,119.654],[109.608,119.7],[109.562,119.728],[109.492,119.77],[109.444,119.796],[109.372,119.835],[109.323,119.86],[109.25,119.894],[109.198,119.917],[109.126,119.948],[109.072,119.969],[108.999,119.996],[108.943,120.015],[108.87,120.038],[108.812,120.055],[108.739,120.074],[108.679,120.089],[108.607,120.105],[108.545,120.117],[108.473,120.129],[108.41,120.139],[108.339,120.147],[108.274,120.154],[108.204,120.16],[108.137,120.164],[108.068,120.166],[108,120.167],[107.932,120.166],[107.863,120.164],[107.797,120.16],[107.727,120.154],[107.662,120.147],[107.591,120.139],[107.527,120.129],[107.456,120.117],[107.394,120.105],[107.322,120.089],[107.262,120.074],[107.189,120.055],[107.131,120.038],[107.058,120.015],[107.002,119.996],[106.929,119.969],[106.875,119.948],[106.802,119.917],[106.75,119.894],[106.678,119.86],[106.628,119.835],[106.557,119.796],[106.509,119.77],[106.438,119.728],[106.393,119.7],[106.323,119.654],[106.28,119.624],[106.211,119.575],[106.171,119.544],[106.103,119.491],[106.065,119.459],[105.999,119.402],[105.963,119.369],[105.899,119.308],[105.866,119.275],[105.804,119.21],[105.773,119.176],[105.713,119.108],[105.684,119.073],[105.627,119.001],[105.6,118.966],[105.545,118.891],[105.521,118.856],[105.469,118.777],[105.447,118.742],[105.398,118.66],[105.379,118.625],[105.333,118.54],[105.315,118.505],[105.273,118.417],[105.258,118.382],[105.219,118.291],[105.206,118.257],[105.171,118.163],[105.159,118.13],[105.128,118.033],[105.118,118],[105.092,117.901],[105.084,117.869],[105.061,117.767],[105.055,117.736],[105.037,117.633],[105.032,117.603],[105.019,117.497],[105.015,117.468],[105.007,117.36],[105.005,117.333],[105.001,117.224],[105,117.197]]
M73 P0 R5
;TYPE:Custom
M220 S100
G90 ; use absolute coordinates
M83 ; extruder relative mode
M104 S150 ; set temporary nozzle temp to prevent oozing during homing
M140 S70 ; set final bed temp
G4 S30 ; allow partial nozzle warmup
G28 ; home all axis and restore leveling
BED_MESH_CALIBRATE PROFILE=adaptive ADAPTIVE=1 ADAPTIVE_MARGIN=0
G1 Z25 F240
G1 X10.0 Y30 F3000
M104 S245 ; set final nozzle temp
M190 S70 ; wait for bed temp to stabilize
M109 S245 ; wait for nozzle temp to stabilize
M73 P1 R5
G1 Z0.28 F240
G92 E0 ; Move Z Axis up
M73 P2 R5
G1 Z2.0 F5000 ; Move to start position
M73 P4 R5
G1 X5 Y30 Z0.28 F300 ; Draw the first line
G1 X5 Y200 Z0.28 F1500 E15 ; Move to side a little
G1 X5.4 Y200 Z0.28 F5000.0 ; Draw the second line
M73 P6 R5
G1 X5.4 Y50 Z0.28 F1500.0 E30 ; Reset Extruder
G92 E0 ; Move Z Axis up
G1 Z2.0 F3000
M117 Start Printing..
G90
G21
M83 ; use relative distances for extrusion
; filament start gcode
SET_PRESSURE_ADVANCE ADVANCE=0.076; Override pressure advance value
M106 S0
;LAYER_CHANGE
;Z:0.2
;HEIGHT:0.2
;BEFORE_LAYER_CHANGE
;0.2
G92 E0

;_SET_FAN_SPEED_CHANGING_LAYER
SET_VELOCITY_LIMIT ACCEL=1000
SET_VELOCITY_LIMIT SQUARE_CORNER_VELOCITY=7
; printing object Corps1.stl id:0 copy 0
M73 P8 R4
G1 E-.5 F1800
EXCLUDE_OBJECT_START NAME=Corps1.stl_id_0_copy_0
G1 Z.2 F24000
G1 X124.004 Y134.96
G1 Z.2
G1 E.5 F1800
;TYPE:Inner wall
;WIDTH:0.499999
G1 X124.098 Y135.104 E.00654
G1 X124.487 Y135.472 E.02036
G1 X124.81 Y135.856 E.01906
G1 X125.102 Y136.39 E.02317
G1 X125.21 Y136.826 E.01704
G1 X125.229 Y137.396 E.02167
G1 X125.088 Y137.982 E.02294
G1 X124.795 Y138.508 E.02287
G1 X124.366 Y138.944 E.02324
G1 X123.853 Y139.238 E.02247
G1 X123.351 Y139.377 E.01981
G1 X122.843 Y139.4 E.01934
G1 X122.274 Y139.276 E.02213
G1 X121.879 Y139.096 E.0165
G1 X121.413 Y138.747 E.0221
G1 X121.091 Y138.337 E.01981
G1 X120.91 Y137.975 E.01538
G1 X120.798 Y137.554 E.01657
G1 X120.767 Y136.98 E.02185
G1 X120.898 Y136.39 E.02295
G1 X121.19 Y135.856 E.02316
G1 X121.514 Y135.471 E.01911
G1 X121.942 Y135.05 E.02284
G1 X121.943 Y134.914 E.00517
G1 X122.288 Y135.056 E.01419
G1 X122.919 Y135.149 E.02423
G1 X123.431 Y135.121 E.01951
G1 X123.965 Y134.971 E.02109
G1 X124.523 Y134.514 F24000
;TYPE:Outer wall
;WIDTH:0.452495
G1 F1800
G1 X124.471 Y134.638 E.0046
;WIDTH:0.499999
G1 X124.418 Y134.763 E.00513
G1 X124.469 Y134.832 E.00328
G1 X125.023 Y135.38 E.0296
G1 X125.386 Y135.905 E.02426
G1 X125.59 Y136.429 E.02138
G1 X125.69 Y136.948 E.02009
G1 X125.653 Y137.631 E.026
G1 X125.514 Y138.149 E.02038
G1 X125.256 Y138.638 E.02099
G1 X124.919 Y139.065 E.02068
G1 X124.469 Y139.424 E.02191
M73 P9 R4
G1 X124.015 Y139.667 E.01956
G1 X123.423 Y139.832 E.02336
G1 X122.817 Y139.859 E.02307
G1 X122.338 Y139.783 E.01843
G1 X121.873 Y139.619 E.01875
G1 X121.454 Y139.379 E.01834
G1 X121.083 Y139.066 E.01844
G1 X120.703 Y138.583 E.02336
G1 X120.485 Y138.147 E.01853
G1 X120.348 Y137.634 E.02019
G1 X120.311 Y137.14 E.01883
G1 X120.363 Y136.589 E.02103
G1 X120.54 Y136.07 E.02084
G1 X120.806 Y135.607 E.02028
G1 X121.13 Y135.204 E.01967
G1 X121.546 Y134.817 E.02157
G1 X121.54 Y134.687 E.00494
;WIDTH:0.462571
G1 X121.534 Y134.557 E.00453
;WIDTH:0.425143
G1 X121.489 Y134.522 E.0018
;WIDTH:0.408447
G1 X120.938 Y134.05 E.02206
;WIDTH:0.408997
G1 X120.598 Y133.594 E.01732
;WIDTH:0.410214
G1 X120.427 Y133.255 E.0116
G1 X120.278 Y132.796 E.01471
;WIDTH:0.404521
G1 X120.204 Y132.151 E.01955
;WIDTH:0.413506
G1 X120.242 Y131.741 E.01267
G1 X120.411 Y131.124 E.01971
;WIDTH:0.410081
G1 X120.714 Y130.56 E.01955
;WIDTH:0.407213
G1 X121.088 Y130.133 E.0172
G1 X121.32 Y130.091 E.00715
G1 X121.475 Y130.247 E.00666
G1 X120.958 Y130.842 E.02387
;WIDTH:0.399557
G1 X120.675 Y131.454 E.02001
;WIDTH:0.404521
G1 X120.564 Y132.121 E.02031
G1 X120.644 Y132.787 E.02018
;WIDTH:0.408997
G1 X120.898 Y133.384 E.01974
G1 X121.297 Y133.902 E.0199
;WIDTH:0.425143
G1 X121.77 Y134.283 E.0193
;WIDTH:0.462571
G1 X122.046 Y134.436 E.01101
;WIDTH:0.499999
G1 X122.322 Y134.589 E.01199
G1 X122.795 Y134.69 E.01838
G1 X123.303 Y134.681 E.0193
G1 X123.787 Y134.555 E.01901
G1 X124.05 Y134.389 E.01183
;WIDTH:0.454245
G1 X124.312 Y134.222 E.01065
;WIDTH:0.40849
G1 X124.701 Y133.909 E.01517
;WIDTH:0.40159
G1 X125.054 Y133.474 E.0167
;WIDTH:0.406873
G1 X125.277 Y133.018 E.01537
G1 X125.422 Y132.412 E.01886
;WIDTH:0.409979
G1 X125.412 Y131.895 E.01578
G1 X125.291 Y131.339 E.01734
;WIDTH:0.405285
G1 X125.117 Y130.965 E.01244
;WIDTH:0.414318
G1 X124.935 Y130.712 E.00961
G1 X124.538 Y130.232 E.01925
;WIDTH:0.409192
G1 X124.654 Y130.116 E.00501
G1 X124.845 Y130.098 E.00583
G1 X124.999 Y130.216 E.00591
G1 X125.365 Y130.682 E.01807
;WIDTH:0.404544
G1 X125.599 Y131.135 E.01532
;WIDTH:0.40775
G1 X125.712 Y131.492 E.01136
;WIDTH:0.409979
G1 X125.779 Y131.891 E.01235
G1 X125.767 Y132.548 E.02005
;WIDTH:0.403067
G1 X125.561 Y133.267 E.02239
;WIDTH:0.401788
G1 X125.311 Y133.734 E.01581
;WIDTH:0.402703
G1 X124.926 Y134.194 E.01795
;WIDTH:0.404991
G1 X124.554 Y134.489 E.01428
G1 E-.5
G1 Z.4 F24000
G1 X124.979 Y136.457
G1 Z.4
G1 Z.2
G1 E.5 F1800
;TYPE:Bottom surface
;WIDTH:0.516549
G1 F3600
G1 X123.879 Y135.362 E.06113
G1 X123.425 Y135.472 E.01841
G1 X123.328 Y135.476 E.00382
G1 X124.89 Y137.037 E.08696
G1 X124.886 Y137.365 E.01292
G1 X124.833 Y137.65 E.01142
G1 X122.659 Y135.477 E.12105
G1 X122.117 Y135.365 E.02181
G1 X121.995 Y135.482 E.00668
G1 X124.636 Y138.123 E.14711
G1 X124.52 Y138.302 E.0084
G1 X124.346 Y138.504 E.01047
G1 X121.658 Y135.815 E.14971
G1 X121.525 Y135.969 E.00802
G1 X121.375 Y136.202 E.0109
G1 X123.969 Y138.796 E.1445
G1 X123.731 Y138.916 E.01049
G1 X123.487 Y138.984 E.00998
G1 X121.173 Y136.67 E.12889
G1 X121.11 Y137.004 E.01338
G1 X121.113 Y137.279 E.01086
G1 X122.889 Y139.055 E.09891
G1 X122.535 Y139.005 E.01406
G1 X122.207 Y138.889 E.0137
G1 X121.914 Y138.721 E.0133
G1 X121.725 Y138.561 E.00976
G1 X121.015 Y137.851 E.03953
; stop printing object Corps1.stl id:0 copy 0
; printing object Corps1.stl id:1 copy 0
G1 E-.5 F1800
EXCLUDE_OBJECT_END NAME=Corps1.stl_id_0_copy_0
EXCLUDE_OBJECT_START NAME=Corps1.stl_id_1_copy_0
G1 Z.4 F24000
G1 X117.004 Y134.96 Z.4
G1 Z.2
G1 E.5 F1800
;TYPE:Inner wall
;WIDTH:0.499999
G1 X117.098 Y135.104 E.00654
G1 X117.487 Y135.472 E.02036
G1 X117.81 Y135.856 E.01906
G1 X118.103 Y136.39 E.02317
G1 X118.21 Y136.826 E.01704
G1 X118.229 Y137.396 E.02167
G1 X118.088 Y137.982 E.02294
G1 X117.796 Y138.508 E.02287
G1 X117.366 Y138.944 E.02324
G1 X116.853 Y139.238 E.02247
G1 X116.351 Y139.377 E.01981
G1 X115.843 Y139.4 E.01934
G1 X115.274 Y139.276 E.02213
G1 X114.879 Y139.096 E.0165
G1 X114.414 Y138.747 E.0221
G1 X114.091 Y138.337 E.01981
G1 X113.911 Y137.975 E.01538
G1 X113.798 Y137.554 E.01657
G1 X113.767 Y136.98 E.02185
G1 X113.898 Y136.39 E.02295
G1 X114.19 Y135.856 E.02316
G1 X114.514 Y135.471 E.01911
G1 X114.943 Y135.05 E.02284
G1 X114.943 Y134.914 E.00517
G1 X115.288 Y135.056 E.01419
G1 X115.919 Y135.149 E.02423
M73 P10 R4
G1 X116.431 Y135.121 E.01951
G1 X116.966 Y134.971 E.02109
G1 X117.523 Y134.514 F24000
;TYPE:Outer wall
;WIDTH:0.452495
G1 F1800
G1 X117.471 Y134.638 E.0046
;WIDTH:0.499999
G1 X117.419 Y134.763 E.00513
G1 X117.47 Y134.832 E.00328
G1 X118.023 Y135.38 E.0296
G1 X118.387 Y135.905 E.02426
G1 X118.59 Y136.429 E.02138
G1 X118.691 Y136.948 E.02009
G1 X118.653 Y137.631 E.026
G1 X118.515 Y138.149 E.02038
G1 X118.257 Y138.638 E.02099
G1 X117.92 Y139.065 E.02068
G1 X117.469 Y139.424 E.02191
G1 X117.016 Y139.667 E.01956
