; HEADER_BLOCK_START
; generated by OrcaSlicer 2.1.1 on 2024-07-16 at 19:04:02
; total layer number: 75
; filament_density: 1.24
; filament_diameter: 1.75
; max_z_height: 15.00
; HEADER_BLOCK_END

; THUMBNAIL_BLOCK_START

;
; THUMBNAIL_BLOCK_END

; THUMBNAIL_BLOCK_START

;
; THUMBNAIL_BLOCK_END

; external perimeters extrusion width = 0.42mm
; perimeters extrusion width = 0.45mm
; infill extrusion width = 0.45mm
; solid infill extrusion width = 0.45mm
; top infill extrusion width = 0.42mm
; first layer extrusion width = 0.50mm

; EXECUTABLE_BLOCK_START
EXCLUDE_OBJECT_DEFINE NAME=Corps1.stl_id_0_copy_0 CENTER=115,115 POLYGON=[[36.4985,114.604],[36.5621,113.683],[36.6937,112.769],[36.8923,111.867],[37.1571,110.982],[37.4864,110.119],[37.8785,109.283],[38.3314,108.478],[38.8424,107.708],[39.4089,106.979],[40.0276,106.293],[40.6954,105.655],[41.4084,105.068],[42.1628,104.535],[42.9545,104.059],[95.4266,76.4847],[96.8026,75.816],[98.3587,75.1306],[99.9406,74.5069],[101.546,73.9459],[103.172,73.4486],[104.816,73.0156],[106.476,72.6477],[108.149,72.3454],[109.833,72.1091],[111.525,71.9393],[113.222,71.8363],[114.922,71.8001],[116.623,71.8308],[118.32,71.9284],[120.012,72.0927],[121.697,72.3235],[123.371,72.6204],[125.033,72.983],[126.678,73.4107],[128.306,73.9028],[129.913,74.4586],[131.497,75.0771],[133.055,75.7576],[134.511,76.4609],[187.009,104.043],[187.823,104.53],[188.598,105.077],[189.329,105.682],[190.012,106.341],[190.644,107.049],[191.219,107.803],[191.736,108.599],[192.191,109.432],[192.581,110.297],[192.905,111.189],[193.16,112.103],[193.345,113.033],[193.459,113.975],[193.502,114.923],[193.472,115.872],[193.37,116.815],[193.197,117.748],[192.954,118.665],[192.642,119.561],[192.262,120.431],[191.818,121.27],[191.312,122.072],[190.746,122.834],[190.124,123.55],[189.45,124.218],[188.726,124.832],[187.959,125.39],[187.151,125.887],[134.552,153.518],[133.181,154.184],[131.625,154.87],[130.043,155.494],[128.437,156.055],[126.81,156.552],[125.165,156.985],[123.505,157.353],[121.831,157.655],[120.147,157.891],[118.454,158.061],[116.756,158.164],[115.056,158.2],[113.355,158.169],[111.657,158.071],[109.964,157.906],[108.279,157.675],[106.604,157.378],[104.943,157.015],[103.297,156.587],[101.669,156.094],[100.061,155.538],[98.477,154.919],[96.9184,154.238],[95.47,153.537],[43.0627,126.009],[42.2664,125.541],[41.5067,125.015],[40.788,124.435],[40.114,123.804],[39.4885,123.124],[38.9149,122.4],[38.3963,121.636],[37.9355,120.836],[37.5351,120.003],[37.1973,119.144],[36.9239,118.261],[36.7163,117.361],[36.5758,116.449],[36.503,115.528],[36.4985,114.604]]
M73 P0 R61
;TYPE:Custom
M220 S100
G90 ; use absolute coordinates
M83 ; extruder relative mode
M104 S150 ; set temporary nozzle temp to prevent oozing during homing
M140 S55 ; set final bed temp
G4 S30 ; allow partial nozzle warmup
G28 ; home all axis and restore leveling
BED_MESH_CALIBRATE PROFILE=adaptive ADAPTIVE=1 ADAPTIVE_MARGIN=0
G1 Z25 F240
G1 X10.0 Y30 F3000
M104 S210 ; set final nozzle temp
M190 S55 ; wait for bed temp to stabilize
M109 S210 ; wait for nozzle temp to stabilize
G1 Z0.28 F240
G92 E0 ; Move Z Axis up
G1 Z2.0 F5000 ; Move to start position
G1 X5 Y30 Z0.28 F300 ; Draw the first line
G1 X5 Y200 Z0.28 F1500 E15 ; Move to side a little
G1 X5.4 Y200 Z0.28 F5000.0 ; Draw the second line
G1 X5.4 Y50 Z0.28 F1500.0 E30 ; Reset Extruder
G92 E0 ; Move Z Axis up
G1 Z2.0 F3000
M117 Start Printing..
G90
G21
M83 ; use relative distances for extrusion
; filament start gcode
M106 S0
;LAYER_CHANGE
;Z:0.2
;HEIGHT:0.2
;BEFORE_LAYER_CHANGE
;0.2
G92 E0

M73 P0 R60
G1 E-.5 F1800
;_SET_FAN_SPEED_CHANGING_LAYER
SET_VELOCITY_LIMIT ACCEL=1000
SET_VELOCITY_LIMIT SQUARE_CORNER_VELOCITY=7
; printing object Corps1.stl id:0 copy 0
EXCLUDE_OBJECT_START NAME=Corps1.stl_id_0_copy_0
G1 Z.2 F24000
G1 X181.562 Y149.316
G1 Z.2
G1 E.5 F1800
;TYPE:Inner wall
;WIDTH:0.499999
G1 X181.586 Y149.404 E.0035
G1 X182.614 Y151.359 E.08394
G1 X140.851 Y173.502 E1.79655
G1 X139.333 Y174.171 E.06303
G1 X137.779 Y174.784 E.06351
G1 X136.201 Y175.335 E.06351
G1 X134.603 Y175.824 E.06352
G1 X132.987 Y176.249 E.06351
G1 X131.356 Y176.611 E.06351
G1 X129.711 Y176.908 E.06351
G1 X128.056 Y177.14 E.06351
G1 X126.393 Y177.306 E.06351
G1 X124.725 Y177.407 E.06351
G1 X123.055 Y177.443 E.06351
G1 X121.384 Y177.412 E.06351
G1 X119.716 Y177.316 E.06351
G1 X118.052 Y177.154 E.06351
G1 X116.397 Y176.927 E.06351
G1 X114.751 Y176.635 E.06351
G1 X113.119 Y176.278 E.06351
G1 X111.502 Y175.858 E.06351
G1 X109.902 Y175.374 E.06351
G1 X108.323 Y174.827 E.06351
G1 X106.767 Y174.219 E.06351
G1 X105.248 Y173.555 E.06299
G1 X54.781 Y146.798 E2.17097
G1 X53.864 Y146.324 E.03921
G1 X53.005 Y146.049 E.03428
G1 X52.201 Y145.725 E.03298
G1 X51.422 Y145.342 E.03298
G1 X50.674 Y144.902 E.03297
G1 X49.96 Y144.409 E.03298
G1 X49.285 Y143.864 E.03297
G1 X48.652 Y143.271 E.03298
G1 X48.064 Y142.632 E.03298
G1 X47.526 Y141.952 E.03298
G1 X47.038 Y141.234 E.03298
G1 X46.606 Y140.482 E.03298
G1 X46.23 Y139.7 E.03298
G1 X45.912 Y138.893 E.03298
G1 X45.655 Y138.064 E.03298
G1 X45.46 Y137.219 E.03298
G1 X45.328 Y136.361 E.03298
G1 X45.26 Y135.496 E.03298
G1 X45.256 Y134.629 E.03298
G1 X45.315 Y133.763 E.03297
G1 X45.439 Y132.904 E.03298
G1 X45.626 Y132.057 E.03297
G1 X45.874 Y131.226 E.03298
G1 X46.184 Y130.415 E.03298
G1 X46.552 Y129.629 E.03298
G1 X46.978 Y128.873 E.03298
G1 X47.458 Y128.151 E.03297
G1 X47.99 Y127.465 E.03298
G1 X48.571 Y126.821 E.03298
G1 X49.198 Y126.222 E.03298
G1 X49.868 Y125.67 E.03298
G1 X50.577 Y125.169 E.03298
G1 X51.32 Y124.723 E.03298
G1 X52.095 Y124.332 E.03298
G1 X52.897 Y123.999 E.03298
G1 X54.037 Y123.648 E.04534
G1 X63.94 Y121.578 E.38454
G1 X64.211 Y121.425 E.01182
G1 X64.389 Y121.163 E.01204
G1 X64.433 Y120.878 E.01098
G1 X64.354 Y120.599 E.01103
G1 X63.333 Y118.672 E.08288
G1 X105.133 Y96.498 E1.79837
G1 X106.65 Y95.829 E.06301
G1 X108.204 Y95.217 E.0635
G1 X109.781 Y94.666 E.06348
G1 X111.398 Y94.172 E.06425
G1 X112.994 Y93.752 E.06274
G1 X114.625 Y93.39 E.06349
G1 X116.269 Y93.093 E.06349
G1 X117.924 Y92.861 E.06349
G1 X119.586 Y92.694 E.06349
G1 X121.253 Y92.593 E.06349
G1 X122.943 Y92.558 E.06425
M73 P1 R60
G1 X124.594 Y92.587 E.06274
G1 X126.262 Y92.683 E.06349
G1 X127.924 Y92.845 E.06349
G1 X129.58 Y93.072 E.06349
G1 X131.224 Y93.363 E.06349
G1 X132.856 Y93.719 E.06349
G1 X134.492 Y94.145 E.06425
G1 X136.073 Y94.623 E.06274
G1 X137.651 Y95.169 E.06349
G1 X139.207 Y95.777 E.06349
G1 X140.726 Y96.44 E.06297
G1 X191.214 Y123.209 E2.17189
G1 X192.14 Y123.688 E.03964
G1 X193.022 Y123.972 E.03521
G1 X193.847 Y124.309 E.03388
G1 X194.645 Y124.707 E.03388
G1 X195.409 Y125.164 E.03385
G1 X196.155 Y125.694 E.03478
G1 X196.824 Y126.247 E.033
G1 X197.466 Y126.866 E.03388
G1 X198.059 Y127.531 E.03385
G1 X198.612 Y128.259 E.03478
G1 X199.085 Y128.988 E.033
G1 X199.513 Y129.77 E.03388
G1 X199.88 Y130.582 E.03388
G1 X200.184 Y131.42 E.03388
G1 X200.423 Y132.279 E.03388
G1 X200.597 Y133.153 E.03388
G1 X200.689 Y133.909 E.02896
G1 X200.739 Y135.074 E.0443
G1 X200.716 Y135.819 E.02834
G1 X200.62 Y136.705 E.03388
G1 X200.458 Y137.581 E.03385
G1 X200.222 Y138.465 E.03478
G1 X199.936 Y139.285 E.033
G1 X199.58 Y140.102 E.03388
G1 X199.163 Y140.89 E.03388
G1 X198.687 Y141.644 E.03388
G1 X198.156 Y142.359 E.03388
G1 X197.571 Y143.032 E.03388
G1 X196.938 Y143.659 E.03388
G1 X196.258 Y144.236 E.03388
G1 X195.537 Y144.76 E.03388
G1 X194.778 Y145.228 E.03388
G1 X193.986 Y145.637 E.03388
G1 X193.165 Y145.984 E.03388
G1 X192.32 Y146.268 E.03388
G1 X191.784 Y146.404 E.02102
G1 X191.195 Y146.533 E.02291
G1 X190.527 Y146.65 E.0258
G1 X181.984 Y148.432 E.33167
G1 X181.718 Y148.591 E.01178
G1 X181.552 Y148.844 E.0115
G1 X181.509 Y149.128 E.01093
G1 X181.551 Y149.277 E.00589
G1 X181.991 Y149.192 F24000
;TYPE:Outer wall
G1 F1800
G1 X183.23 Y151.55 E.10125
G1 X141.051 Y173.914 E1.81449
G1 X139.509 Y174.593 E.06401
G1 X137.938 Y175.212 E.0642
G1 X136.343 Y175.769 E.06419
G1 X134.728 Y176.263 E.0642
G1 X133.095 Y176.693 E.06419
G1 X131.446 Y177.059 E.0642
G1 X129.783 Y177.359 E.06419
G1 X128.111 Y177.593 E.0642
G1 X126.43 Y177.762 E.0642
G1 X124.744 Y177.864 E.06419
G1 X123.055 Y177.9 E.0642
G1 X121.367 Y177.869 E.0642
G1 X119.68 Y177.772 E.06419
G1 X117.999 Y177.608 E.0642
G1 X116.326 Y177.379 E.06419
G1 X114.663 Y177.084 E.0642
G1 X113.012 Y176.723 E.0642
G1 X111.378 Y176.298 E.0642
G1 X109.761 Y175.809 E.0642
G1 X108.165 Y175.256 E.0642
G1 X106.592 Y174.641 E.06419
G1 X105.049 Y173.967 E.06399
G1 X53.725 Y146.759 E2.20776
G1 X52.85 Y146.48 E.03492
G1 X52.014 Y146.142 E.03426
G1 X51.205 Y145.744 E.03426
G1 X50.428 Y145.288 E.03426
G1 X49.686 Y144.775 E.03426
G1 X48.985 Y144.209 E.03426
G1 X48.327 Y143.593 E.03426
G1 X47.717 Y142.929 E.03426
G1 X47.157 Y142.223 E.03426
G1 X46.651 Y141.477 E.03426
G1 X46.201 Y140.696 E.03426
G1 X45.81 Y139.883 E.03426
G1 X45.481 Y139.044 E.03426
G1 X45.214 Y138.183 E.03426
G1 X45.011 Y137.305 E.03426
G1 X44.874 Y136.414 E.03426
G1 X44.803 Y135.515 E.03426
G1 X44.799 Y134.614 E.03426
G1 X44.861 Y133.715 E.03426
G1 X44.989 Y132.822 E.03426
G1 X45.183 Y131.942 E.03426
G1 X45.441 Y131.078 E.03426
G1 X45.763 Y130.236 E.03426
G1 X46.145 Y129.42 E.03426
G1 X46.587 Y128.634 E.03426
G1 X47.086 Y127.884 E.03426
G1 X47.639 Y127.172 E.03426
G1 X48.243 Y126.502 E.03426
G1 X48.895 Y125.879 E.03426
G1 X49.59 Y125.306 E.03426
G1 X50.327 Y124.786 E.03426
G1 X51.099 Y124.322 E.03426
G1 X51.904 Y123.916 E.03426
G1 X52.737 Y123.571 E.03426
G1 X53.926 Y123.204 E.04727
G1 X63.856 Y121.121 E.38562
G1 X63.967 Y120.985 E.00671
G1 X63.95 Y120.813 E.00657
G1 X62.715 Y118.482 E.10025
G1 X104.934 Y96.086 E1.81637
G1 X106.474 Y95.408 E.06398
G1 X108.045 Y94.788 E.06418
G1 X109.639 Y94.231 E.06417
G1 X111.273 Y93.732 E.06494
G1 X112.887 Y93.307 E.06342
G1 X114.535 Y92.942 E.06418
G1 X116.197 Y92.642 E.06418
G1 X117.869 Y92.407 E.06418
G1 X119.549 Y92.238 E.06418
G1 X121.235 Y92.136 E.06417
G1 X122.943 Y92.1 E.06493
G1 X124.611 Y92.131 E.06342
G1 X126.297 Y92.228 E.06418
G1 X127.978 Y92.391 E.06418
G1 X129.651 Y92.62 E.06417
G1 X131.313 Y92.915 E.06418
G1 X132.963 Y93.275 E.06417
G1 X134.616 Y93.705 E.06494
G1 X136.213 Y94.188 E.06342
G1 X137.809 Y94.74 E.06418
G1 X139.382 Y95.354 E.06418
G1 X140.925 Y96.028 E.06397
G1 X192.28 Y123.253 E2.20915
G1 X193.179 Y123.542 E.03587
G1 X194.036 Y123.892 E.0352
G1 X194.865 Y124.306 E.0352
G1 X195.659 Y124.781 E.03519
G1 X196.434 Y125.331 E.0361
G1 X197.129 Y125.906 E.03431
G1 X197.796 Y126.549 E.0352
G1 X198.412 Y127.24 E.03519
G1 X198.987 Y127.996 E.0361
G1 X199.478 Y128.753 E.03431
G1 X199.922 Y129.566 E.0352
G1 X200.303 Y130.41 E.0352
G1 X200.619 Y131.28 E.0352
G1 X200.868 Y132.172 E.0352
G1 X201.049 Y133.081 E.0352
G1 X201.16 Y134 E.03519
G1 X201.196 Y135.088 E.04139
G1 X201.172 Y135.851 E.029
G1 X201.073 Y136.772 E.0352
G1 X200.904 Y137.682 E.03519
G1 X200.659 Y138.599 E.0361
G1 X200.362 Y139.452 E.03431
G1 X199.992 Y140.301 E.0352
G1 X199.559 Y141.119 E.0352
G1 X199.064 Y141.902 E.0352
G1 X198.512 Y142.646 E.0352
G1 X197.905 Y143.345 E.0352
G1 X197.247 Y143.996 E.0352
G1 X196.541 Y144.596 E.0352
G1 X195.792 Y145.14 E.0352
G1 X195.003 Y145.626 E.0352
G1 X194.18 Y146.051 E.0352
G1 X193.327 Y146.412 E.03519
G1 X192.45 Y146.707 E.0352
G1 X191.897 Y146.847 E.02168
G1 X191.274 Y146.983 E.02422
G1 X190.62 Y147.097 E.02523
G1 X182.082 Y148.886 E.33153
G1 X181.974 Y149.021 E.00659
G1 X181.987 Y149.152 E.00499
G1 E-.5
;WIPE_START
G1 F12000
G1 X182.908 Y150.927
;WIPE_END
G1 Z.4 F24000
G1 X186.915 Y139.688 Z.4
G1 Z.2
G1 E.5 F1800
;TYPE:Inner wall
G1 X186.392 Y139.421 E.02231
G1 X185.839 Y139.045 E.02543
G1 X185.347 Y138.605 E.02508
G1 X184.925 Y138.119 E.02445
G1 X184.554 Y137.562 E.02543
G1 X184.262 Y136.971 E.02507
G1 X184.054 Y136.362 E.02445
G1 X183.919 Y135.706 E.02543
G1 X183.871 Y135.048 E.02508
G1 X183.907 Y134.392 E.02499
G1 X184.028 Y133.745 E.02499
G1 X184.229 Y133.12 E.02499
G1 X184.51 Y132.525 E.02499
G1 X184.864 Y131.971 E.02499
G1 X185.285 Y131.467 E.02499
G1 X185.768 Y131.02 E.02499
G1 X186.304 Y130.64 E.02499
G1 X186.885 Y130.331 E.02499
G1 X187.5 Y130.098 E.02499
G1 X188.14 Y129.946 E.02499
G1 X188.779 Y129.879 E.02445
G1 X189.448 Y129.893 E.02543
G1 X190.101 Y129.992 E.02508
G1 X190.733 Y130.174 E.02499
G1 X191.336 Y130.435 E.02499
G1 X191.887 Y130.763 E.02436
G1 X192.417 Y131.175 E.02553
G1 X192.88 Y131.645 E.02508
G1 X193.257 Y132.14 E.02364
G1 X193.604 Y132.737 E.02624
G1 X193.857 Y133.346 E.02507
G1 X194.005 Y133.886 E.02127
G1 X194.119 Y134.632 E.02869
G1 X194.125 Y135.289 E.02499
G1 X194.064 Y135.803 E.01965
G1 X193.885 Y136.58 E.0303
G1 X193.644 Y137.191 E.02499
G1 X193.326 Y137.767 E.02499
G1 X192.937 Y138.297 E.02499
G1 X192.484 Y138.773 E.02499
G1 X191.973 Y139.188 E.02499
G1 X191.436 Y139.52 E.02399
G1 X190.815 Y139.804 E.02598
G1 X190.186 Y139.997 E.02499
G1 X189.538 Y140.107 E.02499
G1 X188.881 Y140.134 E.02499
G1 X188.24 Y140.078 E.02445
G1 X187.586 Y139.936 E.02543
G1 X186.965 Y139.714 E.02508
G1 X186.95 Y139.706 E.00063
G1 X187.13 Y139.287 F24000
;TYPE:Outer wall
G1 F1800
G1 X187.123 Y139.285 E.00027
G1 X186.603 Y139.016 E.02223
G1 X186.099 Y138.669 E.02327
G1 X185.654 Y138.267 E.0228
G1 X185.273 Y137.823 E.02223
G1 X184.936 Y137.312 E.02327
G1 X184.674 Y136.772 E.0228
G1 X184.488 Y136.218 E.02223
G1 X184.367 Y135.618 E.02327
G1 X184.327 Y135.019 E.0228
G1 X184.364 Y134.421 E.02277
G1 X184.476 Y133.833 E.02277
G1 X184.663 Y133.264 E.02277
G1 X184.921 Y132.723 E.02277
G1 X185.247 Y132.22 E.02277
G1 X185.634 Y131.763 E.02277
G1 X186.076 Y131.359 E.02277
G1 X186.566 Y131.014 E.02277
G1 X187.096 Y130.736 E.02277
G1 X187.658 Y130.527 E.02277
G1 X188.241 Y130.392 E.02277
G1 X188.823 Y130.334 E.02223
G1 X189.435 Y130.35 E.02327
G1 X190.028 Y130.444 E.0228
G1 X190.603 Y130.612 E.02277
G1 X191.151 Y130.853 E.02277
G1 X191.65 Y131.153 E.02214
G1 X192.133 Y131.533 E.02336
G1 X192.552 Y131.963 E.0228
G1 X192.89 Y132.414 E.02142
G1 X193.207 Y132.962 E.02407
G1 X193.434 Y133.518 E.0228
G1 X193.563 Y134.002 E.01904
G1 X193.666 Y134.69 E.02646
G1 X193.668 Y135.289 E.02277
G1 X193.593 Y135.884 E.02277
G1 X193.443 Y136.464 E.02277
G1 X193.22 Y137.02 E.02277
G1 X192.928 Y137.542 E.02277
G1 X192.571 Y138.024 E.02277
G1 X192.155 Y138.455 E.02277
G1 X191.688 Y138.83 E.02277
G1 X191.2 Y139.129 E.02177
G1 X190.63 Y139.386 E.02376
G1 X190.056 Y139.559 E.02277
G1 X189.465 Y139.656 E.02277
G1 X188.867 Y139.677 E.02277
G1 X188.284 Y139.623 E.02223
G1 X187.687 Y139.49 E.02326
G1 X187.167 Y139.301 E.02101
G1 E-.5
;WIPE_START
G1 F12000
G1 X187.123 Y139.285
G1 X186.603 Y139.016
G1 X186.099 Y138.669
G1 X185.654 Y138.267
G1 X185.552 Y138.149
;WIPE_END
G1 Z.4 F24000
G1 X88.672 Y136.577 Z.4
G1 Z.2
G1 E.5 F1800
;TYPE:Inner wall
G1 X88.635 Y135.014 E.05942
G1 X88.671 Y133.431 E.06019
G1 X88.781 Y131.834 E.06085
G1 X88.962 Y130.274 E.05965
G1 X89.227 Y128.654 E.0624
G1 X89.545 Y127.143 E.0587
G1 X89.943 Y125.608 E.06025
G1 X90.412 Y124.094 E.06025
G1 X90.95 Y122.602 E.06025
G1 X91.556 Y121.137 E.06025
G1 X92.229 Y119.702 E.06025
G1 X92.967 Y118.299 E.06026
G1 X93.791 Y116.897 E.0618
G1 X94.657 Y115.569 E.06026
G1 X95.584 Y114.283 E.06025
G1 X96.569 Y113.04 E.06025
G1 X97.61 Y111.845 E.06025
G1 X98.705 Y110.698 E.06025
G1 X99.852 Y109.604 E.06025
G1 X101.048 Y108.564 E.06025
G1 X102.291 Y107.579 E.06027
G1 X103.578 Y106.654 E.06023
G1 X104.906 Y105.788 E.06025
G1 X106.273 Y104.985 E.06025
G1 X107.676 Y104.246 E.06027
G1 X109.134 Y103.563 E.0612
G1 X109.757 Y103.304 E.02564
G1 X110.575 Y102.965 E.03364
G1 X112.066 Y102.426 E.06025
G1 X113.58 Y101.957 E.06025
G1 X115.115 Y101.558 E.06026
G1 X116.26 Y101.316 E.04447
G1 X118.215 Y100.977 E.07542
G1 X119.805 Y100.791 E.06085
G1 X121.387 Y100.68 E.06025
G1 X122.972 Y100.643 E.06026
G1 X124.597 Y100.68 E.0618
G1 X126.182 Y100.791 E.06036
G1 X127.738 Y100.973 E.05955
G1 X128.298 Y101.063 E.02157
G1 X129.318 Y101.23 E.03928
G1 X130.869 Y101.558 E.06025
G1 X132.404 Y101.957 E.06025
G1 X133.918 Y102.426 E.06025
G1 X135.394 Y102.96 E.05965
G1 X136.874 Y103.572 E.06085
G1 X138.309 Y104.246 E.06025
G1 X139.711 Y104.985 E.06027
G1 X141.112 Y105.81 E.06179
