; HEADER_BLOCK_START
; generated by OrcaSlicer 2.2.0 on 2024-12-01 at 18:57:39
; total layer number: 100
; filament_density: 1.27
; filament_diameter: 1.75
; max_z_height: 20.00
; HEADER_BLOCK_END

; THUMBNAIL_BLOCK_START

;
; THUMBNAIL_BLOCK_END

; THUMBNAIL_BLOCK_START

;
; THUMBNAIL_BLOCK_END

; external perimeters extrusion width = 0.42mm
; perimeters extrusion width = 0.45mm
; infill extrusion width = 0.45mm
; solid infill extrusion width = 0.45mm
; top infill extrusion width = 0.42mm
; first layer extrusion width = 0.50mm

; EXECUTABLE_BLOCK_START
EXCLUDE_OBJECT_DEFINE NAME=Corps29_id_0_copy_0 CENTER=115,115 POLYGON=[[92.0003,102.185],[114.873,102.034],[115.127,102.034],[138,102.185],[137.996,122.387],[137.681,122.81],[137.667,122.828],[137.35,123.22],[137.321,123.255],[137.003,123.617],[136.957,123.668],[136.641,124],[136.576,124.065],[136.264,124.368],[136.18,124.446],[135.872,124.721],[135.767,124.811],[135.467,125.058],[135.341,125.158],[135.048,125.379],[134.9,125.487],[134.617,125.683],[134.446,125.797],[134.175,125.97],[133.979,126.089],[133.721,126.239],[133.501,126.361],[133.258,126.489],[133.012,126.613],[132.784,126.721],[132.513,126.844],[132.302,126.934],[132.005,127.055],[131.812,127.128],[131.488,127.244],[131.314,127.303],[130.964,127.412],[130.81,127.457],[130.434,127.558],[130.3,127.591],[129.898,127.682],[129.786,127.705],[129.357,127.784],[129.267,127.799],[128.813,127.864],[128.745,127.872],[128.266,127.92],[128.22,127.924],[127.717,127.955],[127.694,127.955],[127.167,127.966],[102.833,127.966],[102.306,127.955],[102.283,127.955],[101.78,127.924],[101.734,127.92],[101.255,127.872],[101.187,127.864],[100.733,127.799],[100.643,127.784],[100.214,127.705],[100.102,127.682],[99.6996,127.591],[99.5661,127.558],[99.1898,127.457],[99.0358,127.412],[98.6858,127.303],[98.5119,127.244],[98.1882,127.128],[97.9954,127.055],[97.6979,126.934],[97.4873,126.844],[97.2157,126.721],[96.9882,126.613],[96.7424,126.489],[96.4992,126.361],[96.2786,126.239],[96.021,126.089],[95.8251,125.97],[95.5544,125.797],[95.3826,125.683],[95.1003,125.487],[94.9518,125.379],[94.6594,125.158],[94.5335,125.058],[94.2326,124.811],[94.1281,124.721],[93.8204,124.446],[93.7364,124.368],[93.4236,124.065],[93.3591,124],[93.043,123.668],[92.9966,123.617],[92.6791,123.255],[92.6495,123.22],[92.3326,122.828],[92.3185,122.81],[92.004,122.387],[92.0003,102.185]]
M73 P0 R24
;TYPE:Custom
M220 S100
G90 ; use absolute coordinates
M83 ; extruder relative mode
M104 S150 ; set temporary nozzle temp to prevent oozing during homing
M140 S70 ; set final bed temp
G4 S30 ; allow partial nozzle warmup
G28 ; home all axis and restore leveling
BED_MESH_CALIBRATE
G1 Z25 F240
G1 X10.0 Y30 F3000
M104 S245 ; set final nozzle temp
M190 S70 ; wait for bed temp to stabilize
M109 S245 ; wait for nozzle temp to stabilize
G1 Z0.28 F240
G92 E0 ; Move Z Axis up
LINE_PURGE
G92 E0 ; Move Z Axis up
G1 Z2.0 F3000
M117 Start Printing..
G90
G21
M83 ; use relative distances for extrusion
; filament start gcode
M106 S0
;LAYER_CHANGE
;Z:0.2
;HEIGHT:0.2
;BEFORE_LAYER_CHANGE
;0.2
G92 E0

G1 E-.5 F1800
TIMELAPSE_TAKE_FRAME
;_SET_FAN_SPEED_CHANGING_LAYER
SET_VELOCITY_LIMIT ACCEL=1000
SET_VELOCITY_LIMIT SQUARE_CORNER_VELOCITY=7
; printing object Corps29 id:0 copy 0
EXCLUDE_OBJECT_START NAME=Corps29_id_0_copy_0
G1 Z.4 F24000
G1 X139.681 Y137.815
G1 Z.4
G1 Z.2
G1 E.5 F1800
;TYPE:Inner wall
;WIDTH:0.436561
G1 F3000
G1 X139.688 Y137.814 E.00025
;WIDTH:0.454277
G1 X139.45 Y137.808 E.00774
;WIDTH:0.499999
G1 X139.212 Y137.803 E.00861
G1 X138.69 Y137.597 E.02025
G1 X138.25 Y137.253 E.02016
G1 X137.938 Y136.82 E.01929
G1 X137.744 Y136.277 E.0208
G1 X137.716 Y135.721 E.02009
G1 X137.846 Y135.181 E.02007
G1 X138.121 Y134.701 E.01996
G1 X138.496 Y134.338 E.01887
G1 X138.688 Y134.209 E.00834
G1 X139.161 Y134.011 E.01852
G1 X139.749 Y133.952 E.02132
G1 X140.303 Y134.058 E.0204
G1 X140.797 Y134.314 E.02007
G1 X141.18 Y134.672 E.01895
G1 X141.475 Y135.181 E.02122
G1 X141.605 Y135.721 E.02007
G1 X141.577 Y136.277 E.02007
G1 X141.394 Y136.801 E.02007
G1 X141.071 Y137.253 E.02007
G1 X140.633 Y137.596 E.02007
G1 X140.535 Y137.641 E.00389
G1 X140.947 Y137.643 E.01488
G1 X141.45 Y137.726 E.01841
M73 P1 R24
M73 P1 R24
G1 X142.053 Y137.935 E.02302
G1 X142.606 Y138.252 E.02302
G1 X143.279 Y138.883 E.03334
G1 X143.652 Y139.439 E.02414
G1 X143.897 Y140.028 E.02302
G1 X144.027 Y140.652 E.02302
G1 X144.039 Y141.289 E.02302
G1 X143.957 Y141.787 E.0182
;WIDTH:0.535274
G1 X143.85 Y142.158 E.01502
;WIDTH:0.570548
G1 X143.743 Y142.529 E.0161
;WIDTH:0.620085
G1 X143.736 Y142.592 E.00292
;WIDTH:0.669621
G1 X143.73 Y142.656 E.00317
;WIDTH:0.719157
G1 X143.724 Y142.72 E.00342
G1 X143.491 Y143.023 E.02042
;WIDTH:0.685776
G1 X143.259 Y143.327 E.01941
;WIDTH:0.652394
G1 X142.756 Y143.793 E.03304
;WIDTH:0.67717
G1 X142.214 Y144.155 E.03263
G1 X142.054 Y144.194 E.00825
;WIDTH:0.632878
G1 X141.894 Y144.232 E.00767
;WIDTH:0.588585
G1 X141.734 Y144.271 E.00709
;WIDTH:0.544292
G1 X141.574 Y144.31 E.00652
;WIDTH:0.499999
G1 X140.947 Y144.426 E.02302
G1 X140.31 Y144.423 E.02302
G1 X139.684 Y144.301 E.02303
G1 X139.175 Y144.1 E.01973
G1 X138.657 Y143.791 E.0218
G1 X138.173 Y143.367 E.02324
G1 X137.805 Y142.9 E.02146
G1 X137.625 Y142.601 E.01259
G1 X137.401 Y142.071 E.02078
G1 X137.282 Y141.575 E.0184
G1 X137.264 Y140.717 E.031
G1 X137.364 Y140.151 E.02077
G1 X137.426 Y139.914 E.00883
G1 X137.634 Y139.448 E.01843
G1 X138.006 Y138.882 E.02446
G1 X138.454 Y138.428 E.02302
G1 X138.978 Y138.065 E.02302
G1 X139.274 Y137.951 E.01145
;WIDTH:0.46828
G1 X139.57 Y137.837 E.01066
;WIDTH:0.436561
G1 X139.641 Y137.823 E.00226
G1 X139.76 Y138.223 F24000
;TYPE:Outer wall
;WIDTH:0.499999
G1 F3000
G1 X140.232 Y138.118 E.01744
G1 X140.83 Y138.091 E.02161
G1 X141.375 Y138.177 E.01995
G1 X141.895 Y138.364 E.01994
G1 X142.371 Y138.644 E.01994
G1 X142.96 Y139.21 E.02949
G1 X143.265 Y139.683 E.0203
G1 X143.471 Y140.195 E.01994
G1 X143.578 Y140.737 E.01994
G1 X143.582 Y141.289 E.01994
G1 X143.483 Y141.833 E.01994
G1 X143.285 Y142.348 E.01994
G1 X142.822 Y143.021 E.02949
G1 X142.406 Y143.4 E.0203
G1 X141.934 Y143.687 E.01994
G1 X141.417 Y143.881 E.01994
G1 X140.873 Y143.975 E.01994
G1 X140.32 Y143.966 E.01994
G1 X139.779 Y143.854 E.01994
G1 X139.269 Y143.644 E.01994
G1 X138.806 Y143.341 E.01994
G1 X138.408 Y142.958 E.01994
G1 X138.089 Y142.508 E.01994
G1 X137.859 Y142.006 E.01994
G1 X137.727 Y141.469 E.01994
G1 X137.721 Y140.717 E.02716
G1 X137.845 Y140.104 E.02259
G1 X138.068 Y139.599 E.01994
G1 X138.381 Y139.143 E.01994
G1 X138.773 Y138.755 E.01994
G1 X139.231 Y138.446 E.01994
G1 X139.722 Y138.235 E.0193
G1 X139.791 Y137.381 F24000
G1 F3000
G1 X139.628 Y137.401 E.00593
G1 X139.138 Y137.298 E.01808
G1 X138.879 Y137.181 E.01028
G1 X138.507 Y136.859 E.01775
G1 X138.284 Y136.495 E.01542
G1 X138.173 Y136.083 E.01538
G1 X138.182 Y135.657 E.0154
G1 X138.312 Y135.249 E.01546
G1 X138.549 Y134.897 E.01531
G1 X138.878 Y134.625 E.01542
G1 X139.269 Y134.456 E.01539
G1 X139.687 Y134.405 E.01518
G1 X140.114 Y134.474 E.01562
G1 X140.498 Y134.66 E.0154
G1 X140.814 Y134.946 E.0154
G1 X141.037 Y135.31 E.0154
G1 X141.148 Y135.721 E.0154
G1 X141.139 Y136.148 E.0154
G1 X141.01 Y136.554 E.0154
G1 X140.771 Y136.908 E.0154
G1 X140.443 Y137.18 E.0154
G1 X140.051 Y137.349 E.0154
G1 X139.831 Y137.376 E.00802
G1 X140.195 Y137.721 F24000
;TYPE:Inner wall
;WIDTH:0.407744
G1 F3000
G1 X139.693 Y137.813 E.0147
;WIDTH:0.408554
G1 X139.688 Y137.814 E.00014
G1 E-.5 F1800
;WIPE_START
G1 F12000
G1 X139.693 Y137.813
G1 X140.195 Y137.721
;WIPE_END
G1 Z.4 F24000
G1 X139.597 Y132.852 Z.4
G1 Z.2
G1 E.5 F1800
;WIDTH:0.499999
G1 F3000
G1 X139.175 Y132.84 E.01523
G1 X138.925 Y132.793 E.00921
G1 X138.415 Y132.585 E.01986
G1 X138.008 Y132.292 E.01813
G1 X137.671 Y131.901 E.01862
G1 X137.438 Y131.443 E.01856
G1 X137.308 Y130.894 E.02035
G1 X137.322 Y130.331 E.02035
G1 X137.478 Y129.79 E.02035
G1 X137.767 Y129.305 E.02035
G1 X138.157 Y128.92 E.0198
G1 X138.657 Y128.63 E.02088
G1 X139.202 Y128.483 E.02038
G1 X139.764 Y128.478 E.02028
G1 X140.311 Y128.617 E.02039
G1 X140.804 Y128.89 E.02035
G1 X141.212 Y129.279 E.02035
G1 X141.508 Y129.758 E.02035
G1 X141.673 Y130.297 E.02035
G1 X141.695 Y130.86 E.02035
G1 X141.574 Y131.411 E.02035
G1 X141.485 Y131.611 E.00789
G1 X141.169 Y132.098 E.02097
G1 X140.804 Y132.442 E.01811
G1 X140.354 Y132.701 E.01875
G1 X139.703 Y132.855 E.02416
G1 X139.637 Y132.853 E.00237
G1 X139.625 Y132.395 F24000
;TYPE:Outer wall
G1 F3000
G1 X139.528 Y132.414 E.00359
G1 X139.082 Y132.364 E.01619
G1 X138.665 Y132.203 E.01615
G1 X138.258 Y131.888 E.01858
G1 X138.019 Y131.595 E.01365
G1 X137.831 Y131.189 E.01615
G1 X137.753 Y130.749 E.01615
G1 X137.789 Y130.303 E.01615
G1 X137.937 Y129.881 E.01615
G1 X138.188 Y129.51 E.01615
G1 X138.524 Y129.215 E.01615
G1 X138.924 Y129.015 E.01615
G1 X139.436 Y128.925 E.01878
G1 X139.807 Y128.944 E.01341
G1 X140.234 Y129.079 E.01619
G1 X140.613 Y129.317 E.01615
G1 X140.919 Y129.644 E.01615
G1 X141.132 Y130.037 E.01615
G1 X141.238 Y130.471 E.01615
G1 X141.23 Y130.918 E.01615
G1 X141.102 Y131.362 E.01665
G1 X140.786 Y131.848 E.02097
G1 X140.302 Y132.212 E.02184
G1 X139.959 Y132.328 E.01308
G1 X139.665 Y132.387 E.01083
G1 E-.5 F1800
;WIPE_START
G1 F12000
G1 X139.528 Y132.414
G1 X139.082 Y132.364
G1 X138.665 Y132.203
G1 X138.258 Y131.888
G1 X138.019 Y131.595
G1 X137.988 Y131.53
;WIPE_END
G1 Z.4 F24000
G1 X130.756 Y131.676 Z.4
G1 Z.2
G1 E.5 F1800
;TYPE:Inner wall
G1 F3000
G1 X130.583 Y131.276 E.01574
G1 X130.496 Y130.763 E.01879
G1 X130.571 Y130.136 E.0228
G1 X130.717 Y129.695 E.01678
G1 X131.079 Y129.173 E.02295
G1 X131.512 Y128.81 E.02039
G1 X131.983 Y128.58 E.01891
G1 X132.507 Y128.467 E.01938
G1 X133.027 Y128.483 E.01879
G1 X133.511 Y128.617 E.01812
G1 X134.004 Y128.89 E.02035
G1 X134.412 Y129.279 E.02035
G1 X134.708 Y129.758 E.02033
G1 X134.873 Y130.297 E.02037
G1 X134.895 Y130.763 E.01685
G1 X134.873 Y131.034 E.00982
G1 X134.708 Y131.573 E.02035
G1 X134.448 Y132.013 E.01845
G1 X134.057 Y132.406 E.02
G1 X133.553 Y132.701 E.02109
G1 X132.903 Y132.855 E.02413
G1 X132.375 Y132.84 E.01905
G1 X132.125 Y132.793 E.00921
G1 X131.615 Y132.585 E.01986
G1 X131.207 Y132.292 E.01815
G1 X130.807 Y131.795 E.02303
G1 X130.772 Y131.713 E.00321
G1 X131.173 Y131.497 F24000
;TYPE:Outer wall
G1 F3000
G1 X131.031 Y131.189 E.01225
G1 X130.961 Y130.684 E.01842
G1 X131.029 Y130.158 E.01913
G1 X131.138 Y129.88 E.01078
G1 X131.387 Y129.511 E.01609
G1 X131.724 Y129.215 E.01619
G1 X132.124 Y129.015 E.01615
G1 X132.562 Y128.923 E.01617
G1 X133.007 Y128.944 E.01609
G1 X133.434 Y129.079 E.01619
G1 X133.813 Y129.317 E.01615
G1 X134.119 Y129.643 E.01615
G1 X134.332 Y130.036 E.01613
G1 X134.438 Y130.471 E.01616
G1 X134.438 Y130.763 E.01055
G1 X134.332 Y131.295 E.01957
G1 X134.084 Y131.735 E.01824
G1 X133.767 Y132.051 E.01615
G1 X133.367 Y132.28 E.01666
G1 X132.801 Y132.41 E.02098
G1 X132.29 Y132.367 E.0185
G1 X131.865 Y132.203 E.01644
G1 X131.458 Y131.888 E.01857
G1 X131.219 Y131.595 E.01366
G1 X131.19 Y131.534 E.00245
G1 E-.5 F1800
;WIPE_START
G1 F12000
G1 X131.031 Y131.189
G1 X130.961 Y130.684
G1 X131.029 Y130.158
G1 X131.138 Y129.88
G1 X131.295 Y129.646
;WIPE_END
G1 Z.4 F24000
G1 X133.207 Y134.001 Z.4
G1 Z.2
G1 E.5 F1800
;TYPE:Inner wall
G1 F3000
G1 X133.503 Y134.058 E.01088
G1 X133.989 Y134.309 E.01977
G1 X134.373 Y134.663 E.01885
G1 X134.675 Y135.18 E.02163
G1 X134.805 Y135.721 E.02009
G1 X134.777 Y136.277 E.02007
G1 X134.594 Y136.801 E.02007
G1 X134.271 Y137.253 E.02007
G1 X133.84 Y137.593 E.0198
G1 X133.372 Y137.791 E.01833
G1 X132.86 Y137.86 E.01868
G1 X132.298 Y137.777 E.02048
G1 X131.809 Y137.554 E.01942
G1 X131.407 Y137.213 E.01903
G1 X131.082 Y136.721 E.02127
G1 X130.923 Y136.183 E.02028
G1 X130.923 Y135.622 E.02024
G1 X131.08 Y135.09 E.02003
G1 X131.366 Y134.638 E.01933
G1 X131.783 Y134.268 E.02012
G1 X132.361 Y134.011 E.02284
G1 X132.949 Y133.952 E.02132
G1 X133.167 Y133.994 E.00805
G1 X133.123 Y134.443 F24000
;TYPE:Outer wall
G1 F3000
G1 X133.313 Y134.474 E.00696
G1 X133.691 Y134.656 E.01514
G1 X134.054 Y135.008 E.01824
G1 X134.237 Y135.31 E.01275
G1 X134.348 Y135.722 E.0154
G1 X134.338 Y136.149 E.01543
G1 X134.198 Y136.572 E.01611
G1 X133.971 Y136.908 E.01462
G1 X133.643 Y137.18 E.0154
G1 X133.251 Y137.349 E.0154
G1 X132.828 Y137.4 E.0154
G1 X132.407 Y137.331 E.0154
G1 X132.016 Y137.139 E.01572
G1 X131.718 Y136.875 E.01436
G1 X131.484 Y136.495 E.01613
G1 X131.373 Y136.083 E.0154
G1 X131.383 Y135.654 E.0155
G1 X131.519 Y135.241 E.01569
G1 X131.749 Y134.897 E.01498
G1 X132.078 Y134.625 E.0154
G1 X132.469 Y134.456 E.01539
G1 X132.887 Y134.405 E.01518
G1 X133.084 Y134.437 E.0072
G1 E-.5 F1800
;WIPE_START
G1 F12000
G1 X133.313 Y134.474
G1 X133.691 Y134.656
G1 X134.054 Y135.008
G1 X134.237 Y135.31
G1 X134.348 Y135.722
G1 X134.346 Y135.785
;WIPE_END
G1 Z.4 F24000
G1 X132.816 Y140.295 Z.4
G1 Z.2
G1 E.5 F1800
;TYPE:Inner wall
G1 F3000
G1 X132.968 Y140.241 E.00583
G1 X133.839 Y140.172 E.03157
G1 X134.318 Y140.241 E.01745
G1 X134.802 Y140.399 E.01839
G1 X135.293 Y140.675 E.02033
G1 X135.754 Y141.07 E.02192
G1 X136.123 Y141.552 E.02192
G1 X136.383 Y142.1 E.02192
G1 X136.524 Y142.691 E.02192
G1 X136.539 Y143.298 E.02192
G1 X136.428 Y143.895 E.02192
G1 X136.219 Y144.401 E.01976
G1 X136.101 Y144.608 E.00859
G1 X135.667 Y145.144 E.02492
G1 X135.159 Y145.544 E.02336
G1 X134.609 Y145.805 E.02196
G1 X134.019 Y145.946 E.02192
G1 X133.412 Y145.961 E.02192
G1 X132.815 Y145.849 E.02192
G1 X132.254 Y145.616 E.02192
G1 X131.754 Y145.272 E.02192
G1 X131.355 Y144.85 E.02096
G1 X131.021 Y144.312 E.02287
G1 X130.819 Y143.742 E.02184
;WIDTH:0.535912
G1 X130.776 Y143.548 E.00775
;WIDTH:0.571825
G1 X130.732 Y143.354 E.00831
;WIDTH:0.607738
G1 X130.689 Y143.16 E.00887
;WIDTH:0.614704
G1 X130.685 Y142.971 E.00851
G1 X130.73 Y142.778 E.00898
;WIDTH:0.576469
G1 X130.775 Y142.584 E.00838
;WIDTH:0.538234
G1 X130.819 Y142.39 E.00778
;WIDTH:0.499999
G1 X131.077 Y141.716 E.02604
G1 X131.358 Y141.287 E.01854
G1 X131.546 Y141.059 E.01066
G1 X131.931 Y140.717 E.01859
G1 X132.397 Y140.443 E.01954
G1 X132.778 Y140.308 E.01456
G1 X132.968 Y140.724 F24000
;TYPE:Outer wall
G1 F3000
G1 X133.109 Y140.676 E.00538
G1 X133.863 Y140.628 E.02729
G1 X134.176 Y140.675 E.01143
G1 X134.651 Y140.833 E.01806
G1 X135.088 Y141.087 E.01825
G1 X135.474 Y141.437 E.0188
G1 X135.774 Y141.857 E.01863
G1 X135.979 Y142.326 E.0185
G1 X136.082 Y142.834 E.01869
G1 X136.077 Y143.346 E.01849
G1 X135.966 Y143.845 E.01849
G1 X135.754 Y144.31 E.01845
G1 X135.312 Y144.857 E.02538
G1 X134.889 Y145.175 E.01908
G1 X134.423 Y145.388 E.0185
G1 X133.924 Y145.499 E.01849
G1 X133.412 Y145.504 E.01849
G1 X132.91 Y145.402 E.01849
G1 X132.44 Y145.199 E.01849
G1 X132.023 Y144.902 E.01849
G1 X131.677 Y144.525 E.01848
G1 X131.416 Y144.084 E.01849
G1 X131.254 Y143.601 E.0184
G1 X131.195 Y143.09 E.01857
G1 X131.244 Y142.58 E.01849
G1 X131.504 Y141.88 E.02696
G1 X131.808 Y141.445 E.01917
G1 X132.185 Y141.099 E.01849
G1 X132.626 Y140.838 E.01849
G1 X132.93 Y140.736 E.01158
G1 E-.5 F1800
;WIPE_START
G1 F12000
G1 X133.109 Y140.676
G1 X133.863 Y140.628
G1 X134.176 Y140.675
G1 X134.651 Y140.833
G1 X134.857 Y140.952
;WIPE_END
G1 Z.4 F24000
G1 X127.649 Y134.801 Z.4
G1 Z.2
G1 E.5 F1800
;TYPE:Inner wall
G1 F3000
G1 X127.794 Y135.003 E.00898
G1 X127.998 Y135.622 E.02355
G1 X128.002 Y136.143 E.01881
G1 X127.838 Y136.721 E.0217
G1 X127.563 Y137.155 E.01855
G1 X127.176 Y137.508 E.01892
G1 X126.711 Y137.744 E.01883
G1 X126.161 Y137.853 E.02025
G1 X125.604 Y137.801 E.02016
G1 X125.088 Y137.596 E.02007
G1 X124.656 Y137.259 E.0198
G1 X124.328 Y136.804 E.02025
G1 X124.144 Y136.277 E.02016
G1 X124.116 Y135.721 E.02007
G1 X124.245 Y135.181 E.02007
G1 X124.521 Y134.701 E.02
G1 X124.924 Y134.314 E.02014
G1 X125.417 Y134.058 E.02007
G1 X125.955 Y133.952 E.01979
G1 X126.514 Y134.003 E.02025
G1 X127.033 Y134.209 E.02016
G1 X127.471 Y134.551 E.02007
G1 X127.626 Y134.768 E.00963
G1 X127.289 Y135.064 F24000
;TYPE:Outer wall
G1 F3000
G1 X127.424 Y135.277 E.00915
G1 X127.548 Y135.721 E.01663
G1 X127.539 Y136.148 E.0154
G1 X127.41 Y136.554 E.0154
G1 X127.171 Y136.908 E.0154
