; HEADER_BLOCK_START
; generated by OrcaSlicer 2.2.0 on 2024-11-16 at 09:50:41
; total layer number: 30
; filament_density: 1.27
; filament_diameter: 1.75
; max_z_height: 6.00
; HEADER_BLOCK_END

; THUMBNAIL_BLOCK_START

;
; THUMBNAIL_BLOCK_END

; THUMBNAIL_BLOCK_START

;
; THUMBNAIL_BLOCK_END

; external perimeters extrusion width = 0.42mm
; perimeters extrusion width = 0.45mm
; infill extrusion width = 0.45mm
; solid infill extrusion width = 0.45mm
; top infill extrusion width = 0.42mm
; first layer extrusion width = 0.50mm

; EXECUTABLE_BLOCK_START
EXCLUDE_OBJECT_DEFINE NAME=Corps4.stl_id_0_copy_0 CENTER=115,115 POLYGON=[[81.5,111.5],[81.5127,111.143],[81.5509,110.788],[81.6143,110.437],[81.7025,110.091],[81.8153,109.753],[81.9518,109.423],[82.1116,109.104],[82.2937,108.797],[82.4973,108.504],[82.7213,108.226],[82.9645,107.964],[83.2257,107.721],[83.5036,107.497],[83.7968,107.294],[84.1038,107.112],[84.4229,106.952],[84.7527,106.815],[85.0913,106.703],[85.4372,106.614],[85.7884,106.551],[86.1433,106.513],[86.5,106.5],[143.5,106.5],[143.857,106.513],[144.212,106.551],[144.563,106.614],[144.909,106.703],[145.247,106.815],[145.577,106.952],[145.896,107.112],[146.203,107.294],[146.496,107.497],[146.774,107.721],[147.036,107.964],[147.279,108.226],[147.503,108.504],[147.706,108.797],[147.888,109.104],[148.048,109.423],[148.185,109.753],[148.297,110.091],[148.386,110.437],[148.449,110.788],[148.487,111.143],[148.5,111.5],[148.5,114.5],[138.8,123.5],[91.2,123.5],[81.5,114.5],[81.5,111.5]]
M73 P0 R9
;TYPE:Custom
M220 S100
G90 ; use absolute coordinates
M83 ; extruder relative mode
M104 S150 ; set temporary nozzle temp to prevent oozing during homing
M140 S70 ; set final bed temp
G4 S30 ; allow partial nozzle warmup
G28 ; home all axis and restore leveling
BED_MESH_CALIBRATE PROFILE=adaptive ADAPTIVE=1 ADAPTIVE_MARGIN=0
G1 Z25 F240
G1 X10.0 Y30 F3000
M73 P1 R9
M104 S245 ; set final nozzle temp
M190 S70 ; wait for bed temp to stabilize
M109 S245 ; wait for nozzle temp to stabilize
M73 P1 R9
G1 Z0.28 F240
G92 E0 ; Move Z Axis up
G1 Z2.0 F5000 ; Move to start position
M73 P2 R9
M73 P2 R9
G1 X5 Y30 Z0.28 F300 ; Draw the first line
G1 X5 Y200 Z0.28 F1500 E15 ; Move to side a little
G1 X5.4 Y200 Z0.28 F5000.0 ; Draw the second line
M73 P3 R9
M73 P3 R9
G1 X5.4 Y50 Z0.28 F1500.0 E30 ; Reset Extruder
G92 E0 ; Move Z Axis up
G1 Z2.0 F3000
M73 P4 R9
M117 Start Printing..
G90
G21
M83 ; use relative distances for extrusion
; filament start gcode
M106 S0
;LAYER_CHANGE
;Z:0.2
;HEIGHT:0.2
;BEFORE_LAYER_CHANGE
;0.2
G92 E0

M73 P4 R9
G1 E-.5 F1800
;_SET_FAN_SPEED_CHANGING_LAYER
SET_VELOCITY_LIMIT ACCEL=1000
SET_VELOCITY_LIMIT SQUARE_CORNER_VELOCITY=7
; printing object Corps4.stl id:0 copy 0
EXCLUDE_OBJECT_START NAME=Corps4.stl_id_0_copy_0
G1 Z.4 F24000
G1 X155.743 Y133.743
G1 Z.4
G1 Z.2
G1 E.5 F1800
;TYPE:Inner wall
;WIDTH:0.499999
G1 F3000
G1 X151.596 Y133.756 E.14972
G1 X150.932 Y133.81 E.02405
G1 X150.225 Y133.964 E.02613
G1 X149.722 Y134.144 E.01931
G1 X149.184 Y134.383 E.02124
G1 X148.505 Y134.792 E.02863
G1 X147.884 Y135.293 E.0288
G1 X147.348 Y135.862 E.02822
G1 X146.89 Y136.507 E.02857
G1 X146.748 Y136.791 E.01148
;WIDTH:0.4737
G1 X146.606 Y137.076 E.01082
G1 X146.674 Y136.671 E.01396
;WIDTH:0.499999
G1 X146.743 Y136.267 E.01482
G1 X146.717 Y135.449 E.02954
G1 X146.552 Y134.652 E.02939
G1 X146.329 Y134.033 E.02376
G1 X146.011 Y133.446 E.02409
G1 X145.848 Y133.222 E.01001
G1 X145.463 Y132.742 E.02221
G1 X144.873 Y132.211 E.02867
G1 X144.205 Y131.787 E.02855
G1 X143.499 Y131.487 E.02771
G1 X142.727 Y131.301 E.02866
G1 X141.937 Y131.245 E.02861
G1 X141.161 Y131.319 E.02814
G1 X140.407 Y131.52 E.02817
G1 X139.683 Y131.847 E.02867
G1 X139.027 Y132.289 E.02855
G1 X138.469 Y132.815 E.02771
G1 X137.988 Y133.447 E.02866
G1 X137.62 Y134.149 E.02861
G1 X137.376 Y134.889 E.02814
G1 X137.257 Y135.66 E.02818
G1 X137.266 Y136.453 E.02861
G1 X137.404 Y137.221 E.02819
G1 X137.671 Y137.967 E.02861
G1 X138.05 Y138.648 E.02814
G1 X138.537 Y139.258 E.02817
G1 X139.127 Y139.789 E.02867
G1 X139.795 Y140.213 E.02855
G1 X140.501 Y140.513 E.02771
G1 X141.273 Y140.699 E.02866
G1 X142.063 Y140.755 E.02861
M73 P5 R9
M73 P5 R9
G1 X142.839 Y140.681 E.02814
G1 X143.593 Y140.48 E.02817
G1 X144.317 Y140.153 E.02867
G1 X144.973 Y139.711 E.02855
G1 X145.531 Y139.185 E.02771
G1 X146.012 Y138.553 E.02866
G1 X146.156 Y138.245 E.01229
;WIDTH:0.461327
G1 X146.301 Y137.937 E.01125
G1 X146.199 Y138.333 E.01353
;WIDTH:0.499999
G1 X146.096 Y138.729 E.01478
G1 X146.043 Y139.499 E.02785
G1 X146.043 Y142.743 E.11713
G1 X99.957 Y142.743 E1.66397
G1 X99.95 Y139.37 E.12177
G1 X99.881 Y138.594 E.02815
G1 X99.792 Y138.272 E.01206
;WIDTH:0.462442
G1 X99.703 Y137.95 E.01107
G1 X99.886 Y138.311 E.01343
;WIDTH:0.499999
G1 X100.069 Y138.673 E.01463
G1 X100.537 Y139.258 E.02704
G1 X101.127 Y139.789 E.02867
G1 X101.805 Y140.217 E.02895
G1 X102.501 Y140.513 E.02731
G1 X103.273 Y140.699 E.02866
G1 X104.063 Y140.755 E.02861
G1 X104.839 Y140.681 E.02814
G1 X105.593 Y140.48 E.02817
G1 X106.317 Y140.153 E.02867
G1 X106.973 Y139.711 E.02855
G1 X107.531 Y139.185 E.02771
G1 X108.012 Y138.553 E.02866
G1 X108.38 Y137.851 E.0286
G1 X108.624 Y137.111 E.02814
G1 X108.743 Y136.34 E.02818
G1 X108.734 Y135.547 E.02861
G1 X108.596 Y134.779 E.02819
G1 X108.329 Y134.033 E.02861
G1 X107.95 Y133.352 E.02815
G1 X107.463 Y132.742 E.02817
G1 X106.873 Y132.211 E.02867
G1 X106.205 Y131.787 E.02855
G1 X105.499 Y131.487 E.02771
G1 X104.727 Y131.301 E.02866
G1 X103.937 Y131.245 E.02861
G1 X103.161 Y131.319 E.02814
G1 X102.407 Y131.52 E.02817
G1 X101.683 Y131.847 E.02867
G1 X101.027 Y132.289 E.02855
G1 X100.545 Y132.733 E.02367
G1 X99.988 Y133.447 E.0327
G1 X99.62 Y134.149 E.0286
G1 X99.376 Y134.889 E.02814
G1 X99.257 Y135.66 E.02818
G1 X99.266 Y136.453 E.02861
G1 X99.33 Y136.764 E.01149
;WIDTH:0.473681
G1 X99.394 Y137.076 E.01083
G1 X99.207 Y136.715 E.01386
;WIDTH:0.499999
G1 X99.019 Y136.353 E.0147
G1 X98.518 Y135.694 E.02991
G1 X97.932 Y135.118 E.02965
G1 X97.27 Y134.632 E.02965
G1 X96.82 Y134.386 E.01854
G1 X96.279 Y134.145 E.02139
G1 X95.775 Y133.964 E.01933
G1 X94.845 Y133.787 E.03415
G1 X94.203 Y133.743 E.02323
G1 X90.257 Y133.743 E.14249
G1 X90.257 Y131.526 E.08005
G1 X90.302 Y130.896 E.02279
G1 X90.429 Y130.311 E.02163
G1 X90.642 Y129.738 E.02208
G1 X90.932 Y129.207 E.02184
G1 X91.295 Y128.723 E.02185
G1 X91.723 Y128.295 E.02185
G1 X92.202 Y127.936 E.02163
G1 X92.738 Y127.642 E.02207
G1 X93.305 Y127.431 E.02184
G1 X93.887 Y127.304 E.02148
G1 X95.01 Y127.257 E.04061
G1 X150.796 Y127.257 E2.01418
G1 X151.75 Y127.277 E.03448
G1 X152.329 Y127.351 E.02107
G1 X152.921 Y127.515 E.02218
G1 X153.456 Y127.749 E.02106
G1 X153.975 Y128.068 E.02201
G1 X154.434 Y128.452 E.02159
G1 X154.835 Y128.896 E.02162
G1 X155.169 Y129.392 E.02157
G1 X155.429 Y129.928 E.0215
G1 X155.61 Y130.492 E.02142
G1 X155.711 Y131.074 E.02132
G1 X155.743 Y131.602 E.0191
G1 X155.743 Y133.703 E.07585
G1 X156.2 Y134.2 F24000
;TYPE:Outer wall
G1 F3000
G1 X151.629 Y134.212 E.16504
G1 X151.03 Y134.257 E.0217
G1 X150.323 Y134.411 E.02613
G1 X149.882 Y134.573 E.01696
G1 X149.403 Y134.785 E.01889
G1 X148.778 Y135.157 E.02628
G1 X148.207 Y135.616 E.02645
G1 X147.714 Y136.136 E.02587
G1 X147.291 Y136.726 E.02622
G1 X146.957 Y137.356 E.02575
G1 X146.71 Y138.026 E.02578
G1 X146.552 Y138.762 E.02719
G1 X146.5 Y139.499 E.02667
G1 X146.5 Y143.2 E.13364
G1 X99.5 Y143.2 E1.69698
G1 X99.494 Y139.403 E.1371
G1 X99.434 Y138.691 E.02581
G1 X99.28 Y137.991 E.02585
G1 X99.014 Y137.284 E.0273
G1 X98.653 Y136.627 E.02706
G1 X98.194 Y136.017 E.02754
G1 X97.658 Y135.484 E.0273
G1 X97.051 Y135.033 E.0273
G1 X96.387 Y134.673 E.0273
G1 X95.677 Y134.411 E.0273
G1 X94.813 Y134.243 E.0318
G1 X94.202 Y134.2 E.02211
G1 X89.8 Y134.2 E.15894
G1 X89.8 Y131.509 E.09714
G1 X89.848 Y130.831 E.02455
G1 X89.989 Y130.182 E.02398
G1 X90.225 Y129.548 E.02444
G1 X90.547 Y128.959 E.0242
G1 X90.948 Y128.423 E.02421
G1 X91.423 Y127.948 E.02421
G1 X91.954 Y127.55 E.02398
G1 X92.548 Y127.225 E.02444
G1 X93.176 Y126.991 E.0242
G1 X93.828 Y126.849 E.02409
G1 X95.001 Y126.8 E.04238
G1 X151.364 Y126.8 E2.03505
G1 X151.906 Y126.83 E.01959
M73 P6 R9
M73 P6 R9
G1 X152.568 Y126.935 E.0242
G1 X153.203 Y127.132 E.02401
G1 X153.813 Y127.422 E.02438
G1 X154.374 Y127.796 E.02434
G1 X154.757 Y128.128 E.01832
G1 X155.201 Y128.622 E.02397
G1 X155.57 Y129.173 E.02392
G1 X155.857 Y129.768 E.02386
G1 X156.057 Y130.395 E.02378
G1 X156.167 Y131.042 E.02367
G1 X156.2 Y131.602 E.02027
G1 X156.2 Y134.16 E.09235
G1 E-.5 F1800
;WIPE_START
G1 F12000
G1 X154.2 Y134.183
;WIPE_END
G1 Z.4 F24000
G1 X141.843 Y131.712 Z.4
G1 Z.2
G1 E.5 F1800
G1 F3000
G1 X141.975 Y131.701 E.00479
G1 X142.69 Y131.756 E.02589
G1 X143.386 Y131.93 E.0259
G1 X144.021 Y132.206 E.02502
G1 X144.624 Y132.594 E.02587
G1 X145.154 Y133.078 E.02591
G1 X145.488 Y133.502 E.0195
G1 X145.856 Y134.12 E.02596
G1 X146.12 Y134.801 E.02637
G1 X146.266 Y135.524 E.02666
G1 X146.286 Y136.267 E.02682
G1 X146.178 Y137.004 E.02692
G1 X145.947 Y137.703 E.02657
G1 X145.61 Y138.336 E.02589
G1 X145.171 Y138.903 E.02591
G1 X144.663 Y139.375 E.02502
G1 X144.066 Y139.771 E.02586
G1 X143.41 Y140.062 E.02591
G1 X142.727 Y140.237 E.02545
G1 X142.025 Y140.299 E.02544
G1 X141.31 Y140.244 E.02589
G1 X140.614 Y140.07 E.0259
G1 X139.979 Y139.794 E.02501
G1 X139.376 Y139.406 E.02587
G1 X138.846 Y138.922 E.02591
G1 X138.411 Y138.368 E.02545
G1 X138.073 Y137.749 E.02544
G1 X137.836 Y137.072 E.02589
G1 X137.717 Y136.377 E.02546
G1 X137.714 Y135.66 E.02589
G1 X137.827 Y134.964 E.02546
G1 X138.053 Y134.297 E.02544
G1 X138.39 Y133.664 E.02589
G1 X138.829 Y133.097 E.02591
G1 X139.337 Y132.625 E.02502
G1 X139.934 Y132.229 E.02586
G1 X140.59 Y131.938 E.02591
G1 X141.273 Y131.763 E.02545
G1 X141.803 Y131.716 E.01921
G1 E-.5 F1800
;WIPE_START
G1 F12000
G1 X141.975 Y131.701
G1 X142.69 Y131.756
G1 X143.386 Y131.93
G1 X143.746 Y132.087
;WIPE_END
G1 Z.4 F24000
G1 X146.577 Y137.166 Z.4
G1 Z.2
G1 E.5 F1800
;TYPE:Inner wall
;WIDTH:0.43117
G1 F3000
G1 X146.337 Y137.837 E.02185
;WIDTH:0.414992
G1 X146.313 Y137.903 E.00207
G1 E-.5 F1800
;WIPE_START
G1 F12000
G1 X146.337 Y137.837
G1 X146.577 Y137.166
;WIPE_END
G1 Z.4 F24000
G1 X99.716 Y136.052 Z.4
G1 Z.2
G1 E.5 F1800
;TYPE:Outer wall
;WIDTH:0.499999
G1 F3000
G1 X99.714 Y135.66 E.01416
G1 X99.827 Y134.964 E.02546
G1 X100.053 Y134.297 E.02544
G1 X100.39 Y133.664 E.02589
G1 X100.829 Y133.097 E.02591
G1 X101.337 Y132.625 E.02502
G1 X101.934 Y132.229 E.02586
G1 X102.59 Y131.938 E.02591
G1 X103.273 Y131.763 E.02545
G1 X103.975 Y131.701 E.02544
G1 X104.69 Y131.756 E.02589
G1 X105.386 Y131.93 E.0259
G1 X106.021 Y132.206 E.02502
G1 X106.624 Y132.594 E.02587
G1 X107.154 Y133.078 E.02591
G1 X107.589 Y133.632 E.02545
G1 X107.927 Y134.251 E.02544
G1 X108.164 Y134.928 E.02589
G1 X108.283 Y135.623 E.02546
G1 X108.286 Y136.34 E.02589
G1 X108.173 Y137.036 E.02546
G1 X107.947 Y137.703 E.02544
G1 X107.61 Y138.336 E.02589
G1 X107.171 Y138.903 E.02591
G1 X106.663 Y139.375 E.02502
G1 X106.066 Y139.771 E.02586
G1 X105.41 Y140.062 E.02591
G1 X104.727 Y140.237 E.02545
G1 X104.025 Y140.299 E.02544
G1 X103.31 Y140.244 E.02589
G1 X102.614 Y140.07 E.0259
G1 X101.989 Y139.799 E.02461
G1 X101.376 Y139.406 E.02626
G1 X100.846 Y138.922 E.02591
G1 X100.43 Y138.392 E.02432
G1 X100.073 Y137.749 E.02656
G1 X99.836 Y137.072 E.02589
G1 X99.717 Y136.377 E.02546
G1 X99.716 Y136.092 E.01029
G1 X99.689 Y137.909 F24000
;TYPE:Inner wall
;WIDTH:0.428352
G1 F3000
G1 X99.438 Y137.209 E.02262
;WIDTH:0.43117
G1 X99.423 Y137.166 E.00141
G1 E-.5 F1800
;WIPE_START
G1 F12000
G1 X99.438 Y137.209
G1 X99.689 Y137.909
;WIPE_END
G1 Z.4 F24000
G1 X155.164 Y129.669
G1 Z.4
G1 Z.2
G1 E.5 F1800
;TYPE:Bottom surface
;WIDTH:0.503728
G1 F5859.273
G1 X154.041 Y128.546 E.05776
G1 X153.608 Y128.222 E.01973
G1 X153.114 Y127.953 E.02047
G1 X152.607 Y127.764 E.01968
G1 X155.236 Y130.393 E.13533
G1 X155.358 Y130.945 E.02059
G1 X155.375 Y131.183 E.00868
G1 X151.817 Y127.625 E.18315
G1 X151.468 Y127.6 E.01272
G1 X151.14 Y127.6 E.01195
G1 X155.4 Y131.86 E.2193
G1 X155.4 Y132.512 E.02372
G1 X150.488 Y127.6 E.25284
G1 X149.837 Y127.6 E.02372
G1 X155.4 Y133.163 E.28639
G1 X155.4 Y133.4 E.00862
G1 X154.985 Y133.4 E.0151
G1 X149.185 Y127.6 E.29858
G1 X148.533 Y127.6 E.02372
G1 X154.334 Y133.4 E.29859
G1 X153.682 Y133.4 E.02372
M73 P7 R9
M73 P7 R9
G1 X147.882 Y127.6 E.29859
G1 X147.23 Y127.6 E.02372
G1 X153.031 Y133.401 E.2986
G1 X152.379 Y133.401 E.02372
G1 X146.578 Y127.6 E.29861
G1 X145.927 Y127.6 E.02372
G1 X151.73 Y133.403 E.29872
G1 X151.124 Y133.449 E.0221
G1 X145.275 Y127.6 E.30111
G1 X144.623 Y127.6 E.02372
M73 P7 R8
M73 P7 R8
G1 X150.563 Y133.54 E.30578
G1 X150.145 Y133.631 E.01558
G1 X150.04 Y133.669 E.00405
G1 X143.972 Y127.6 E.31241
G1 X143.32 Y127.6 E.02372
G1 X149.563 Y133.844 E.32141
G1 X149.25 Y133.958 E.01216
G1 X149.107 Y134.038 E.00597
G1 X142.668 Y127.6 E.33143
G1 X142.017 Y127.6 E.02372
G1 X148.688 Y134.272 E.34344
G1 X148.447 Y134.406 E.01004
G1 X148.291 Y134.526 E.00718
G1 X141.365 Y127.6 E.35653
G1 X140.713 Y127.6 E.02372
G1 X147.922 Y134.809 E.37108
G1 X147.757 Y134.935 E.00756
G1 X147.577 Y135.116 E.00928
G1 X146.806 Y134.345 E.03969
G1 X146.939 Y134.728 E.01477
G1 X147.022 Y135.213 E.01789
G1 X147.398 Y135.589 E.01936
G1 E-.5 F1800
;WIPE_START
G1 F12000
G1 X147.022 Y135.213
G1 X146.939 Y134.728
G1 X146.806 Y134.345
G1 X147.21 Y134.749
;WIPE_END
G1 Z.4 F24000
G1 X144.028 Y131.567 Z.4
G1 Z.2
G1 E.5 F1800
G1 F5859.273
G1 X140.062 Y127.6 E.20419
G1 X139.41 Y127.6 E.02372
G1 X142.771 Y130.961 E.17303
G1 X142.063 Y130.905 E.02585
G1 X138.758 Y127.6 E.17014
G1 X138.106 Y127.6 E.02372
G1 X141.456 Y130.95 E.17245
G1 X141.084 Y130.985 E.0136
G1 X140.892 Y131.037 E.00727
G1 X137.455 Y127.6 E.17692
G1 X136.803 Y127.6 E.02372
G1 X140.378 Y131.175 E.18404
G1 X140.277 Y131.202 E.00382
G1 X139.913 Y131.362 E.01446
G1 X136.151 Y127.6 E.19365
G1 X135.5 Y127.6 E.02372
G1 X139.482 Y131.582 E.20498
G1 X139.083 Y131.835 E.01719
G1 X134.848 Y127.6 E.218
G1 X134.196 Y127.6 E.02372
G1 X138.717 Y132.12 E.23269
G1 X138.372 Y132.428 E.0168
G1 X133.545 Y127.6 E.24851
G1 X132.893 Y127.6 E.02372
G1 X138.072 Y132.779 E.26658
G1 X137.781 Y133.14 E.01687
G1 X132.241 Y127.6 E.28517
G1 X131.59 Y127.6 E.02372
G1 X137.546 Y133.557 E.30663
G1 X137.36 Y133.889 E.01387
G1 X137.325 Y133.987 E.00379
G1 X130.938 Y127.6 E.32878
G1 X130.286 Y127.6 E.02372
G1 X137.152 Y134.466 E.35346
M73 P8 R8
M73 P8 R8
G1 X137.077 Y134.676 E.00812
G1 X137.022 Y134.987 E.0115
G1 X129.635 Y127.6 E.38028
G1 X128.983 Y127.6 E.02372
G1 X136.924 Y135.541 E.40878
G1 X136.923 Y136.192 E.02371
G1 X128.331 Y127.6 E.44231
G1 X127.68 Y127.6 E.02372
G1 X137.26 Y137.181 E.49319
G1 E-.5 F1800
;WIPE_START
G1 F12000
G1 X135.846 Y135.766
;WIPE_END
G1 Z.4 F24000
G1 X145.906 Y139.961 Z.4
G1 Z.2
G1 E.5 F1800
G1 F5859.273
G1 X145.571 Y139.626 E.01725
G1 X145.232 Y139.939 E.01679
G1 X145.7 Y140.407 E.02412
G1 X145.7 Y141.059 E.02372
G1 X144.848 Y140.207 E.04387
G1 X144.456 Y140.466 E.01712
G1 X145.7 Y141.711 E.06405
G1 X145.7 Y142.362 E.02372
G1 X144.01 Y140.672 E.08701
G1 X143.723 Y140.798 E.0114
G1 X143.535 Y140.848 E.0071
G1 X145.086 Y142.4 E.07988
G1 X144.435 Y142.4 E.02372
G1 X143.021 Y140.987 E.07276
G1 X142.916 Y141.015 E.00397
G1 X142.444 Y141.062 E.01724
G1 X143.783 Y142.4 E.06891
G1 X143.131 Y142.4 E.02372
G1 X141.819 Y141.088 E.06755
G1 X141.236 Y141.04 E.02129
G1 X141.083 Y141.004 E.00572
G1 X142.48 Y142.4 E.07188
G1 X141.828 Y142.4 E.02372
G1 X140.184 Y140.757 E.08461
G1 X139.516 Y140.451 E.02676
G1 X138.811 Y139.977 E.03094
G1 X138.298 Y139.504 E.02537
G1 X137.775 Y138.853 E.03042
G1 X137.366 Y138.124 E.03043
G1 X137.261 Y137.833 E.01126
G1 X127.028 Y127.6 E.52677
G1 X126.376 Y127.6 E.02372
G1 X141.176 Y142.4 E.76188
G1 X140.525 Y142.4 E.02372
G1 X125.724 Y127.6 E.76188
G1 X125.073 Y127.6 E.02372
G1 X139.873 Y142.4 E.76188
G1 X139.221 Y142.4 E.02372
G1 X124.421 Y127.6 E.76188
G1 X123.769 Y127.6 E.02372
G1 X138.57 Y142.4 E.76188
G1 X137.918 Y142.4 E.02372
G1 X123.118 Y127.6 E.76188
G1 X122.466 Y127.6 E.02372
G1 X137.266 Y142.4 E.76188
G1 X136.614 Y142.4 E.02372
