; HEADER_BLOCK_START
; generated by OrcaSlicer 2.0.0 on 2024-05-26 at 19:40:05
; total layer number: 90
; filament_density: 1.24
; filament_diameter: 1.75
; max_z_height: 18.00
; HEADER_BLOCK_END

; THUMBNAIL_BLOCK_START

;
; THUMBNAIL_BLOCK_END

; THUMBNAIL_BLOCK_START

;
; THUMBNAIL_BLOCK_END

; external perimeters extrusion width = 0.40mm
; perimeters extrusion width = 0.42mm
; infill extrusion width = 0.45mm
; solid infill extrusion width = 0.42mm
; top infill extrusion width = 0.40mm
; first layer extrusion width = 0.50mm

; EXECUTABLE_BLOCK_START
EXCLUDE_OBJECT_DEFINE NAME=Corps35.stl_id_0_copy_0 CENTER=115,115 POLYGON=[[80.9965,74.609],[81.0042,74.6047],[81.0274,74.592],[81.066,74.571],[81.1199,74.5418],[81.189,74.5045],[81.2732,74.4593],[81.3726,74.4063],[81.4869,74.3456],[81.6156,74.2778],[81.7575,74.2036],[81.9114,74.1238],[82.0761,74.0392],[82.2504,73.9506],[82.2836,73.9337],[82.433,73.8587],[82.6227,73.7643],[82.8201,73.6673],[83.0288,73.5661],[83.2484,73.461],[83.4781,73.3525],[83.5914,73.2994],[83.7172,73.2413],[83.9648,73.1277],[84.2202,73.0124],[84.4825,72.8959],[84.7511,72.7788],[84.9186,72.7067],[85.0251,72.6615],[85.3033,72.5445],[85.5845,72.4285],[85.8677,72.3137],[86.1516,72.2007],[86.2639,72.1563],[86.4351,72.09],[86.7172,71.982],[86.9965,71.8771],[87.6259,71.6486],[88.3493,71.3987],[89.0032,71.1843],[89.7163,70.9627],[90.3945,70.7636],[91.0963,70.5695],[91.7984,70.3872],[92.4879,70.2196],[93.2136,70.0553],[93.8897,69.9132],[94.6385,69.7682],[95.3004,69.6507],[96.0717,69.5263],[96.7186,69.4323],[97.5119,69.3299],[98.1429,69.2583],[98.9575,69.179],[99.572,69.1288],[100.407,69.0739],[101.004,69.0439],[101.86,69.0146],[102.439,69.0038],[103.313,69.0012],[103.874,69.0084],[104.766,69.0338],[105.308,69.0577],[106.218,69.1123],[106.739,69.1518],[107.666,69.2366],[108.168,69.2904],[109.109,69.4065],[109.591,69.4736],[110.547,69.622],[111.008,69.701],[111.977,69.8829],[112.417,69.9725],[113.398,70.1887],[113.816,70.2879],[114.808,70.5393],[115.206,70.6467],[116.207,70.9343],[116.583,71.0487],[117.593,71.3733],[117.947,71.4935],[118.964,71.8558],[119.297,71.9806],[120.319,72.3815],[120.631,72.5095],[121.657,72.9496],[121.948,73.0798],[122.976,73.5598],[123.246,73.6909],[124.275,74.2113],[124.525,74.3422],[125.553,74.9036],[125.782,75.0331],[126.809,75.6359],[127.018,75.7628],[128.041,76.4075],[128.23,76.5307],[129.248,77.2177],[129.417,77.3361],[130.428,78.0655],[130.579,78.1781],[131.581,78.9503],[131.714,79.0559],[132.706,79.871],[132.821,79.9687],[133.801,80.8268],[133.9,80.9156],[134.866,81.8167],[134.948,81.8957],[135.898,82.8398],[135.965,82.908],[136.898,83.895],[136.95,83.9515],[137.864,84.9812],[137.901,85.0252],[138.795,86.0974],[138.819,86.128],[139.69,87.2424],[139.702,87.259],[140.549,88.4152],[140.55,88.417],[141.361,89.6008],[141.37,89.6145],[142.134,90.8094],[142.153,90.8392],[142.87,92.0415],[142.896,92.088],[143.566,93.2959],[143.6,93.3596],[144.224,94.5714],[144.264,94.6529],[144.841,95.8669],[144.886,95.9665],[145.417,97.1809],[145.467,97.2991],[145.952,98.5123],[146.005,98.6493],[146.446,99.8597],[146.5,100.016],[146.897,101.222],[146.951,101.397],[147.305,102.597],[147.359,102.793],[147.67,103.985],[147.723,104.2],[147.738,104.264],[147.805,104.547],[147.871,104.833],[147.935,105.119],[147.997,105.406],[148.042,105.618],[148.057,105.691],[148.114,105.974],[148.169,106.252],[148.221,106.525],[148.27,106.792],[148.316,107.046],[148.36,107.302],[148.4,107.543],[148.438,107.775],[148.472,107.995],[148.504,108.204],[148.533,108.402],[148.544,108.481],[148.56,108.592],[148.585,108.774],[148.608,108.946],[148.63,109.108],[148.649,109.258],[148.666,109.396],[148.681,109.519],[148.694,109.629],[148.705,109.723],[148.714,109.803],[148.722,109.868],[148.727,109.919],[148.731,109.955],[148.734,109.977],[148.734,109.984],[148.865,111.37],[148.868,111.406],[148.957,112.82],[148.957,112.831],[149.003,114.258],[149.003,114.273],[149.004,115.686],[149.003,115.727],[148.96,117.114],[148.957,117.18],[148.872,118.539],[148.865,118.63],[148.74,119.961],[148.74,119.968],[148.737,119.99],[148.733,120.026],[148.728,120.077],[148.72,120.142],[148.711,120.222],[148.7,120.316],[148.688,120.425],[148.673,120.549],[148.656,120.687],[148.637,120.837],[148.616,120.999],[148.593,121.171],[148.568,121.353],[148.544,121.519],[148.541,121.543],[148.512,121.741],[148.481,121.95],[148.446,122.17],[148.409,122.401],[148.369,122.643],[148.326,122.894],[148.316,122.954],[148.28,123.153],[148.231,123.42],[148.18,123.693],[148.125,123.972],[148.068,124.254],[148.042,124.382],[148.008,124.539],[147.946,124.826],[147.883,125.113],[147.818,125.399],[147.751,125.682],[147.723,125.8],[147.684,125.961],[147.359,127.207],[147.32,127.35],[146.951,128.603],[146.913,128.727],[146.5,129.984],[146.463,130.091],[146.005,131.351],[145.971,131.44],[145.467,132.701],[145.437,132.773],[144.886,134.034],[144.861,134.088],[144.264,135.347],[144.245,135.385],[143.6,136.64],[143.589,136.662],[142.896,137.912],[142.893,137.918],[142.158,139.152],[142.153,139.161],[141.385,140.362],[141.37,140.385],[140.575,141.548],[140.549,141.585],[139.728,142.707],[139.69,142.758],[138.845,143.84],[138.795,143.903],[137.927,144.944],[137.864,145.019],[136.976,146.02],[136.898,146.105],[135.991,147.065],[135.898,147.16],[134.974,148.079],[134.866,148.183],[133.926,149.06],[133.801,149.173],[132.848,150.009],[132.706,150.129],[131.741,150.923],[131.581,151.05],[130.606,151.802],[130.428,151.934],[129.443,152.646],[129.248,152.782],[128.256,153.452],[128.041,153.592],[127.043,154.222],[126.809,154.364],[125.807,154.953],[125.553,155.096],[124.549,155.645],[124.275,155.789],[123.27,156.297],[122.976,156.44],[121.971,156.91],[121.657,157.05],[120.654,157.481],[120.319,157.619],[119.319,158.011],[118.964,158.144],[117.969,158.499],[117.593,158.627],[116.604,158.945],[116.207,159.066],[115.226,159.348],[114.808,159.461],[113.835,159.708],[113.398,159.811],[112.435,160.024],[111.977,160.117],[111.025,160.296],[110.547,160.378],[109.607,160.524],[109.109,160.593],[108.183,160.708],[107.666,160.763],[106.754,160.847],[106.218,160.888],[105.321,160.942],[104.766,160.966],[103.886,160.991],[103.313,160.999],[102.45,160.996],[101.86,160.985],[101.015,160.957],[100.407,160.926],[99.5812,160.872],[98.9575,160.821],[98.1511,160.743],[97.5119,160.67],[96.7257,160.569],[96.0717,160.474],[95.3065,160.35],[94.6385,160.232],[93.8948,160.088],[93.2136,159.945],[92.4919,159.781],[91.7984,159.613],[91.0993,159.431],[90.3945,159.236],[89.7183,159.038],[89.0032,158.816],[88.3502,158.602],[87.6259,158.351],[86.9965,158.123],[86.7172,158.018],[86.4351,157.91],[86.2639,157.844],[86.1516,157.799],[85.8677,157.686],[85.5845,157.572],[85.3033,157.455],[85.0251,157.339],[84.9186,157.293],[84.7511,157.221],[84.4825,157.104],[84.2202,156.988],[83.9648,156.872],[83.7172,156.759],[83.5914,156.701],[83.4781,156.647],[83.2484,156.539],[83.0288,156.434],[82.8201,156.333],[82.6227,156.236],[82.433,156.141],[82.2836,156.066],[82.2504,156.049],[82.0761,155.961],[81.9114,155.876],[81.7575,155.796],[81.6156,155.722],[81.4869,155.654],[81.3726,155.594],[81.2732,155.541],[81.189,155.495],[81.1199,155.458],[81.066,155.429],[81.0274,155.408],[81.0042,155.395],[80.9965,155.391],[80.9965,74.609]]
M73 P0 R35
;TYPE:Custom
M220 S100
G90 ; use absolute coordinates
M83 ; extruder relative mode
M104 S150 ; set temporary nozzle temp to prevent oozing during homing
M140 S55 ; set final bed temp
G4 S30 ; allow partial nozzle warmup
G28 ; home all axis and restore leveling
G1 Z25 F240
G1 X10.0 Y30 F3000
M104 S210 ; set final nozzle temp
M190 S55 ; wait for bed temp to stabilize
M109 S210 ; wait for nozzle temp to stabilize
G1 Z0.28 F240
G92 E0 ; Move Z Axis up
G1 Z2.0 F5000 ; Move to start position
G1 X5 Y30 Z0.28 F300 ; Draw the first line
G1 X5 Y200 Z0.28 F1500 E15 ; Move to side a little
G1 X5.4 Y200 Z0.28 F5000.0 ; Draw the second line
G1 X5.4 Y50 Z0.28 F1500.0 E30 ; Reset Extruder
G92 E0 ; Move Z Axis up
G1 Z2.0 F3000
M117 Start Printing..
G90
G21
M83 ; use relative distances for extrusion
; filament start gcode
M106 S0
;LAYER_CHANGE
;Z:0.2
;HEIGHT:0.2
;BEFORE_LAYER_CHANGE
;0.2
G92 E0

M73 P1 R35
G1 E-.5 F2400
;_SET_FAN_SPEED_CHANGING_LAYER
SET_VELOCITY_LIMIT ACCEL=500 ACCEL_TO_DECEL=250
SET_VELOCITY_LIMIT SQUARE_CORNER_VELOCITY=7
; printing object Corps35.stl id:0 copy 0
EXCLUDE_OBJECT_START NAME=Corps35.stl_id_0_copy_0
G1 Z.2 F18000
G1 X89.704 Y174.963
G1 Z.2
G1 E.5 F2400
;TYPE:Inner wall
;WIDTH:0.499999
G1 F1800
G1 X89.704 Y147.371 E1.02773
G1 X93.333 Y147.371 E.13518
G1 X94.238 Y147.346 E.03372
G1 X94.515 Y147.194 E.01178
G1 X95.087 Y146.679 E.02866
G1 X95.682 Y146.335 E.0256
G1 X96.336 Y146.123 E.02561
G1 X97.02 Y146.051 E.02561
G1 X97.703 Y146.123 E.02561
G1 X98.357 Y146.335 E.02561
G1 X98.846 Y146.618 E.02103
G1 X99.696 Y147.307 E.04074
G1 X99.981 Y147.371 E.01088
G1 X120.156 Y147.368 E.75144
G1 X120.898 Y147.34 E.02766
G1 X121.477 Y147.285 E.02167
G1 X121.994 Y147.21 E.01946
G1 X122.785 Y147.057 E.03
G1 X123.495 Y146.871 E.02734
G1 X123.672 Y146.795 E.00716
;WIDTH:0.463168
G1 X123.849 Y146.72 E.00659
;WIDTH:0.426337
G1 X124.026 Y146.645 E.00601
;WIDTH:0.437251
G1 X124.56 Y146.476 E.01799
;WIDTH:0.468625
G1 X124.918 Y146.338 E.01331
;WIDTH:0.499999
G1 X125.275 Y146.199 E.01429
G1 X125.958 Y145.85 E.02856
G1 X126.738 Y145.377 E.03398
G1 X127.251 Y145.026 E.02314
G1 X127.856 Y144.555 E.02856
G1 X128.43 Y144.047 E.02856
G1 X128.972 Y143.504 E.02856
G1 X129.45 Y142.961 E.02696
G1 X129.771 Y142.549 E.01945
G1 X130.194 Y141.957 E.02708
G1 X130.581 Y141.34 E.02714
G1 X130.929 Y140.702 E.02705
G1 X131.244 Y140.037 E.02743
G1 X131.517 Y139.356 E.02734
G1 X131.749 Y138.657 E.02741
G1 X131.939 Y137.944 E.02748
G1 X132.086 Y137.219 E.02756
G1 X132.19 Y136.484 E.02765
G1 X132.248 Y135.741 E.02776
G1 X132.265 Y135.142 E.02233
G1 X132.24 Y134.376 E.02856
G1 X132.166 Y133.612 E.02856
G1 X132.045 Y132.855 E.02856
G1 X131.887 Y132.149 E.02696
G1 X131.533 Y131.015 E.04425
G1 X131.245 Y130.291 E.02902
G1 X130.936 Y129.636 E.02698
G1 X130.588 Y128.999 E.02702
G1 X130.204 Y128.386 E.02693
G1 X129.781 Y127.79 E.02724
G1 X129.323 Y127.222 E.02715
G1 X128.873 Y126.722 E.02507
G1 X128.31 Y126.172 E.02933
G1 X127.756 Y125.693 E.02725
G1 X127.071 Y125.177 E.03197
G1 X126.525 Y124.813 E.02442
G1 X125.722 Y124.355 E.03445
G1 X124.94 Y123.981 E.03227
G1 X124.374 Y123.749 E.02278
G1 X123.792 Y123.542 E.02301
G1 X122.986 Y123.315 E.0312
G1 X122.085 Y123.131 E.03425
G1 X121.425 Y123.037 E.02482
G1 X120.804 Y122.979 E.02325
G1 X120.059 Y122.956 E.02775
G1 X100.309 Y122.956 E.73559
G1 X100.019 Y123.021 E.01106
G1 X99.824 Y123.157 E.00887
G1 X99.277 Y123.711 E.029
G1 X98.698 Y124.09 E.02576
G1 X98.053 Y124.339 E.02577
G1 X97.37 Y124.448 E.02577
G1 X96.679 Y124.412 E.02577
G1 X96.011 Y124.231 E.02577
G1 X95.395 Y123.915 E.02577
G1 X94.919 Y123.526 E.02293
G1 X94.596 Y123.186 E.01747
G1 X94.374 Y123.021 E.01031
G1 X94.084 Y122.956 E.01106
G1 X89.704 Y122.956 E.16314
G1 X89.704 Y95.037 E1.03991
G1 X90.602 Y94.565 E.03779
G1 X91.889 Y93.941 E.05328
G1 X93.197 Y93.357 E.05335
G1 X94.521 Y92.815 E.05326
G1 X95.859 Y92.316 E.05319
G1 X97.215 Y91.859 E.0533
G1 X98.585 Y91.445 E.0533
G1 X99.975 Y91.072 E.05359
G1 X101.368 Y90.745 E.0533
G1 X102.771 Y90.463 E.0533
G1 X104.182 Y90.225 E.05331
G1 X105.6 Y90.032 E.0533
G1 X107.023 Y89.883 E.05331
G1 X108.45 Y89.78 E.0533
G1 X109.88 Y89.721 E.05331
G1 X111.311 Y89.708 E.0533
G1 X112.742 Y89.741 E.0533
G1 X114.163 Y89.817 E.05301
G1 X115.597 Y89.94 E.0536
G1 X117.018 Y90.108 E.0533
G1 X118.426 Y90.319 E.05301
G1 X119.841 Y90.577 E.0536
G1 X121.24 Y90.878 E.0533
G1 X122.621 Y91.221 E.05301
G1 X124.006 Y91.612 E.0536
G1 X125.37 Y92.045 E.0533
G1 X126.72 Y92.52 E.0533
G1 X128.055 Y93.037 E.0533
G1 X129.364 Y93.594 E.053
G1 X130.671 Y94.198 E.0536
G1 X131.95 Y94.839 E.0533
G1 X133.208 Y95.521 E.0533
G1 X134.444 Y96.242 E.05331
G1 X135.65 Y96.997 E.05301
G1 X136.845 Y97.799 E.05359
G1 X138.008 Y98.634 E.0533
G1 X139.137 Y99.5 E.05301
G1 X140.25 Y100.412 E.0536
G1 X141.328 Y101.353 E.0533
G1 X142.37 Y102.322 E.05301
G1 X143.393 Y103.335 E.0536
G1 X144.377 Y104.373 E.0533
G1 X145.323 Y105.437 E.05301
G1 X146.245 Y106.542 E.0536
G1 X147.126 Y107.669 E.0533
G1 X147.967 Y108.818 E.05301
G1 X148.78 Y110.005 E.0536
G1 X149.555 Y111.217 E.05359
G1 X150.283 Y112.44 E.05301
G1 X150.976 Y113.692 E.0533
G1 X151.629 Y114.965 E.0533
G1 X152.242 Y116.259 E.0533
G1 X152.817 Y117.578 E.0536
G1 X153.343 Y118.9 E.05301
G1 X153.831 Y120.245 E.0533
G1 X154.276 Y121.606 E.0533
G1 X154.677 Y122.979 E.0533
G1 X155.036 Y124.369 E.05348
G1 X155.35 Y125.763 E.05319
G1 X155.618 Y127.163 E.05312
G1 X155.845 Y128.586 E.05367
G1 X156.025 Y130.001 E.05311
G1 X156.16 Y131.428 E.05341
G1 X156.24 Y132.687 E.04699
G1 X156.296 Y134.375 E.06288
G1 X156.296 Y135.713 E.04984
G1 X156.251 Y137.141 E.05324
G1 X156.161 Y138.568 E.05324
G1 X156.025 Y139.999 E.05354
G1 X155.844 Y141.423 E.05345
G1 X155.619 Y142.832 E.05314
G1 X155.35 Y144.237 E.0533
G1 X155.036 Y145.633 E.05331
G1 X154.679 Y147.013 E.05307
G1 X154.276 Y148.394 E.05359
G1 X153.831 Y149.754 E.0533
G1 X153.346 Y151.092 E.053
G1 X152.814 Y152.429 E.0536
G1 X152.242 Y153.741 E.0533
G1 X151.633 Y155.027 E.05301
G1 X150.976 Y156.308 E.0536
G1 X150.283 Y157.56 E.0533
G1 X149.551 Y158.789 E.0533
G1 X148.776 Y160.002 E.0536
G1 X147.972 Y161.176 E.05301
G1 X147.126 Y162.331 E.0533
G1 X146.245 Y163.458 E.0533
G1 X145.328 Y164.557 E.0533
G1 X144.372 Y165.632 E.0536
G1 X143.393 Y166.665 E.05301
G1 X142.376 Y167.673 E.0533
G1 X141.323 Y168.652 E.05359
G1 X140.25 Y169.588 E.05301
G1 X139.143 Y170.495 E.0533
G1 X138.001 Y171.371 E.0536
G1 X136.845 Y172.201 E.053
G1 X135.657 Y172.998 E.0533
G1 X134.438 Y173.762 E.05359
G1 X133.208 Y174.479 E.05301
G1 X131.95 Y175.161 E.0533
G1 X130.664 Y175.806 E.05359
G1 X129.372 Y176.403 E.05301
G1 X128.055 Y176.963 E.0533
G1 X126.713 Y177.483 E.0536
G1 X125.371 Y177.955 E.053
G1 X124.006 Y178.388 E.0533
G1 X122.622 Y178.779 E.0536
G1 X121.24 Y179.122 E.05301
G1 X119.841 Y179.423 E.0533
G1 X118.426 Y179.681 E.0536
G1 X117.018 Y179.892 E.05301
G1 X115.597 Y180.06 E.0533
G1 X114.171 Y180.182 E.0533
G1 X112.742 Y180.259 E.0533
G1 X111.304 Y180.292 E.0536
G1 X109.881 Y180.279 E.053
G1 X108.451 Y180.22 E.05331
G1 X107.023 Y180.117 E.0533
G1 X105.6 Y179.968 E.0533
G1 X104.182 Y179.775 E.0533
G1 X102.771 Y179.537 E.05331
G1 X101.368 Y179.255 E.0533
G1 X99.967 Y178.926 E.0536
G1 X98.585 Y178.555 E.0533
G1 X97.215 Y178.141 E.0533
G1 X95.859 Y177.684 E.0533
G1 X94.521 Y177.185 E.05319
G1 X93.197 Y176.643 E.05326
G1 X91.889 Y176.059 E.05336
G1 X90.602 Y175.435 E.05328
G1 X89.739 Y174.982 E.0363
G1 E-.35 F2400
;WIPE_START
G1 F1800
G1 X89.738 Y173.982 E-.15
;WIPE_END
G1 Z.4 F18000
G1 X144.417 Y111.36 Z.4
G1 Z.2
G1 E.5 F2400
G1 F1800
G1 X145.169 Y111.687 E.03052
G1 X145.808 Y112.026 E.02694
G1 X146.422 Y112.407 E.02694
G1 X146.971 Y112.801 E.02514
G1 X147.369 Y113.126 E.01915
G1 X148.093 Y113.787 E.0365
G1 X148.55 Y114.283 E.02514
G1 X149.035 Y114.879 E.02862
G1 X149.451 Y115.474 E.02705
G1 X149.76 Y115.985 E.02223
G1 X150.155 Y116.737 E.03164
G1 X150.442 Y117.401 E.02694
G1 X150.683 Y118.083 E.02694
G1 X150.878 Y118.779 E.02694
G1 X151.025 Y119.487 E.02694
G1 X151.124 Y120.204 E.02694
G1 X151.165 Y120.785 E.02171
G1 X151.176 Y121.648 E.03216
G1 X151.129 Y122.37 E.02694
G1 X151.033 Y123.087 E.02694
G1 X150.889 Y123.796 E.02694
G1 X150.751 Y124.298 E.01941
G1 X150.459 Y125.176 E.03445
G1 X150.175 Y125.841 E.02694
G1 X149.938 Y126.308 E.01949
G1 X149.476 Y127.107 E.03437
G1 X149.064 Y127.701 E.02694
G1 X148.613 Y128.266 E.02694
G1 X148.225 Y128.692 E.02146
G1 X147.602 Y129.299 E.03241
G1 X147.084 Y129.731 E.02514
G1 X146.463 Y130.185 E.02862
G1 X145.848 Y130.571 E.02705
G1 X145.21 Y130.912 E.02694
G1 X144.551 Y131.21 E.02694
G1 X143.874 Y131.463 E.02694
G1 X143.181 Y131.669 E.02694
G1 X142.475 Y131.828 E.02694
G1 X141.76 Y131.939 E.02694
G1 X141.04 Y132.002 E.02694
G1 X140.317 Y132.015 E.02694
G1 X139.594 Y131.98 E.02694
G1 X138.876 Y131.897 E.02694
