; HEADER_BLOCK_START
; generated by OrcaSlicer 2.0.0 on 2024-05-18 at 17:33:58
; total layer number: 70
; filament_density: 1.24
; filament_diameter: 1.75
; max_z_height: 14.00
; HEADER_BLOCK_END

; THUMBNAIL_BLOCK_START

;
; THUMBNAIL_BLOCK_END

; THUMBNAIL_BLOCK_START

;
; THUMBNAIL_BLOCK_END

; external perimeters extrusion width = 0.40mm
; perimeters extrusion width = 0.42mm
; infill extrusion width = 0.45mm
; solid infill extrusion width = 0.42mm
; top infill extrusion width = 0.40mm
; first layer extrusion width = 0.50mm

; EXECUTABLE_BLOCK_START
EXCLUDE_OBJECT_DEFINE NAME=Corps35.stl_id_0_copy_0 CENTER=110,110 POLYGON=[[78.5268,67.3366],[78.5431,67.33],[78.5925,67.3102],[78.6757,67.2769],[78.7934,67.2302],[78.9459,67.17],[79.1329,67.0972],[79.3536,67.0126],[79.6072,66.9168],[79.8667,66.8206],[79.8935,66.8109],[80.211,66.696],[80.5572,66.5737],[80.9299,66.4454],[81.2221,66.3466],[81.3266,66.3126],[81.7449,66.1768],[82.1825,66.0393],[82.5916,65.9152],[82.637,65.9017],[83.1153,65.7627],[83.6221,65.6217],[83.9739,65.5267],[84.1554,65.4799],[84.7134,65.3387],[85.3676,65.1816],[85.8954,65.0634],[86.5155,64.9318],[86.7715,64.8801],[87.1524,64.8062],[87.8039,64.6875],[88.184,64.6226],[88.4671,64.5766],[89.1391,64.4742],[89.6039,64.4093],[89.817,64.3812],[90.4979,64.2982],[91.0298,64.2404],[91.1787,64.2255],[91.8561,64.1632],[92.4603,64.1161],[92.5268,64.1114],[93.8939,64.0365],[93.9529,64.0342],[95.3293,64.0017],[95.3807,64.0013],[96.7651,64.0117],[96.8089,64.0127],[98.1999,64.0665],[98.236,64.0684],[99.6323,64.1661],[99.6606,64.1685],[101.061,64.3103],[101.082,64.3127],[102.484,64.499],[102.497,64.5009],[103.901,64.7321],[103.906,64.7331],[105.308,65.0088],[105.31,65.0093],[106.7,65.3279],[106.709,65.3303],[108.081,65.6901],[108.098,65.6948],[109.451,66.095],[109.475,66.1025],[110.807,66.5422],[110.838,66.553],[112.149,67.0313],[112.187,67.0458],[113.475,67.5618],[113.52,67.5804],[114.784,68.1333],[114.835,68.1564],[116.075,68.745],[116.131,68.7732],[117.345,69.3966],[117.408,69.4301],[118.595,70.0873],[118.664,70.1265],[119.824,70.8165],[119.897,70.8618],[121.028,71.5834],[121.107,71.6353],[122.209,72.3874],[122.292,72.4461],[123.364,73.2276],[123.451,73.2935],[124.492,74.1033],[124.583,74.1766],[125.592,75.0136],[125.687,75.0947],[126.664,75.9576],[126.762,76.0468],[127.706,76.9344],[127.806,77.0319],[128.717,77.9431],[128.82,78.0492],[129.696,78.9827],[129.801,79.0976],[130.643,80.0522],[130.749,80.1761],[131.556,81.1505],[131.662,81.2837],[132.434,82.2767],[132.541,82.4193],[133.277,83.4296],[133.384,83.5817],[134.084,84.6081],[134.19,84.7699],[134.853,85.8111],[134.959,85.9826],[135.585,87.0374],[135.689,87.2188],[136.279,88.2859],[136.381,88.4771],[136.934,89.5552],[137.033,89.7564],[137.548,90.8443],[137.645,91.0555],[137.828,91.4659],[138.101,92.0996],[138.215,92.373],[138.367,92.7425],[138.624,93.3915],[138.745,93.7076],[138.87,94.0435],[139.106,94.6955],[139.232,95.0582],[139.329,95.3444],[139.54,95.987],[139.677,96.4233],[139.738,96.6206],[139.922,97.2425],[140.08,97.8016],[140.093,97.8501],[140.251,98.4404],[140.395,99.0108],[140.439,99.1918],[140.526,99.5589],[140.645,100.083],[140.752,100.58],[140.754,100.593],[140.848,101.051],[140.935,101.504],[141.014,101.938],[141.026,102.002],[141.086,102.35],[141.149,102.737],[141.206,103.097],[141.254,103.42],[141.297,103.725],[141.332,103.989],[141.362,104.216],[141.386,104.409],[141.405,104.566],[141.42,104.688],[141.429,104.775],[141.435,104.827],[141.437,104.844],[141.473,114.822],[141.472,114.839],[141.466,114.891],[141.457,114.978],[141.444,115.099],[141.426,115.256],[141.403,115.448],[141.375,115.675],[141.342,115.938],[141.303,116.228],[141.255,116.565],[141.202,116.924],[141.141,117.311],[141.089,117.629],[141.073,117.722],[140.998,118.155],[140.914,118.608],[140.833,119.023],[140.822,119.079],[140.719,119.575],[140.604,120.099],[140.533,120.408],[140.478,120.646],[140.338,121.217],[140.192,121.784],[140.185,121.807],[140.02,122.414],[139.84,123.037],[139.807,123.148],[139.648,123.671],[139.443,124.314],[139.382,124.499],[139.225,124.963],[138.995,125.616],[138.914,125.837],[138.753,126.269],[138.502,126.919],[138.406,127.16],[138.241,127.563],[137.973,128.199],[137.857,128.467],[137.7,128.822],[137.268,129.756],[137.092,130.122],[136.64,131.026],[136.444,131.404],[135.973,132.276],[135.756,132.664],[135.267,133.506],[135.029,133.902],[134.524,134.713],[134.264,135.117],[133.745,135.896],[133.461,136.308],[132.929,137.055],[132.621,137.473],[132.078,138.188],[131.746,138.611],[131.192,139.294],[130.835,139.721],[130.273,140.373],[129.891,140.802],[129.321,141.423],[128.913,141.854],[128.337,142.443],[127.902,142.874],[127.322,143.432],[126.861,143.862],[126.277,144.389],[125.788,144.817],[125.204,145.314],[124.687,145.739],[124.102,146.205],[123.558,146.625],[122.973,147.062],[122.401,147.476],[121.818,147.884],[121.218,148.29],[120.639,148.67],[120.011,149.067],[119.436,149.419],[118.78,149.806],[118.21,150.13],[117.526,150.506],[116.964,150.804],[116.251,151.167],[115.696,151.439],[114.956,151.787],[114.41,152.034],[113.643,152.367],[113.107,152.59],[112.311,152.906],[111.787,153.105],[110.964,153.402],[110.451,153.579],[109.602,153.857],[109.102,154.012],[108.227,154.269],[107.739,154.403],[106.839,154.637],[106.366,154.752],[105.44,154.962],[104.982,155.059],[104.032,155.244],[103.59,155.322],[102.616,155.481],[102.19,155.543],[101.193,155.674],[100.784,155.721],[99.7649,155.822],[99.3732,155.855],[98.3327,155.926],[97.9589,155.945],[96.8981,155.985],[96.5425,155.992],[95.4623,155.999],[95.1253,155.996],[94.0267,155.968],[93.7087,155.955],[92.5928,155.893],[92.294,155.871],[91.921,155.842],[91.2426,155.78],[90.8826,155.744],[90.5607,155.708],[89.8786,155.626],[89.4758,155.573],[89.1995,155.534],[88.5263,155.432],[88.0749,155.359],[87.8618,155.322],[87.2089,155.204],[86.6813,155.101],[86.5705,155.079],[85.9489,154.948],[85.2962,154.801],[84.7636,154.673],[84.2038,154.532],[83.9211,154.459],[83.6686,154.39],[83.1599,154.249],[82.6796,154.11],[82.5571,154.074],[82.2233,153.973],[81.7838,153.835],[81.3635,153.699],[81.2057,153.647],[80.9648,153.566],[80.59,153.437],[80.2417,153.314],[79.9223,153.199],[79.868,153.179],[79.634,153.093],[79.3786,152.996],[79.1563,152.911],[78.9679,152.838],[78.8142,152.778],[78.6956,152.73],[78.6117,152.697],[78.5619,152.677],[78.5454,152.67],[78.5268,151.366],[78.5268,67.3366]]
M73 P0 R30
;TYPE:Custom
M220 S100
G90 ; use absolute coordinates
M83 ; extruder relative mode
M104 S150 ; set temporary nozzle temp to prevent oozing during homing
M140 S55 ; set final bed temp
G4 S30 ; allow partial nozzle warmup
G28 ; home all axis and restore leveling
G1 Z25 F240
G1 X10.0 Y30 F3000
M104 S210 ; set final nozzle temp
M190 S55 ; wait for bed temp to stabilize
M109 S210 ; wait for nozzle temp to stabilize
G1 Z0.28 F240
G92 E0 ; Move Z Axis up
G1 Z2.0 F5000 ; Move to start position
M73 P0 R29
G1 X10 Y30 Z0.28 F300 ; Draw the first line
G1 X10 Y200 Z0.28 F1500 E15 ; Move to side a little
G1 X10.4 Y200 Z0.28 F5000.0 ; Draw the second line
M73 P1 R29
G1 X10.4 Y50 Z0.28 F1500.0 E30 ; Reset Extruder
G92 E0 ; Move Z Axis up
G1 Z2.0 F3000
M117 Start Printing..
G90
G21
M83 ; use relative distances for extrusion
; filament start gcode
M106 S0
;LAYER_CHANGE
;Z:0.2
;HEIGHT:0.2
;BEFORE_LAYER_CHANGE
;0.2
G92 E0

G1 E-.5 F2400
;_SET_FAN_SPEED_CHANGING_LAYER
SET_VELOCITY_LIMIT ACCEL=500 ACCEL_TO_DECEL=250
SET_VELOCITY_LIMIT SQUARE_CORNER_VELOCITY=7
G1 Z.2 F18000
G1 X84.008 Y85.874
G1 Z.2
G1 E.5 F2400
;TYPE:Skirt
;WIDTH:0.5
G1 F3000
G1 X85.482 Y84.616 E.07216
G1 X89.804 Y83.11 E.17047
G1 X94.162 Y82.03 E.16722
G1 X97.161 Y81.529 E.11324
G1 X100.299 Y81.206 E.11752
G1 X104.756 Y81.097 E.16604
G1 X106.402 Y81.159 E.06137
G1 X109.354 Y81.411 E.11033
G1 X112.344 Y81.852 E.11258
G1 X113.961 Y82.169 E.06139
G1 X116.838 Y82.876 E.11032
G1 X118.417 Y83.345 E.06134
G1 X121.271 Y84.341 E.11261
G1 X124.003 Y85.486 E.11032
G1 X126.74 Y86.838 E.11371
G1 X128.179 Y87.637 E.06128
G1 X130.751 Y89.229 E.11267
G1 X133.169 Y90.939 E.11032
G1 X134.468 Y91.954 E.06139
G1 X136.759 Y93.925 E.11257
G1 X139.992 Y97.177 E.1708
G1 X141.965 Y99.497 E.11343
G1 X143.741 Y101.868 E.11032
G1 X146.196 Y105.732 E.17053
G1 X146.989 Y107.177 E.0614
G1 X148.316 Y109.892 E.11255
G1 X150.005 Y114.162 E.17104
G1 X150.877 Y116.986 E.11006
G1 X151.594 Y119.937 E.11313
G1 X152.326 Y124.465 E.17082
G1 X152.387 Y134.813 E.38546
G1 X152.184 Y136.667 E.06946
G1 X151.699 Y139.551 E.10892
G1 X150.613 Y143.935 E.16822
G1 X149.128 Y148.2 E.16822
G1 X147.251 Y152.321 E.16865
G1 X145.005 Y156.242 E.16832
G1 X142.406 Y159.94 E.16835
G1 X139.477 Y163.383 E.16835
G1 X136.243 Y166.54 E.16835
G1 X132.659 Y169.439 E.1717
G1 X128.912 Y171.931 E.16759
G1 X124.933 Y174.077 E.16838
G1 X120.773 Y175.847 E.16838
G1 X116.468 Y177.225 E.16838
G1 X112.053 Y178.199 E.16838
G1 X107.568 Y178.762 E.16838
G1 X103.049 Y178.909 E.16838
G1 X98.618 Y178.646 E.16533
G1 X95.556 Y178.226 E.11511
G1 X92.587 Y177.628 E.11282
G1 X88.32 Y176.423 E.16515
G1 X85.506 Y175.393 E.11159
G1 X84.283 Y174.501 E.05638
G1 X83.639 Y172.73 E.0702
G1 X83.615 Y87.336 E3.18062
G1 X83.998 Y85.912 E.05489
G1 X84.452 Y86.046 F18000
G1 F3000
G1 X84.464 Y86.004 E.00162
G1 X85.646 Y85.043 E.05676
G1 X88.419 Y84.025 E.11
G1 X91.311 Y83.161 E.11242
G1 X94.334 Y82.462 E.11557
G1 X97.305 Y81.971 E.11215
G1 X100.325 Y81.663 E.11307
G1 X104.753 Y81.554 E.16498
G1 X109.308 Y81.866 E.17006
G1 X113.859 Y82.614 E.1718
G1 X118.274 Y83.779 E.17007
G1 X121.101 Y84.765 E.11151
G1 X123.819 Y85.905 E.10979
G1 X126.531 Y87.244 E.11265
G1 X127.945 Y88.03 E.06024
G1 X130.493 Y89.606 E.11159
G1 X132.899 Y91.308 E.10979
G1 X136.446 Y94.257 E.17179
G1 X139.65 Y97.479 E.16924
G1 X141.603 Y99.777 E.11234
G1 X143.371 Y102.136 E.10979
G1 X145.802 Y105.965 E.16893
G1 X147.897 Y110.074 E.17178
G1 X149.572 Y114.306 E.16953
G1 X150.439 Y117.114 E.10944
G1 X151.148 Y120.038 E.11207
G1 X151.873 Y124.523 E.16922
G1 X151.93 Y134.815 E.38335
G1 X151.732 Y136.598 E.06683
G1 X151.249 Y139.468 E.10839
G1 X150.173 Y143.811 E.16665
G1 X148.702 Y148.036 E.16664
G1 X146.841 Y152.118 E.16708
G1 X144.615 Y156.003 E.16677
G1 X142.04 Y159.666 E.16678
G1 X139.138 Y163.076 E.16677
G1 X135.934 Y166.203 E.16676
G1 X132.394 Y169.067 E.16961
G1 X128.682 Y171.536 E.16602
M73 P2 R29
G1 X124.741 Y173.662 E.16681
G1 X120.62 Y175.416 E.1668
G1 X116.355 Y176.782 E.16681
G1 X111.982 Y177.748 E.1668
G1 X107.539 Y178.306 E.16681
G1 X103.062 Y178.452 E.16681
G1 X100.079 Y178.319 E.11122
G1 X95.714 Y177.789 E.1638
G1 X92.771 Y177.202 E.11176
G1 X89.821 Y176.418 E.11369
G1 X85.671 Y174.967 E.16377
G1 X84.569 Y174.123 E.05169
G1 X84.096 Y172.721 E.0551
G1 X84.072 Y87.336 E3.18029
G1 X84.441 Y86.084 E.04858
; printing object Corps35.stl id:0 copy 0
G1 E-.35 F2400
;WIPE_START
G1 F3000
G1 X84.464 Y86.004 E-.01252
G1 X85.175 Y85.426 E-.13748
;WIPE_END
EXCLUDE_OBJECT_START NAME=Corps35.stl_id_0_copy_0
G1 Z.4 F18000
G1 X147.663 Y124.421 Z.4
G1 Z.2
G1 E.5 F2400
;TYPE:Inner wall
;WIDTH:0.499999
G1 F1800
G1 X147.541 Y124.651 E.00972
G1 X147.523 Y124.89 E.00889
G1 X147.651 Y126.146 E.04702
G1 X147.741 Y127.374 E.04586
G1 X147.798 Y128.603 E.04586
G1 X147.819 Y129.835 E.04586
G1 X147.808 Y130.99 E.04305
G1 X147.734 Y132.683 E.06312
G1 X147.558 Y134.886 E.08229
G1 X147.651 Y135.193 E.01194
G1 X147.874 Y135.424 E.01197
G1 X148.144 Y135.524 E.01071
G1 X148.675 Y135.531 E.01978
G1 X148.602 Y136.133 E.02257
G1 X148.394 Y137.503 E.05161
G1 X148.139 Y138.885 E.05235
G1 X147.843 Y140.255 E.05221
G1 X147.508 Y141.603 E.05172
G1 X147.13 Y142.945 E.05193
G1 X146.709 Y144.28 E.05214
G1 X146.251 Y145.592 E.05178
G1 X145.75 Y146.895 E.05197
G1 X145.21 Y148.181 E.05197
G1 X144.632 Y149.446 E.05178
G1 X144.009 Y150.706 E.05235
G1 X143.352 Y151.937 E.05198
G1 X142.663 Y153.138 E.0516
G1 X141.926 Y154.335 E.05236
G1 X141.158 Y155.501 E.05198
G1 X140.361 Y156.634 E.0516
G1 X139.517 Y157.758 E.05236
G1 X138.645 Y158.847 E.05197
G1 X137.746 Y159.901 E.0516
G1 X136.802 Y160.943 E.05235
G1 X135.833 Y161.947 E.05198
G1 X134.841 Y162.914 E.0516
G1 X133.804 Y163.864 E.05236
G1 X132.747 Y164.774 E.05198
G1 X131.67 Y165.645 E.0516
G1 X130.55 Y166.495 E.05236
G1 X129.421 Y167.299 E.0516
G1 X128.26 Y168.072 E.05198
G1 X127.075 Y168.81 E.05198
G1 X125.86 Y169.516 E.05236
G1 X124.641 Y170.175 E.0516
G1 X123.393 Y170.8 E.05198
G1 X122.118 Y171.39 E.05236
G1 X120.843 Y171.933 E.05159
G1 X119.543 Y172.441 E.05198
G1 X118.219 Y172.911 E.05236
G1 X116.9 Y173.334 E.0516
G1 X115.558 Y173.72 E.05198
G1 X114.196 Y174.066 E.05236
G1 X112.843 Y174.365 E.05159
G1 X111.472 Y174.625 E.05198
G1 X110.084 Y174.844 E.05236
G1 X108.709 Y175.017 E.0516
G1 X107.32 Y175.15 E.05197
G1 X105.917 Y175.239 E.05236
G1 X104.532 Y175.285 E.05159
G1 X103.137 Y175.288 E.05198
G1 X101.732 Y175.248 E.05236
G1 X100.349 Y175.166 E.0516
G1 X98.955 Y175.04 E.05213
G1 X97.57 Y174.872 E.05197
G1 X96.196 Y174.662 E.05177
G1 X94.819 Y174.408 E.05213
G1 X93.452 Y174.111 E.05211
G1 X92.1 Y173.775 E.05189
G1 X90.761 Y173.397 E.05183
G1 X89.421 Y172.973 E.05235
G1 X88.113 Y172.516 E.05161
G1 X87.247 Y172.183 E.03454
G1 X87.234 Y171.335 E.03159
G1 X87.234 Y144.707 E.99179
G1 X102.971 Y144.707 E.58616
G1 X104.572 Y144.682 E.05961
G1 X105.368 Y144.615 E.02978
G1 X106.186 Y144.499 E.03076
G1 X106.959 Y144.347 E.02933
G1 X107.447 Y144.223 E.01876
G1 X108.168 Y144.014 E.02797
G1 X108.879 Y143.769 E.02802
G1 X109.563 Y143.494 E.02745
G1 X110.255 Y143.175 E.02836
G1 X111.066 Y142.739 E.03429
G1 X112.24 Y141.992 E.05184
G1 X112.9 Y141.495 E.03076
G1 X113.531 Y140.962 E.03076
G1 X114.113 Y140.412 E.02985
G1 X114.983 Y139.457 E.04813
G1 X115.46 Y138.859 E.02848
G1 X116.185 Y137.816 E.0473
G1 X116.585 Y137.138 E.02933
G1 X117.142 Y136.014 E.04673
G1 X117.433 Y135.318 E.02811
G1 X117.689 Y134.606 E.02817
G1 X117.909 Y133.88 E.02824
G1 X118.088 Y133.157 E.02774
G1 X118.236 Y132.391 E.02906
G1 X118.343 Y131.629 E.02867
G1 X118.412 Y130.806 E.03076
G1 X118.433 Y129.967 E.03126
G1 X118.405 Y129.099 E.03235
G1 X118.339 Y128.332 E.02867
G1 X118.222 Y127.514 E.03076
G1 X118.06 Y126.705 E.03076
G1 X117.852 Y125.905 E.03076
G1 X117.6 Y125.119 E.03076
G1 X117.304 Y124.348 E.03076
G1 X116.982 Y123.629 E.02933
G1 X116.382 Y122.518 E.04705
G1 X115.987 Y121.888 E.02769
G1 X115.545 Y121.254 E.02879
G1 X115.076 Y120.653 E.02838
G1 X114.576 Y120.075 E.02849
G1 X114.062 Y119.539 E.02763
G1 X113.48 Y118.993 E.02973
G1 X112.867 Y118.479 E.02979
G1 X112.162 Y117.954 E.03275
G1 X111.521 Y117.528 E.02867
G1 X110.695 Y117.052 E.03551
G1 X110.074 Y116.733 E.02601
G1 X108.889 Y116.234 E.04787
G1 X108.177 Y115.988 E.02805
G1 X107.456 Y115.779 E.02799
G1 X106.725 Y115.606 E.02794
G1 X105.988 Y115.471 E.02791
G1 X105.247 Y115.374 E.02787
G1 X104.501 Y115.313 E.02785
G1 X103.702 Y115.293 E.02978
G1 X87.236 Y115.293 E.61331
G1 X87.236 Y87.821 E1.02321
G1 X88.111 Y87.484 E.03491
G1 X89.436 Y87.021 E.05228
G1 X90.794 Y86.593 E.05304
G1 X92.156 Y86.21 E.0527
G1 X93.521 Y85.872 E.05238
G1 X94.912 Y85.573 E.05298
G1 X96.302 Y85.32 E.05263
G1 X97.695 Y85.111 E.05245
G1 X99.108 Y84.943 E.05301
G1 X100.511 Y84.821 E.05245
G1 X101.923 Y84.743 E.05266
G1 X103.336 Y84.709 E.05265
G1 X104.739 Y84.719 E.05228
G1 X106.162 Y84.773 E.05303
G1 X107.573 Y84.871 E.05265
G1 X108.979 Y85.013 E.05266
G1 X110.381 Y85.199 E.05266
G1 X111.765 Y85.426 E.05227
G1 X113.173 Y85.703 E.05342
G1 X114.541 Y86.017 E.05228
G1 X115.908 Y86.376 E.05265
G1 X117.263 Y86.777 E.05266
G1 X118.606 Y87.221 E.05265
G1 X119.943 Y87.71 E.05303
G1 X121.246 Y88.232 E.05228
G1 X122.541 Y88.8 E.05266
G1 X123.817 Y89.407 E.05266
G1 X125.074 Y90.053 E.05265
G1 X126.319 Y90.744 E.05304
G1 X127.525 Y91.463 E.05228
G1 X128.716 Y92.225 E.05266
G1 X129.883 Y93.023 E.05266
G1 X131.024 Y93.857 E.05265
G1 X132.147 Y94.733 E.05304
G1 X133.226 Y95.631 E.05228
G1 X134.284 Y96.568 E.05266
G1 X135.313 Y97.538 E.05266
G1 X136.31 Y98.54 E.05265
G1 X137.283 Y99.579 E.05303
G1 X138.21 Y100.634 E.05228
G1 X139.109 Y101.724 E.05265
G1 X139.974 Y102.842 E.05266
G1 X140.804 Y103.987 E.05265
