; HEADER_BLOCK_START
; generated by OrcaSlicer 2.2.0 on 2024-11-13 at 14:54:02
; total layer number: 120
; filament_density: 1.27
; filament_diameter: 1.75
; max_z_height: 24.00
; HEADER_BLOCK_END

; THUMBNAIL_BLOCK_START

;
; THUMBNAIL_BLOCK_END

; THUMBNAIL_BLOCK_START

;
; THUMBNAIL_BLOCK_END

; external perimeters extrusion width = 0.42mm
; perimeters extrusion width = 0.45mm
; infill extrusion width = 0.45mm
; solid infill extrusion width = 0.45mm
; top infill extrusion width = 0.42mm
; support material extrusion width = 0.42mm
; first layer extrusion width = 0.50mm

; EXECUTABLE_BLOCK_START
EXCLUDE_OBJECT_DEFINE NAME=Corps14.stl_id_0_copy_0 CENTER=115,115 POLYGON=[[19.5,110.5],[210.5,110.5],[210.5,119.5],[19.5,119.5],[19.5,110.5]]
M73 P0 R35
;TYPE:Custom
M220 S100
G90 ; use absolute coordinates
M83 ; extruder relative mode
M104 S150 ; set temporary nozzle temp to prevent oozing during homing
M140 S70 ; set final bed temp
G4 S30 ; allow partial nozzle warmup
G28 ; home all axis and restore leveling
BED_MESH_CALIBRATE PROFILE=adaptive ADAPTIVE=1 ADAPTIVE_MARGIN=0
G1 Z25 F240
G1 X10.0 Y30 F3000
M104 S245 ; set final nozzle temp
M190 S70 ; wait for bed temp to stabilize
M109 S245 ; wait for nozzle temp to stabilize
G1 Z0.28 F240
G92 E0 ; Move Z Axis up
G1 Z2.0 F5000 ; Move to start position
G1 X5 Y30 Z0.28 F300 ; Draw the first line
G1 X5 Y200 Z0.28 F1500 E15 ; Move to side a little
G1 X5.4 Y200 Z0.28 F5000.0 ; Draw the second line
M73 P0 R34
M73 P0 R34
G1 X5.4 Y50 Z0.28 F1500.0 E30 ; Reset Extruder
G92 E0 ; Move Z Axis up
G1 Z2.0 F3000
M73 P1 R34
M117 Start Printing..
G90
G21
M83 ; use relative distances for extrusion
; filament start gcode
M106 S0
;LAYER_CHANGE
;Z:0.2
;HEIGHT:0.2
;BEFORE_LAYER_CHANGE
;0.2
G92 E0

M73 P1 R34
G1 E-.5 F1800
;_SET_FAN_SPEED_CHANGING_LAYER
SET_VELOCITY_LIMIT ACCEL=1000
SET_VELOCITY_LIMIT SQUARE_CORNER_VELOCITY=7
; printing object Corps14.stl id:0 copy 0
EXCLUDE_OBJECT_START NAME=Corps14.stl_id_0_copy_0
G1 Z.4 F24000
G1 X146.399 Y133.008
G1 Z.4
G1 Z.2
G1 E.5 F1800
;TYPE:Inner wall
;WIDTH:0.499999
G1 F3000
G1 X146.362 Y133.043 E.00183
G1 X146.261 Y133.273 E.00907
G1 X146.243 Y133.429 E.00566
G1 X146.243 Y134.543 E.04024
G1 X135.757 Y134.543 E.3786
G1 X135.757 Y133.314 E.04438
G1 X135.638 Y133.043 E.01068
G1 X135.411 Y132.833 E.01119
G1 X135.071 Y132.743 E.01266
G1 X130.929 Y132.743 E.14958
G1 X130.606 Y132.824 E.01201
G1 X130.38 Y133.017 E.01074
G1 X130.27 Y133.237 E.00886
G1 X130.243 Y133.429 E.007
G1 X130.243 Y138.743 E.19188
G1 X115.757 Y138.743 E.52303
G1 X115.757 Y133.291 E.19683
G1 X115.62 Y133.017 E.01107
G1 X115.394 Y132.824 E.01074
G1 X115.071 Y132.743 E.01201
G1 X110.929 Y132.743 E.14958
G1 X110.589 Y132.833 E.01266
G1 X110.362 Y133.043 E.01119
G1 X110.261 Y133.273 E.00907
G1 X110.243 Y133.429 E.00566
G1 X110.243 Y134.543 E.04024
G1 X99.757 Y134.543 E.3786
G1 X99.757 Y133.314 E.04438
G1 X99.638 Y133.043 E.01068
G1 X99.411 Y132.833 E.01119
G1 X99.071 Y132.743 E.01266
G1 X95.429 Y132.743 E.13153
G1 X95.106 Y132.824 E.01201
G1 X94.88 Y133.017 E.01074
G1 X94.77 Y133.237 E.00886
G1 X94.743 Y133.429 E.007
G1 X94.743 Y138.743 E.19188
G1 X28.257 Y138.743 E2.40054
G1 X28.257 Y131.257 E.27028
G1 X217.743 Y131.257 E6.84157
G1 X217.743 Y138.743 E.27028
G1 X151.257 Y138.743 E2.40054
G1 X151.257 Y133.291 E.19683
G1 X151.12 Y133.017 E.01107
G1 X150.894 Y132.824 E.01074
G1 X150.571 Y132.743 E.01201
G1 X146.929 Y132.743 E.13153
G1 X146.589 Y132.833 E.01266
G1 X146.428 Y132.981 E.00791
G1 X146.74 Y133.3 F24000
;TYPE:Outer wall
G1 F3000
G1 X146.7 Y133.429 E.00486
G1 X146.7 Y135 E.05674
G1 X135.3 Y135 E.41161
G1 X135.3 Y133.385 E.05832
G1 X135.184 Y133.23 E.00697
G1 X135.071 Y133.2 E.00422
G1 X130.895 Y133.2 E.15081
G1 X130.746 Y133.291 E.00631
G1 X130.7 Y133.429 E.00522
G1 X130.7 Y139.2 E.20838
G1 X115.3 Y139.2 E.55603
G1 X115.3 Y133.429 E.20838
G1 X115.254 Y133.291 E.00522
G1 X115.071 Y133.2 E.00738
G1 X110.894 Y133.2 E.15082
G1 X110.74 Y133.3 E.00665
G1 X110.7 Y133.429 E.00486
G1 X110.7 Y135 E.05674
G1 X99.3 Y135 E.41161
G1 X99.3 Y133.385 E.05832
G1 X99.184 Y133.23 E.00697
G1 X99.071 Y133.2 E.00422
G1 X95.395 Y133.2 E.13275
G1 X95.246 Y133.291 E.00631
G1 X95.2 Y133.429 E.00522
G1 X95.2 Y139.2 E.20838
G1 X27.8 Y139.2 E2.43354
G1 X27.8 Y130.8 E.30329
G1 X218.2 Y130.8 E6.87457
G1 X218.2 Y139.2 E.30329
M73 P2 R34
M73 P2 R34
G1 X150.8 Y139.2 E2.43354
G1 X150.8 Y133.429 E.20838
G1 X150.754 Y133.291 E.00522
G1 X150.571 Y133.2 E.00738
G1 X146.894 Y133.2 E.13276
G1 X146.773 Y133.278 E.00521
G1 E-.5 F1800
;WIPE_START
G1 F12000
G1 X146.7 Y133.429
G1 X146.7 Y135
G1 X146.439 Y135
;WIPE_END
G1 Z.4 F24000
G1 X216.682 Y131.394
G1 Z.4
G1 Z.2
G1 E.5 F1800
;TYPE:Bottom surface
;WIDTH:0.500014
G1 F5906.881
G1 X217.4 Y132.113 E.03668
G1 X217.4 Y132.759 E.02334
G1 X216.241 Y131.6 E.05919
G1 X215.595 Y131.6 E.02334
G1 X217.4 Y133.405 E.09219
G1 X217.4 Y134.052 E.02334
G1 X214.948 Y131.6 E.1252
G1 X214.302 Y131.6 E.02334
G1 X217.4 Y134.698 E.15821
G1 X217.4 Y135.345 E.02334
G1 X213.655 Y131.6 E.19122
G1 X213.009 Y131.6 E.02334
G1 X217.4 Y135.991 E.22423
G1 X217.4 Y136.638 E.02334
G1 X212.362 Y131.6 E.25724
G1 X211.716 Y131.6 E.02334
G1 X217.4 Y137.284 E.29025
G1 X217.4 Y137.93 E.02334
G1 X211.07 Y131.6 E.32326
G1 X210.423 Y131.6 E.02334
G1 X217.223 Y138.4 E.34724
G1 X216.577 Y138.4 E.02334
G1 X209.777 Y131.6 E.34724
G1 X209.13 Y131.6 E.02334
G1 X215.931 Y138.4 E.34724
G1 X215.284 Y138.4 E.02334
G1 X208.484 Y131.6 E.34724
G1 X207.837 Y131.6 E.02334
G1 X214.638 Y138.4 E.34724
G1 X213.991 Y138.4 E.02334
G1 X207.191 Y131.6 E.34724
G1 X206.545 Y131.6 E.02334
G1 X213.345 Y138.4 E.34724
G1 X212.698 Y138.4 E.02334
G1 X205.898 Y131.6 E.34724
G1 X205.252 Y131.6 E.02334
G1 X212.052 Y138.4 E.34724
G1 X211.406 Y138.4 E.02334
G1 X204.605 Y131.6 E.34724
G1 X203.959 Y131.6 E.02334
G1 X210.759 Y138.4 E.34724
G1 X210.113 Y138.4 E.02334
G1 X203.312 Y131.6 E.34724
G1 X202.666 Y131.6 E.02334
G1 X209.466 Y138.4 E.34724
G1 X208.82 Y138.4 E.02334
G1 X202.02 Y131.6 E.34724
G1 X201.373 Y131.6 E.02334
G1 X208.173 Y138.4 E.34724
G1 X207.527 Y138.4 E.02334
G1 X200.727 Y131.6 E.34724
G1 X200.08 Y131.6 E.02334
G1 X206.881 Y138.4 E.34724
G1 X206.234 Y138.4 E.02334
G1 X199.434 Y131.6 E.34724
G1 X198.787 Y131.6 E.02334
G1 X205.588 Y138.4 E.34724
G1 X204.941 Y138.4 E.02334
G1 X198.141 Y131.6 E.34724
G1 X197.495 Y131.6 E.02334
G1 X204.295 Y138.4 E.34724
G1 X203.648 Y138.4 E.02334
G1 X196.848 Y131.6 E.34724
G1 X196.202 Y131.6 E.02334
G1 X203.002 Y138.4 E.34724
G1 X202.356 Y138.4 E.02334
G1 X195.555 Y131.6 E.34724
G1 X194.909 Y131.6 E.02334
G1 X201.709 Y138.4 E.34724
G1 X201.063 Y138.4 E.02334
G1 X194.262 Y131.6 E.34724
G1 X193.616 Y131.6 E.02334
G1 X200.416 Y138.4 E.34724
G1 X199.77 Y138.4 E.02334
G1 X192.97 Y131.6 E.34724
G1 X192.323 Y131.6 E.02334
G1 X199.123 Y138.4 E.34724
G1 X198.477 Y138.4 E.02334
G1 X191.677 Y131.6 E.34724
G1 X191.03 Y131.6 E.02334
G1 X197.831 Y138.4 E.34724
G1 X197.184 Y138.4 E.02334
G1 X190.384 Y131.6 E.34724
G1 X189.737 Y131.6 E.02334
G1 X196.538 Y138.4 E.34724
G1 X195.891 Y138.4 E.02334
G1 X189.091 Y131.6 E.34724
G1 X188.445 Y131.6 E.02334
G1 X195.245 Y138.4 E.34724
G1 X194.598 Y138.4 E.02334
G1 X187.798 Y131.6 E.34724
G1 X187.152 Y131.6 E.02334
G1 X193.952 Y138.4 E.34724
G1 X193.306 Y138.4 E.02334
G1 X186.505 Y131.6 E.34724
G1 X185.859 Y131.6 E.02334
G1 X192.659 Y138.4 E.34724
G1 X192.013 Y138.4 E.02334
G1 X185.212 Y131.6 E.34724
G1 X184.566 Y131.6 E.02334
G1 X191.366 Y138.4 E.34724
G1 X190.72 Y138.4 E.02334
G1 X183.92 Y131.6 E.34724
G1 X183.273 Y131.6 E.02334
G1 X190.073 Y138.4 E.34724
G1 X189.427 Y138.4 E.02334
G1 X182.627 Y131.6 E.34724
G1 X181.98 Y131.6 E.02334
G1 X188.781 Y138.4 E.34724
G1 X188.134 Y138.4 E.02334
G1 X181.334 Y131.6 E.34724
G1 X180.687 Y131.6 E.02334
G1 X187.488 Y138.4 E.34724
G1 X186.841 Y138.4 E.02334
G1 X180.041 Y131.6 E.34724
G1 X179.395 Y131.6 E.02334
G1 X186.195 Y138.4 E.34724
G1 X185.548 Y138.4 E.02334
G1 X178.748 Y131.6 E.34724
G1 X178.102 Y131.6 E.02334
G1 X184.902 Y138.4 E.34724
G1 X184.256 Y138.4 E.02334
G1 X177.455 Y131.6 E.34724
G1 X176.809 Y131.6 E.02334
G1 X183.609 Y138.4 E.34724
G1 X182.963 Y138.4 E.02334
G1 X176.162 Y131.6 E.34724
G1 X175.516 Y131.6 E.02334
G1 X182.316 Y138.4 E.34724
G1 X181.67 Y138.4 E.02334
G1 X174.87 Y131.6 E.34724
G1 X174.223 Y131.6 E.02334
G1 X181.023 Y138.4 E.34724
G1 X180.377 Y138.4 E.02334
G1 X173.577 Y131.6 E.34724
G1 X172.93 Y131.6 E.02334
G1 X179.731 Y138.4 E.34724
G1 X179.084 Y138.4 E.02334
G1 X172.284 Y131.6 E.34724
G1 X171.637 Y131.6 E.02334
G1 X178.438 Y138.4 E.34724
G1 X177.791 Y138.4 E.02334
G1 X170.991 Y131.6 E.34724
G1 X170.345 Y131.6 E.02334
G1 X177.145 Y138.4 E.34724
G1 X176.498 Y138.4 E.02334
G1 X169.698 Y131.6 E.34724
G1 X169.052 Y131.6 E.02334
G1 X175.852 Y138.4 E.34724
G1 X175.206 Y138.4 E.02334
G1 X168.405 Y131.6 E.34724
G1 X167.759 Y131.6 E.02334
G1 X174.559 Y138.4 E.34724
M73 P3 R34
M73 P3 R34
G1 X173.913 Y138.4 E.02334
G1 X167.112 Y131.6 E.34724
G1 X166.466 Y131.6 E.02334
G1 X173.266 Y138.4 E.34724
G1 X172.62 Y138.4 E.02334
G1 X165.82 Y131.6 E.34724
G1 X165.173 Y131.6 E.02334
G1 X171.973 Y138.4 E.34724
G1 X171.327 Y138.4 E.02334
G1 X164.527 Y131.6 E.34724
G1 X163.88 Y131.6 E.02334
G1 X170.681 Y138.4 E.34724
G1 X170.034 Y138.4 E.02334
G1 X163.234 Y131.6 E.34724
G1 X162.587 Y131.6 E.02334
G1 X169.388 Y138.4 E.34724
G1 X168.741 Y138.4 E.02334
G1 X161.941 Y131.6 E.34724
G1 X161.295 Y131.6 E.02334
G1 X168.095 Y138.4 E.34724
G1 X167.448 Y138.4 E.02334
G1 X160.648 Y131.6 E.34724
G1 X160.002 Y131.6 E.02334
G1 X166.802 Y138.4 E.34724
G1 X166.156 Y138.4 E.02334
G1 X159.355 Y131.6 E.34724
G1 X158.709 Y131.6 E.02334
G1 X165.509 Y138.4 E.34724
G1 X164.863 Y138.4 E.02334
G1 X158.062 Y131.6 E.34724
G1 X157.416 Y131.6 E.02334
G1 X164.216 Y138.4 E.34724
G1 X163.57 Y138.4 E.02334
G1 X156.77 Y131.6 E.34724
G1 X156.123 Y131.6 E.02334
G1 X162.923 Y138.4 E.34724
G1 X162.277 Y138.4 E.02334
G1 X155.477 Y131.6 E.34724
G1 X154.83 Y131.6 E.02334
G1 X161.631 Y138.4 E.34724
G1 X160.984 Y138.4 E.02334
G1 X154.184 Y131.6 E.34724
G1 X153.537 Y131.6 E.02334
G1 X160.338 Y138.4 E.34724
G1 X159.691 Y138.4 E.02334
G1 X152.891 Y131.6 E.34724
G1 X152.245 Y131.6 E.02334
G1 X159.045 Y138.4 E.34724
G1 X158.398 Y138.4 E.02334
G1 X151.598 Y131.6 E.34724
G1 X150.952 Y131.6 E.02334
G1 X157.752 Y138.4 E.34724
G1 X157.106 Y138.4 E.02334
G1 X150.305 Y131.6 E.34724
G1 X149.659 Y131.6 E.02334
G1 X150.459 Y132.4 E.04086
G1 X150.586 Y132.4 E.00456
G1 X151.056 Y132.518 E.01749
G1 X151.395 Y132.808 E.01613
G1 X151.56 Y133.138 E.01331
G1 X151.6 Y133.42 E.0103
G1 X151.6 Y133.541 E.00435
G1 X156.459 Y138.4 E.24813
G1 X155.813 Y138.4 E.02334
G1 X151.6 Y134.187 E.21512
G1 X151.6 Y134.834 E.02334
G1 X155.166 Y138.4 E.18211
G1 X154.52 Y138.4 E.02334
G1 X151.6 Y135.48 E.1491
G1 X151.6 Y136.127 E.02334
G1 X153.873 Y138.4 E.11609
G1 X153.227 Y138.4 E.02334
G1 X151.6 Y136.773 E.08309
G1 X151.6 Y137.419 E.02334
G1 X152.581 Y138.4 E.05008
G1 X151.934 Y138.4 E.02334
G1 X151.394 Y137.86 E.02757
G1 E-.5 F1800
;WIPE_START
G1 F12000
G1 X151.934 Y138.4
G1 X152.581 Y138.4
G1 X152.163 Y137.983
;WIPE_END
G1 Z.4 F24000
G1 X148.807 Y131.394 Z.4
G1 Z.2
G1 E.5 F1800
G1 F5906.881
G1 X149.813 Y132.4 E.05136
G1 X149.166 Y132.4 E.02334
G1 X148.366 Y131.6 E.04086
G1 X147.72 Y131.6 E.02334
G1 X148.52 Y132.4 E.04086
G1 X147.873 Y132.4 E.02334
G1 X147.073 Y131.6 E.04086
G1 X146.427 Y131.6 E.02334
G1 X147.227 Y132.4 E.04086
G1 X146.746 Y132.416 E.01738
G1 X146.636 Y132.455 E.00423
G1 X145.78 Y131.6 E.04368
G1 X145.134 Y131.6 E.02334
G1 X146.235 Y132.701 E.05623
G1 X146.078 Y132.847 E.00774
G1 X145.973 Y133.085 E.00941
G1 X144.487 Y131.6 E.07585
G1 X143.841 Y131.6 E.02334
G1 X145.9 Y133.659 E.10514
G1 X145.9 Y134.2 E.01954
G1 X145.795 Y134.2 E.0038
G1 X143.195 Y131.6 E.13278
G1 X142.548 Y131.6 E.02334
G1 X145.148 Y134.2 E.13278
G1 X144.502 Y134.2 E.02334
G1 X141.902 Y131.6 E.13278
G1 X141.255 Y131.6 E.02334
G1 X143.856 Y134.2 E.13278
G1 X143.209 Y134.2 E.02334
G1 X140.609 Y131.6 E.13278
G1 X139.962 Y131.6 E.02334
G1 X142.563 Y134.2 E.13278
G1 X141.916 Y134.2 E.02334
G1 X139.316 Y131.6 E.13278
G1 X138.67 Y131.6 E.02334
G1 X141.27 Y134.2 E.13278
G1 X140.623 Y134.2 E.02334
G1 X138.023 Y131.6 E.13278
G1 X137.377 Y131.6 E.02334
G1 X139.977 Y134.2 E.13278
G1 X139.331 Y134.2 E.02334
G1 X136.73 Y131.6 E.13278
G1 X136.084 Y131.6 E.02334
G1 X138.684 Y134.2 E.13278
G1 X138.038 Y134.2 E.02334
G1 X135.437 Y131.6 E.13278
G1 X134.791 Y131.6 E.02334
G1 X137.391 Y134.2 E.13278
G1 X136.745 Y134.2 E.02334
G1 X136.1 Y133.555 E.03293
G1 X136.073 Y133.191 E.01319
G1 X135.922 Y132.847 E.01358
G1 X135.58 Y132.531 E.01681
G1 X135.086 Y132.4 E.01845
G1 X134.945 Y132.4 E.00511
G1 X134.145 Y131.6 E.04086
G1 X133.498 Y131.6 E.02334
G1 X134.298 Y132.4 E.04086
G1 X133.652 Y132.4 E.02334
G1 X132.852 Y131.6 E.04086
G1 X132.205 Y131.6 E.02334
G1 X133.006 Y132.4 E.04086
G1 X132.359 Y132.4 E.02334
G1 X131.559 Y131.6 E.04086
G1 X130.912 Y131.6 E.02334
G1 X131.713 Y132.4 E.04086
G1 X131.066 Y132.4 E.02334
G1 X130.266 Y131.6 E.04086
G1 X129.62 Y131.6 E.02334
G1 X130.515 Y132.495 E.04572
G1 X130.441 Y132.521 E.00285
G1 X130.146 Y132.773 E.01399
G1 X128.973 Y131.6 E.05991
G1 X128.327 Y131.6 E.02334
G1 X129.931 Y133.204 E.08192
G1 X129.9 Y133.42 E.00789
G1 X129.9 Y133.82 E.01442
G1 X127.68 Y131.6 E.11335
G1 X127.034 Y131.6 E.02334
G1 X129.9 Y134.466 E.14636
G1 X129.9 Y135.113 E.02334
G1 X126.387 Y131.6 E.17937
G1 X125.741 Y131.6 E.02334
G1 X129.9 Y135.759 E.21237
G1 X129.9 Y136.405 E.02334
G1 X125.095 Y131.6 E.24538
G1 X124.448 Y131.6 E.02334
G1 X129.9 Y137.052 E.27839
G1 X129.9 Y137.698 E.02334
G1 X123.802 Y131.6 E.3114
G1 X123.155 Y131.6 E.02334
G1 X129.9 Y138.345 E.34441
G1 X129.9 Y138.4 E.002
G1 X129.309 Y138.4 E.02134
G1 X122.509 Y131.6 E.34724
G1 X121.862 Y131.6 E.02334
G1 X128.663 Y138.4 E.34724
G1 X128.016 Y138.4 E.02334
G1 X121.216 Y131.6 E.34724
G1 X120.57 Y131.6 E.02334
G1 X127.37 Y138.4 E.34724
G1 X126.723 Y138.4 E.02334
G1 X119.923 Y131.6 E.34724
G1 X119.277 Y131.6 E.02334
G1 X126.077 Y138.4 E.34724
G1 X125.431 Y138.4 E.02334
G1 X118.63 Y131.6 E.34724
G1 X117.984 Y131.6 E.02334
G1 X124.784 Y138.4 E.34724
G1 X124.138 Y138.4 E.02334
G1 X117.337 Y131.6 E.34724
G1 X116.691 Y131.6 E.02334
G1 X123.491 Y138.4 E.34724
G1 X122.845 Y138.4 E.02334
G1 X116.045 Y131.6 E.34724
G1 X115.398 Y131.6 E.02334
G1 X122.198 Y138.4 E.34724
M73 P3 R33
M73 P3 R33
G1 X121.552 Y138.4 E.02334
G1 X114.752 Y131.6 E.34724
G1 X114.105 Y131.6 E.02334
G1 X114.906 Y132.4 E.04086
G1 X115.086 Y132.4 E.0065
G1 X115.556 Y132.518 E.01749
G1 X115.895 Y132.808 E.01613
G1 X116.06 Y133.138 E.01331
G1 X116.1 Y133.42 E.0103
G1 X116.1 Y133.594 E.00628
G1 X120.906 Y138.4 E.24539
G1 X120.259 Y138.4 E.02334
G1 X116.1 Y134.241 E.21238
G1 X116.1 Y134.887 E.02334
G1 X119.613 Y138.4 E.17938
G1 X118.966 Y138.4 E.02334
G1 X116.1 Y135.534 E.14637
G1 X116.1 Y136.18 E.02334
G1 X118.32 Y138.4 E.11336
G1 X117.673 Y138.4 E.02334
G1 X116.1 Y136.827 E.08035
G1 X116.1 Y137.473 E.02334
G1 X117.027 Y138.4 E.04734
G1 X116.381 Y138.4 E.02334
G1 X115.894 Y137.914 E.02484
G1 E-.5 F1800
;WIPE_START
G1 F12000
G1 X116.381 Y138.4
G1 X117.027 Y138.4
G1 X116.556 Y137.929
;WIPE_END
G1 Z.4 F24000
G1 X114.465 Y132.606 Z.4
G1 Z.2
G1 E.5 F1800
G1 F5906.881
G1 X113.459 Y131.6 E.05136
G1 X112.812 Y131.6 E.02334
G1 X113.613 Y132.4 E.04086
G1 X112.966 Y132.4 E.02334
G1 X112.166 Y131.6 E.04086
G1 X111.52 Y131.6 E.02334
G1 X112.32 Y132.4 E.04086
G1 X111.673 Y132.4 E.02334
G1 X110.873 Y131.6 E.04086
G1 X110.227 Y131.6 E.02334
G1 X111.027 Y132.4 E.04086
G1 X110.746 Y132.416 E.01017
G1 X110.489 Y132.508 E.00987
G1 X109.58 Y131.6 E.04638
G1 X108.934 Y131.6 E.02334
G1 X110.131 Y132.797 E.06114
G1 X110.078 Y132.847 E.00263
G1 X109.922 Y133.234 E.01508
G1 X108.287 Y131.6 E.08345
G1 X107.641 Y131.6 E.02334
G1 X109.9 Y133.859 E.11535
G1 X109.9 Y134.2 E.01232
G1 X109.595 Y134.2 E.01102
G1 X106.995 Y131.6 E.13278
G1 X106.348 Y131.6 E.02334
G1 X108.948 Y134.2 E.13278
G1 X108.302 Y134.2 E.02334
G1 X105.702 Y131.6 E.13278
G1 X105.055 Y131.6 E.02334
G1 X107.656 Y134.2 E.13278
G1 X107.009 Y134.2 E.02334
G1 X104.409 Y131.6 E.13278
