; HEADER_BLOCK_START
; generated by OrcaSlicer 2.2.0 on 2024-11-25 at 15:36:11
; total layer number: 225
; filament_density: 1.27
; filament_diameter: 1.75
; max_z_height: 45.00
; HEADER_BLOCK_END

; THUMBNAIL_BLOCK_START

;
; THUMBNAIL_BLOCK_END

; THUMBNAIL_BLOCK_START

;
; THUMBNAIL_BLOCK_END

; external perimeters extrusion width = 0.42mm
; perimeters extrusion width = 0.45mm
; infill extrusion width = 0.45mm
; solid infill extrusion width = 0.45mm
; top infill extrusion width = 0.42mm
; first layer extrusion width = 0.50mm

; EXECUTABLE_BLOCK_START
EXCLUDE_OBJECT_DEFINE NAME=Corps1.stl_id_0_copy_0 CENTER=115,115 POLYGON=[[107,111.514],[107.005,111.285],[107.024,111.043],[107.03,110.985],[107.054,110.809],[107.074,110.686],[107.096,110.577],[107.139,110.391],[107.15,110.347],[107.217,110.12],[107.223,110.102],[107.295,109.897],[107.326,109.818],[107.386,109.678],[107.448,109.542],[107.487,109.464],[107.588,109.275],[107.6,109.256],[107.723,109.054],[107.746,109.018],[107.857,108.858],[107.921,108.772],[108.001,108.67],[108.112,108.538],[108.155,108.49],[108.318,108.318],[108.49,108.155],[108.538,108.112],[108.67,108.001],[108.772,107.921],[108.858,107.857],[109.018,107.746],[109.054,107.723],[109.256,107.6],[109.275,107.588],[109.464,107.487],[109.542,107.448],[109.678,107.386],[109.818,107.326],[109.897,107.295],[110.102,107.223],[110.12,107.217],[110.347,107.15],[110.391,107.139],[110.577,107.096],[110.686,107.074],[110.809,107.054],[110.985,107.03],[111.043,107.024],[111.285,107.005],[111.514,107],[118.486,107],[118.715,107.005],[118.957,107.024],[119.015,107.03],[119.191,107.054],[119.314,107.074],[119.423,107.096],[119.609,107.139],[119.653,107.15],[119.88,107.217],[119.898,107.223],[120.103,107.295],[120.182,107.326],[120.322,107.386],[120.458,107.448],[120.536,107.487],[120.725,107.588],[120.744,107.6],[120.946,107.723],[120.982,107.746],[121.142,107.857],[121.228,107.921],[121.33,108.001],[121.462,108.112],[121.51,108.155],[121.682,108.318],[121.845,108.49],[121.888,108.538],[121.999,108.67],[122.079,108.772],[122.143,108.858],[122.254,109.018],[122.277,109.054],[122.4,109.256],[122.412,109.275],[122.513,109.464],[122.552,109.542],[122.614,109.678],[122.674,109.818],[122.705,109.897],[122.777,110.102],[122.783,110.12],[122.85,110.347],[122.861,110.391],[122.904,110.577],[122.926,110.686],[122.946,110.809],[122.97,110.985],[122.976,111.043],[122.995,111.285],[123,111.514],[123,118.486],[122.995,118.715],[122.976,118.957],[122.97,119.015],[122.946,119.191],[122.926,119.314],[122.904,119.423],[122.861,119.609],[122.85,119.653],[122.783,119.88],[122.777,119.898],[122.705,120.103],[122.674,120.182],[122.614,120.322],[122.552,120.458],[122.513,120.536],[122.412,120.725],[122.4,120.744],[122.277,120.946],[122.254,120.982],[122.143,121.142],[122.079,121.228],[121.999,121.33],[121.888,121.462],[121.845,121.51],[121.682,121.682],[121.51,121.845],[121.462,121.888],[121.33,121.999],[121.228,122.079],[121.142,122.143],[120.982,122.254],[120.946,122.277],[120.744,122.4],[120.725,122.412],[120.536,122.513],[120.458,122.552],[120.322,122.614],[120.182,122.674],[120.103,122.705],[119.898,122.777],[119.88,122.783],[119.653,122.85],[119.609,122.861],[119.423,122.904],[119.314,122.926],[119.191,122.946],[119.015,122.97],[118.957,122.976],[118.715,122.995],[118.486,123],[111.514,123],[111.285,122.995],[111.043,122.976],[110.985,122.97],[110.809,122.946],[110.686,122.926],[110.577,122.904],[110.391,122.861],[110.347,122.85],[110.12,122.783],[110.102,122.777],[109.897,122.705],[109.818,122.674],[109.678,122.614],[109.542,122.552],[109.464,122.513],[109.275,122.412],[109.256,122.4],[109.054,122.277],[109.018,122.254],[108.858,122.143],[108.772,122.079],[108.67,121.999],[108.538,121.888],[108.49,121.845],[108.318,121.682],[108.155,121.51],[108.112,121.462],[108.001,121.33],[107.921,121.228],[107.857,121.142],[107.746,120.982],[107.723,120.946],[107.6,120.744],[107.588,120.725],[107.487,120.536],[107.448,120.458],[107.386,120.322],[107.326,120.182],[107.295,120.103],[107.223,119.898],[107.217,119.88],[107.15,119.653],[107.139,119.609],[107.096,119.423],[107.074,119.314],[107.054,119.191],[107.03,119.015],[107.024,118.957],[107.005,118.715],[107,118.486],[107,111.514]]
M73 P0 R25
;TYPE:Custom
M220 S100
G90 ; use absolute coordinates
M83 ; extruder relative mode
M104 S150 ; set temporary nozzle temp to prevent oozing during homing
M140 S70 ; set final bed temp
G4 S30 ; allow partial nozzle warmup
G28 ; home all axis and restore leveling
BED_MESH_CALIBRATE
G1 Z25 F240
G1 X10.0 Y30 F3000
M104 S245 ; set final nozzle temp
M190 S70 ; wait for bed temp to stabilize
M109 S245 ; wait for nozzle temp to stabilize
G1 Z0.28 F240
G92 E0 ; Move Z Axis up
LINE_PURGE
G92 E0 ; Move Z Axis up
G1 Z2.0 F3000
M117 Start Printing..
G90
G21
M83 ; use relative distances for extrusion
; filament start gcode
M106 S0
;LAYER_CHANGE
;Z:0.2
;HEIGHT:0.2
;BEFORE_LAYER_CHANGE
;0.2
G92 E0

G1 E-.5 F1800
;_SET_FAN_SPEED_CHANGING_LAYER
SET_VELOCITY_LIMIT ACCEL=1000
SET_VELOCITY_LIMIT SQUARE_CORNER_VELOCITY=7
; printing object Corps1.stl id:0 copy 0
EXCLUDE_OBJECT_START NAME=Corps1.stl_id_0_copy_0
G1 Z.4 F24000
G1 X128.545 Y134.964
G1 Z.4
G1 Z.2
G1 E.5 F1800
;TYPE:Inner wall
;WIDTH:0.543938
G1 F3000
G1 X128.534 Y135 E.0015
;WIDTH:0.54656
G1 X128.587 Y135.18 E.00746
;WIDTH:0.593121
G1 X128.639 Y135.36 E.00815
;WIDTH:0.639682
G1 X128.691 Y135.54 E.00884
;WIDTH:0.68095
G1 X128.907 Y135.78 E.01625
;WIDTH:0.686763
G1 X129.394 Y136.291 E.03591
G1 X129.761 Y136.88 E.03529
G1 X129.96 Y137.361 E.02647
;WIDTH:0.691777
G1 X130.098 Y137.922 E.02958
;WIDTH:0.692991
G1 X130.144 Y138.43 E.02619
G1 X130.118 Y138.931 E.02581
;WIDTH:0.687578
G1 X130.008 Y139.447 E.02687
;WIDTH:0.690571
G1 X129.791 Y140.066 E.03354
;WIDTH:0.692624
G1 X129.56 Y140.475 E.02412
G1 X129.239 Y140.885 E.02674
;WIDTH:0.684758
G1 X128.844 Y141.286 E.02853
;WIDTH:0.689113
G1 X128.321 Y141.658 E.03274
;WIDTH:0.693223
G1 X127.862 Y141.88 E.0262
G1 X127.384 Y142.034 E.02582
;WIDTH:0.689873
G1 X126.641 Y142.138 E.03832
G1 X126.051 Y142.109 E.03019
;WIDTH:0.688053
G1 X125.487 Y142.002 E.02925
;WIDTH:0.692605
G1 X125.008 Y141.825 E.0262
G1 X124.559 Y141.583 E.02618
;WIDTH:0.692387
G1 X124.086 Y141.218 E.03069
;WIDTH:0.683424
G1 X123.539 Y140.691 E.0384
;WIDTH:0.639264
G1 X123.359 Y140.639 E.00882
;WIDTH:0.592843
G1 X123.179 Y140.587 E.00813
;WIDTH:0.546421
G1 X123 Y140.534 E.00745
;WIDTH:0.546561
G1 X122.82 Y140.587 E.00746
;WIDTH:0.593122
G1 X122.64 Y140.639 E.00815
;WIDTH:0.639683
G1 X122.46 Y140.691 E.00884
;WIDTH:0.68095
G1 X122.22 Y140.907 E.01625
;WIDTH:0.687288
G1 X121.829 Y141.302 E.02831
;WIDTH:0.692385
G1 X121.423 Y141.596 E.02569
;WIDTH:0.692603
G1 X120.971 Y141.833 E.02618
G1 X120.43 Y142.021 E.02939
;WIDTH:0.687424
G1 X119.746 Y142.132 E.03532
;WIDTH:0.688426
G1 X119.098 Y142.123 E.033
;WIDTH:0.691022
G1 X118.602 Y142.033 E.02582
;WIDTH:0.692522
G1 X118.126 Y141.872 E.0258
G1 X117.465 Y141.518 E.03847
;WIDTH:0.692679
G1 X116.935 Y141.085 E.03513
G1 X116.588 Y140.692 E.02689
;WIDTH:0.690091
G1 X116.247 Y140.12 E.03407
;WIDTH:0.687786
G1 X116.041 Y139.645 E.02633
;WIDTH:0.693127
G1 X115.916 Y139.159 E.0258
G1 X115.861 Y138.66 E.02581
;WIDTH:0.690366
G1 X115.891 Y138.051 E.03117
;WIDTH:0.688054
G1 X115.998 Y137.487 E.02925
;WIDTH:0.692606
G1 X116.175 Y137.008 E.0262
G1 X116.417 Y136.559 E.02618
;WIDTH:0.692387
G1 X116.782 Y136.086 E.03069
;WIDTH:0.683427
G1 X117.308 Y135.54 E.03836
;WIDTH:0.639611
G1 X117.361 Y135.36 E.00883
;WIDTH:0.593074
G1 X117.413 Y135.18 E.00814
;WIDTH:0.546537
G1 X117.465 Y135 E.00745
;WIDTH:0.549856
G1 X117.43 Y134.858 E.00586
;WIDTH:0.599712
G1 X117.394 Y134.716 E.00644
;WIDTH:0.649568
G1 X117.358 Y134.574 E.00701
;WIDTH:0.699424
G1 X117.322 Y134.432 E.00759
G1 X117.256 Y134.376 E.00449
;WIDTH:0.69255
G1 X116.85 Y134.002 E.02834
G1 X116.528 Y133.608 E.02611
;WIDTH:0.692352
G1 X116.229 Y133.089 E.03072
;WIDTH:0.687626
G1 X116.01 Y132.547 E.02978
;WIDTH:0.691777
G1 X115.898 Y132.057 E.02575
;WIDTH:0.692993
G1 X115.857 Y131.549 E.0262
G1 X115.896 Y130.999 E.0283
;WIDTH:0.688572
G1 X116.052 Y130.322 E.03541
G1 X116.249 Y129.863 E.0255
;WIDTH:0.688892
G1 X116.594 Y129.303 E.03355
;WIDTH:0.693214
G1 X116.927 Y128.919 E.02611
G1 X117.309 Y128.59 E.0259
;WIDTH:0.69054
G1 X117.908 Y128.224 E.03591
G1 X118.381 Y128.033 E.02611
;WIDTH:0.688601
G1 X118.999 Y127.896 E.03227
;WIDTH:0.685728
G1 X119.278 Y127.873 E.0142
;WIDTH:0.682435
G1 X119.991 Y127.899 E.03606
;WIDTH:0.687366
G1 X120.52 Y128.002 E.02745
;WIDTH:0.692613
G1 X120.992 Y128.175 E.02579
G1 X121.441 Y128.416 E.02614
;WIDTH:0.692393
G1 X121.909 Y128.77 E.03012
;WIDTH:0.69907
G1 X122.432 Y129.323 E.03943
G1 X122.574 Y129.358 E.00759
;WIDTH:0.649303
G1 X122.716 Y129.394 E.00701
;WIDTH:0.599535
G1 X122.858 Y129.43 E.00644
;WIDTH:0.549767
G1 X123 Y129.466 E.00586
;WIDTH:0.549869
G1 X123.142 Y129.43 E.00586
M73 P1 R25
;WIDTH:0.599739
M73 P1 R25
G1 X123.284 Y129.394 E.00644
;WIDTH:0.649609
G1 X123.425 Y129.359 E.00701
;WIDTH:0.699479
G1 X123.567 Y129.323 E.00759
G1 X123.624 Y129.256 E.00453
;WIDTH:0.69255
G1 X123.998 Y128.85 E.02834
G1 X124.392 Y128.528 E.02611
;WIDTH:0.692352
G1 X124.9 Y128.229 E.03022
;WIDTH:0.687023
G1 X125.549 Y127.986 E.03529
;WIDTH:0.688189
G1 X126.164 Y127.87 E.03188
;WIDTH:0.691399
G1 X126.674 Y127.859 E.02613
;WIDTH:0.693129
G1 X127.18 Y127.921 E.0262
G1 X127.696 Y128.063 E.02749
;WIDTH:0.689089
G1 X128.338 Y128.354 E.03598
G1 X128.899 Y128.763 E.03541
;WIDTH:0.685996
G1 X129.286 Y129.156 E.02805
;WIDTH:0.689112
G1 X129.658 Y129.679 E.03274
;WIDTH:0.693223
G1 X129.88 Y130.138 E.0262
G1 X130.034 Y130.616 E.02581
;WIDTH:0.691212
G1 X130.14 Y131.367 E.0388
G1 X130.116 Y131.936 E.02917
;WIDTH:0.685991
G1 X130.005 Y132.46 E.02722
;WIDTH:0.691713
G1 X129.828 Y132.978 E.02805
;WIDTH:0.692386
G1 X129.583 Y133.441 E.02688
G1 X129.218 Y133.914 E.03069
;WIDTH:0.683423
G1 X128.956 Y134.189 E.0192
;WIDTH:0.65762
G1 X128.694 Y134.464 E.01843
;WIDTH:0.631816
G1 X128.641 Y134.643 E.00868
;WIDTH:0.587877
G1 X128.587 Y134.821 E.00803
;WIDTH:0.543938
G1 X128.556 Y134.926 E.0043
G1 X128.991 Y135 F24000
;TYPE:Outer wall
;WIDTH:0.499999
G1 F3000
G1 X129.06 Y135.164 E.0064
G1 X129.742 Y135.831 E.03443
G1 X130.067 Y136.284 E.02016
G1 X130.332 Y136.781 E.02032
G1 X130.527 Y137.309 E.02032
G1 X130.65 Y137.858 E.02032
G1 X130.699 Y138.419 E.02032
G1 X130.672 Y138.977 E.02019
G1 X130.49 Y139.808 E.03071
G1 X130.281 Y140.327 E.02018
G1 X130.005 Y140.813 E.02019
G1 X129.467 Y141.472 E.03071
G1 X129.046 Y141.84 E.02018
G1 X128.576 Y142.15 E.02032
G1 X128.069 Y142.395 E.02032
G1 X127.538 Y142.569 E.02019
G1 X126.7 Y142.694 E.03059
G1 X125.854 Y142.649 E.03059
G1 X125.309 Y142.527 E.02016
G1 X124.781 Y142.332 E.02033
G1 X124.284 Y142.067 E.02032
G1 X123.83 Y141.741 E.02017
G1 X123.163 Y141.06 E.03445
G1 X123 Y140.991 E.00639
G1 X122.836 Y141.06 E.0064
G1 X122.169 Y141.742 E.03443
G1 X121.716 Y142.067 E.02016
G1 X121.219 Y142.332 E.02032
G1 X120.691 Y142.527 E.02032
G1 X120.142 Y142.65 E.02032
G1 X119.581 Y142.699 E.02032
G1 X119.013 Y142.671 E.02054
G1 X118.466 Y142.57 E.02011
G1 X117.934 Y142.396 E.0202
G1 X117.184 Y142.002 E.03059
G1 X116.528 Y141.467 E.03057
G1 X116.16 Y141.046 E.02018
G1 X115.852 Y140.579 E.02019
G1 X115.508 Y139.801 E.03071
G1 X115.37 Y139.259 E.02018
G1 X115.306 Y138.704 E.02019
G1 X115.351 Y137.854 E.03073
G1 X115.473 Y137.309 E.02016
G1 X115.668 Y136.781 E.02033
G1 X115.933 Y136.284 E.02032
G1 X116.259 Y135.83 E.02017
G1 X116.94 Y135.163 E.03442
G1 X117.008 Y135 E.00639
G1 X116.934 Y134.832 E.00663
G1 X116.447 Y134.384 E.0239
G1 X116.089 Y133.95 E.02031
G1 X115.794 Y133.475 E.02019
G1 X115.472 Y132.687 E.03071
G1 X115.35 Y132.142 E.02018
G1 X115.301 Y131.581 E.02032
G1 X115.328 Y131.023 E.02019
G1 X115.51 Y130.191 E.03072
G1 X115.718 Y129.676 E.02005
G1 X116.163 Y128.952 E.03071
G1 X116.535 Y128.527 E.0204
G1 X116.952 Y128.163 E.01998
G1 X117.682 Y127.715 E.03093
G1 X118.192 Y127.51 E.01984
G1 X119.019 Y127.329 E.03059
G1 X119.705 Y127.319 E.02476
G1 X120.093 Y127.36 E.01408
G1 X120.763 Y127.5 E.02473
G1 X121.271 Y127.696 E.01966
G1 X121.763 Y127.967 E.02028
G1 X122.288 Y128.369 E.02386
G1 X122.889 Y128.98 E.03094
G1 X123.069 Y128.998 E.00656
G1 X123.217 Y128.882 E.00677
G1 X123.663 Y128.409 E.02347
G1 X124.1 Y128.058 E.02024
G1 X124.582 Y127.768 E.0203
G1 X125.104 Y127.543 E.0205
G1 X125.64 Y127.393 E.0201
G1 X126.265 Y127.314 E.02277
G1 X126.818 Y127.319 E.01994
G1 X127.317 Y127.384 E.01818
G1 X127.919 Y127.56 E.02265
G1 X128.643 Y127.894 E.02878
G1 X129.098 Y128.206 E.01995
G1 X129.508 Y128.575 E.01991
G1 X129.872 Y129.003 E.02029
G1 X130.176 Y129.477 E.0203
G1 X130.413 Y129.987 E.02031
G1 X130.58 Y130.535 E.02069
G1 X130.693 Y131.378 E.03071
G1 X130.683 Y131.868 E.0177
G1 X130.598 Y132.415 E.01999
G1 X130.33 Y133.222 E.03072
G1 X130.067 Y133.716 E.02018
G1 X129.741 Y134.17 E.02017
G1 X129.06 Y134.837 E.03445
G1 X129.007 Y134.964 E.00495
G1 E-.5 F1800
;WIPE_START
G1 F12000
G1 X129.06 Y135.164
G1 X129.742 Y135.831
G1 X130.067 Y136.284
G1 X130.199 Y136.532
;WIPE_END
G1 Z.4 F24000
G1 X124.361 Y133.455 Z.4
G1 Z.2
G1 E.5 F1800
;TYPE:Inner wall
G1 F3000
G1 X124.298 Y133.394 E.00317
G1 X123.971 Y132.928 E.02056
G1 X123.74 Y132.407 E.02056
G1 X123.617 Y131.852 E.02056
G1 X123.603 Y131.282 E.02056
G1 X123.701 Y130.721 E.02056
G1 X123.907 Y130.19 E.02056
;WIDTH:0.549435
G1 X123.953 Y130.071 E.0051
;WIDTH:0.59887
G1 X123.999 Y129.953 E.00559
;WIDTH:0.648306
G1 X124.044 Y129.834 E.00609
;WIDTH:0.697741
G1 X124.09 Y129.715 E.00659
G1 X124.452 Y129.316 E.02785
;WIDTH:0.69255
G1 X124.744 Y129.074 E.01947
;WIDTH:0.692352
G1 X125.155 Y128.821 E.02475
;WIDTH:0.687023
G1 X125.635 Y128.628 E.02633
;WIDTH:0.686426
G1 X126.13 Y128.525 E.02573
;WIDTH:0.687775
G1 X126.807 Y128.516 E.03446
;WIDTH:0.685377
G1 X127.337 Y128.62 E.02741
G1 X127.844 Y128.823 E.02777
;WIDTH:0.690112
G1 X128.334 Y129.127 E.02943
G1 X128.768 Y129.54 E.03064
;WIDTH:0.689063
G1 X129.108 Y130.019 E.03
G1 X129.345 Y130.557 E.03001
;WIDTH:0.686096
G1 X129.472 Y131.131 E.02985
;WIDTH:0.687571
G1 X129.49 Y131.718 E.0299
G1 X129.388 Y132.297 E.02993
;WIDTH:0.686764
G1 X129.179 Y132.845 E.02987
G1 X128.865 Y133.342 E.02989
G1 X128.458 Y133.766 E.02989
;WIDTH:0.681194
G1 X128.238 Y133.902 E.01306
;WIDTH:0.631816
G1 X127.965 Y134.02 E.01383
;WIDTH:0.587877
G1 X127.692 Y134.137 E.01279
;WIDTH:0.543938
G1 X127.419 Y134.255 E.01176
;WIDTH:0.499999
G1 X126.852 Y134.383 E.021
G1 X126.282 Y134.397 E.02056
G1 X125.721 Y134.299 E.02056
G1 X125.19 Y134.093 E.02056
G1 X124.71 Y133.788 E.02056
G1 X124.39 Y133.483 E.01594
G1 X124.674 Y133.12 F24000
;TYPE:Outer wall
G1 F3000
G1 X124.593 Y133.036 E.0042
G1 X124.329 Y132.635 E.01734
G1 X124.15 Y132.19 E.01734
G1 X124.06 Y131.718 E.01734
G1 X124.065 Y131.238 E.01734
G1 X124.168 Y130.756 E.01778
G1 X124.351 Y130.326 E.01689
G1 X124.621 Y129.929 E.01734
G1 X125.051 Y129.534 E.02109
G1 X125.365 Y129.329 E.01353
G1 X125.945 Y129.123 E.02223
G1 X126.282 Y129.06 E.01238
G1 X126.762 Y129.065 E.01733
G1 X127.232 Y129.163 E.01734
G1 X127.674 Y129.351 E.01734
G1 X128.071 Y129.621 E.01734
G1 X128.414 Y129.973 E.01773
G1 X128.671 Y130.365 E.01693
G1 X128.855 Y130.835 E.01823
G1 X128.94 Y131.36 E.0192
G1 X128.935 Y131.762 E.01453
G1 X128.837 Y132.232 E.01734
G1 X128.59 Y132.764 E.02116
G1 X128.379 Y133.071 E.01345
G1 X127.947 Y133.467 E.02116
G1 X127.635 Y133.671 E.01346
G1 X127.189 Y133.85 E.01734
G1 X126.717 Y133.94 E.01735
G1 X126.238 Y133.935 E.01732
G1 X125.768 Y133.837 E.01734
G1 X125.326 Y133.649 E.01734
G1 X124.929 Y133.379 E.01734
G1 X124.702 Y133.148 E.01169
G1 E-.5 F1800
;WIPE_START
G1 F12000
G1 X124.593 Y133.036
G1 X124.329 Y132.635
G1 X124.15 Y132.19
G1 X124.06 Y131.718
G1 X124.064 Y131.315
;WIPE_END
G1 Z.4 F24000
G1 X122.179 Y132.587 Z.4
G1 Z.2
G1 E.5 F1800
;TYPE:Inner wall
G1 F3000
G1 X122.093 Y132.81 E.00864
G1 X121.788 Y133.29 E.02056
G1 X121.394 Y133.702 E.02056
G1 X120.928 Y134.029 E.02056
G1 X120.279 Y134.299 E.02538
G1 X119.777 Y134.394 E.01842
G1 X119.148 Y134.383 E.02271
G1 X118.593 Y134.26 E.02056
