; HEADER_BLOCK_START
; generated by OrcaSlicer 2.1.1 on 2024-09-19 at 18:49:30
; total layer number: 35
; filament_density: 1.24
; filament_diameter: 1.75
; max_z_height: 7.00
; HEADER_BLOCK_END

; THUMBNAIL_BLOCK_START

;
; THUMBNAIL_BLOCK_END

; THUMBNAIL_BLOCK_START

;
; THUMBNAIL_BLOCK_END

; external perimeters extrusion width = 0.42mm
; perimeters extrusion width = 0.45mm
; infill extrusion width = 0.45mm
; solid infill extrusion width = 0.45mm
; top infill extrusion width = 0.42mm
; first layer extrusion width = 0.50mm

; EXECUTABLE_BLOCK_START
EXCLUDE_OBJECT_DEFINE NAME=Corps1.stl_id_0_copy_0 CENTER=115,115 POLYGON=[[105,115],[105.006,114.659],[105.023,114.318],[105.052,113.977],[105.093,113.638],[105.145,113.301],[105.209,112.965],[105.284,112.632],[105.371,112.302],[105.469,111.975],[105.577,111.651],[105.697,111.331],[105.828,111.016],[105.969,110.705],[106.121,110.399],[106.283,110.099],[106.456,109.804],[106.638,109.515],[106.83,109.233],[107.032,108.958],[107.243,108.689],[107.463,108.428],[107.692,108.174],[107.929,107.929],[108.174,107.692],[108.428,107.463],[108.689,107.243],[108.958,107.032],[109.233,106.83],[109.515,106.638],[109.804,106.456],[110.099,106.283],[110.399,106.121],[110.705,105.969],[111.016,105.828],[111.331,105.697],[111.651,105.577],[111.975,105.469],[112.302,105.371],[112.632,105.284],[112.965,105.209],[113.301,105.145],[113.638,105.093],[113.977,105.052],[114.318,105.023],[114.659,105.006],[115,105],[115.341,105.006],[115.682,105.023],[116.023,105.052],[116.362,105.093],[116.699,105.145],[117.035,105.209],[117.368,105.284],[117.698,105.371],[118.025,105.469],[118.349,105.577],[118.669,105.697],[118.984,105.828],[119.295,105.969],[119.601,106.121],[119.901,106.283],[120.196,106.456],[120.485,106.638],[120.767,106.83],[121.042,107.032],[121.311,107.243],[121.572,107.463],[121.826,107.692],[122.071,107.929],[122.308,108.174],[122.537,108.428],[122.757,108.689],[122.968,108.958],[123.17,109.233],[123.362,109.515],[123.544,109.804],[123.717,110.099],[123.879,110.399],[124.031,110.705],[124.172,111.016],[124.303,111.331],[124.423,111.651],[124.531,111.975],[124.629,112.302],[124.716,112.632],[124.791,112.965],[124.855,113.301],[124.907,113.638],[124.948,113.977],[124.977,114.318],[124.994,114.659],[125,115],[124.994,115.341],[124.977,115.682],[124.948,116.023],[124.907,116.362],[124.855,116.699],[124.791,117.035],[124.716,117.368],[124.629,117.698],[124.531,118.025],[124.423,118.349],[124.303,118.669],[124.172,118.984],[124.031,119.295],[123.879,119.601],[123.717,119.901],[123.544,120.196],[123.362,120.485],[123.17,120.767],[122.968,121.042],[122.757,121.311],[122.537,121.572],[122.308,121.826],[122.071,122.071],[121.826,122.308],[121.572,122.537],[121.311,122.757],[121.042,122.968],[120.767,123.17],[120.485,123.362],[120.196,123.544],[119.901,123.717],[119.601,123.879],[119.295,124.031],[118.984,124.172],[118.669,124.303],[118.349,124.423],[118.025,124.531],[117.698,124.629],[117.368,124.716],[117.035,124.791],[116.699,124.855],[116.362,124.907],[116.023,124.948],[115.682,124.977],[115.341,124.994],[115,125],[114.659,124.994],[114.318,124.977],[113.977,124.948],[113.638,124.907],[113.301,124.855],[112.965,124.791],[112.632,124.716],[112.302,124.629],[111.975,124.531],[111.651,124.423],[111.331,124.303],[111.016,124.172],[110.705,124.031],[110.399,123.879],[110.099,123.717],[109.804,123.544],[109.515,123.362],[109.233,123.17],[108.958,122.968],[108.689,122.757],[108.428,122.537],[108.174,122.308],[107.929,122.071],[107.692,121.826],[107.463,121.572],[107.243,121.311],[107.032,121.042],[106.83,120.767],[106.638,120.485],[106.456,120.196],[106.283,119.901],[106.121,119.601],[105.969,119.295],[105.828,118.984],[105.697,118.669],[105.577,118.349],[105.469,118.025],[105.371,117.698],[105.284,117.368],[105.209,117.035],[105.145,116.699],[105.093,116.362],[105.052,116.023],[105.023,115.682],[105.006,115.341],[105,115]]
M73 P0 R6
;TYPE:Custom
M220 S100
G90 ; use absolute coordinates
M83 ; extruder relative mode
M104 S150 ; set temporary nozzle temp to prevent oozing during homing
M140 S75 ; set final bed temp
G4 S30 ; allow partial nozzle warmup
G28 ; home all axis and restore leveling
BED_MESH_CALIBRATE PROFILE=adaptive ADAPTIVE=1 ADAPTIVE_MARGIN=0
G1 Z25 F240
G1 X10.0 Y30 F3000
M104 S257 ; set final nozzle temp
M190 S75 ; wait for bed temp to stabilize
M109 S257 ; wait for nozzle temp to stabilize
M73 P1 R6
G1 Z0.28 F240
G92 E0 ; Move Z Axis up
G1 Z2.0 F5000 ; Move to start position
M73 P3 R6
G1 X5 Y30 Z0.28 F300 ; Draw the first line
G1 X5 Y200 Z0.28 F1500 E15 ; Move to side a little
G1 X5.4 Y200 Z0.28 F5000.0 ; Draw the second line
M73 P5 R6
G1 X5.4 Y50 Z0.28 F1500.0 E30 ; Reset Extruder
G92 E0 ; Move Z Axis up
G1 Z2.0 F3000
M117 Start Printing..
G90
G21
M83 ; use relative distances for extrusion
; filament start gcode
M106 S0
;LAYER_CHANGE
;Z:0.2
;HEIGHT:0.2
;BEFORE_LAYER_CHANGE
;0.2
G92 E0

M73 P7 R6
G1 E-.5 F1800
;_SET_FAN_SPEED_CHANGING_LAYER
SET_VELOCITY_LIMIT ACCEL=1000
SET_VELOCITY_LIMIT SQUARE_CORNER_VELOCITY=7
; printing object Corps1.stl id:0 copy 0
EXCLUDE_OBJECT_START NAME=Corps1.stl_id_0_copy_0
G1 Z.2 F24000
G1 X116.58 Y128.357
M73 P7 R5
G1 Z.2
G1 E.5 F1800
;TYPE:Inner wall
;WIDTH:0.499999
G1 X116.7 Y128.238 E.0063
G1 X117.163 Y127.835 E.02287
G1 X117.931 Y127.272 E.03548
G1 X118.748 Y126.794 E.03525
G1 X119.61 Y126.402 E.03525
G1 X120.507 Y126.101 E.03525
G1 X121.43 Y125.892 E.03525
G1 X122.369 Y125.78 E.03525
G1 X123.316 Y125.763 E.03525
G1 X123.859 Y125.81 E.02033
G1 X124.532 Y125.896 E.02524
G1 X125.559 Y126.124 E.03919
G1 X126.094 Y126.291 E.02088
G1 X126.969 Y126.654 E.03529
G1 X127.802 Y127.103 E.03525
G1 X128.584 Y127.636 E.03525
G1 X129.313 Y128.249 E.03546
G1 X129.758 Y128.695 E.02347
G1 X130.364 Y129.416 E.03506
G1 X130.897 Y130.198 E.03526
G1 X131.346 Y131.031 E.03525
G1 X131.708 Y131.905 E.03525
G1 X131.979 Y132.812 E.03525
G1 X132.13 Y133.604 E.03003
G1 X132.194 Y134.188 E.0219
G1 X132.237 Y134.808 E.02313
G1 X132.237 Y135.32 E.01908
G1 X132.156 Y136.258 E.03506
G1 X131.978 Y137.194 E.03548
G1 X131.827 Y137.733 E.02083
G1 X131.645 Y138.248 E.02035
G1 X131.245 Y139.165 E.03729
G1 X130.898 Y139.801 E.02699
G1 X130.364 Y140.584 E.03529
G1 X129.75 Y141.313 E.03548
G1 X129.313 Y141.75 E.02306
G1 X128.584 Y142.364 E.03547
G1 X127.802 Y142.897 E.03525
G1 X126.969 Y143.346 E.03525
G1 X126.095 Y143.708 E.03525
G1 X125.188 Y143.979 E.03525
G1 X124.258 Y144.156 E.03525
G1 X123.31 Y144.237 E.03546
G1 X122.68 Y144.237 E.02347
G1 X121.742 Y144.156 E.03506
G1 X120.812 Y143.979 E.03525
G1 X119.905 Y143.708 E.03525
G1 X119.031 Y143.346 E.03525
G1 X118.198 Y142.897 E.03525
G1 X117.411 Y142.361 E.03547
G1 X116.93 Y141.97 E.02306
G1 X116.246 Y141.308 E.03548
G1 X115.636 Y140.584 E.03525
G1 X115.103 Y139.802 E.03525
G1 X114.654 Y138.969 E.03525
G1 X114.292 Y138.095 E.03525
G1 X114.021 Y137.188 E.03525
G1 X113.844 Y136.258 E.03525
G1 X113.763 Y135.31 E.03546
G1 X113.763 Y134.68 E.02347
G1 X113.844 Y133.742 E.03506
G1 X114.021 Y132.812 E.03525
G1 X114.292 Y131.905 E.03525
G1 X114.654 Y131.031 E.03525
G1 X115.103 Y130.198 E.03525
G1 X115.636 Y129.416 E.03525
G1 X116.249 Y128.687 E.03546
G1 X116.552 Y128.386 E.01591
G1 X116.257 Y128.034 F24000
;TYPE:Outer wall
G1 F1800
G1 X116.388 Y127.903 E.00688
G1 X116.877 Y127.477 E.02417
G1 X117.68 Y126.889 E.03708
G1 X118.537 Y126.388 E.03699
G1 X119.442 Y125.977 E.03699
G1 X120.383 Y125.66 E.03699
G1 X121.352 Y125.441 E.03699
G1 X122.338 Y125.323 E.03699
G1 X123.331 Y125.306 E.03699
G1 X124.321 Y125.391 E.03699
G1 X125.165 Y125.551 E.032
G1 X125.682 Y125.684 E.01989
G1 X126.255 Y125.863 E.02235
G1 X127.166 Y126.24 E.03673
G1 X128.04 Y126.712 E.037
G1 X128.861 Y127.271 E.03699
G1 X129.622 Y127.912 E.03707
G1 X130.095 Y128.386 E.02493
G1 X130.729 Y129.139 E.03665
G1 X131.288 Y129.96 E.037
G1 X131.76 Y130.834 E.03699
G1 X132.14 Y131.752 E.03699
G1 X132.424 Y132.703 E.03699
G1 X132.579 Y133.519 E.03091
G1 X132.65 Y134.15 E.02364
G1 X132.694 Y134.808 E.0246
G1 X132.694 Y135.34 E.01981
G1 X132.609 Y136.321 E.03665
M73 P8 R5
G1 X132.463 Y137.088 E.0291
G1 X132.329 Y137.635 E.02098
G1 X132.137 Y138.255 E.02415
G1 X131.811 Y139.042 E.03176
G1 X131.535 Y139.599 E.02315
G1 X131.284 Y140.046 E.01907
G1 X130.729 Y140.861 E.03674
G1 X130.087 Y141.622 E.03708
G1 X129.622 Y142.088 E.02451
G1 X128.861 Y142.729 E.03707
G1 X128.04 Y143.288 E.03699
G1 X127.166 Y143.76 E.03699
G1 X126.248 Y144.14 E.03699
G1 X125.297 Y144.424 E.03699
G1 X124.321 Y144.609 E.03699
G1 X123.329 Y144.694 E.03707
G1 X122.66 Y144.694 E.02493
G1 X121.679 Y144.609 E.03665
G1 X120.703 Y144.424 E.037
G1 X119.752 Y144.14 E.03699
G1 X118.834 Y143.76 E.03699
G1 X117.96 Y143.288 E.03699
G1 X117.137 Y142.728 E.03707
G1 X116.627 Y142.312 E.02451
G1 X115.911 Y141.621 E.03708
G1 X115.271 Y140.861 E.03699
G1 X114.712 Y140.04 E.037
G1 X114.24 Y139.166 E.03699
G1 X113.86 Y138.248 E.03699
G1 X113.576 Y137.297 E.03699
G1 X113.391 Y136.321 E.03699
G1 X113.306 Y135.329 E.03707
G1 X113.306 Y134.66 E.02493
G1 X113.391 Y133.679 E.03665
G1 X113.576 Y132.703 E.037
G1 X113.86 Y131.752 E.03699
G1 X114.24 Y130.834 E.03699
G1 X114.712 Y129.96 E.03699
G1 X115.271 Y129.139 E.03699
G1 X115.912 Y128.378 E.03707
G1 X116.229 Y128.062 E.01664
G1 E-.5
;WIPE_START
G1 F12000
G1 X116.388 Y127.903
G1 X116.877 Y127.477
G1 X117.68 Y126.889
G1 X117.793 Y126.823
;WIPE_END
G1 Z.4 F24000
G1 X119.678 Y136.79 Z.4
G1 Z.2
G1 E.5 F1800
;TYPE:Inner wall
G1 X119.422 Y136.218 E.02335
G1 X119.247 Y135.378 E.03197
G1 X119.242 Y134.594 E.02917
G1 X119.422 Y133.783 E.03097
G1 X119.649 Y133.252 E.02148
G1 X120.047 Y132.669 E.02632
G1 X120.269 Y132.387 E.01338
G1 X120.699 Y132.001 E.02149
G1 X121.295 Y131.627 E.02624
G1 X121.951 Y131.369 E.02624
G1 X122.643 Y131.237 E.02624
G1 X123.474 Y131.25 E.03097
G1 X124.039 Y131.366 E.02149
G1 X124.677 Y131.613 E.02545
G1 X125.291 Y131.994 E.02692
G1 X125.811 Y132.473 E.02633
G1 X126.231 Y133.038 E.02622
G1 X126.606 Y133.875 E.03417
G1 X126.757 Y134.584 E.027
G1 X126.769 Y135.202 E.02301
G1 X126.65 Y135.982 E.02941
G1 X126.343 Y136.742 E.0305
G1 X126.231 Y136.962 E.0092
G1 X125.895 Y137.431 E.02149
G1 X125.393 Y137.926 E.02624
G1 X124.892 Y138.265 E.02253
G1 X124.676 Y138.386 E.00923
G1 X123.956 Y138.655 E.02864
G1 X123.24 Y138.772 E.027
G1 X122.536 Y138.751 E.02624
G1 X121.848 Y138.6 E.02624
G1 X121.089 Y138.261 E.03098
G1 X120.612 Y137.93 E.02161
G1 X120.031 Y137.34 E.03085
G1 X119.71 Y136.86 E.02152
G1 X119.694 Y136.826 E.00137
G1 X120.089 Y136.606 F24000
;TYPE:Outer wall
G1 F1800
G1 X119.842 Y136.038 E.02306
G1 X119.696 Y135.293 E.02828
G1 X119.699 Y134.609 E.02548
G1 X119.829 Y134.003 E.02307
G1 X120.057 Y133.461 E.02191
G1 X120.419 Y132.935 E.02376
G1 X120.698 Y132.616 E.0158
G1 X121.084 Y132.289 E.01884
G1 X121.535 Y132.016 E.01964
G1 X122.111 Y131.797 E.02295
G1 X122.721 Y131.688 E.02307
G1 X123.34 Y131.693 E.02307
G1 X123.929 Y131.81 E.02235
G1 X124.504 Y132.036 E.02304
G1 X125.044 Y132.378 E.02379
G1 X125.495 Y132.804 E.0231
G1 X125.859 Y133.304 E.02306
G1 X126.186 Y134.055 E.03049
G1 X126.308 Y134.669 E.02332
G1 X126.312 Y135.202 E.01985
G1 X126.201 Y135.898 E.02624
G1 X125.922 Y136.562 E.02682
G1 X125.59 Y137.071 E.02263
G1 X125.078 Y137.595 E.02731
G1 X124.644 Y137.881 E.01937
G1 X124.057 Y138.129 E.02372
G1 X123.748 Y138.239 E.01222
G1 X123.177 Y138.32 E.02148
G1 X122.558 Y138.295 E.02307
G1 X121.954 Y138.155 E.02307
G1 X121.386 Y137.906 E.02308
G1 X120.875 Y137.557 E.02307
G1 X120.52 Y137.201 E.01873
G1 X120.113 Y136.638 E.02587
G1 E-.5
;WIPE_START
G1 F12000
G1 X119.842 Y136.038
G1 X119.696 Y135.293
G1 X119.698 Y134.71
;WIPE_END
G1 Z.4 F24000
G1 X127.921 Y127.35
G1 Z.4
G1 Z.2
G1 E.5 F1800
;TYPE:Bottom surface
;WIDTH:0.510741
G1 F3600
G1 X129.542 Y128.971 E.08737
G1 X130.09 Y129.623 E.03248
G1 X130.603 Y130.376 E.03475
G1 X130.976 Y131.067 E.02993
G1 X126.933 Y127.024 E.21799
G1 X125.975 Y126.613 E.03973
M73 P9 R5
G1 X125.811 Y126.564 E.00652
G1 X131.435 Y132.187 E.30318
G1 X131.646 Y132.893 E.02808
G1 X131.685 Y133.099 E.00798
G1 X124.901 Y126.315 E.36572
G1 X124.099 Y126.174 E.03105
G1 X131.826 Y133.901 E.41656
G1 X131.887 Y134.625 E.02768
G1 X123.38 Y126.118 E.45863
G1 X122.722 Y126.121 E.02511
G1 X131.894 Y135.293 E.49448
G1 X131.842 Y135.903 E.02335
G1 X122.097 Y126.158 E.52539
G1 X121.506 Y126.228 E.02268
G1 X131.764 Y136.486 E.55299
G1 X131.658 Y137.042 E.02157
G1 X120.965 Y126.349 E.57648
G1 X120.44 Y126.485 E.02069
G1 X131.512 Y137.557 E.59694
G1 X131.352 Y138.059 E.02008
G1 X126.828 Y133.535 E.24391
G1 X126.578 Y132.947 E.02435
G1 X126.124 Y132.305 E.02998
G1 X125.581 Y131.782 E.02877
G1 X124.906 Y131.342 E.0307
G1 X124.444 Y131.151 E.01904
G1 X119.945 Y126.651 E.24259
G1 X119.735 Y126.722 E.00841
G1 X119.473 Y126.841 E.011
G1 X123.555 Y130.923 E.22007
G1 X123.427 Y130.897 E.00497
G1 X122.856 Y130.886 E.02176
G1 X119.018 Y127.048 E.20694
G1 X118.591 Y127.283 E.01857
G1 X122.27 Y130.962 E.19832
G1 X121.908 Y131.022 E.01401
G1 X121.733 Y131.087 E.00708
G1 X118.174 Y127.527 E.1919
G1 X117.787 Y127.802 E.01809
G1 X121.252 Y131.266 E.18677
G1 X120.834 Y131.51 E.01844
M73 P10 R5
G1 X117.405 Y128.082 E.18485
G1 X117.05 Y128.388 E.01788
G1 X120.441 Y131.779 E.18284
G1 X120.094 Y132.094 E.01786
G1 X116.711 Y128.711 E.18238
G1 X116.391 Y129.052 E.01784
G1 X119.788 Y132.449 E.18315
G1 X119.513 Y132.836 E.01809
G1 X116.088 Y129.411 E.18465
G1 X115.8 Y129.784 E.01798
G1 X119.275 Y133.26 E.18738
G1 X119.081 Y133.727 E.01929
G1 X115.532 Y130.178 E.19134
G1 X115.397 Y130.376 E.00915
G1 X115.282 Y130.589 E.00923
G1 X118.956 Y134.264 E.1981
G1 X118.909 Y134.467 E.00793
G1 X118.897 Y134.866 E.01524
G1 X115.05 Y131.019 E.2074
G1 X114.842 Y131.473 E.01902
G1 X119.197 Y135.828 E.2348
G1 E-.5 F1800
;WIPE_START
G1 F12000
G1 X117.783 Y134.414
;WIPE_END
G1 Z.4 F24000
G1 X126.816 Y134.184 Z.4
G1 Z.2
G1 E.5 F1800
G1 F3600
G1 X131.159 Y138.527 E.23411
G1 X130.951 Y138.981 E.01903
G1 X127.108 Y135.138 E.20718
G1 X127.108 Y135.378 E.00914
G1 X127.039 Y135.731 E.0137
G1 X130.719 Y139.411 E.19841
G1 X130.607 Y139.619 E.00904
G1 X130.469 Y139.822 E.00934
G1 X126.916 Y136.269 E.19156
G1 X126.716 Y136.731 E.01919
G1 X130.201 Y140.215 E.18785
G1 X129.912 Y140.589 E.01798
G1 X126.495 Y137.172 E.18422
G1 X126.22 Y137.558 E.01809
G1 X129.61 Y140.948 E.18272
G1 X129.289 Y141.289 E.01784
G1 X125.905 Y137.905 E.18243
G1 X125.566 Y138.228 E.01784
G1 X128.948 Y141.609 E.18232
G1 X128.589 Y141.912 E.0179
G1 X125.167 Y138.49 E.18449
G1 X124.923 Y138.65 E.01114
G1 X124.737 Y138.721 E.00759
G1 X128.216 Y142.2 E.18756
G1 X127.822 Y142.468 E.01815
G1 X124.258 Y138.904 E.19216
M73 P11 R5
G1 X124.007 Y139 E.01025
G1 X123.734 Y139.041 E.01052
G1 X127.411 Y142.718 E.19822
G1 X126.981 Y142.95 E.01861
G1 X123.146 Y139.115 E.20675
G1 X122.456 Y139.087 E.02632
G1 X126.527 Y143.158 E.21948
G1 X126.06 Y143.352 E.0193
G1 X121.569 Y138.862 E.24208
G1 X120.989 Y138.602 E.02425
G1 X120.326 Y138.141 E.03077
G1 X119.813 Y137.619 E.02791
G1 X119.374 Y136.967 E.02995
G1 X119.152 Y136.444 E.02168
G1 X114.648 Y131.94 E.24279
G1 X114.489 Y132.443 E.02009
G1 X125.557 Y143.511 E.59672
G1 X125.042 Y143.658 E.02041
G1 X114.342 Y132.958 E.57688
G1 X114.236 Y133.514 E.02157
G1 X124.486 Y143.764 E.5526
G1 X124.212 Y143.816 E.01066
G1 X123.903 Y143.842 E.0118
G1 X114.158 Y134.096 E.52541
G1 X114.106 Y134.707 E.02334
G1 X123.294 Y143.894 E.49532
G1 X122.626 Y143.888 E.02547
G1 X114.113 Y135.375 E.45897
G1 X114.174 Y136.098 E.02768
G1 X121.902 Y143.826 E.41661
G1 X121.1 Y143.685 E.03105
G1 X114.315 Y136.9 E.36578
G1 X114.354 Y137.107 E.00802
G1 X114.565 Y137.812 E.02804
G1 X120.188 Y143.435 E.30318
G1 X120.02 Y143.385 E.0067
G1 X119.069 Y142.977 E.03946
G1 X115.023 Y138.931 E.21812
G1 X115.397 Y139.624 E.02999
G1 X115.909 Y140.377 E.03474
M73 P12 R5
G1 X116.457 Y141.027 E.03241
G1 X118.081 Y142.651 E.08754
; stop printing object Corps1.stl id:0 copy 0
M106 S48
;LAYER_CHANGE
;Z:0.4
;HEIGHT:0.2
;BEFORE_LAYER_CHANGE
;0.4
G92 E0

G1 E-.5 F1800
;WIPE_START
G1 F12000
G1 X116.667 Y141.237
;WIPE_END
EXCLUDE_OBJECT_END NAME=Corps1.stl_id_0_copy_0
