; HEADER_BLOCK_START
; generated by OrcaSlicer 2.2.0 on 2024-12-04 at 09:00:42
; total layer number: 150
; filament_density: 1.27
; filament_diameter: 1.75
; max_z_height: 30.05
; HEADER_BLOCK_END

; THUMBNAIL_BLOCK_START

;
; THUMBNAIL_BLOCK_END

; THUMBNAIL_BLOCK_START

;
; THUMBNAIL_BLOCK_END

; external perimeters extrusion width = 0.42mm
; perimeters extrusion width = 0.45mm
; infill extrusion width = 0.45mm
; solid infill extrusion width = 0.45mm
; top infill extrusion width = 0.42mm
; first layer extrusion width = 0.50mm

; EXECUTABLE_BLOCK_START
EXCLUDE_OBJECT_DEFINE NAME=Corps34_id_0_copy_0 CENTER=115,115 POLYGON=[[97.5,115],[97.5106,114.39],[97.5426,113.78],[97.5958,113.172],[97.6701,112.566],[97.7656,111.963],[97.882,111.363],[98.0193,110.768],[98.1772,110.179],[98.3556,109.595],[98.5543,109.018],[98.773,108.448],[99.0114,107.886],[99.2693,107.332],[99.5464,106.788],[99.8422,106.254],[100.156,105.731],[100.489,105.219],[100.839,104.718],[101.206,104.231],[101.59,103.756],[101.991,103.295],[102.407,102.848],[102.838,102.417],[103.285,102],[126.715,102],[127.162,102.417],[127.593,102.848],[128.009,103.295],[128.41,103.756],[128.794,104.231],[129.161,104.718],[129.511,105.219],[129.843,105.731],[130.158,106.254],[130.454,106.788],[130.731,107.332],[130.989,107.886],[131.227,108.448],[131.446,109.018],[131.644,109.595],[131.823,110.179],[131.981,110.768],[132.118,111.363],[132.234,111.963],[132.33,112.566],[132.404,113.172],[132.457,113.78],[132.489,114.39],[132.5,115],[132.489,115.61],[132.457,116.22],[132.404,116.828],[132.33,117.434],[132.234,118.037],[132.118,118.637],[131.981,119.232],[131.823,119.821],[131.644,120.405],[131.446,120.982],[131.227,121.552],[130.989,122.114],[130.731,122.668],[130.454,123.212],[130.158,123.746],[129.843,124.269],[129.511,124.781],[129.161,125.282],[128.794,125.769],[128.41,126.244],[128.009,126.705],[127.593,127.152],[127.162,127.583],[126.715,128],[103.285,128],[102.838,127.583],[102.407,127.152],[101.991,126.705],[101.59,126.244],[101.206,125.769],[100.839,125.282],[100.489,124.781],[100.156,124.269],[99.8422,123.746],[99.5464,123.212],[99.2693,122.668],[99.0114,122.114],[98.773,121.552],[98.5543,120.982],[98.3556,120.405],[98.1772,119.821],[98.0193,119.232],[97.882,118.637],[97.7656,118.037],[97.6701,117.434],[97.5958,116.828],[97.5426,116.22],[97.5106,115.61],[97.5,115]]
M73 P0 R21
;TYPE:Custom
M220 S100
G90 ; use absolute coordinates
M83 ; extruder relative mode
M104 S150 ; set temporary nozzle temp to prevent oozing during homing
M140 S65 ; set final bed temp
G4 S30 ; allow partial nozzle warmup
G28 ; home all axis and restore leveling
BED_MESH_CALIBRATE
G1 Z25 F240
G1 X10.0 Y30 F3000
M104 S245 ; set final nozzle temp
M190 S65 ; wait for bed temp to stabilize
M109 S245 ; wait for nozzle temp to stabilize
G1 Z0.28 F240
G92 E0 ; Move Z Axis up
LINE_PURGE
G92 E0 ; Move Z Axis up
G1 Z2.0 F3000
M73 P1 R21
M117 Start Printing..
G90
G21
M83 ; use relative distances for extrusion
; filament start gcode
M106 S0
;LAYER_CHANGE
;Z:0.25
;HEIGHT:0.25
;BEFORE_LAYER_CHANGE
;0.25
G92 E0

M73 P1 R21
G1 E-.5 F1800
TIMELAPSE_TAKE_FRAME
;_SET_FAN_SPEED_CHANGING_LAYER
SET_VELOCITY_LIMIT ACCEL=1000
SET_VELOCITY_LIMIT SQUARE_CORNER_VELOCITY=7
; printing object Corps34 id:0 copy 0
EXCLUDE_OBJECT_START NAME=Corps34_id_0_copy_0
G1 Z.45 F24000
G1 X134.414 Y122.746
G1 Z.45
G1 Z.25
G1 E.5 F1800
;TYPE:Inner wall
;WIDTH:0.499999
G1 F3000
G1 X135.06 Y123.371 E.0396
G1 X135.45 Y123.79 E.02523
G1 X136.209 Y124.695 E.05205
G1 X136.553 Y125.152 E.02523
G1 X137.213 Y126.131 E.05204
G1 X137.508 Y126.622 E.02523
G1 X138.062 Y127.665 E.05205
G1 X138.304 Y128.183 E.0252
G1 X138.756 Y129.308 E.05345
G1 X139.107 Y130.39 E.05012
G1 X139.394 Y131.549 E.05262
G1 X139.591 Y132.675 E.05037
G1 X139.652 Y133.176 E.02225
G1 X139.743 Y134.559 E.06112
G1 X139.743 Y135.59 E.04544
G1 X139.713 Y136.162 E.02523
G1 X139.59 Y137.336 E.05205
G1 X139.5 Y137.902 E.02522
G1 X139.255 Y139.056 E.05201
G1 X139.096 Y139.645 E.02689
G1 X138.744 Y140.727 E.05013
G1 X138.304 Y141.817 E.05179
G1 X138.062 Y142.335 E.02522
G1 X137.508 Y143.378 E.05204
G1 X137.213 Y143.869 E.02523
G1 X136.553 Y144.848 E.05204
G1 X136.209 Y145.305 E.02522
G1 X135.451 Y146.209 E.05201
G1 X135.034 Y146.655 E.0269
G1 X134.414 Y147.254 E.03796
G1 X111.586 Y147.254 E1.00611
G1 X110.94 Y146.629 E.03961
G1 X110.545 Y146.206 E.0255
G1 X110.166 Y145.769 E.02549
G1 X109.44 Y144.839 E.05201
G1 X109.091 Y144.338 E.0269
G1 X108.486 Y143.368 E.0504
G1 X108.208 Y142.867 E.02523
G1 X107.694 Y141.811 E.05178
G1 X107.254 Y140.721 E.05178
G1 X107.068 Y140.18 E.02523
G1 X106.742 Y139.046 E.05201
G1 X106.606 Y138.451 E.0269
G1 X106.409 Y137.325 E.05037
G1 X106.336 Y136.719 E.0269
G1 X106.257 Y135.585 E.05013
G1 X106.257 Y134.416 E.05152
G1 X106.339 Y133.244 E.05178
G1 X106.409 Y132.676 E.02523
G1 X106.614 Y131.513 E.05204
G1 X106.893 Y130.39 E.05098
G1 X107.256 Y129.273 E.05178
G1 X107.694 Y128.189 E.05151
G1 X108.208 Y127.133 E.05178
G1 X108.488 Y126.628 E.02546
G1 X108.807 Y126.1 E.02716
G1 X109.446 Y125.152 E.0504
G1 X109.791 Y124.695 E.02523
G1 X110.549 Y123.791 E.05201
G1 X110.966 Y123.345 E.0269
G1 X111.586 Y122.746 E.03796
G1 X134.374 Y122.746 E1.00436
G1 X134.625 Y122.329 F24000
;TYPE:Outer wall
G1 F3000
G1 X135.379 Y123.058 E.04624
G1 X135.785 Y123.494 E.02625
G1 X136.559 Y124.417 E.05308
G1 X136.917 Y124.893 E.02626
G1 X137.59 Y125.891 E.05307
G1 X137.897 Y126.402 E.02626
G1 X138.462 Y127.466 E.05308
G1 X138.713 Y128.005 E.02624
G1 X139.176 Y129.156 E.05465
G1 X139.535 Y130.263 E.05131
G1 X139.831 Y131.461 E.05436
G1 X140.033 Y132.609 E.0514
G1 X140.095 Y133.122 E.02278
G1 X140.189 Y134.559 E.06348
G1 X140.189 Y135.602 E.04595
G1 X140.158 Y136.197 E.02626
G1 X140.032 Y137.395 E.05308
G1 X139.939 Y137.983 E.02625
G1 X139.689 Y139.161 E.05306
G1 X139.524 Y139.773 E.02793
G1 X139.164 Y140.88 E.05131
G1 X138.714 Y141.994 E.05299
G1 X138.462 Y142.534 E.02625
G1 X137.897 Y143.598 E.05307
G1 X137.59 Y144.109 E.02626
G1 X136.917 Y145.107 E.05307
G1 X136.559 Y145.583 E.02625
G1 X135.785 Y146.506 E.05306
G1 X135.352 Y146.968 E.02793
G1 X134.595 Y147.7 E.04641
G1 X111.405 Y147.7 E1.02202
G1 X110.621 Y146.942 E.04808
G1 X110.214 Y146.504 E.02635
G1 X109.822 Y146.053 E.02635
G1 X109.081 Y145.104 E.05306
G1 X108.718 Y144.584 E.02793
G1 X108.101 Y143.594 E.05141
G1 X107.812 Y143.073 E.02626
G1 X107.286 Y141.993 E.05298
G1 X106.836 Y140.878 E.05298
G1 X106.642 Y140.314 E.02626
G1 X106.31 Y139.157 E.05306
G1 X106.169 Y138.539 E.02793
G1 X105.967 Y137.391 E.0514
G1 X105.891 Y136.761 E.02793
G1 X105.811 Y135.6 E.05131
G1 X105.811 Y134.4 E.05288
G1 X105.894 Y133.201 E.05298
G1 X105.967 Y132.61 E.02626
G1 X106.176 Y131.424 E.05307
G1 X106.465 Y130.264 E.05269
G1 X106.836 Y129.12 E.05298
G1 X107.286 Y128.008 E.05288
G1 X107.812 Y126.927 E.05298
G1 X108.102 Y126.404 E.02634
G1 X108.43 Y125.86 E.02803
G1 X109.083 Y124.893 E.05141
G1 X109.441 Y124.417 E.02626
G1 X110.215 Y123.494 E.05306
G1 X110.648 Y123.032 E.02793
G1 X111.405 Y122.3 E.04641
G1 X134.595 Y122.3 E1.02203
G1 X134.596 Y122.301 E.00007
G1 E-.5 F1800
;WIPE_START
G1 F12000
G1 X135.379 Y123.058
G1 X135.785 Y123.494
G1 X135.987 Y123.736
;WIPE_END
G1 Z.45 F24000
G1 X129.107 Y129.17 Z.45
G1 Z.25
G1 E.5 F1800
;TYPE:Inner wall
G1 F3000
G1 X129.496 Y129.615 E.02606
G1 X130.162 Y130.524 E.04965
G1 X130.594 Y131.304 E.03929
G1 X130.959 Y132.231 E.04393
G1 X131.178 Y132.929 E.03221
G1 X131.304 Y133.455 E.02387
G1 X131.406 Y134.221 E.03403
G1 X131.422 Y135.481 E.05557
G1 X131.344 Y136.247 E.0339
G1 X131.17 Y137.103 E.03851
G1 X130.92 Y137.905 E.03702
G1 X130.593 Y138.676 E.03692
G1 X130.356 Y139.144 E.02312
G1 X129.956 Y139.79 E.03347
G1 X129.386 Y140.53 E.04118
G1 X128.478 Y141.427 E.05626
G1 X127.756 Y141.979 E.04005
G1 X126.994 Y142.442 E.03929
G1 X126.187 Y142.821 E.03929
G1 X125.345 Y143.113 E.03929
G1 X124.477 Y143.315 E.03929
G1 X123.592 Y143.425 E.03929
G1 X122.701 Y143.44 E.03929
G1 X121.77 Y143.358 E.04118
G1 X120.526 Y143.074 E.05626
G1 X119.672 Y142.762 E.04005
G1 X118.873 Y142.368 E.03929
G1 X118.119 Y141.892 E.03929
G1 X117.42 Y141.339 E.03929
G1 X116.782 Y140.716 E.03929
G1 X116.215 Y140.029 E.03929
G1 X115.722 Y139.285 E.03928
G1 X115.311 Y138.494 E.03929
G1 X115.025 Y137.765 E.03456
G1 X114.782 Y136.925 E.03853
G1 X114.57 Y135.498 E.06356
G1 X114.564 Y134.59 E.04005
G1 X114.615 Y134.08 E.02255
G1 X114.756 Y133.213 E.03872
G1 X114.856 Y132.762 E.02037
G1 X115.112 Y131.982 E.03618
G1 X115.474 Y131.168 E.03928
G1 X115.9 Y130.43 E.03751
G1 X116.724 Y129.35 E.0599
G1 X117.367 Y128.708 E.04004
G1 X118.095 Y128.122 E.04118
G1 X119.189 Y127.464 E.05626
G1 X120.02 Y127.098 E.04005
G1 X120.87 Y126.827 E.03929
G1 X121.743 Y126.648 E.03929
G1 X122.673 Y126.558 E.04118
G1 X123.949 Y126.609 E.05626
G1 X124.887 Y126.765 E.04191
G1 X126.105 Y127.147 E.05629
G1 X126.932 Y127.525 E.04005
G1 X127.697 Y127.981 E.03929
G1 X128.411 Y128.516 E.03929
G1 X129.064 Y129.122 E.03929
G1 X129.08 Y129.14 E.00106
G1 X128.773 Y129.464 F24000
;TYPE:Outer wall
G1 F3000
G1 X129.158 Y129.907 E.02589
G1 X129.795 Y130.779 E.04757
G1 X130.202 Y131.518 E.03722
G1 X130.543 Y132.392 E.04134
G1 X130.744 Y133.034 E.02961
G1 X130.864 Y133.532 E.02261
G1 X130.964 Y134.279 E.03321
G1 X130.976 Y135.481 E.05298
G1 X130.902 Y136.188 E.03131
G1 X130.736 Y136.998 E.03643
G1 X130.5 Y137.754 E.03494
G1 X130.19 Y138.482 E.03485
G1 X129.79 Y139.211 E.03665
G1 X129.315 Y139.894 E.03665
G1 X129.04 Y140.245 E.01965
G1 X128.164 Y141.109 E.05425
G1 X127.487 Y141.623 E.03746
G1 X126.764 Y142.059 E.03721
G1 X125.999 Y142.416 E.03721
G1 X125.201 Y142.691 E.03721
G1 X124.378 Y142.88 E.03721
G1 X123.539 Y142.982 E.03721
G1 X122.695 Y142.994 E.03722
G1 X121.84 Y142.916 E.03786
G1 X120.625 Y142.639 E.05491
G1 X119.828 Y142.344 E.03746
G1 X119.071 Y141.969 E.03721
G1 X118.359 Y141.516 E.03721
G1 X117.698 Y140.99 E.03722
G1 X117.096 Y140.398 E.03721
G1 X116.56 Y139.746 E.03721
G1 X116.096 Y139.041 E.03721
G1 X115.708 Y138.29 E.03722
G1 X115.441 Y137.603 E.03249
G1 X115.213 Y136.808 E.03645
G1 X115.013 Y135.439 E.06097
G1 X115.011 Y134.59 E.03746
G1 X115.096 Y133.775 E.03611
G1 X115.274 Y132.924 E.03832
G1 X115.534 Y132.127 E.03694
G1 X115.881 Y131.351 E.03749
G1 X116.285 Y130.655 E.03544
G1 X117.077 Y129.624 E.05731
G1 X117.68 Y129.025 E.03746
G1 X118.351 Y128.489 E.03786
G1 X119.419 Y127.847 E.05491
G1 X120.198 Y127.507 E.03746
G1 X121.003 Y127.253 E.03721
G1 X121.831 Y127.086 E.03721
G1 X122.686 Y127.006 E.03786
G1 X123.931 Y127.055 E.05491
G1 X124.783 Y127.201 E.0381
G1 X125.972 Y127.573 E.05491
G1 X126.743 Y127.93 E.03746
G1 X127.468 Y128.364 E.03721
G1 X128.142 Y128.872 E.03722
G1 X128.745 Y129.435 E.03637
G1 E-.5 F1800
;WIPE_START
G1 F12000
G1 X129.158 Y129.907
G1 X129.795 Y130.779
G1 X129.937 Y131.036
;WIPE_END
TIMELAPSE_TAKE_FRAME
G1 Z.45 F24000
G1 X136.447 Y125.234
G1 Z.45
G1 Z.25
G1 E.5 F1800
;TYPE:Bottom surface
;WIDTH:0.503354
G1 F5336.844
G1 X134.279 Y123.081 E.13569
G1 X133.658 Y123.081 E.02756
G1 X136.995 Y126.418 E.20956
G1 X137.217 Y126.787 E.01909
G1 X137.769 Y127.828 E.05233
G1 X133.022 Y123.081 E.29808
G1 X132.386 Y123.081 E.02824
G1 X138.249 Y128.944 E.36814
G1 X138.441 Y129.422 E.02292
G1 X138.609 Y129.94 E.02414
G1 X131.75 Y123.081 E.43069
G1 X131.114 Y123.081 E.02824
G1 X138.883 Y130.85 E.48787
G1 X139.077 Y131.679 E.0378
G1 X130.478 Y123.081 E.53994
G1 X129.842 Y123.081 E.02824
G1 X139.212 Y132.451 E.58839
G1 X139.316 Y133.191 E.0332
G1 X129.206 Y123.081 E.63488
G1 X128.57 Y123.081 E.02824
G1 X139.37 Y133.881 E.67821
G1 X139.408 Y134.555 E.02997
G1 X127.934 Y123.081 E.72052
G1 X127.298 Y123.081 E.02824
G1 X139.408 Y135.191 E.76046
G1 X139.396 Y135.815 E.0277
G1 X126.662 Y123.081 E.79963
G1 X126.026 Y123.081 E.02824
G1 X139.351 Y136.406 E.83673
G1 X139.29 Y136.981 E.0257
G1 X125.391 Y123.081 E.87287
G1 X124.755 Y123.081 E.02824
G1 X139.218 Y137.544 E.90825
G1 X139.12 Y138.082 E.02427
G1 X124.119 Y123.081 E.94202
G1 X123.483 Y123.081 E.02824
M73 P2 R21
M73 P2 R21
G1 X139.008 Y138.607 E.97496
G1 X138.89 Y139.124 E.02358
G1 X130.861 Y131.096 E.50416
G1 X131.281 Y132.151 E.05042
G1 X138.751 Y139.622 E.46914
G1 X138.595 Y140.102 E.02241
G1 X131.553 Y133.059 E.44226
G1 X131.634 Y133.396 E.01539
G1 X131.691 Y133.834 E.01959
G1 X138.439 Y140.582 E.42375
G1 X138.258 Y141.036 E.02174
G1 X131.754 Y134.533 E.40841
G1 X131.753 Y135.167 E.02818
G1 X138.075 Y141.489 E.39701
G1 X137.881 Y141.931 E.02143
G1 X131.742 Y135.792 E.38554
G1 X131.666 Y136.352 E.0251
G1 X137.671 Y142.358 E.37712
G1 X137.451 Y142.773 E.02088
G1 X131.566 Y136.888 E.36956
G1 X131.441 Y137.399 E.02336
G1 X137.23 Y143.188 E.36355
G1 X136.992 Y143.587 E.0206
G1 X131.284 Y137.879 E.35845
G1 X131.117 Y138.347 E.02209
G1 X136.741 Y143.971 E.35318
G1 X136.485 Y144.351 E.02034
G1 X130.913 Y138.779 E.34989
G1 X130.707 Y139.209 E.02117
G1 X136.225 Y144.727 E.34654
G1 X135.952 Y145.09 E.02017
G1 X130.464 Y139.602 E.34462
G1 X130.221 Y139.996 E.02052
G1 X135.662 Y145.436 E.34166
G1 X135.372 Y145.782 E.02005
G1 X129.945 Y140.355 E.34083
G1 X129.667 Y140.714 E.02013
G1 X135.075 Y146.121 E.33959
G1 X134.795 Y146.42 E.01819
G1 X134.766 Y146.448 E.00179
G1 X129.348 Y141.03 E.34027
G1 X129.027 Y141.345 E.01997
G1 X134.443 Y146.761 E.34009
G1 X134.279 Y146.919 E.01011
G1 X133.965 Y146.919 E.01395
G1 X128.707 Y141.661 E.3302
G1 X128.618 Y141.748 E.00551
G1 X128.354 Y141.944 E.01461
G1 X133.329 Y146.919 E.31238
G1 X132.693 Y146.919 E.02824
G1 X127.99 Y142.216 E.29531
G1 X127.602 Y142.464 E.02045
G1 X132.057 Y146.919 E.27973
G1 X131.421 Y146.919 E.02824
G1 X127.203 Y142.701 E.26485
G1 X126.779 Y142.913 E.02106
G1 X130.785 Y146.919 E.25156
G1 X130.149 Y146.919 E.02824
G1 X126.343 Y143.113 E.239
G1 X125.877 Y143.283 E.02203
G1 X129.513 Y146.919 E.22832
G1 X128.877 Y146.919 E.02824
G1 X125.401 Y143.443 E.21827
G1 X124.887 Y143.565 E.02347
G1 X128.241 Y146.919 E.21064
G1 X127.605 Y146.919 E.02824
G1 X124.355 Y143.669 E.20408
G1 X123.785 Y143.735 E.02548
G1 X126.969 Y146.919 E.19995
G1 X126.333 Y146.919 E.02824
G1 X123.183 Y143.769 E.19782
G1 X122.54 Y143.762 E.02853
G1 X125.697 Y146.919 E.19824
G1 X125.061 Y146.919 E.02824
M73 P2 R20
M73 P2 R20
G1 X121.843 Y143.7 E.20211
G1 X121.031 Y143.525 E.03688
G1 X124.425 Y146.919 E.21315
G1 X123.789 Y146.919 E.02824
G1 X119.831 Y142.961 E.24855
G1 E-.5 F1800
;WIPE_START
G1 F12000
G1 X121.245 Y144.375
;WIPE_END
G1 Z.45 F24000
G1 X127.437 Y127.671 Z.45
G1 Z.25
G1 E.5 F1800
G1 F5336.844
G1 X122.847 Y123.081 E.28824
G1 X122.211 Y123.081 E.02824
G1 X125.844 Y126.715 E.22817
G1 X124.935 Y126.441 E.04215
G1 X121.575 Y123.081 E.21102
G1 X120.939 Y123.081 E.02824
G1 X124.158 Y126.3 E.20214
G1 X123.485 Y126.263 E.02992
G1 X120.303 Y123.081 E.19983
G1 X119.667 Y123.081 E.02824
G1 X122.823 Y126.237 E.19818
G1 X122.607 Y126.228 E.0096
G1 X122.216 Y126.266 E.01744
G1 X119.031 Y123.081 E.2
G1 X118.395 Y123.081 E.02824
G1 X121.641 Y126.328 E.20388
G1 X121.112 Y126.434 E.02399
G1 X117.759 Y123.081 E.21054
G1 X117.123 Y123.081 E.02824
G1 X120.605 Y126.563 E.21867
G1 X120.119 Y126.713 E.0226
G1 X116.487 Y123.081 E.22806
G1 X115.851 Y123.081 E.02824
G1 X119.661 Y126.892 E.23929
G1 X119.216 Y127.082 E.02152
G1 X115.215 Y123.081 E.25125
G1 X114.579 Y123.081 E.02824
G1 X118.809 Y127.311 E.26564
G1 X118.412 Y127.55 E.02058
G1 X113.943 Y123.081 E.28063
G1 X113.307 Y123.081 E.02824
G1 X118.015 Y127.789 E.29562
G1 X117.858 Y127.883 E.00809
G1 X117.644 Y128.054 E.0122
G1 X112.671 Y123.081 E.31227
G1 X112.035 Y123.081 E.02824
G1 X117.29 Y128.336 E.32999
G1 X116.961 Y128.643 E.01998
G1 X111.557 Y123.239 E.33931
G1 X111.234 Y123.552 E.01997
G1 X116.639 Y128.957 E.33942
G1 X116.543 Y129.051 E.00597
G1 X116.348 Y129.302 E.01411
G1 X110.925 Y123.879 E.34054
G1 X110.628 Y124.218 E.02001
G1 X116.07 Y129.66 E.34174
G1 X115.792 Y130.018 E.02013
G1 X110.338 Y124.564 E.3425
G1 X110.053 Y124.903 E.01967
G1 X115.533 Y130.395 E.34451
G1 X115.3 Y130.798 E.02066
G1 X109.775 Y125.273 E.34696
G1 X109.515 Y125.649 E.0203
G1 X115.085 Y131.219 E.3498
G1 X114.89 Y131.66 E.0214
G1 X109.259 Y126.029 E.35362
