; HEADER_BLOCK_START
; generated by OrcaSlicer 2.1.1 on 2024-07-28 at 19:24:32
; total layer number: 60
; filament_density: 1.24
; filament_diameter: 1.75
; max_z_height: 12.00
; HEADER_BLOCK_END

; THUMBNAIL_BLOCK_START

;
; THUMBNAIL_BLOCK_END

; THUMBNAIL_BLOCK_START

;
; THUMBNAIL_BLOCK_END

; external perimeters extrusion width = 0.42mm
; perimeters extrusion width = 0.45mm
; infill extrusion width = 0.45mm
; solid infill extrusion width = 0.45mm
; top infill extrusion width = 0.42mm
; first layer extrusion width = 0.50mm

; EXECUTABLE_BLOCK_START
EXCLUDE_OBJECT_DEFINE NAME=Corps1.stl_id_0_copy_0 CENTER=115,115 POLYGON=[[82.0045,114.787],[82.0407,114.363],[82.1128,113.944],[82.2203,113.532],[82.3625,113.131],[90.6001,93.2434],[90.7833,92.8593],[90.9984,92.4921],[91.244,92.1446],[91.5182,91.8191],[91.8191,91.5182],[92.1446,91.244],[92.4921,90.9984],[92.8593,90.7833],[93.2434,90.6001],[113.131,82.3625],[113.532,82.2203],[113.944,82.1128],[114.363,82.0407],[114.787,82.0045],[115.213,82.0045],[115.637,82.0407],[116.056,82.1128],[116.468,82.2203],[116.869,82.3625],[136.757,90.6001],[137.141,90.7833],[137.508,90.9984],[137.855,91.244],[138.181,91.5182],[138.482,91.8191],[138.756,92.1446],[139.002,92.4921],[139.217,92.8593],[139.4,93.2434],[147.638,113.131],[147.78,113.532],[147.887,113.944],[147.959,114.363],[147.995,114.787],[147.995,115.213],[147.959,115.637],[147.887,116.056],[147.78,116.468],[147.638,116.869],[139.4,136.757],[139.217,137.141],[139.002,137.508],[138.756,137.855],[138.482,138.181],[138.181,138.482],[137.855,138.756],[137.508,139.002],[137.141,139.217],[136.757,139.4],[116.869,147.638],[116.468,147.78],[116.056,147.887],[115.637,147.959],[115.213,147.995],[114.787,147.995],[114.363,147.959],[113.944,147.887],[113.532,147.78],[113.131,147.638],[93.2434,139.4],[92.8593,139.217],[92.4921,139.002],[92.1446,138.756],[91.8191,138.482],[91.5182,138.181],[91.244,137.855],[90.9984,137.508],[90.7833,137.141],[90.6001,136.757],[82.3625,116.869],[82.2203,116.468],[82.1128,116.056],[82.0407,115.637],[82.0045,115.213],[82.0045,114.787]]
M73 P0 R26
;TYPE:Custom
M220 S100
G90 ; use absolute coordinates
M83 ; extruder relative mode
M104 S150 ; set temporary nozzle temp to prevent oozing during homing
M140 S55 ; set final bed temp
G4 S30 ; allow partial nozzle warmup
G28 ; home all axis and restore leveling
BED_MESH_CALIBRATE PROFILE=adaptive ADAPTIVE=1 ADAPTIVE_MARGIN=0
G1 Z25 F240
G1 X10.0 Y30 F3000
M104 S210 ; set final nozzle temp
M190 S55 ; wait for bed temp to stabilize
M109 S210 ; wait for nozzle temp to stabilize
G1 Z0.28 F240
G92 E0 ; Move Z Axis up
G1 Z2.0 F5000 ; Move to start position
G1 X5 Y30 Z0.28 F300 ; Draw the first line
G1 X5 Y200 Z0.28 F1500 E15 ; Move to side a little
G1 X5.4 Y200 Z0.28 F5000.0 ; Draw the second line
M73 P1 R26
G1 X5.4 Y50 Z0.28 F1500.0 E30 ; Reset Extruder
G92 E0 ; Move Z Axis up
G1 Z2.0 F3000
M117 Start Printing..
G90
G21
M83 ; use relative distances for extrusion
; filament start gcode
M106 S0
;LAYER_CHANGE
;Z:0.2
;HEIGHT:0.2
;BEFORE_LAYER_CHANGE
;0.2
G92 E0

G1 E-.5 F1800
;_SET_FAN_SPEED_CHANGING_LAYER
SET_VELOCITY_LIMIT ACCEL=1000
SET_VELOCITY_LIMIT SQUARE_CORNER_VELOCITY=7
; printing object Corps1.stl id:0 copy 0
EXCLUDE_OBJECT_START NAME=Corps1.stl_id_0_copy_0
G1 Z.2 F24000
G1 X139.029 Y157.249
G1 Z.2
G1 E.5 F1800
;TYPE:Inner wall
;WIDTH:0.499999
G1 X138.84 Y157.239 E.00707
G1 X138.593 Y157.341 E.00995
G1 X137.706 Y157.932 E.03971
G1 X136.896 Y158.432 E.03544
G1 X136.053 Y158.912 E.03616
G1 X135.174 Y159.371 E.03691
G1 X134.316 Y159.782 E.03544
G1 X133.425 Y160.169 E.03617
G1 X132.522 Y160.525 E.03617
G1 X131.606 Y160.848 E.03617
G1 X130.679 Y161.138 E.03617
G1 X129.743 Y161.395 E.03617
G1 X128.798 Y161.619 E.03617
G1 X127.772 Y161.823 E.03896
G1 X127.504 Y161.94 E.01088
G1 X127.29 Y162.194 E.01239
G1 X127.22 Y162.501 E.0117
G1 X127.226 Y163.344 E.0314
G1 X127.107 Y164.054 E.02682
G1 X126.869 Y164.735 E.02686
G1 X126.519 Y165.365 E.02686
G1 X126.068 Y165.927 E.02686
G1 X125.527 Y166.405 E.02686
G1 X124.914 Y166.784 E.02686
G1 X124.245 Y167.053 E.02686
G1 X123.54 Y167.206 E.02686
G1 X122.82 Y167.237 E.02686
G1 X122.104 Y167.145 E.02686
G1 X121.415 Y166.933 E.02686
G1 X120.771 Y166.607 E.02686
G1 X120.192 Y166.178 E.02686
G1 X119.694 Y165.656 E.02686
G1 X119.292 Y165.058 E.02684
G1 X118.995 Y164.392 E.02717
G1 X118.818 Y163.701 E.02656
G1 X118.758 Y162.967 E.02741
G1 X118.774 Y162.406 E.0209
G1 X118.668 Y162.121 E.01134
G1 X118.41 Y161.887 E.01297
G1 X118.228 Y161.823 E.00719
G1 X117.202 Y161.619 E.03896
G1 X116.257 Y161.395 E.03617
G1 X115.321 Y161.138 E.03617
G1 X114.394 Y160.848 E.03617
G1 X113.478 Y160.525 E.03617
G1 X112.575 Y160.169 E.03617
G1 X111.684 Y159.782 E.03617
G1 X110.808 Y159.362 E.03617
G1 X109.948 Y158.913 E.03616
G1 X109.046 Y158.397 E.03869
G1 X107.284 Y157.276 E.07778
G1 X107.063 Y157.226 E.00847
G1 X106.748 Y157.285 E.01191
G1 X106.538 Y157.43 E.00951
G1 X105.947 Y158.03 E.0314
G1 X105.361 Y158.448 E.02681
G1 X104.703 Y158.764 E.02717
G1 X104.017 Y158.96 E.02656
G1 X103.3 Y159.038 E.02686
G1 X102.581 Y158.994 E.02686
G1 X101.879 Y158.828 E.02686
G1 X101.215 Y158.546 E.02686
G1 X100.609 Y158.155 E.02686
G1 X100.078 Y157.667 E.02686
G1 X99.637 Y157.096 E.02686
G1 X99.299 Y156.459 E.02686
G1 X99.074 Y155.774 E.02684
G1 X98.969 Y155.053 E.02717
G1 X98.986 Y154.34 E.02656
G1 X99.124 Y153.632 E.02687
G1 X99.381 Y152.958 E.02686
G1 X99.748 Y152.337 E.02686
G1 X100.05 Y151.983 E.01734
G1 X100.55 Y151.48 E.02641
G1 X100.73 Y151.215 E.01194
G1 X100.769 Y150.889 E.01223
G1 X100.659 Y150.593 E.01176
G1 X100.068 Y149.706 E.03971
G1 X99.568 Y148.896 E.03544
G1 X99.088 Y148.053 E.03616
G1 X98.629 Y147.174 E.03691
G1 X98.218 Y146.316 E.03544
G1 X97.831 Y145.425 E.03617
G1 X97.475 Y144.522 E.03617
G1 X97.152 Y143.606 E.03617
G1 X96.862 Y142.679 E.03617
G1 X96.605 Y141.743 E.03617
G1 X96.381 Y140.798 E.03617
G1 X96.177 Y139.772 E.03896
G1 X96.103 Y139.571 E.00798
G1 X95.985 Y139.416 E.00724
G1 X95.817 Y139.296 E.00769
G1 X95.499 Y139.22 E.01216
G1 X94.656 Y139.226 E.0314
G1 X93.946 Y139.107 E.02682
G1 X93.265 Y138.869 E.02686
G1 X92.635 Y138.519 E.02686
G1 X92.073 Y138.068 E.02686
G1 X91.595 Y137.527 E.02686
G1 X91.216 Y136.914 E.02686
G1 X90.947 Y136.245 E.02686
G1 X90.794 Y135.54 E.02686
G1 X90.763 Y134.82 E.02686
G1 X90.855 Y134.104 E.02686
G1 X91.067 Y133.415 E.02686
G1 X91.393 Y132.771 E.02686
G1 X91.822 Y132.192 E.02686
G1 X92.344 Y131.694 E.02686
G1 X92.943 Y131.292 E.02686
G1 X93.6 Y130.997 E.02684
G1 X94.307 Y130.817 E.02717
G1 X95.033 Y130.758 E.02711
G1 X95.564 Y130.777 E.01982
G1 X95.843 Y130.691 E.01086
G1 X96.088 Y130.454 E.01269
G1 X96.177 Y130.228 E.00905
G1 X96.381 Y129.202 E.03896
G1 X96.605 Y128.257 E.03617
G1 X96.862 Y127.321 E.03617
G1 X97.152 Y126.394 E.03617
G1 X97.475 Y125.478 E.03617
G1 X97.831 Y124.575 E.03617
G1 X98.218 Y123.684 E.03617
G1 X98.638 Y122.808 E.03617
G1 X99.087 Y121.948 E.03616
G1 X99.578 Y121.087 E.03691
G1 X100.078 Y120.277 E.03544
G1 X100.659 Y119.407 E.03896
M73 P1 R25
G1 X100.769 Y119.111 E.01177
G1 X100.73 Y118.785 E.01223
G1 X100.57 Y118.538 E.01096
G1 X99.97 Y117.947 E.0314
G1 X99.552 Y117.36 E.02682
G1 X99.238 Y116.711 E.02686
G1 X99.04 Y116.017 E.02686
G1 X98.962 Y115.3 E.02686
G1 X99.006 Y114.581 E.02686
G1 X99.172 Y113.879 E.02686
G1 X99.454 Y113.215 E.02686
G1 X99.845 Y112.609 E.02686
M73 P2 R25
G1 X100.333 Y112.078 E.02686
G1 X100.904 Y111.637 E.02686
G1 X101.541 Y111.299 E.02686
G1 X102.226 Y111.074 E.02684
G1 X102.947 Y110.969 E.02717
G1 X103.66 Y110.986 E.02656
G1 X104.368 Y111.124 E.02687
G1 X105.042 Y111.381 E.02686
G1 X105.663 Y111.748 E.02686
G1 X106.223 Y112.225 E.02741
G1 X106.586 Y112.614 E.01981
G1 X106.879 Y112.758 E.01216
G1 X107.091 Y112.771 E.00794
G1 X107.407 Y112.659 E.01247
G1 X108.294 Y112.068 E.03971
G1 X109.104 Y111.568 E.03544
G1 X109.947 Y111.088 E.03616
G1 X110.826 Y110.629 E.03691
G1 X111.684 Y110.218 E.03544
G1 X112.575 Y109.831 E.03617
G1 X113.478 Y109.475 E.03617
G1 X114.394 Y109.152 E.03617
G1 X115.368 Y108.849 E.03798
G1 X116.305 Y108.594 E.03617
G1 X118.384 Y108.126 E.0794
G1 X118.549 Y108.017 E.00735
G1 X118.74 Y107.733 E.01274
G1 X118.78 Y107.5 E.00881
G1 X118.775 Y106.649 E.03172
G1 X118.893 Y105.946 E.02652
G1 X119.131 Y105.265 E.02687
G1 X119.481 Y104.635 E.02686
G1 X119.932 Y104.073 E.02686
G1 X120.473 Y103.595 E.02686
G1 X121.086 Y103.216 E.02684
G1 X121.763 Y102.945 E.02717
G1 X122.111 Y102.869 E.01329
G1 X122.805 Y102.763 E.02613
G1 X123.54 Y102.794 E.02741
G1 X124.245 Y102.947 E.02686
G1 X124.914 Y103.216 E.02686
G1 X125.527 Y103.595 E.02686
G1 X126.068 Y104.073 E.02686
G1 X126.519 Y104.635 E.02686
G1 X126.869 Y105.265 E.02684
G1 X127.109 Y105.954 E.02717
G1 X127.226 Y106.656 E.02652
G1 X127.22 Y107.499 E.03141
G1 X127.29 Y107.806 E.0117
G1 X127.504 Y108.06 E.01239
G1 X127.772 Y108.177 E.01088
G1 X128.798 Y108.381 E.03896
G1 X129.743 Y108.605 E.03617
G1 X130.679 Y108.862 E.03617
G1 X131.606 Y109.152 E.03617
G1 X132.522 Y109.475 E.03617
G1 X133.38 Y109.813 E.03436
G1 X134.36 Y110.24 E.03979
G1 X135.235 Y110.66 E.03617
G1 X136.095 Y111.112 E.0362
G1 X137.048 Y111.662 E.04098
G1 X138.663 Y112.7 E.07151
G1 X139.003 Y112.774 E.01295
G1 X139.204 Y112.735 E.00761
G1 X139.462 Y112.57 E.0114
G1 X140.053 Y111.97 E.0314
G1 X140.639 Y111.552 E.02681
G1 X141.297 Y111.236 E.02717
G1 X141.983 Y111.04 E.02656
G1 X142.7 Y110.962 E.02686
G1 X143.419 Y111.006 E.02686
G1 X144.121 Y111.172 E.02686
G1 X144.785 Y111.454 E.02686
G1 X145.391 Y111.845 E.02686
G1 X145.922 Y112.333 E.02686
G1 X146.363 Y112.904 E.02686
G1 X146.701 Y113.541 E.02686
G1 X146.926 Y114.226 E.02684
G1 X147.031 Y114.947 E.02717
G1 X147.014 Y115.66 E.02656
G1 X146.876 Y116.368 E.02687
G1 X146.619 Y117.042 E.02686
G1 X146.252 Y117.663 E.02686
G1 X145.775 Y118.223 E.02741
G1 X145.386 Y118.586 E.01981
G1 X145.245 Y118.865 E.01163
G1 X145.25 Y119.209 E.01282
G1 X145.341 Y119.407 E.00812
G1 X145.932 Y120.294 E.03971
G1 X146.432 Y121.104 E.03544
G1 X146.912 Y121.947 E.03616
G1 X147.371 Y122.826 E.03691
G1 X147.782 Y123.684 E.03544
G1 X148.169 Y124.575 E.03617
G1 X148.525 Y125.478 E.03617
G1 X148.848 Y126.394 E.03617
G1 X149.138 Y127.321 E.03617
G1 X149.395 Y128.257 E.03617
G1 X149.619 Y129.202 E.03617
G1 X149.823 Y130.228 E.03896
G1 X149.97 Y130.535 E.01266
G1 X150.231 Y130.727 E.01207
G1 X150.5 Y130.78 E.0102
G1 X151.351 Y130.775 E.03172
G1 X152.054 Y130.893 E.02652
G1 X152.735 Y131.131 E.02687
G1 X153.365 Y131.481 E.02686
G1 X153.927 Y131.932 E.02686
G1 X154.405 Y132.473 E.02686
G1 X154.784 Y133.086 E.02686
G1 X155.053 Y133.755 E.02686
G1 X155.206 Y134.46 E.02686
G1 X155.237 Y135.18 E.02686
G1 X155.145 Y135.896 E.02686
G1 X154.933 Y136.585 E.02686
G1 X154.607 Y137.229 E.02686
G1 X154.178 Y137.808 E.02686
G1 X153.656 Y138.306 E.02686
G1 X153.057 Y138.708 E.02686
G1 X152.399 Y139.003 E.02686
G1 X151.701 Y139.182 E.02686
G1 X151.237 Y139.22 E.01734
G1 X150.528 Y139.221 E.02641
G1 X150.231 Y139.273 E.01122
G1 X149.97 Y139.465 E.01207
G1 X149.823 Y139.772 E.01266
G1 X149.619 Y140.798 E.03896
G1 X149.395 Y141.743 E.03617
G1 X149.138 Y142.679 E.03617
G1 X148.848 Y143.606 E.03617
G1 X148.525 Y144.522 E.03617
G1 X148.169 Y145.425 E.03617
G1 X147.782 Y146.316 E.03617
G1 X147.383 Y147.148 E.03436
G1 X146.888 Y148.095 E.03982
G1 X146.397 Y148.954 E.03684
G1 X145.877 Y149.789 E.03664
G1 X145.296 Y150.67 E.03929
G1 X145.226 Y150.955 E.01095
G1 X145.301 Y151.286 E.01266
G1 X145.43 Y151.462 E.0081
G1 X146.03 Y152.053 E.0314
G1 X146.448 Y152.639 E.02681
G1 X146.764 Y153.297 E.02717
G1 X146.96 Y153.983 E.02656
G1 X147.038 Y154.7 E.02686
G1 X146.994 Y155.419 E.02686
G1 X146.828 Y156.121 E.02686
G1 X146.546 Y156.785 E.02686
G1 X146.155 Y157.391 E.02686
G1 X145.667 Y157.922 E.02686
G1 X145.096 Y158.363 E.02686
G1 X144.459 Y158.701 E.02686
G1 X143.774 Y158.926 E.02684
G1 X143.053 Y159.031 E.02717
G1 X142.34 Y159.014 E.02656
G1 X141.632 Y158.876 E.02687
G1 X140.958 Y158.619 E.02686
G1 X140.337 Y158.252 E.02686
G1 X139.777 Y157.775 E.02741
G1 X139.391 Y157.368 E.02089
G1 X139.176 Y157.256 E.00902
G1 X139.069 Y157.251 E.00398
G1 X138.993 Y157.683 F24000
;TYPE:Outer wall
G1 F1800
G1 X138.847 Y157.721 E.00563
G1 X137.953 Y158.317 E.04001
G1 X137.13 Y158.825 E.03604
G1 X136.271 Y159.314 E.03677
G1 X135.378 Y159.78 E.03752
G1 X134.506 Y160.197 E.03604
G1 X133.6 Y160.591 E.03678
G1 X132.682 Y160.953 E.03678
G1 X131.75 Y161.282 E.03678
G1 X130.808 Y161.577 E.03677
G1 X129.856 Y161.838 E.03678
G1 X128.895 Y162.065 E.03677
G1 X127.861 Y162.271 E.03927
G1 X127.732 Y162.347 E.00556
G1 X127.677 Y162.497 E.00596
G1 X127.684 Y163.38 E.03288
G1 X127.552 Y164.168 E.02975
G1 X127.288 Y164.922 E.02977
G1 X126.9 Y165.621 E.02977
G1 X126.4 Y166.244 E.02977
G1 X125.801 Y166.773 E.02977
G1 X125.121 Y167.193 E.02977
G1 X124.38 Y167.492 E.02977
G1 X123.599 Y167.661 E.02977
G1 X122.8 Y167.695 E.02977
G1 X122.007 Y167.593 E.02977
G1 X121.243 Y167.358 E.02977
G1 X120.53 Y166.998 E.02976
G1 X119.889 Y166.521 E.02977
G1 X119.337 Y165.943 E.02977
G1 X118.891 Y165.28 E.02976
G1 X118.562 Y164.543 E.03008
G1 X118.366 Y163.777 E.02946
G1 X118.325 Y163.274 E.01879
G1 X118.323 Y162.506 E.02858
G1 X118.286 Y162.371 E.00523
G1 X118.139 Y162.271 E.0066
G1 X117.105 Y162.065 E.03927
G1 X116.144 Y161.838 E.03677
G1 X115.192 Y161.577 E.03678
G1 X114.25 Y161.282 E.03677
G1 X113.319 Y160.953 E.03678
G1 X112.4 Y160.591 E.03678
G1 X111.494 Y160.197 E.03678
G1 X110.604 Y159.771 E.03678
G1 X109.729 Y159.314 E.03678
G1 X108.854 Y158.815 E.03752
G1 X108.03 Y158.307 E.03604
G1 X107.154 Y157.721 E.03927
G1 X106.987 Y157.686 E.00635
G1 X106.864 Y157.751 E.00517
G1 X106.244 Y158.38 E.03288
G1 X105.594 Y158.843 E.02975
G1 X104.866 Y159.193 E.03008
G1 X104.106 Y159.41 E.02946
G1 X103.311 Y159.497 E.02977
G1 X102.513 Y159.448 E.02977
G1 X101.736 Y159.264 E.02977
G1 X101 Y158.951 E.02976
G1 X100.329 Y158.518 E.02977
G1 X99.74 Y157.977 E.02977
G1 X99.251 Y157.345 E.02977
G1 X98.877 Y156.639 E.02977
G1 X98.628 Y155.88 E.02976
G1 X98.511 Y155.081 E.03008
G1 X98.53 Y154.29 E.02946
G1 X98.683 Y153.506 E.02977
G1 X98.968 Y152.759 E.02977
G1 X99.375 Y152.071 E.02977
G1 X99.702 Y151.687 E.01879
G1 X100.243 Y151.142 E.02858
G1 X100.315 Y151.008 E.00568
G1 X100.279 Y150.847 E.00616
G1 X99.683 Y149.953 E.04001
G1 X99.175 Y149.13 E.03604
G1 X98.686 Y148.271 E.03677
G1 X98.22 Y147.378 E.03752
G1 X97.803 Y146.506 E.03604
G1 X97.409 Y145.6 E.03678
G1 X97.047 Y144.682 E.03678
G1 X96.718 Y143.75 E.03678
G1 X96.423 Y142.808 E.03677
G1 X96.162 Y141.856 E.03678
G1 X95.935 Y140.895 E.03677
G1 X95.729 Y139.861 E.03927
G1 X95.665 Y139.743 E.00502
G1 X95.503 Y139.677 E.0065
G1 X94.62 Y139.684 E.03288
G1 X93.832 Y139.552 E.02975
G1 X93.078 Y139.288 E.02977
G1 X92.379 Y138.9 E.02977
G1 X91.756 Y138.4 E.02977
G1 X91.227 Y137.801 E.02977
G1 X90.807 Y137.121 E.02977
G1 X90.508 Y136.38 E.02977
G1 X90.339 Y135.599 E.02977
G1 X90.305 Y134.8 E.02977
G1 X90.407 Y134.007 E.02977
G1 X90.642 Y133.243 E.02977
G1 X91.002 Y132.53 E.02976
G1 X91.479 Y131.889 E.02977
G1 X92.057 Y131.337 E.02977
G1 X92.72 Y130.891 E.02977
G1 X93.449 Y130.564 E.02976
G1 X94.232 Y130.364 E.03008
G1 X94.727 Y130.325 E.01852
G1 X95.494 Y130.323 E.02855
G1 X95.658 Y130.264 E.00648
G1 X95.728 Y130.142 E.00523
G1 X95.935 Y129.105 E.0394
G1 X96.162 Y128.144 E.03677
G1 X96.423 Y127.192 E.03678
G1 X96.718 Y126.25 E.03677
G1 X97.047 Y125.319 E.03678
G1 X97.409 Y124.4 E.03678
G1 X97.803 Y123.494 E.03678
G1 X98.229 Y122.604 E.03678
G1 X98.686 Y121.729 E.03678
G1 X99.185 Y120.854 E.03752
G1 X99.693 Y120.03 E.03604
G1 X100.279 Y119.154 E.03927
G1 X100.316 Y119.002 E.00583
G1 X100.249 Y118.864 E.0057
G1 X99.62 Y118.244 E.03288
G1 X99.157 Y117.594 E.02975
G1 X98.81 Y116.874 E.02977
G1 X98.59 Y116.106 E.02977
G1 X98.503 Y115.311 E.02976
G1 X98.552 Y114.513 E.02977
G1 X98.736 Y113.736 E.02977
G1 X99.049 Y113 E.02976
G1 X99.482 Y112.329 E.02977
G1 X100.023 Y111.74 E.02977
G1 X100.655 Y111.251 E.02977
G1 X101.361 Y110.877 E.02977
G1 X102.12 Y110.628 E.02976
G1 X102.919 Y110.511 E.03008
G1 X103.71 Y110.53 E.02946
G1 X104.494 Y110.683 E.02977
G1 X105.241 Y110.968 E.02977
