; HEADER_BLOCK_START
; generated by OrcaSlicer 2.1.1 on 2024-06-28 at 19:10:47
; total layer number: 15
; filament_density: 1.24
; filament_diameter: 1.75
; max_z_height: 3.00
; HEADER_BLOCK_END

; THUMBNAIL_BLOCK_START

;
; THUMBNAIL_BLOCK_END

; THUMBNAIL_BLOCK_START

;
; THUMBNAIL_BLOCK_END

; external perimeters extrusion width = 0.42mm
; perimeters extrusion width = 0.45mm
; infill extrusion width = 0.45mm
; solid infill extrusion width = 0.45mm
; top infill extrusion width = 0.42mm
; first layer extrusion width = 0.50mm

; EXECUTABLE_BLOCK_START
EXCLUDE_OBJECT_DEFINE NAME=Corps12.stl_id_0_copy_0 CENTER=115,115 POLYGON=[[45.9179,82.8333],[45.9388,80.9459],[46.0014,79.1041],[46.1059,77.3077],[46.2521,75.5567],[46.4402,73.8512],[46.6701,72.1911],[46.9419,70.5765],[47.2555,69.0074],[47.611,67.4837],[48.0083,66.0054],[48.4476,64.5726],[48.9288,63.1852],[49.4519,61.8433],[50.0169,60.5469],[50.6239,59.2959],[51.2729,58.0903],[51.9581,56.9231],[52.6759,55.7887],[53.426,54.6871],[54.2085,53.6185],[55.0234,52.5826],[55.8707,51.5796],[56.7503,50.6094],[57.6622,49.672],[58.6065,48.7675],[59.5831,47.8957],[60.592,47.0568],[61.6332,46.2506],[62.7066,45.4773],[63.8123,44.7367],[64.9503,44.0289],[66.1205,43.3538],[67.3163,42.7082],[68.5312,42.0885],[69.7653,41.495],[71.0184,40.9274],[72.2906,40.3859],[73.5819,39.8704],[74.8923,39.381],[76.2217,38.9176],[77.5703,38.4802],[78.938,38.0689],[80.3247,37.6836],[81.7306,37.3243],[83.1555,36.991],[84.5996,36.6838],[86.0627,36.4027],[87.5449,36.1475],[90.5438,35.6937],[93.577,35.3005],[96.6443,34.9679],[99.7457,34.696],[102.881,34.4846],[106.051,34.3336],[109.254,34.2431],[112.491,34.2129],[117.643,34.2129],[119.486,34.2219],[121.303,34.2491],[123.095,34.2943],[124.861,34.3576],[126.601,34.439],[128.315,34.5384],[130.004,34.656],[131.667,34.7916],[133.305,34.9453],[134.917,35.117],[136.503,35.3069],[138.063,35.5148],[139.598,35.7407],[141.107,35.9848],[142.591,36.2469],[144.048,36.5271],[145.48,36.8253],[146.887,37.1416],[148.268,37.4759],[149.623,37.8283],[150.952,38.1988],[152.256,38.5873],[153.533,38.9938],[154.786,39.4184],[156.012,39.8611],[157.213,40.3218],[158.389,40.8005],[159.538,41.2973],[160.662,41.8122],[161.76,42.345],[162.833,42.8959],[163.88,43.4649],[165.05,44.1273],[166.187,44.8232],[167.293,45.5527],[168.366,46.3158],[169.407,47.1124],[170.416,47.9426],[171.392,48.8064],[172.336,49.7038],[173.248,50.6349],[174.127,51.5996],[174.975,52.5979],[175.79,53.6299],[176.572,54.6956],[177.323,55.795],[178.041,56.9281],[178.727,58.095],[179.375,59.3005],[179.982,60.5515],[180.546,61.848],[181.069,63.1899],[181.55,64.5772],[181.99,66.01],[182.387,67.4883],[182.743,69.012],[183.057,70.5811],[183.329,72.1957],[183.559,73.8558],[183.747,75.5613],[183.894,77.3123],[183.998,79.1087],[184.061,80.9506],[184.082,82.8379],[184.028,84.4655],[180.615,154.33],[180.557,155.462],[180.482,156.575],[180.391,157.67],[180.284,158.747],[180.159,159.805],[180.019,160.845],[179.861,161.866],[179.687,162.868],[179.497,163.852],[179.29,164.818],[179.066,165.765],[178.826,166.693],[178.57,167.604],[178.297,168.495],[178.007,169.368],[177.701,170.223],[177.378,171.059],[177.039,171.877],[176.683,172.676],[176.31,173.457],[175.921,174.219],[175.516,174.963],[175.094,175.689],[174.655,176.395],[174.2,177.084],[173.729,177.754],[173.241,178.405],[172.736,179.038],[172.215,179.653],[171.133,180.837],[170.005,181.972],[168.831,183.055],[167.612,184.089],[166.348,185.072],[165.038,186.005],[163.682,186.887],[162.281,187.719],[160.834,188.501],[159.342,189.232],[157.805,189.913],[156.222,190.544],[154.593,191.124],[152.919,191.653],[151.2,192.132],[149.435,192.561],[147.633,192.952],[145.805,193.318],[143.95,193.658],[142.067,193.973],[140.157,194.263],[138.221,194.528],[136.257,194.767],[134.266,194.981],[132.249,195.17],[130.204,195.334],[128.132,195.472],[126.034,195.586],[123.908,195.674],[121.756,195.737],[119.576,195.775],[117.37,195.787],[112.76,195.787],[110.554,195.775],[108.378,195.737],[106.231,195.674],[104.115,195.586],[102.028,195.472],[99.9706,195.334],[97.9431,195.17],[95.9453,194.981],[93.9772,194.767],[92.0388,194.528],[90.1302,194.263],[88.2513,193.973],[86.4021,193.658],[84.5826,193.318],[82.7929,192.952],[81.0329,192.561],[79.211,192.132],[77.4388,191.653],[75.7164,191.124],[74.0436,190.544],[72.4205,189.914],[70.8472,189.234],[69.3236,188.503],[67.8497,187.721],[66.4255,186.889],[65.0511,186.007],[63.7265,185.074],[62.4516,184.091],[61.2264,183.057],[60.0511,181.973],[58.9255,180.838],[57.8497,179.653],[57.3324,179.039],[56.8316,178.406],[56.3473,177.755],[55.8793,177.085],[55.4278,176.397],[54.9927,175.69],[54.574,174.965],[54.1718,174.221],[53.786,173.459],[53.4166,172.678],[53.0637,171.879],[52.7272,171.061],[52.4071,170.225],[52.1034,169.37],[51.8162,168.497],[51.5453,167.605],[51.2909,166.695],[51.0529,165.766],[50.8314,164.819],[50.6262,163.853],[50.4375,162.869],[50.2651,161.866],[50.1092,160.845],[49.9697,159.806],[49.8467,158.747],[49.74,157.671],[49.6498,156.576],[49.5759,155.462],[46.009,85.912],[45.9407,84.3827],[45.9179,82.8333]]
M73 P0 R82
;TYPE:Custom
M220 S100
G90 ; use absolute coordinates
M83 ; extruder relative mode
M104 S150 ; set temporary nozzle temp to prevent oozing during homing
M140 S55 ; set final bed temp
G4 S30 ; allow partial nozzle warmup
G28 ; home all axis and restore leveling
BED_MESH_CALIBRATE PROFILE=adaptive ADAPTIVE=1 ADAPTIVE_MARGIN=0
G1 Z25 F240
G1 X10.0 Y30 F3000
M104 S210 ; set final nozzle temp
M190 S55 ; wait for bed temp to stabilize
M109 S210 ; wait for nozzle temp to stabilize
G1 Z0.28 F240
G92 E0 ; Move Z Axis up
G1 Z2.0 F5000 ; Move to start position
G1 X5 Y30 Z0.28 F300 ; Draw the first line
G1 X5 Y200 Z0.28 F1500 E15 ; Move to side a little
G1 X5.4 Y200 Z0.28 F5000.0 ; Draw the second line
G1 X5.4 Y50 Z0.28 F1500.0 E30 ; Reset Extruder
G92 E0 ; Move Z Axis up
G1 Z2.0 F3000
M117 Start Printing..
G90
G21
M83 ; use relative distances for extrusion
; filament start gcode
M106 S0
;LAYER_CHANGE
;Z:0.2
;HEIGHT:0.2
;BEFORE_LAYER_CHANGE
;0.2
G92 E0

G1 E-.5 F1800
;_SET_FAN_SPEED_CHANGING_LAYER
SET_VELOCITY_LIMIT ACCEL=1000
SET_VELOCITY_LIMIT SQUARE_CORNER_VELOCITY=7
; printing object Corps12.stl id:0 copy 0
EXCLUDE_OBJECT_START NAME=Corps12.stl_id_0_copy_0
G1 Z.2 F24000
G1 X75.532 Y137.43
G1 Z.2
G1 E.5 F1800
;TYPE:Inner wall
;WIDTH:0.499999
G1 X75.563 Y137.296 E.00522
G1 X75.494 Y136.926 E.01432
G1 X75.317 Y136.685 E.01135
G1 X75.041 Y136.539 E.01188
G1 X73.874 Y136.232 E.04587
G1 X72.801 Y135.886 E.04285
G1 X71.754 Y135.481 E.04265
G1 X70.733 Y135.018 E.04261
G1 X69.738 Y134.496 E.04271
G1 X68.767 Y133.916 E.04298
G1 X67.821 Y133.277 E.04338
G1 X66.9 Y132.579 E.04394
G1 X66.003 Y131.821 E.04463
G1 X65.13 Y131.003 E.04546
G1 X64.281 Y130.126 E.04641
G1 X63.457 Y129.187 E.04747
G1 X62.656 Y128.189 E.04864
G1 X61.88 Y127.129 E.04991
G1 X61.129 Y126.008 E.05129
G1 X60.402 Y124.826 E.05274
G1 X59.709 Y123.602 E.05346
G1 X59.06 Y122.358 E.05333
G1 X58.457 Y121.094 E.05324
G1 X57.916 Y119.853 E.05143
G1 X57.383 Y118.506 E.05507
G1 X56.914 Y117.182 E.05336
G1 X56.489 Y115.839 E.05356
G1 X56.109 Y114.475 E.05381
G1 X55.773 Y113.091 E.05412
G1 X55.482 Y111.687 E.0545
G1 X55.236 Y110.263 E.05494
G1 X55.034 Y108.818 E.05545
G1 X54.877 Y107.352 E.05601
G1 X54.765 Y105.867 E.05663
G1 X54.698 Y104.36 E.05731
G1 X54.675 Y102.832 E.0581
G1 X54.696 Y100.963 E.07103
G1 X54.758 Y99.139 E.06937
G1 X54.861 Y97.361 E.06768
G1 X55.006 Y95.63 E.06603
G1 X55.192 Y93.945 E.06443
G1 X55.419 Y92.306 E.06288
G1 X55.687 Y90.714 E.06137
G1 X55.996 Y89.168 E.05992
G1 X56.345 Y87.668 E.05852
G1 X56.736 Y86.215 E.0572
G1 X57.167 Y84.808 E.05593
G1 X57.639 Y83.447 E.05474
G1 X58.152 Y82.132 E.05363
G1 X58.686 Y80.906 E.05083
G1 X59.298 Y79.64 E.05344
G1 X59.933 Y78.462 E.05088
G1 X60.605 Y77.317 E.05043
G1 X61.309 Y76.204 E.05005
G1 X62.044 Y75.124 E.04967
G1 X62.812 Y74.076 E.04935
G1 X63.61 Y73.061 E.04909
G1 X64.44 Y72.078 E.04889
G1 X65.302 Y71.128 E.04876
G1 X66.196 Y70.209 E.04869
G1 X67.121 Y69.323 E.04868
G1 X68.077 Y68.469 E.04874
G1 X69.066 Y67.647 E.04887
G1 X70.086 Y66.857 E.04905
G1 X71.139 Y66.099 E.04929
G1 X72.187 Y65.397 E.04793
G1 X73.34 Y64.678 E.05165
G1 X74.49 Y64.015 E.05045
G1 X75.668 Y63.379 E.0509
G1 X76.867 Y62.767 E.05117
G1 X78.086 Y62.181 E.05138
G1 X79.323 Y61.621 E.05162
G1 X80.579 Y61.086 E.0519
G1 X81.855 Y60.577 E.05219
G1 X83.149 Y60.093 E.05252
G1 X84.463 Y59.635 E.05288
G1 X85.751 Y59.217 E.05147
G1 X87.149 Y58.796 E.05546
G1 X88.52 Y58.415 E.05409
G1 X89.91 Y58.06 E.05455
G1 X91.321 Y57.73 E.05504
G1 X92.75 Y57.426 E.05553
G1 X94.198 Y57.148 E.05607
G1 X95.666 Y56.895 E.05659
G1 X98.649 Y56.443 E.11468
G1 X101.666 Y56.052 E.11563
G1 X104.718 Y55.721 E.11667
G1 X107.804 Y55.451 E.11774
G1 X110.925 Y55.24 E.11887
G1 X114.079 Y55.09 E.12003
G1 X117.268 Y55 E.12125
G1 X120.495 Y54.97 E.12263
G1 X126.084 Y54.972 E.21243
G1 X129.288 Y55.006 E.12176
G1 X132.829 Y55.114 E.13467
G1 X136.212 Y55.291 E.12874
G1 X139.599 Y55.546 E.12909
G1 X142.832 Y55.869 E.12347
G1 X145.958 Y56.265 E.11977
G1 X148.981 Y56.731 E.11625
G1 X151.902 Y57.27 E.11291
G1 X153.317 Y57.565 E.05493
G1 X156.086 Y58.211 E.10806
G1 X158.742 Y58.926 E.10454
G1 X160.033 Y59.311 E.05118
G1 X161.255 Y59.7 E.04875
G1 X162.536 Y60.133 E.0514
G1 X163.748 Y60.571 E.04899
G1 X164.935 Y61.026 E.04831
G1 X166.096 Y61.499 E.04763
G1 X167.23 Y61.989 E.04698
G1 X168.339 Y62.497 E.04635
G1 X169.422 Y63.022 E.04574
G1 X170.476 Y63.564 E.04504
G1 X172.668 Y64.781 E.0953
G1 X173.781 Y65.462 E.0496
G1 X174.865 Y66.177 E.04934
G1 X175.917 Y66.925 E.04904
G1 X176.902 Y67.679 E.04716
G1 X177.924 Y68.519 E.05029
G1 X178.88 Y69.364 E.0485
G1 X179.805 Y70.243 E.04848
G1 X180.667 Y71.124 E.04686
G1 X181.559 Y72.1 E.05024
G1 X182.389 Y73.078 E.04873
G1 X183.16 Y74.055 E.04732
G1 X183.955 Y75.134 E.05092
G1 X184.69 Y76.211 E.04959
G1 X185.395 Y77.323 E.05002
G1 X186.067 Y78.466 E.05041
G1 X186.701 Y79.645 E.05087
G1 X187.294 Y80.868 E.05165
G1 X187.846 Y82.137 E.05259
G1 X188.341 Y83.407 E.05182
G1 X188.831 Y84.813 E.05657
G1 X189.262 Y86.219 E.05592
G1 X189.653 Y87.673 E.05719
G1 X190.003 Y89.172 E.05853
G1 X190.312 Y90.718 E.05992
G1 X190.571 Y92.257 E.05931
G1 X190.808 Y93.95 E.06495
G1 X190.994 Y95.634 E.06442
G1 X191.138 Y97.366 E.06603
G1 X191.242 Y99.144 E.06768
G1 X191.305 Y101.168 E.07699
G1 X191.325 Y102.83 E.06314
G1 X191.271 Y104.431 E.06088
G1 X191.178 Y106.014 E.06028
G1 X191.046 Y107.571 E.0594
G1 X190.875 Y109.103 E.05858
G1 X190.665 Y110.609 E.0578
G1 X190.416 Y112.089 E.05706
G1 X190.138 Y113.496 E.05448
G1 X189.801 Y114.974 E.05763
G1 X189.436 Y116.378 E.05513
G1 X189.031 Y117.757 E.0546
G1 X188.588 Y119.11 E.05413
G1 X188.105 Y120.438 E.05369
G1 X187.584 Y121.741 E.05333
G1 X187.024 Y123.019 E.05302
G1 X186.426 Y124.271 E.05277
G1 X185.788 Y125.499 E.0526
G1 X185.124 Y126.683 E.05158
G1 X184.45 Y127.803 E.04969
G1 X183.764 Y128.858 E.04781
G1 X183.069 Y129.848 E.04598
G1 X182.363 Y130.773 E.04422
G1 X181.648 Y131.633 E.04252
G1 X180.923 Y132.429 E.04091
G1 X180.189 Y133.16 E.03938
G1 X179.447 Y133.827 E.03795
G1 X178.695 Y134.431 E.03663
G1 X177.538 Y135.217 E.05316
G1 X176.764 Y135.662 E.03394
G1 X175.985 Y136.045 E.03299
G1 X175.21 Y136.361 E.03182
G1 X173.895 Y136.773 E.05235
G1 X173.629 Y136.943 E.01201
G1 X173.474 Y137.192 E.01116
G1 X173.424 Y137.571 E.01452
G1 X173.513 Y137.853 E.01124
G1 X173.728 Y138.082 E.01194
G1 X174.473 Y138.576 E.03397
G1 X175.155 Y139.076 E.03215
G1 X175.827 Y139.62 E.03287
G1 X176.49 Y140.208 E.03367
G1 X177.121 Y140.818 E.03336
G1 X177.788 Y141.516 E.03665
G1 X178.421 Y142.235 E.03643
G1 X179.024 Y142.973 E.03622
G1 X179.66 Y143.807 E.03986
G1 X180.263 Y144.659 E.03969
G1 X180.857 Y145.556 E.04088
G1 X181.441 Y146.497 E.04208
G1 X182.013 Y147.482 E.04333
G1 X182.576 Y148.513 E.0446
G1 X183.127 Y149.587 E.0459
G1 X183.667 Y150.705 E.04718
G1 X184.183 Y151.849 E.04771
G1 X184.665 Y153.008 E.04769
G1 X185.115 Y154.181 E.04776
G1 X185.531 Y155.37 E.04786
G1 X185.914 Y156.573 E.048
G1 X186.263 Y157.792 E.04819
G1 X186.58 Y159.026 E.04842
G1 X186.864 Y160.275 E.04868
G1 X187.114 Y161.54 E.04899
G1 X187.331 Y162.819 E.04934
G1 X187.514 Y164.115 E.04972
G1 X187.665 Y165.425 E.05015
G1 X187.782 Y166.752 E.05059
G1 X187.865 Y168.093 E.05109
G1 X187.916 Y169.45 E.05162
G1 X187.932 Y170.823 E.05215
G1 X187.9 Y173.122 E.08739
G1 X187.859 Y174.294 E.0446
G1 X187.727 Y176.519 E.08468
G1 X187.531 Y178.668 E.08203
G1 X187.409 Y179.707 E.03975
G1 X187.114 Y181.743 E.07819
G1 X186.755 Y183.701 E.07564
G1 X186.331 Y185.587 E.07347
G1 X186.096 Y186.492 E.03554
G1 X185.584 Y188.236 E.06906
G1 X184.989 Y189.963 E.06945
G1 X184.677 Y190.774 E.03302
G1 X183.995 Y192.359 E.06559
G1 X183.262 Y193.845 E.06297
G1 X182.858 Y194.588 E.03211
G1 X182.018 Y195.987 E.06205
G1 X181.129 Y197.291 E.05999
G1 X180.641 Y197.943 E.03092
G1 X179.647 Y199.153 E.05953
G1 X178.585 Y200.315 E.05984
G1 X177.479 Y201.426 E.05958
G1 X176.329 Y202.488 E.05949
G1 X175.135 Y203.501 E.05952
G1 X173.896 Y204.465 E.05966
G1 X172.611 Y205.379 E.05992
G1 X171.282 Y206.244 E.06028
G1 X169.908 Y207.061 E.06076
G1 X168.488 Y207.828 E.06134
G1 X167.022 Y208.546 E.06203
G1 X165.511 Y209.215 E.06281
G1 X163.955 Y209.835 E.06369
G1 X162.352 Y210.406 E.06466
G1 X160.703 Y210.927 E.06572
G1 X159.009 Y211.4 E.06686
G1 X157.265 Y211.823 E.0682
G1 X155.479 Y212.211 E.06946
G1 X153.662 Y212.574 E.0704
G1 X151.819 Y212.912 E.07124
G1 X149.948 Y213.226 E.0721
G1 X148.051 Y213.514 E.07293
G1 X145.634 Y213.836 E.09265
G1 X142.191 Y214.228 E.13171
G1 X140.183 Y214.416 E.07664
G1 X138.149 Y214.579 E.07757
G1 X136.087 Y214.717 E.07854
G1 X133.998 Y214.829 E.07951
G1 X131.881 Y214.917 E.08049
G1 X129.738 Y214.98 E.0815
M73 P0 R81
G1 X127.569 Y215.017 E.08246
G1 X120.761 Y215.03 E.25872
G1 X118.563 Y215.017 E.08357
G1 X116.396 Y214.98 E.08237
G1 X114.258 Y214.917 E.08127
G1 X112.151 Y214.829 E.08016
G1 X110.074 Y214.717 E.07907
G1 X108.026 Y214.579 E.07799
G1 X106.009 Y214.416 E.07692
G1 X104.022 Y214.228 E.07586
G1 X102.065 Y214.015 E.07484
G1 X100.137 Y213.777 E.07381
G1 X98.24 Y213.514 E.0728
G1 X96.373 Y213.226 E.07181
G1 X94.535 Y212.913 E.07083
G1 X92.728 Y212.575 E.06989
G1 X90.953 Y212.212 E.06885
G1 X87.394 Y211.398 E.13874
G1 X85.649 Y210.926 E.06872
G1 X83.952 Y210.404 E.06748
G1 X82.305 Y209.833 E.06625
G1 X80.708 Y209.214 E.0651
G1 X79.161 Y208.545 E.06405
G1 X77.665 Y207.827 E.06309
G1 X76.218 Y207.06 E.06223
G1 X74.821 Y206.244 E.06149
G1 X73.519 Y205.408 E.0588
G1 X72.175 Y204.464 E.0624
G1 X70.927 Y203.502 E.05991
G1 X69.727 Y202.489 E.05966
G1 X68.577 Y201.428 E.0595
G1 X67.475 Y200.317 E.05947
G1 X66.42 Y199.154 E.05967
G1 X65.432 Y197.945 E.05933
G1 X64.509 Y196.665 E.05999
G1 X63.64 Y195.298 E.06155
G1 X63.235 Y194.596 E.03083
G1 X62.845 Y193.875 E.03116
G1 X62.105 Y192.363 E.06395
G1 X61.431 Y190.782 E.06534
G1 X60.818 Y189.121 E.06727
G1 X60.273 Y187.397 E.06873
G1 X59.788 Y185.586 E.07126
G1 X59.368 Y183.703 E.07331
G1 X59.013 Y181.745 E.07564
G1 X58.721 Y179.711 E.07808
G1 X58.494 Y177.602 E.08062
G1 X58.332 Y175.418 E.08326
G1 X58.234 Y173.158 E.08596
G1 X58.202 Y170.823 E.08876
G1 X58.22 Y169.426 E.05311
G1 X58.275 Y168.045 E.0525
G1 X58.366 Y166.682 E.05192
G1 X58.493 Y165.337 E.05138
G1 X58.657 Y164.008 E.05088
G1 X58.858 Y162.696 E.05042
G1 X59.094 Y161.402 E.05001
G1 X59.358 Y160.168 E.04798
G1 X59.677 Y158.864 E.05101
G1 X60.023 Y157.621 E.04904
G1 X60.405 Y156.394 E.04883
G1 X60.823 Y155.185 E.04865
G1 X61.278 Y153.992 E.04852
G1 X61.77 Y152.815 E.04845
G1 X62.298 Y151.656 E.04843
G1 X62.862 Y150.513 E.04845
G1 X63.456 Y149.4 E.04796
G1 X64.073 Y148.331 E.0469
G1 X64.714 Y147.307 E.04591
G1 X65.377 Y146.326 E.04498
G1 X66.063 Y145.39 E.04411
G1 X66.771 Y144.497 E.04331
G1 X67.503 Y143.648 E.04259
G1 X68.257 Y142.843 E.04194
G1 X69.034 Y142.081 E.04136
G1 X69.834 Y141.362 E.04087
G1 X70.657 Y140.687 E.04047
G1 X71.503 Y140.053 E.04016
G1 X72.372 Y139.463 E.03994
G1 X73.265 Y138.915 E.03981
G1 X74.18 Y138.409 E.03977
G1 X75.307 Y137.835 E.04805
G1 X75.492 Y137.604 E.01125
