; HEADER_BLOCK_START
; generated by OrcaSlicer 2.1.1 on 2024-10-23 at 11:42:32
; total layer number: 110
; filament_density: 1.24
; filament_diameter: 1.75
; max_z_height: 22.00
; HEADER_BLOCK_END

; THUMBNAIL_BLOCK_START

;
; THUMBNAIL_BLOCK_END

; THUMBNAIL_BLOCK_START

;
; THUMBNAIL_BLOCK_END

; external perimeters extrusion width = 0.42mm
; perimeters extrusion width = 0.45mm
; infill extrusion width = 0.45mm
; solid infill extrusion width = 0.45mm
; top infill extrusion width = 0.42mm
; first layer extrusion width = 0.50mm

; EXECUTABLE_BLOCK_START
EXCLUDE_OBJECT_DEFINE NAME=Corps1.stl_id_0_copy_0 CENTER=115,115 POLYGON=[[63,94.15],[63.0213,93.6887],[63.0851,93.2313],[63.1909,92.7817],[63.3376,92.3438],[63.5242,91.9213],[63.7489,91.5178],[64.0099,91.1368],[64.305,90.7815],[64.6315,90.455],[64.9868,90.1599],[65.3678,89.8989],[65.7713,89.6742],[66.1938,89.4876],[66.6317,89.3409],[67.0813,89.2351],[67.5387,89.1713],[68,89.15],[162,89.15],[162.461,89.1713],[162.919,89.2351],[163.368,89.3409],[163.806,89.4876],[164.229,89.6742],[164.632,89.8989],[165.013,90.1599],[165.368,90.455],[165.695,90.7815],[165.99,91.1368],[166.251,91.5178],[166.476,91.9213],[166.662,92.3438],[166.809,92.7817],[166.915,93.2313],[166.979,93.6887],[167,94.15],[167,135.85],[166.979,136.311],[166.915,136.769],[166.809,137.218],[166.662,137.656],[166.476,138.079],[166.251,138.482],[165.99,138.863],[165.695,139.218],[165.368,139.545],[165.013,139.84],[164.632,140.101],[164.229,140.326],[163.806,140.512],[163.368,140.659],[162.919,140.765],[162.461,140.829],[162,140.85],[68,140.85],[67.5387,140.829],[67.0813,140.765],[66.6317,140.659],[66.1938,140.512],[65.7713,140.326],[65.3678,140.101],[64.9868,139.84],[64.6315,139.545],[64.305,139.218],[64.0099,138.863],[63.7489,138.482],[63.5242,138.079],[63.3376,137.656],[63.1909,137.218],[63.0851,136.769],[63.0213,136.311],[63,135.85],[63,94.15]]
M73 P0 R39
;TYPE:Custom
M220 S100
G90 ; use absolute coordinates
M83 ; extruder relative mode
M104 S150 ; set temporary nozzle temp to prevent oozing during homing
M140 S80 ; set final bed temp
G4 S30 ; allow partial nozzle warmup
G28 ; home all axis and restore leveling
BED_MESH_CALIBRATE PROFILE=adaptive ADAPTIVE=1 ADAPTIVE_MARGIN=0
G1 Z25 F240
G1 X10.0 Y30 F3000
M104 S253 ; set final nozzle temp
M190 S80 ; wait for bed temp to stabilize
M109 S253 ; wait for nozzle temp to stabilize
G1 Z0.28 F240
G92 E0 ; Move Z Axis up
G1 Z2.0 F5000 ; Move to start position
G1 X5 Y30 Z0.28 F300 ; Draw the first line
G1 X5 Y200 Z0.28 F1500 E15 ; Move to side a little
G1 X5.4 Y200 Z0.28 F5000.0 ; Draw the second line
G1 X5.4 Y50 Z0.28 F1500.0 E30 ; Reset Extruder
G92 E0 ; Move Z Axis up
G1 Z2.0 F3000
M117 Start Printing..
G90
G21
M83 ; use relative distances for extrusion
; filament start gcode
M106 S0
;LAYER_CHANGE
;Z:0.2
;HEIGHT:0.2
;BEFORE_LAYER_CHANGE
;0.2
G92 E0

M73 P1 R39
G1 E-1.5 F1800
;_SET_FAN_SPEED_CHANGING_LAYER
SET_VELOCITY_LIMIT ACCEL=1000
SET_VELOCITY_LIMIT SQUARE_CORNER_VELOCITY=7
; printing object Corps1.stl id:0 copy 0
EXCLUDE_OBJECT_START NAME=Corps1.stl_id_0_copy_0
G1 Z.2 F24000
G1 X73.236 Y110.957
G1 Z.2
G1 E1.5 F1800
;TYPE:Inner wall
;WIDTH:0.499999
G1 X73.45 Y110.763 E.00986
G1 X74.11 Y110.355 E.02657
G1 X74.84 Y110.072 E.02677
G1 X75.616 Y109.927 E.02702
G1 X76.505 Y109.907 E.03042
G1 X169.973 Y109.907 E3.19711
G1 X170.779 Y109.982 E.0277
G1 X171.532 Y110.196 E.02677
G1 X172.232 Y110.545 E.02676
G1 X172.856 Y111.017 E.02676
G1 X173.384 Y111.595 E.02676
G1 X173.795 Y112.26 E.02676
G1 X174.078 Y112.99 E.02676
G1 X174.225 Y113.774 E.02731
G1 X174.243 Y114.266 E.01682
G1 X174.243 Y155.817 E1.42127
G1 X174.168 Y156.629 E.02791
G1 X173.954 Y157.382 E.02676
G1 X173.605 Y158.082 E.02676
G1 X173.133 Y158.706 E.02676
G1 X172.555 Y159.234 E.02676
G1 X171.89 Y159.645 E.02676
G1 X171.16 Y159.928 E.02676
G1 X170.666 Y160.02 E.01721
G1 X169.982 Y160.093 E.0235
G1 X76.033 Y160.093 E3.21359
G1 X75.221 Y160.018 E.02791
G1 X74.468 Y159.804 E.02676
G1 X73.768 Y159.455 E.02676
G1 X73.144 Y158.983 E.02676
G1 X72.616 Y158.405 E.02676
G1 X72.205 Y157.74 E.02676
G1 X71.922 Y157.01 E.02676
G1 X71.83 Y156.516 E.01721
G1 X71.757 Y155.832 E.0235
G1 X71.757 Y114.183 E1.42463
G1 X71.832 Y113.371 E.02791
G1 X72.046 Y112.618 E.02676
G1 X72.395 Y111.918 E.02676
G1 X72.866 Y111.294 E.02675
G1 X73.207 Y110.984 E.01573
G1 X72.537 Y110.975 F24000
;TYPE:Outer wall
G1 F1800
G1 X73.173 Y110.397 E.0294
G1 X73.905 Y109.944 E.02946
G1 X74.714 Y109.63 E.02966
G1 X75.569 Y109.471 E.02974
G1 X76.5 Y109.45 E.03187
G1 X169.994 Y109.45 E3.19801
G1 X170.863 Y109.531 E.02987
G1 X171.697 Y109.768 E.02966
G1 X172.474 Y110.155 E.02966
G1 X173.166 Y110.677 E.02966
G1 X173.75 Y111.318 E.02966
G1 X174.206 Y112.055 E.02966
G1 X174.52 Y112.864 E.02966
G1 X174.68 Y113.722 E.02984
G1 X174.7 Y114.266 E.01863
G1 X174.7 Y155.838 E1.42199
G1 X174.619 Y156.713 E.03008
G1 X174.382 Y157.547 E.02966
G1 X173.995 Y158.324 E.02966
G1 X173.473 Y159.016 E.02966
G1 X172.832 Y159.6 E.02966
G1 X172.095 Y160.056 E.02966
G1 X171.286 Y160.37 E.02966
G1 X170.428 Y160.53 E.02984
G1 X169.993 Y160.55 E.01491
G1 X76.012 Y160.55 E3.21467
G1 X75.137 Y160.469 E.03008
G1 X74.303 Y160.232 E.02966
G1 X73.526 Y159.845 E.02966
G1 X72.834 Y159.323 E.02966
G1 X72.25 Y158.682 E.02966
G1 X71.794 Y157.945 E.02966
G1 X71.48 Y157.136 E.02966
G1 X71.32 Y156.278 E.02984
G1 X71.3 Y155.843 E.01491
G1 X71.3 Y114.162 E1.42572
G1 X71.381 Y113.287 E.03008
M73 P2 R38
G1 X71.618 Y112.453 E.02966
G1 X72.005 Y111.676 E.02966
G1 X72.511 Y111.006 E.02875
G1 E-1.5
;WIPE_START
G1 F12000
G1 X73.173 Y110.397
G1 X73.905 Y109.944
G1 X74.129 Y109.857
;WIPE_END
G1 Z.4 F24000
G1 X87.4 Y155.407 Z.4
G1 Z.2
G1 E1.5 F1800
;TYPE:Inner wall
G1 X87.255 Y155.169 E.00954
G1 X87.218 Y154.946 E.00771
G1 X87.218 Y115.054 E1.36456
G1 X87.255 Y114.831 E.00771
G1 X87.407 Y114.581 E.01002
G1 X87.712 Y114.395 E.01219
G1 X87.904 Y114.368 E.00663
G1 X158.096 Y114.368 E2.40099
G1 X158.288 Y114.395 E.00663
G1 X158.593 Y114.581 E.01219
G1 X158.687 Y114.705 E.00535
G1 X158.782 Y114.971 E.00965
G1 X158.782 Y154.946 E1.36738
G1 X158.745 Y155.169 E.00771
G1 X158.593 Y155.419 E.01002
G1 X158.288 Y155.605 E.01219
G1 X158.096 Y155.632 E.00663
G1 X87.904 Y155.632 E2.40099
G1 X87.712 Y155.605 E.00663
G1 X87.429 Y155.433 E.01131
G1 X87.904 Y155.175 F24000
;TYPE:Outer wall
G1 F1800
G1 X87.738 Y155.104 E.00616
G1 X87.675 Y154.946 E.00581
G1 X87.675 Y115.054 E1.36456
G1 X87.738 Y114.896 E.00581
G1 X87.904 Y114.825 E.00616
G1 X158.096 Y114.825 E2.40099
G1 X158.262 Y114.896 E.00616
G1 X158.325 Y115.054 E.00581
G1 X158.325 Y154.946 E1.36456
G1 X158.262 Y155.104 E.00581
G1 X158.096 Y155.175 E.00616
G1 X87.944 Y155.175 E2.39963
G1 E-1.5
;WIPE_START
G1 F12000
G1 X87.738 Y155.104
G1 X87.675 Y154.946
G1 X87.675 Y153.334
;WIPE_END
G1 Z.4 F24000
G1 X171.872 Y110.519
G1 Z.4
G1 Z.2
G1 E1.5 F1800
;TYPE:Bottom surface
;WIDTH:0.501932
G1 F3600
G1 X172.629 Y111.276 E.03675
G1 X173.109 Y111.802 E.02448
G1 X173.487 Y112.414 E.02469
G1 X173.721 Y113.017 E.02224
G1 X171.147 Y110.443 E.12503
G1 X170.716 Y110.321 E.01541
G1 X170.341 Y110.286 E.01294
G1 X173.884 Y113.829 E.17214
G1 X173.9 Y114.495 E.02285
G1 X169.656 Y110.25 E.20619
G1 X169.007 Y110.25 E.0223
G1 X173.9 Y115.144 E.23772
G1 X173.9 Y115.793 E.0223
G1 X168.357 Y110.25 E.26926
G1 X167.708 Y110.25 E.0223
G1 X173.9 Y116.442 E.30079
G1 X173.9 Y117.091 E.0223
G1 X167.059 Y110.25 E.33232
G1 X166.41 Y110.25 E.0223
G1 X173.9 Y117.74 E.36386
G1 X173.9 Y118.389 E.0223
G1 X165.761 Y110.25 E.39539
G1 X165.112 Y110.25 E.0223
G1 X173.9 Y119.039 E.42693
G1 X173.9 Y119.688 E.0223
G1 X164.463 Y110.25 E.45846
G1 X163.813 Y110.25 E.0223
G1 X173.9 Y120.337 E.49
G1 X173.9 Y120.986 E.0223
G1 X163.164 Y110.25 E.52153
G1 X162.515 Y110.25 E.0223
G1 X173.9 Y121.635 E.55307
G1 X173.9 Y122.284 E.0223
G1 X161.866 Y110.25 E.5846
G1 X161.217 Y110.25 E.0223
G1 X173.9 Y122.933 E.61614
G1 X173.9 Y123.583 E.0223
G1 X160.568 Y110.25 E.64767
G1 X159.919 Y110.25 E.0223
G1 X173.9 Y124.232 E.6792
G1 X173.9 Y124.881 E.0223
G1 X159.269 Y110.25 E.71074
G1 X158.62 Y110.25 E.0223
G1 X173.9 Y125.53 E.74227
G1 X173.9 Y126.179 E.0223
G1 X157.971 Y110.25 E.77381
G1 X157.322 Y110.25 E.0223
G1 X173.9 Y126.828 E.80534
G1 X173.9 Y127.477 E.0223
M73 P3 R38
G1 X156.673 Y110.25 E.83688
G1 X156.024 Y110.25 E.0223
G1 X173.9 Y128.127 E.86841
G1 X173.9 Y128.776 E.0223
G1 X155.375 Y110.25 E.89995
G1 X154.725 Y110.25 E.0223
G1 X173.9 Y129.425 E.93148
G1 X173.9 Y130.074 E.0223
G1 X159.125 Y115.299 E.71776
G1 X159.125 Y115.948 E.0223
G1 X173.9 Y130.723 E.71776
G1 X173.9 Y131.372 E.0223
G1 X159.125 Y116.597 E.71776
G1 X159.125 Y117.246 E.0223
G1 X173.9 Y132.021 E.71776
G1 X173.9 Y132.671 E.0223
G1 X159.125 Y117.895 E.71776
G1 X159.125 Y118.544 E.0223
G1 X173.9 Y133.32 E.71776
G1 X173.9 Y133.969 E.0223
G1 X159.125 Y119.194 E.71776
G1 X159.125 Y119.843 E.0223
G1 X173.9 Y134.618 E.71776
G1 X173.9 Y135.267 E.0223
G1 X159.125 Y120.492 E.71776
G1 X159.125 Y121.141 E.0223
G1 X173.9 Y135.916 E.71776
G1 X173.9 Y136.565 E.0223
G1 X159.125 Y121.79 E.71776
G1 X159.125 Y122.439 E.0223
G1 X173.9 Y137.214 E.71776
G1 X173.9 Y137.864 E.0223
G1 X159.125 Y123.088 E.71776
G1 X159.125 Y123.738 E.0223
G1 X173.9 Y138.513 E.71776
G1 X173.9 Y139.162 E.0223
G1 X159.125 Y124.387 E.71776
G1 X159.125 Y125.036 E.0223
G1 X173.9 Y139.811 E.71776
G1 X173.9 Y140.46 E.0223
G1 X159.125 Y125.685 E.71776
G1 X159.125 Y126.334 E.0223
G1 X173.9 Y141.109 E.71776
G1 X173.9 Y141.758 E.0223
G1 X159.125 Y126.983 E.71776
G1 X159.125 Y127.632 E.0223
G1 X173.9 Y142.408 E.71776
G1 X173.9 Y143.057 E.0223
G1 X159.125 Y128.282 E.71776
G1 X159.125 Y128.931 E.0223
G1 X173.9 Y143.706 E.71776
G1 X173.9 Y144.355 E.0223
G1 X159.125 Y129.58 E.71776
G1 X159.125 Y130.229 E.0223
G1 X173.9 Y145.004 E.71776
G1 X173.9 Y145.653 E.0223
G1 X159.125 Y130.878 E.71776
G1 X159.125 Y131.527 E.0223
G1 X173.9 Y146.302 E.71776
G1 X173.9 Y146.952 E.0223
G1 X159.125 Y132.176 E.71776
G1 X159.125 Y132.826 E.0223
G1 X173.9 Y147.601 E.71776
G1 X173.9 Y148.25 E.0223
G1 X159.125 Y133.475 E.71776
G1 X159.125 Y134.124 E.0223
G1 X173.9 Y148.899 E.71776
G1 X173.9 Y149.548 E.0223
G1 X159.125 Y134.773 E.71776
G1 X159.125 Y135.422 E.0223
G1 X173.9 Y150.197 E.71776
G1 X173.9 Y150.846 E.0223
G1 X159.125 Y136.071 E.71776
G1 X159.125 Y136.72 E.0223
G1 X173.9 Y151.496 E.71776
G1 X173.9 Y152.145 E.0223
G1 X159.125 Y137.37 E.71776
G1 X159.125 Y138.019 E.0223
G1 X173.9 Y152.794 E.71776
G1 X173.9 Y153.443 E.0223
G1 X159.125 Y138.668 E.71776
G1 X159.125 Y139.317 E.0223
G1 X173.9 Y154.092 E.71776
G1 X173.9 Y154.741 E.0223
G1 X159.125 Y139.966 E.71776
G1 X159.125 Y140.615 E.0223
G1 X173.9 Y155.39 E.71776
G1 X173.9 Y155.801 E.0141
G1 X173.88 Y156.019 E.00754
G1 X159.125 Y141.264 E.71678
G1 X159.125 Y141.914 E.0223
G1 X173.818 Y156.606 E.71376
G1 X173.674 Y157.112 E.01805
G1 X159.125 Y142.563 E.70678
G1 X159.125 Y143.212 E.0223
G1 X173.479 Y157.566 E.6973
G1 X173.312 Y157.901 E.01285
G1 X173.249 Y157.985 E.00362
G1 X159.125 Y143.861 E.68612
G1 X159.125 Y144.51 E.0223
G1 X172.969 Y158.355 E.67255
G1 X172.879 Y158.474 E.00516
G1 X172.649 Y158.684 E.01067
G1 X159.125 Y145.159 E.657
G1 X159.125 Y145.808 E.0223
G1 X172.303 Y158.986 E.64017
G1 X171.902 Y159.235 E.0162
G1 X159.125 Y146.457 E.6207
G1 X159.125 Y147.107 E.0223
G1 X171.462 Y159.444 E.59931
G1 X171.066 Y159.597 E.01458
G1 X170.982 Y159.613 E.00295
G1 X159.125 Y147.756 E.57599
G1 X159.125 Y148.405 E.0223
G1 X170.435 Y159.715 E.54942
G1 X170.336 Y159.733 E.00346
M73 P4 R38
G1 X169.821 Y159.75 E.0177
G1 X159.125 Y149.054 E.5196
G1 X159.125 Y149.703 E.0223
G1 X169.172 Y159.75 E.48807
G1 X168.523 Y159.75 E.0223
G1 X159.125 Y150.352 E.45653
G1 X159.125 Y151.001 E.0223
G1 X167.874 Y159.75 E.425
G1 X167.224 Y159.75 E.0223
G1 X159.125 Y151.651 E.39346
G1 X159.125 Y152.3 E.0223
G1 X166.575 Y159.75 E.36193
G1 X165.926 Y159.75 E.0223
G1 X159.125 Y152.949 E.33039
G1 X159.125 Y153.598 E.0223
G1 X165.277 Y159.75 E.29886
G1 X164.628 Y159.75 E.0223
G1 X159.125 Y154.247 E.26732
G1 X159.125 Y154.896 E.0223
G1 X163.979 Y159.75 E.23579
G1 X163.33 Y159.75 E.0223
G1 X159.004 Y155.424 E.21015
G1 X158.841 Y155.657 E.00974
G1 X158.701 Y155.771 E.00621
G1 X162.68 Y159.75 E.19331
G1 X162.031 Y159.75 E.0223
G1 X158.237 Y155.956 E.18431
G1 X158.105 Y155.975 E.0046
G1 X157.607 Y155.975 E.0171
G1 X161.382 Y159.75 E.1834
G1 X160.733 Y159.75 E.0223
G1 X156.958 Y155.975 E.1834
G1 X156.309 Y155.975 E.0223
G1 X160.084 Y159.75 E.1834
G1 X159.435 Y159.75 E.0223
G1 X155.659 Y155.975 E.1834
G1 X155.01 Y155.975 E.0223
G1 X158.786 Y159.75 E.1834
G1 X158.136 Y159.75 E.0223
G1 X154.361 Y155.975 E.1834
G1 X153.712 Y155.975 E.0223
G1 X157.487 Y159.75 E.1834
G1 X156.838 Y159.75 E.0223
G1 X153.063 Y155.975 E.1834
G1 X152.414 Y155.975 E.0223
G1 X156.189 Y159.75 E.1834
G1 X155.54 Y159.75 E.0223
G1 X151.765 Y155.975 E.1834
G1 X151.115 Y155.975 E.0223
G1 X154.891 Y159.75 E.1834
G1 X154.242 Y159.75 E.0223
G1 X150.466 Y155.975 E.1834
G1 X149.817 Y155.975 E.0223
G1 X153.592 Y159.75 E.1834
G1 X152.943 Y159.75 E.0223
G1 X149.168 Y155.975 E.1834
G1 X148.519 Y155.975 E.0223
G1 X152.294 Y159.75 E.1834
G1 X151.645 Y159.75 E.0223
G1 X147.87 Y155.975 E.1834
G1 X147.221 Y155.975 E.0223
G1 X150.996 Y159.75 E.1834
G1 X150.347 Y159.75 E.0223
G1 X146.571 Y155.975 E.1834
G1 X145.922 Y155.975 E.0223
G1 X149.698 Y159.75 E.1834
G1 X149.048 Y159.75 E.0223
G1 X145.273 Y155.975 E.1834
G1 X144.624 Y155.975 E.0223
G1 X148.399 Y159.75 E.1834
G1 X147.75 Y159.75 E.0223
G1 X143.975 Y155.975 E.1834
G1 X143.326 Y155.975 E.0223
G1 X147.101 Y159.75 E.1834
G1 X146.452 Y159.75 E.0223
G1 X142.677 Y155.975 E.1834
G1 X142.028 Y155.975 E.0223
G1 X145.803 Y159.75 E.1834
G1 X145.154 Y159.75 E.0223
G1 X141.378 Y155.975 E.1834
G1 X140.729 Y155.975 E.0223
G1 X144.504 Y159.75 E.1834
G1 X143.855 Y159.75 E.0223
G1 X140.08 Y155.975 E.1834
G1 X139.431 Y155.975 E.0223
G1 X143.206 Y159.75 E.1834
G1 X142.557 Y159.75 E.0223
G1 X138.782 Y155.975 E.1834
G1 X138.133 Y155.975 E.0223
G1 X141.908 Y159.75 E.1834
G1 X141.259 Y159.75 E.0223
G1 X137.484 Y155.975 E.1834
G1 X136.834 Y155.975 E.0223
G1 X140.61 Y159.75 E.1834
G1 X139.96 Y159.75 E.0223
G1 X136.185 Y155.975 E.1834
G1 X135.536 Y155.975 E.0223
G1 X139.311 Y159.75 E.1834
G1 X138.662 Y159.75 E.0223
G1 X134.887 Y155.975 E.1834
G1 X134.238 Y155.975 E.0223
G1 X138.013 Y159.75 E.1834
G1 X137.364 Y159.75 E.0223
G1 X133.589 Y155.975 E.1834
G1 X132.94 Y155.975 E.0223
G1 X136.715 Y159.75 E.1834
G1 X136.066 Y159.75 E.0223
G1 X132.29 Y155.975 E.1834
G1 X131.641 Y155.975 E.0223
G1 X135.416 Y159.75 E.1834
G1 X134.767 Y159.75 E.0223
G1 X130.992 Y155.975 E.1834
G1 X130.343 Y155.975 E.0223
G1 X134.118 Y159.75 E.1834
G1 X133.469 Y159.75 E.0223
G1 X129.694 Y155.975 E.1834
G1 X129.045 Y155.975 E.0223
G1 X132.82 Y159.75 E.1834
G1 X132.171 Y159.75 E.0223
G1 X128.396 Y155.975 E.1834
G1 X127.746 Y155.975 E.0223
G1 X131.522 Y159.75 E.1834
G1 X130.872 Y159.75 E.0223
G1 X127.097 Y155.975 E.1834
G1 X126.448 Y155.975 E.0223
G1 X130.223 Y159.75 E.1834
G1 X129.574 Y159.75 E.0223
G1 X125.799 Y155.975 E.1834
G1 X125.15 Y155.975 E.0223
G1 X128.925 Y159.75 E.1834
G1 X128.276 Y159.75 E.0223
G1 X124.501 Y155.975 E.1834
G1 X123.852 Y155.975 E.0223
G1 X127.627 Y159.75 E.1834
G1 X126.978 Y159.75 E.0223
M73 P4 R37
G1 X123.202 Y155.975 E.1834
G1 X122.553 Y155.975 E.0223
G1 X126.329 Y159.75 E.1834
G1 X125.679 Y159.75 E.0223
G1 X121.904 Y155.975 E.1834
G1 X121.255 Y155.975 E.0223
G1 X125.03 Y159.75 E.1834
G1 X124.381 Y159.75 E.0223
G1 X120.606 Y155.975 E.1834
G1 X119.957 Y155.975 E.0223
G1 X123.732 Y159.75 E.1834
G1 X123.083 Y159.75 E.0223
G1 X119.308 Y155.975 E.1834
G1 X118.658 Y155.975 E.0223
G1 X122.434 Y159.75 E.1834
G1 X121.785 Y159.75 E.0223
G1 X118.009 Y155.975 E.1834
G1 X117.36 Y155.975 E.0223
G1 X121.135 Y159.75 E.1834
G1 X120.486 Y159.75 E.0223
G1 X116.711 Y155.975 E.1834
G1 X116.062 Y155.975 E.0223
G1 X119.837 Y159.75 E.1834
G1 X119.188 Y159.75 E.0223
G1 X115.413 Y155.975 E.1834
G1 X114.764 Y155.975 E.0223
G1 X118.539 Y159.75 E.1834
G1 X117.89 Y159.75 E.0223
G1 X114.114 Y155.975 E.1834
G1 X113.465 Y155.975 E.0223
G1 X117.241 Y159.75 E.1834
