; HEADER_BLOCK_START
; generated by OrcaSlicer 2.0.0 on 2024-05-26 at 15:07:19
; total layer number: 50
; filament_density: 1.27
; filament_diameter: 1.75
; max_z_height: 10.00
; HEADER_BLOCK_END

; THUMBNAIL_BLOCK_START

;
; THUMBNAIL_BLOCK_END

; THUMBNAIL_BLOCK_START

;
; THUMBNAIL_BLOCK_END

; external perimeters extrusion width = 0.40mm
; perimeters extrusion width = 0.42mm
; infill extrusion width = 0.45mm
; solid infill extrusion width = 0.42mm
; top infill extrusion width = 0.40mm
; first layer extrusion width = 0.50mm

; EXECUTABLE_BLOCK_START
EXCLUDE_OBJECT_DEFINE NAME=Corps1.stl_id_0_copy_0 CENTER=115,115 POLYGON=[[92,114.96],[92.0124,114.409],[92.0465,113.86],[92.1021,113.312],[92.1793,112.766],[92.2778,112.225],[92.3976,111.687],[92.5384,111.155],[92.7001,110.628],[92.8823,110.108],[93.0848,109.596],[93.3074,109.092],[93.5495,108.598],[93.811,108.113],[94.0913,107.639],[94.39,107.176],[94.7067,106.726],[95.0408,106.288],[95.392,105.864],[95.7595,105.454],[96.1429,105.058],[96.5416,104.678],[96.9548,104.314],[97.3821,103.967],[97.8227,103.636],[98.276,103.323],[98.7412,103.029],[99.2177,102.752],[99.7046,102.495],[100.201,102.257],[100.707,102.039],[101.221,101.841],[101.742,101.663],[102.27,101.506],[102.804,101.37],[103.342,101.254],[103.885,101.161],[104.431,101.088],[104.979,101.037],[105.529,101.008],[106.08,101],[106.63,101.014],[107.18,101.05],[107.728,101.107],[108.273,101.186],[108.814,101.286],[109.352,101.407],[109.884,101.549],[137.282,109.04],[137.415,109.09],[137.541,109.159],[137.655,109.244],[137.756,109.345],[137.841,109.459],[137.91,109.584],[137.959,109.718],[137.99,109.858],[138,110],[138,128],[137.99,128.142],[137.959,128.282],[137.91,128.415],[137.841,128.541],[137.756,128.655],[137.655,128.756],[137.541,128.841],[137.415,128.91],[137.282,128.959],[137.142,128.99],[137,129],[106,129],[105.449,128.989],[104.9,128.957],[104.351,128.902],[103.806,128.827],[103.264,128.73],[102.726,128.612],[102.193,128.472],[101.666,128.312],[101.146,128.131],[100.633,127.93],[100.129,127.709],[99.6334,127.469],[99.148,127.208],[98.6731,126.93],[98.2095,126.632],[97.7581,126.317],[97.3193,125.984],[96.894,125.634],[96.4828,125.268],[96.0864,124.885],[95.7052,124.488],[95.34,124.075],[94.9913,123.649],[94.6597,123.209],[94.3456,122.757],[94.0495,122.293],[93.7719,121.817],[93.5132,121.331],[93.2739,120.835],[93.0542,120.33],[92.8546,119.816],[92.6753,119.296],[92.5167,118.768],[92.3789,118.235],[92.2622,117.697],[92.1668,117.154],[92.0927,116.609],[92.0402,116.061],[92.0093,115.511],[92,114.96]]
M73 P0 R12
;TYPE:Custom
M220 S100
G90 ; use absolute coordinates
M83 ; extruder relative mode
M104 S150 ; set temporary nozzle temp to prevent oozing during homing
M140 S70 ; set final bed temp
G4 S30 ; allow partial nozzle warmup
G28 ; home all axis and restore leveling
G1 Z25 F240
G1 X10.0 Y30 F3000
M104 S245 ; set final nozzle temp
M190 S70 ; wait for bed temp to stabilize
M109 S245 ; wait for nozzle temp to stabilize
M73 P0 R11
G1 Z0.28 F240
G92 E0 ; Move Z Axis up
G1 Z2.0 F5000 ; Move to start position
M73 P1 R11
G1 X5 Y30 Z0.28 F300 ; Draw the first line
G1 X5 Y200 Z0.28 F1500 E15 ; Move to side a little
G1 X5.4 Y200 Z0.28 F5000.0 ; Draw the second line
M73 P2 R11
G1 X5.4 Y50 Z0.28 F1500.0 E30 ; Reset Extruder
G92 E0 ; Move Z Axis up
G1 Z2.0 F3000
M117 Start Printing..
G90
G21
M83 ; use relative distances for extrusion
; filament start gcode
M106 S0
;LAYER_CHANGE
;Z:0.2
;HEIGHT:0.2
;BEFORE_LAYER_CHANGE
;0.2
G92 E0

M73 P3 R11
G1 E-.5 F2400
;_SET_FAN_SPEED_CHANGING_LAYER
SET_VELOCITY_LIMIT ACCEL=500 ACCEL_TO_DECEL=250
SET_VELOCITY_LIMIT SQUARE_CORNER_VELOCITY=7
; printing object Corps1.stl id:0 copy 0
EXCLUDE_OBJECT_START NAME=Corps1.stl_id_0_copy_0
G1 Z.2 F18000
G1 X143.613 Y132.706
G1 Z.2
G1 E.5 F2400
;TYPE:Inner wall
;WIDTH:0.499999
G1 F1800
G1 X143.574 Y132.587 E.00452
G1 X142.371 Y130.948 E.07343
G1 X141.94 Y130.304 E.02798
G1 X141.639 Y129.785 E.02166
G1 X142.23 Y129.72 E.02146
G1 X144.882 Y129.708 E.09576
G1 X145.114 Y129.748 E.00849
G1 X145.239 Y129.873 E.00639
G1 X145.293 Y130.075 E.00754
G1 X145.293 Y148.036 E.6485
G1 X145.162 Y148.216 E.00802
M73 P4 R11
G1 X144.925 Y148.293 E.009
G1 X114.014 Y148.293 E1.11608
G1 X112.955 Y148.251 E.03826
G1 X111.917 Y148.128 E.03775
G1 X110.891 Y147.924 E.03775
G1 X109.885 Y147.639 E.03775
G1 X108.904 Y147.277 E.03775
G1 X107.955 Y146.838 E.03775
G1 X107.043 Y146.327 E.03775
G1 X106.175 Y145.745 E.03775
G1 X105.354 Y145.096 E.03775
G1 X104.587 Y144.386 E.03775
G1 X103.879 Y143.617 E.03775
G1 X103.233 Y142.795 E.03775
G1 X102.653 Y141.924 E.03775
G1 X102.144 Y141.011 E.03775
G1 X101.709 Y140.06 E.03775
G1 X101.349 Y139.079 E.03775
G1 X101.067 Y138.072 E.03775
G1 X100.866 Y137.046 E.03775
G1 X100.746 Y136.007 E.03775
G1 X100.708 Y134.962 E.03775
G1 X100.752 Y133.917 E.03775
G1 X100.878 Y132.879 E.03775
G1 X101.085 Y131.854 E.03775
G1 X101.372 Y130.849 E.03775
G1 X101.74 Y129.863 E.038
G1 X101.946 Y129.397 E.01838
G1 X102.427 Y128.461 E.03801
G1 X102.977 Y127.572 E.03775
G1 X103.595 Y126.728 E.03775
G1 X104.277 Y125.936 E.03776
G1 X105.02 Y125.2 E.03775
G1 X105.818 Y124.524 E.03775
G1 X106.666 Y123.914 E.03775
G1 X107.561 Y123.371 E.03775
G1 X108.494 Y122.901 E.03775
G1 X109.462 Y122.506 E.03775
G1 X110.458 Y122.188 E.03775
G1 X111.476 Y121.949 E.03775
G1 X112.51 Y121.791 E.03775
G1 X113.553 Y121.715 E.03775
G1 X114.598 Y121.721 E.03775
G1 X115.647 Y121.81 E.038
G1 X116.158 Y121.883 E.01862
G1 X116.671 Y121.978 E.01883
G1 X117.694 Y122.231 E.03806
G1 X118.185 Y122.383 E.01858
G1 X119.172 Y122.755 E.03806
G1 X119.637 Y122.962 E.01838
G1 X120.572 Y123.446 E.038
G1 X121.465 Y124.002 E.03801
G1 X121.887 Y124.299 E.01862
G1 X122.3 Y124.617 E.01883
G1 X123.091 Y125.303 E.03781
G1 X123.83 Y126.052 E.038
G1 X124.166 Y126.435 E.01838
G1 X124.811 Y127.267 E.038
G1 X125.386 Y128.14 E.03775
G1 X125.89 Y129.057 E.03776
G1 X126.323 Y130.016 E.038
G1 X126.505 Y130.491 E.01838
G1 X126.822 Y131.495 E.038
G1 X127.059 Y132.52 E.038
G1 X127.145 Y133.022 E.01838
G1 X127.26 Y134.075 E.03826
G1 X127.292 Y135.107 E.03725
G1 X127.242 Y136.158 E.038
G1 X127.109 Y137.202 E.038
G1 X127.014 Y137.709 E.01863
G1 X126.899 Y138.212 E.01863
G1 X126.604 Y139.223 E.038
G1 X126.23 Y140.207 E.038
G1 X126.012 Y140.693 E.01925
G1 X125.953 Y140.945 E.00934
G1 X125.92 Y141.97 E.03704
G1 X126.026 Y142.699 E.02658
G1 X126.207 Y143.334 E.02385
G1 X126.506 Y144.004 E.0265
G1 X126.853 Y144.569 E.02392
G1 X127.296 Y145.109 E.02522
G1 X127.809 Y145.582 E.02522
G1 X128.383 Y145.982 E.02522
G1 X129.005 Y146.299 E.02522
G1 X129.665 Y146.527 E.02522
G1 X130.35 Y146.664 E.02522
G1 X130.999 Y146.707 E.0235
G1 X136.021 Y146.707 E.18131
G1 X136.884 Y146.656 E.03123
G1 X137.722 Y146.513 E.03067
G1 X138.555 Y146.274 E.03129
G1 X139.671 Y145.79 E.04393
G1 X140.741 Y145.101 E.04596
G1 X141.685 Y144.247 E.04596
G1 X142.472 Y143.256 E.0457
G1 X142.928 Y142.477 E.03255
G1 X143.271 Y141.71 E.03035
G1 X143.532 Y140.902 E.03067
G1 X143.707 Y140.002 E.0331
G1 X143.707 Y132.993 E.25308
G1 X143.626 Y132.744 E.00945
G1 X143.209 Y132.867 F18000
;TYPE:Outer wall
G1 F1800
G1 X143.206 Y132.858 E.00035
G1 X141.982 Y131.188 E.07473
G1 X141.37 Y130.265 E.04
G1 X141.049 Y129.578 E.02738
G1 X141.087 Y129.466 E.00425
G1 X141.288 Y129.363 E.00815
G1 X142.204 Y129.263 E.03328
G1 X144.88 Y129.25 E.09662
G1 X145.309 Y129.323 E.0157
G1 X145.565 Y129.516 E.01157
G1 X145.719 Y129.802 E.01174
G1 X145.75 Y130.075 E.00994
G1 X145.75 Y147.881 E.64289
G1 X145.717 Y148.207 E.01183
G1 X145.563 Y148.487 E.01155
G1 X145.309 Y148.677 E.01146
G1 X144.974 Y148.75 E.01237
G1 X114.005 Y148.75 E1.11817
G1 X112.919 Y148.707 E.03923
G1 X111.845 Y148.58 E.03905
G1 X110.784 Y148.368 E.03905
G1 X109.744 Y148.074 E.03905
G1 X108.729 Y147.699 E.03905
G1 X107.747 Y147.246 E.03905
G1 X106.804 Y146.716 E.03905
G1 X105.905 Y146.114 E.03905
G1 X105.057 Y145.444 E.03905
M73 P5 R11
G1 X104.264 Y144.709 E.03905
G1 X103.531 Y143.913 E.03905
G1 X102.862 Y143.063 E.03905
G1 X102.263 Y142.162 E.03905
G1 X101.736 Y141.218 E.03905
G1 X101.286 Y140.235 E.03905
G1 X100.913 Y139.219 E.03905
G1 X100.622 Y138.177 E.03905
G1 X100.414 Y137.116 E.03905
G1 X100.29 Y136.042 E.03905
G1 X100.25 Y134.961 E.03905
G1 X100.296 Y133.88 E.03905
G1 X100.426 Y132.806 E.03905
G1 X100.641 Y131.746 E.03905
G1 X100.938 Y130.706 E.03905
G1 X101.316 Y129.691 E.03914
G1 X101.533 Y129.2 E.01935
G1 X102.029 Y128.236 E.03914
G1 X102.597 Y127.316 E.03905
G1 X103.237 Y126.444 E.03905
G1 X103.943 Y125.624 E.03905
G1 X104.711 Y124.863 E.03905
G1 X105.536 Y124.164 E.03905
G1 X106.414 Y123.532 E.03905
G1 X107.339 Y122.971 E.03905
G1 X108.305 Y122.485 E.03905
G1 X109.306 Y122.076 E.03905
G1 X110.337 Y121.747 E.03905
G1 X111.39 Y121.5 E.03905
G1 X112.459 Y121.337 E.03905
G1 X113.538 Y121.258 E.03905
G1 X114.619 Y121.264 E.03905
G1 X115.699 Y121.355 E.03914
G1 X116.232 Y121.432 E.01944
G1 X116.767 Y121.531 E.01964
G1 X117.817 Y121.79 E.03903
G1 X118.334 Y121.951 E.01955
G1 X119.345 Y122.332 E.03903
G1 X119.835 Y122.55 E.01935
G1 X120.798 Y123.048 E.03914
G1 X121.718 Y123.621 E.03914
G1 X122.158 Y123.931 E.01944
G1 X122.589 Y124.263 E.01964
G1 X123.404 Y124.969 E.03895
G1 X124.165 Y125.741 E.03914
G1 X124.519 Y126.144 E.01935
G1 X125.183 Y127.001 E.03914
G1 X125.778 Y127.904 E.03905
G1 X126.299 Y128.852 E.03905
G1 X126.758 Y129.875 E.04047
G1 X127.014 Y130.587 E.02734
G1 X127.349 Y131.745 E.04353
G1 X127.514 Y132.467 E.02672
G1 X127.602 Y132.996 E.01935
G1 X127.718 Y134.076 E.03923
G1 X127.744 Y134.601 E.019
G1 X127.748 Y135.152 E.01989
G1 X127.691 Y136.247 E.03957
G1 X127.554 Y137.31 E.03869
G1 X127.456 Y137.826 E.019
G1 X127.307 Y138.446 E.02301
G1 X126.937 Y139.634 E.04492
G1 X126.409 Y140.964 E.05167
G1 X126.373 Y141.911 E.03422
G1 X126.467 Y142.578 E.02432
G1 X126.627 Y143.154 E.02159
G1 X126.898 Y143.769 E.02424
G1 X127.209 Y144.282 E.02166
G1 X127.609 Y144.776 E.02296
G1 X128.074 Y145.21 E.02296
G1 X128.594 Y145.576 E.02296
G1 X129.159 Y145.868 E.02296
G1 X129.758 Y146.08 E.02296
G1 X130.381 Y146.208 E.02296
G1 X130.999 Y146.25 E.02237
G1 X136.007 Y146.25 E.18081
G1 X136.81 Y146.205 E.02904
G1 X137.599 Y146.073 E.02887
G1 X138.373 Y145.855 E.02905
G1 X139.455 Y145.386 E.04258
G1 X140.462 Y144.737 E.04326
G1 X141.35 Y143.933 E.04325
G1 X142.094 Y142.997 E.04316
G1 X142.511 Y142.289 E.02968
G1 X142.837 Y141.568 E.02856
G1 X143.085 Y140.808 E.02887
G1 X143.25 Y140.002 E.02969
G1 X143.25 Y132.993 E.25308
G1 X143.221 Y132.905 E.00334
G1 E-.35 F2400
;WIPE_START
G1 F1800
G1 X143.206 Y132.858 E-.00747
G1 X142.644 Y132.091 E-.14253
;WIPE_END
G1 Z.4 F18000
G1 X120.372 Y125.185 Z.4
G1 Z.2
G1 E.5 F2400
;TYPE:Inner wall
G1 F1800
G1 X120.955 Y125.592 E.02568
G1 X121.926 Y126.385 E.04525
G1 X123.037 Y127.558 E.05832
G1 X123.528 Y128.209 E.02946
G1 X124.026 Y128.974 E.03293
G1 X124.464 Y129.773 E.03291
G1 X124.844 Y130.618 E.03345
G1 X125.049 Y131.131 E.01994
G1 X125.29 Y131.933 E.03023
G1 X125.495 Y132.836 E.03347
G1 X125.678 Y134.188 E.04922
G1 X125.682 Y135.736 E.05592
G1 X125.569 Y136.788 E.0382
G1 X125.349 Y137.87 E.03986
G1 X125.069 Y138.811 E.03545
G1 X124.468 Y140.239 E.05592
G1 X123.956 Y141.158 E.03801
G1 X123.416 Y141.95 E.03459
G1 X122.355 Y143.198 E.05916
G1 X121.581 Y143.92 E.0382
G1 X120.757 Y144.559 E.03766
G1 X119.88 Y145.123 E.03766
G1 X118.955 Y145.606 E.03766
G1 X117.992 Y146.005 E.03766
G1 X116.961 Y146.328 E.03901
G1 X115.476 Y146.612 E.05458
G1 X114.422 Y146.699 E.0382
G1 X113.379 Y146.69 E.03766
G1 X112.341 Y146.588 E.03766
G1 X110.752 Y146.247 E.05867
G1 X109.826 Y145.937 E.03526
G1 X108.865 Y145.52 E.03784
G1 X107.948 Y145.021 E.03767
G1 X107.083 Y144.444 E.03753
G1 X106.372 Y143.873 E.03294
G1 X105.706 Y143.25 E.03293
G1 X105.111 Y142.583 E.03227
G1 X104.526 Y141.875 E.03316
G1 X103.997 Y141.075 E.03463
G1 X103.558 Y140.275 E.03293
G1 X103.2 Y139.457 E.03227
G1 X102.873 Y138.636 E.0319
G1 X102.606 Y137.678 E.03589
G1 X102.437 Y136.782 E.03295
G1 X102.335 Y135.876 E.03292
G1 X102.304 Y134.964 E.03292
G1 X102.307 Y134.448 E.01864
G1 X102.394 Y133.47 E.03546
G1 X102.647 Y132.203 E.04663
G1 X102.89 Y131.343 E.03227
G1 X103.214 Y130.475 E.03345
G1 X103.424 Y129.982 E.01935
G1 X103.823 Y129.228 E.03081
G1 X104.306 Y128.454 E.03293
G1 X104.846 Y127.72 E.03292
G1 X105.165 Y127.32 E.01848
G1 X105.84 Y126.606 E.03545
G1 X106.827 Y125.766 E.0468
G1 X107.551 Y125.242 E.03227
G1 X108.331 Y124.769 E.03292
G1 X108.81 Y124.507 E.01972
G1 X109.764 Y124.087 E.03766
G1 X110.91 Y123.727 E.04336
G1 X111.778 Y123.517 E.03226
G1 X112.28 Y123.42 E.01846
G1 X113.318 Y123.313 E.03766
G1 X114.361 Y123.299 E.03766
G1 X115.977 Y123.462 E.05867
G1 X116.937 Y123.668 E.03545
G1 X118.407 Y124.156 E.05592
G1 X118.955 Y124.405 E.02173
G1 X119.423 Y124.625 E.01867
G1 X120.273 Y125.116 E.03545
G1 X120.339 Y125.162 E.00292
G1 X120.112 Y125.559 F18000
;TYPE:Outer wall
G1 F1800
G1 X120.693 Y125.966 E.02562
G1 X121.631 Y126.734 E.04378
G1 X122.676 Y127.838 E.05489
G1 X123.266 Y128.62 E.03537
G1 X123.638 Y129.216 E.02534
G1 X124.056 Y129.98 E.03144
G1 X124.42 Y130.787 E.03198
G1 X124.624 Y131.3 E.01994
G1 X124.852 Y132.063 E.02876
G1 X125.048 Y132.928 E.032
G1 X125.224 Y134.238 E.04775
G1 X125.225 Y135.736 E.05408
G1 X125.115 Y136.737 E.03636
G1 X124.911 Y137.739 E.03692
G1 X124.631 Y138.68 E.03545
G1 X124.047 Y140.06 E.05409
G1 X123.557 Y140.934 E.03617
G1 X123.039 Y141.691 E.03312
G1 X122.009 Y142.899 E.05732
G1 X121.271 Y143.584 E.03636
G1 X120.478 Y144.197 E.03619
G1 X119.634 Y144.737 E.03619
G1 X118.745 Y145.2 E.03619
G1 X117.818 Y145.582 E.03619
G1 X116.849 Y145.884 E.03665
G1 X115.39 Y146.163 E.05363
G1 X114.386 Y146.243 E.03636
G1 X113.384 Y146.233 E.03619
G1 X112.386 Y146.133 E.03619
G1 X111.344 Y145.911 E.03849
M73 P6 R11
G1 X110.53 Y145.691 E.03043
G1 X109.971 Y145.503 E.0213
G1 X109.048 Y145.101 E.03637
G1 X108.168 Y144.62 E.03619
G1 X107.338 Y144.065 E.03607
G1 X106.659 Y143.518 E.03148
G1 X106.024 Y142.921 E.03146
G1 X105.463 Y142.292 E.03043
G1 X104.878 Y141.584 E.03316
G1 X104.38 Y140.824 E.03279
G1 X103.961 Y140.06 E.03146
G1 X103.625 Y139.288 E.03043
G1 X103.298 Y138.467 E.0319
G1 X103.047 Y137.557 E.03406
G1 X102.886 Y136.7 E.03148
G1 X102.791 Y135.835 E.03144
G1 X102.761 Y134.964 E.03145
G1 X102.797 Y134.094 E.03145
G1 X102.849 Y133.511 E.02115
G1 X103.095 Y132.294 E.0448
G1 X103.325 Y131.483 E.03043
G1 X103.635 Y130.654 E.03198
G1 X103.844 Y130.16 E.01935
G1 X104.226 Y129.443 E.02934
G1 X104.688 Y128.704 E.03146
G1 X105.205 Y128.003 E.03145
G1 X105.773 Y127.343 E.03145
G1 X106.172 Y126.92 E.02098
G1 X107.122 Y126.115 E.04497
G1 X107.805 Y125.622 E.03043
G1 X108.55 Y125.17 E.03145
G1 X109.029 Y124.908 E.01972
G1 X109.947 Y124.505 E.03619
G1 X111.045 Y124.163 E.04152
G1 X111.864 Y123.966 E.03043
G1 X112.366 Y123.869 E.01846
G1 X113.363 Y123.768 E.03619
G1 X114.366 Y123.756 E.03619
G1 X115.43 Y123.862 E.03861
G1 X116.239 Y123.985 E.02954
G1 X116.841 Y124.115 E.02225
G1 X118.262 Y124.589 E.05409
G1 X118.763 Y124.82 E.0199
G1 X119.55 Y125.226 E.03198
G1 X120.045 Y125.512 E.02064
G1 X120.079 Y125.536 E.00151
G1 E-.35 F2400
;WIPE_START
G1 F1800
G1 X120.693 Y125.966 E-.11245
G1 X120.886 Y126.125 E-.03755
;WIPE_END
G1 Z.4 F18000
G1 X145.156 Y130.894
G1 Z.4
G1 Z.2
G1 E.5 F2400
;TYPE:Bottom surface
;WIDTH:0.504883
G1 F3600
G1 X144.315 Y130.053 E.0434
G1 X143.665 Y130.056 E.02373
G1 X144.95 Y131.341 E.06634
G1 X144.95 Y131.995 E.02384
G1 X143.014 Y130.059 E.0999
G1 X142.364 Y130.062 E.02373
G1 X144.95 Y132.648 E.13346
G1 X144.95 Y133.301 E.02384
G1 X143.347 Y131.699 E.08272
G1 X143.861 Y132.399 E.03171
G1 X144.05 Y132.975 E.0221
G1 X144.05 Y133.054 E.00291
G1 X144.95 Y133.955 E.04646
G1 X144.95 Y134.608 E.02384
G1 X144.05 Y133.708 E.04646
G1 X144.05 Y134.361 E.02384
G1 X144.95 Y135.261 E.04646
G1 X144.95 Y135.915 E.02384
G1 X144.05 Y135.014 E.04646
G1 X144.05 Y135.668 E.02384
G1 X144.95 Y136.568 E.04646
G1 X144.95 Y137.221 E.02384
G1 X144.05 Y136.321 E.04646
G1 X144.05 Y136.974 E.02384
G1 X144.95 Y137.875 E.04646
G1 X144.95 Y138.528 E.02384
G1 X144.05 Y137.628 E.04646
G1 X144.05 Y138.281 E.02384
