; HEADER_BLOCK_START
; generated by OrcaSlicer 2.2.0 on 2024-12-04 at 10:04:00
; total layer number: 150
; filament_density: 1.27
; filament_diameter: 1.75
; max_z_height: 30.05
; HEADER_BLOCK_END

; THUMBNAIL_BLOCK_START

;
; THUMBNAIL_BLOCK_END

; THUMBNAIL_BLOCK_START

;
; THUMBNAIL_BLOCK_END

; external perimeters extrusion width = 0.42mm
; perimeters extrusion width = 0.45mm
; infill extrusion width = 0.45mm
; solid infill extrusion width = 0.45mm
; top infill extrusion width = 0.42mm
; first layer extrusion width = 0.50mm

; EXECUTABLE_BLOCK_START
EXCLUDE_OBJECT_DEFINE NAME=Corps34_id_0_copy_0 CENTER=115,115 POLYGON=[[97.5052,114.574],[97.5468,113.722],[97.6298,112.873],[97.7541,112.029],[97.9194,111.192],[98.1252,110.364],[98.3712,109.547],[98.6566,108.743],[98.9809,107.955],[99.3432,107.182],[99.7428,106.429],[100.179,105.695],[100.65,104.984],[101.155,104.297],[101.693,103.635],[102.262,103],[127.738,103],[128.307,103.635],[128.845,104.297],[129.35,104.984],[129.821,105.695],[130.257,106.429],[130.657,107.182],[131.019,107.955],[131.343,108.743],[131.629,109.547],[131.875,110.364],[132.081,111.192],[132.246,112.029],[132.37,112.873],[132.453,113.722],[132.495,114.574],[132.495,115.426],[132.453,116.278],[132.37,117.127],[132.246,117.971],[132.081,118.808],[131.875,119.636],[131.629,120.453],[131.343,121.257],[131.019,122.045],[130.657,122.818],[130.257,123.571],[129.821,124.305],[129.35,125.016],[128.845,125.703],[128.307,126.365],[127.738,127],[102.262,127],[101.693,126.365],[101.155,125.703],[100.65,125.016],[100.179,124.305],[99.7428,123.571],[99.3432,122.818],[98.9809,122.045],[98.6566,121.257],[98.3712,120.453],[98.1252,119.636],[97.9194,118.808],[97.7541,117.971],[97.6298,117.127],[97.5468,116.278],[97.5052,115.426],[97.5052,114.574]]
M73 P0 R20
;TYPE:Custom
M220 S100
G90 ; use absolute coordinates
M83 ; extruder relative mode
M104 S150 ; set temporary nozzle temp to prevent oozing during homing
M140 S65 ; set final bed temp
G4 S30 ; allow partial nozzle warmup
G28 ; home all axis and restore leveling
BED_MESH_CALIBRATE
G1 Z25 F240
G1 X10.0 Y30 F3000
M104 S245 ; set final nozzle temp
M190 S65 ; wait for bed temp to stabilize
M109 S245 ; wait for nozzle temp to stabilize
G1 Z0.28 F240
G92 E0 ; Move Z Axis up
LINE_PURGE
G92 E0 ; Move Z Axis up
G1 Z2.0 F3000
M73 P1 R20
M117 Start Printing..
G90
G21
M83 ; use relative distances for extrusion
; filament start gcode
M106 S0
;LAYER_CHANGE
;Z:0.25
;HEIGHT:0.25
;BEFORE_LAYER_CHANGE
;0.25
G92 E0

M73 P1 R20
G1 E-.5 F1800
TIMELAPSE_TAKE_FRAME
;_SET_FAN_SPEED_CHANGING_LAYER
SET_VELOCITY_LIMIT ACCEL=1000
SET_VELOCITY_LIMIT SQUARE_CORNER_VELOCITY=7
; printing object Corps34 id:0 copy 0
EXCLUDE_OBJECT_START NAME=Corps34_id_0_copy_0
G1 Z.45 F24000
G1 X110.595 Y146.254
G1 Z.45
G1 Z.25
G1 E.5 F1800
;TYPE:Inner wall
;WIDTH:0.499999
G1 F3000
G1 X110.26 Y145.88 E.02211
G1 X109.745 Y145.247 E.03599
G1 X109.262 Y144.588 E.03599
G1 X108.811 Y143.908 E.03599
G1 X108.394 Y143.206 E.03599
G1 X108.011 Y142.484 E.03599
G1 X107.664 Y141.745 E.03599
G1 X107.354 Y140.99 E.03599
G1 X107.081 Y140.22 E.03599
G1 X106.845 Y139.438 E.03599
G1 X106.648 Y138.646 E.03599
G1 X106.49 Y137.845 E.03599
G1 X106.371 Y137.037 E.03599
G1 X106.291 Y136.224 E.03599
G1 X106.252 Y135.408 E.03599
G1 X106.252 Y134.592 E.03599
G1 X106.291 Y133.776 E.03599
G1 X106.371 Y132.963 E.03599
G1 X106.49 Y132.155 E.03599
G1 X106.648 Y131.354 E.03599
G1 X106.845 Y130.562 E.03599
G1 X107.081 Y129.78 E.03599
G1 X107.354 Y129.01 E.03599
G1 X107.664 Y128.255 E.03599
G1 X108.011 Y127.516 E.03599
G1 X108.394 Y126.794 E.03599
G1 X108.811 Y126.092 E.03599
G1 X109.262 Y125.412 E.03599
G1 X109.745 Y124.753 E.03599
G1 X110.26 Y124.12 E.03599
G1 X110.595 Y123.746 E.02211
G1 X135.405 Y123.746 E1.09342
G1 X135.74 Y124.12 E.02211
G1 X136.255 Y124.753 E.03599
G1 X136.738 Y125.412 E.03599
G1 X137.189 Y126.092 E.03599
G1 X137.606 Y126.794 E.03599
G1 X137.989 Y127.516 E.03599
G1 X138.336 Y128.255 E.03599
G1 X138.646 Y129.01 E.03599
G1 X138.919 Y129.78 E.03599
G1 X139.155 Y130.562 E.03599
G1 X139.352 Y131.354 E.03599
G1 X139.51 Y132.155 E.03599
G1 X139.629 Y132.963 E.03599
G1 X139.679 Y133.475 E.02265
G1 X139.748 Y134.693 E.05378
G1 X139.748 Y135.408 E.03152
G1 X139.709 Y136.224 E.03599
G1 X139.629 Y137.037 E.03599
G1 X139.51 Y137.845 E.03599
G1 X139.352 Y138.646 E.03599
G1 X139.155 Y139.438 E.03599
G1 X138.919 Y140.22 E.03599
G1 X138.646 Y140.99 E.03599
G1 X138.336 Y141.745 E.03599
G1 X137.989 Y142.484 E.03599
G1 X137.606 Y143.206 E.03599
G1 X137.189 Y143.908 E.03599
G1 X136.738 Y144.588 E.03599
G1 X136.255 Y145.247 E.03599
G1 X135.74 Y145.88 E.03599
G1 X135.405 Y146.254 E.02211
G1 X110.635 Y146.254 E1.09165
G1 X110.381 Y146.684 F24000
;TYPE:Outer wall
G1 F3000
G1 X109.921 Y146.17 E.03039
G1 X109.392 Y145.52 E.03695
G1 X108.896 Y144.844 E.03695
G1 X108.433 Y144.145 E.03695
G1 X108.004 Y143.424 E.03695
G1 X107.612 Y142.684 E.03695
G1 X107.256 Y141.925 E.03695
G1 X106.937 Y141.149 E.03695
G1 X106.656 Y140.359 E.03695
G1 X106.415 Y139.556 E.03695
G1 X106.212 Y138.743 E.03695
G1 X106.05 Y137.92 E.03695
G1 X105.928 Y137.091 E.03695
G1 X105.846 Y136.257 E.03695
G1 X105.805 Y135.419 E.03695
G1 X105.805 Y134.581 E.03695
G1 X105.846 Y133.743 E.03695
G1 X105.928 Y132.909 E.03695
G1 X106.05 Y132.08 E.03695
G1 X106.212 Y131.257 E.03695
G1 X106.415 Y130.444 E.03695
G1 X106.656 Y129.641 E.03695
G1 X106.937 Y128.851 E.03695
G1 X107.256 Y128.075 E.03695
G1 X107.612 Y127.316 E.03695
G1 X108.004 Y126.576 E.03695
G1 X108.433 Y125.855 E.03695
G1 X108.896 Y125.156 E.03695
G1 X109.392 Y124.48 E.03695
G1 X109.921 Y123.83 E.03695
G1 X110.396 Y123.3 E.03137
G1 X135.604 Y123.3 E1.11098
G1 X136.079 Y123.83 E.03137
G1 X136.608 Y124.48 E.03695
G1 X137.104 Y125.156 E.03695
G1 X137.567 Y125.855 E.03695
G1 X137.996 Y126.576 E.03695
G1 X138.388 Y127.316 E.03695
G1 X138.744 Y128.075 E.03695
G1 X139.063 Y128.851 E.03695
G1 X139.344 Y129.641 E.03695
G1 X139.585 Y130.444 E.03695
G1 X139.788 Y131.257 E.03695
G1 X139.95 Y132.08 E.03695
G1 X140.072 Y132.909 E.03695
G1 X140.13 Y133.502 E.02625
G1 X140.195 Y134.693 E.05258
G1 X140.195 Y135.419 E.032
G1 X140.154 Y136.257 E.03695
G1 X140.072 Y137.091 E.03695
G1 X139.95 Y137.92 E.03695
G1 X139.788 Y138.743 E.03695
G1 X139.585 Y139.556 E.03695
G1 X139.344 Y140.359 E.03695
G1 X139.063 Y141.149 E.03695
G1 X138.744 Y141.925 E.03695
M73 P1 R19
M73 P1 R19
G1 X138.388 Y142.684 E.03695
G1 X137.996 Y143.424 E.03695
G1 X137.567 Y144.145 E.03695
G1 X137.104 Y144.844 E.03695
G1 X136.608 Y145.52 E.03695
G1 X136.079 Y146.17 E.03695
G1 X135.604 Y146.7 E.03137
G1 X110.414 Y146.7 E1.11019
G1 E-.5 F1800
;WIPE_START
G1 F12000
G1 X109.921 Y146.17
G1 X109.392 Y145.52
G1 X109.133 Y145.167
;WIPE_END
G1 Z.45 F24000
G1 X129.037 Y129.1 Z.45
G1 Z.25
G1 E.5 F1800
;TYPE:Inner wall
G1 F3000
G1 X129.174 Y129.237 E.00856
G1 X129.588 Y129.714 E.02784
G1 X129.964 Y130.222 E.02784
G1 X130.302 Y130.755 E.02784
G1 X130.599 Y131.313 E.02784
G1 X130.853 Y131.891 E.02784
G1 X131.049 Y132.447 E.02598
G1 X131.228 Y133.095 E.02964
G1 X131.332 Y133.633 E.02416
G1 X131.421 Y134.344 E.03155
G1 X131.441 Y134.848 E.02225
G1 X131.424 Y135.606 E.03341
G1 X131.355 Y136.234 E.02784
G1 X131.24 Y136.855 E.02784
G1 X131.078 Y137.466 E.02784
G1 X130.871 Y138.062 E.02784
G1 X130.62 Y138.642 E.02784
G1 X130.327 Y139.201 E.02784
G1 X129.993 Y139.737 E.02784
G1 X129.619 Y140.246 E.02784
G1 X129.208 Y140.726 E.02784
G1 X128.763 Y141.174 E.02784
G1 X128.286 Y141.588 E.02784
G1 X127.778 Y141.964 E.02784
G1 X127.245 Y142.302 E.02784
G1 X126.687 Y142.599 E.02784
G1 X126.109 Y142.853 E.02784
G1 X125.513 Y143.063 E.02784
G1 X124.904 Y143.229 E.02784
G1 X124.284 Y143.348 E.02784
G1 X123.668 Y143.419 E.02731
G1 X123.026 Y143.446 E.02831
G1 X122.394 Y143.424 E.02789
G1 X121.766 Y143.355 E.02784
G1 X121.145 Y143.24 E.02784
G1 X120.534 Y143.078 E.02784
G1 X119.938 Y142.871 E.02784
G1 X119.358 Y142.62 E.02784
G1 X118.799 Y142.327 E.02784
G1 X118.263 Y141.993 E.02784
G1 X117.754 Y141.619 E.02784
G1 X117.274 Y141.208 E.02784
G1 X116.826 Y140.763 E.02784
G1 X116.412 Y140.286 E.02784
G1 X116.036 Y139.778 E.02784
G1 X115.698 Y139.245 E.02784
G1 X115.401 Y138.687 E.02784
G1 X115.152 Y138.12 E.02731
G1 X114.948 Y137.547 E.02679
G1 X114.771 Y136.904 E.02941
G1 X114.668 Y136.367 E.02412
G1 X114.579 Y135.656 E.03155
G1 X114.559 Y135.152 E.02225
G1 X114.576 Y134.394 E.03341
G1 X114.645 Y133.766 E.02784
G1 X114.758 Y133.157 E.02731
G1 X114.922 Y132.536 E.02831
G1 X115.129 Y131.938 E.02789
G1 X115.38 Y131.358 E.02784
G1 X115.673 Y130.799 E.02784
G1 X116.007 Y130.263 E.02784
G1 X116.381 Y129.754 E.02784
G1 X116.792 Y129.274 E.02784
G1 X117.237 Y128.826 E.02784
G1 X117.705 Y128.42 E.02731
G1 X118.221 Y128.036 E.02831
G1 X118.755 Y127.698 E.02789
G1 X119.313 Y127.401 E.02784
G1 X119.891 Y127.147 E.02784
G1 X120.475 Y126.941 E.02731
G1 X121.095 Y126.772 E.02831
G1 X121.716 Y126.652 E.02789
G1 X122.344 Y126.579 E.02784
G1 X122.963 Y126.554 E.02731
G1 X123.605 Y126.576 E.02831
G1 X124.234 Y126.645 E.02789
G1 X124.855 Y126.76 E.02784
G1 X125.454 Y126.919 E.02731
G1 X126.061 Y127.128 E.02831
G1 X126.642 Y127.38 E.02789
G1 X127.191 Y127.667 E.02731
G1 X127.736 Y128.007 E.02831
G1 X128.246 Y128.381 E.02789
G1 X128.726 Y128.792 E.02784
G1 X129.008 Y129.072 E.01752
G1 X128.723 Y129.417 F24000
;TYPE:Outer wall
G1 F3000
G1 X128.859 Y129.553 E.00848
G1 X129.249 Y130.006 E.02637
G1 X129.605 Y130.487 E.02637
G1 X129.924 Y130.993 E.02637
G1 X130.204 Y131.521 E.02637
G1 X130.444 Y132.07 E.02637
G1 X130.628 Y132.594 E.02451
G1 X130.797 Y133.211 E.0282
G1 X130.894 Y133.716 E.02266
G1 X130.977 Y134.394 E.03008
G1 X131 Y134.992 E.02637
G1 X130.978 Y135.59 E.02637
G1 X130.912 Y136.184 E.02637
G1 X130.801 Y136.772 E.02637
G1 X130.647 Y137.35 E.02637
G1 X130.45 Y137.915 E.02637
G1 X130.211 Y138.464 E.02637
G1 X129.932 Y138.993 E.02637
G1 X129.615 Y139.5 E.02637
G1 X129.26 Y139.981 E.02637
G1 X128.87 Y140.435 E.02637
G1 X128.447 Y140.859 E.02637
G1 X127.994 Y141.249 E.02637
G1 X127.513 Y141.605 E.02637
G1 X127.007 Y141.924 E.02637
G1 X126.479 Y142.204 E.02637
G1 X125.93 Y142.444 E.02637
G1 X125.366 Y142.642 E.02637
G1 X124.788 Y142.798 E.02637
G1 X124.201 Y142.909 E.02637
G1 X123.618 Y142.976 E.02584
G1 X123.009 Y143 E.02687
G1 X122.41 Y142.978 E.02639
G1 X121.816 Y142.912 E.02637
G1 X121.228 Y142.801 E.02637
G1 X120.65 Y142.647 E.02637
G1 X120.085 Y142.45 E.02637
G1 X119.536 Y142.211 E.02637
G1 X119.007 Y141.932 E.02637
G1 X118.5 Y141.615 E.02637
G1 X118.019 Y141.26 E.02637
G1 X117.565 Y140.87 E.02637
G1 X117.141 Y140.447 E.02637
G1 X116.751 Y139.994 E.02637
G1 X116.395 Y139.513 E.02637
G1 X116.076 Y139.007 E.02637
G1 X115.796 Y138.479 E.02637
G1 X115.561 Y137.941 E.02584
G1 X115.37 Y137.399 E.02535
G1 X115.202 Y136.788 E.02791
G1 X115.106 Y136.284 E.02265
G1 X115.023 Y135.606 E.03008
G1 X115 Y135.008 E.02637
G1 X115.022 Y134.41 E.02637
G1 X115.088 Y133.816 E.02637
G1 X115.197 Y133.24 E.02584
G1 X115.353 Y132.65 E.02687
G1 X115.55 Y132.085 E.02639
G1 X115.789 Y131.536 E.02637
G1 X116.068 Y131.007 E.02637
G1 X116.385 Y130.5 E.02637
G1 X116.74 Y130.019 E.02637
G1 X117.13 Y129.565 E.02637
G1 X117.553 Y129.141 E.02637
G1 X117.996 Y128.758 E.02584
G1 X118.486 Y128.395 E.02687
G1 X118.993 Y128.076 E.02639
G1 X119.521 Y127.796 E.02637
G1 X120.07 Y127.556 E.02637
G1 X120.623 Y127.362 E.02584
G1 X121.211 Y127.203 E.02687
G1 X121.799 Y127.091 E.02639
G1 X122.394 Y127.023 E.02637
G1 X122.98 Y127 E.02584
G1 X123.589 Y127.022 E.02687
G1 X124.184 Y127.088 E.02639
G1 X124.772 Y127.199 E.02637
G1 X125.338 Y127.35 E.02584
G1 X125.915 Y127.55 E.02687
G1 X126.464 Y127.789 E.02639
G1 X126.982 Y128.062 E.02584
G1 X127.499 Y128.385 E.02687
G1 X127.981 Y128.74 E.02639
G1 X128.435 Y129.13 E.02637
G1 X128.694 Y129.388 E.01613
G1 E-.5 F1800
;WIPE_START
G1 F12000
G1 X128.859 Y129.553
G1 X129.249 Y130.006
G1 X129.605 Y130.487
G1 X129.91 Y130.97
;WIPE_END
TIMELAPSE_TAKE_FRAME
G1 Z.45 F24000
G1 X134.424 Y123.88
G1 Z.45
G1 Z.25
G1 E.5 F1800
;TYPE:Bottom surface
;WIDTH:0.502698
G1 F5344.64
G1 X137.039 Y126.494 E.16392
G1 X137.314 Y126.958 E.02393
G1 X137.791 Y127.881 E.04605
G1 X133.99 Y124.081 E.2383
G1 X133.355 Y124.081 E.02816
G1 X138.284 Y129.01 E.30906
G1 X138.635 Y129.996 E.0464
G1 X132.72 Y124.081 E.37088
G1 X132.085 Y124.081 E.02816
G1 X138.891 Y130.887 E.42674
G1 X139.081 Y131.712 E.03758
G1 X131.45 Y124.081 E.47853
G1 X130.815 Y124.081 E.02816
G1 X139.221 Y132.487 E.52707
G1 X139.318 Y133.219 E.03275
G1 X130.18 Y124.081 E.57299
G1 X129.545 Y124.081 E.02816
G1 X139.38 Y133.917 E.61673
G1 X139.413 Y134.584 E.02964
G1 X128.91 Y124.081 E.6586
G1 X128.275 Y124.081 E.02816
G1 X139.414 Y135.22 E.69847
G1 X139.393 Y135.834 E.02724
G1 X127.64 Y124.081 E.73696
G1 X127.005 Y124.081 E.02816
M73 P2 R19
M73 P2 R19
G1 X139.352 Y136.429 E.77426
G1 X139.295 Y137.007 E.02575
G1 X126.37 Y124.081 E.8105
G1 X125.735 Y124.081 E.02816
G1 X139.214 Y137.56 E.84521
G1 X139.118 Y138.1 E.02431
G1 X125.1 Y124.081 E.87906
G1 X124.465 Y124.081 E.02816
G1 X139.011 Y138.628 E.91217
G1 X138.885 Y139.137 E.02324
G1 X130.881 Y131.133 E.50188
G1 X131.161 Y131.761 E.03049
G1 X131.318 Y132.205 E.02086
G1 X138.747 Y139.633 E.46581
G1 X138.599 Y140.121 E.02259
G1 X131.571 Y133.092 E.44075
G1 X131.702 Y133.859 E.0345
G1 X138.433 Y140.59 E.42204
G1 X138.259 Y141.051 E.02185
G1 X131.763 Y134.555 E.40731
G1 X131.773 Y135.2 E.0286
G1 X138.074 Y141.501 E.39509
G1 X137.876 Y141.937 E.02126
G1 X131.741 Y135.803 E.38468
G1 X131.672 Y136.369 E.02529
G1 X137.671 Y142.368 E.3762
G1 X137.451 Y142.783 E.02083
G1 X131.571 Y136.903 E.36871
G1 X131.44 Y137.407 E.02307
G1 X137.225 Y143.192 E.36278
G1 X136.988 Y143.59 E.02055
G1 X131.286 Y137.888 E.35757
G1 X131.113 Y138.35 E.02187
G1 X136.741 Y143.978 E.35293
G1 X136.488 Y144.36 E.02032
G1 X130.918 Y138.791 E.34924
G1 X130.701 Y139.208 E.02088
G1 X136.22 Y144.728 E.3461
G1 X135.949 Y145.092 E.02012
G1 X130.468 Y139.61 E.34373
G1 X130.218 Y139.995 E.02036
G1 X135.665 Y145.442 E.34154
G1 X135.374 Y145.786 E.01998
G1 X129.949 Y140.362 E.34016
G1 X129.662 Y140.709 E.02
G1 X134.871 Y145.919 E.32668
G1 X134.236 Y145.919 E.02816
G1 X129.364 Y141.047 E.30551
G1 X129.047 Y141.364 E.01991
G1 X133.601 Y145.919 E.2856
G1 X132.966 Y145.919 E.02816
G1 X128.71 Y141.663 E.26689
G1 X128.36 Y141.948 E.02001
G1 X132.331 Y145.919 E.249
G1 X131.696 Y145.919 E.02816
G1 X127.995 Y142.218 E.23209
G1 X127.609 Y142.467 E.02037
G1 X131.061 Y145.919 E.21647
G1 X130.426 Y145.919 E.02816
G1 X127.209 Y142.702 E.20174
G1 X126.791 Y142.918 E.02089
G1 X129.791 Y145.919 E.18815
G1 X129.156 Y145.919 E.02816
G1 X126.35 Y143.113 E.17596
G1 X125.888 Y143.286 E.02187
G1 X128.521 Y145.919 E.1651
G1 X127.886 Y145.919 E.02816
G1 X125.405 Y143.438 E.15555
G1 X124.903 Y143.571 E.02303
G1 X127.251 Y145.919 E.1472
G1 X126.616 Y145.919 E.02816
G1 X124.369 Y143.672 E.14087
G1 X123.802 Y143.741 E.02531
G1 X125.981 Y145.919 E.13659
G1 X125.346 Y145.919 E.02816
G1 X123.2 Y143.773 E.13456
G1 X122.555 Y143.763 E.02859
G1 X124.711 Y145.919 E.13516
G1 X124.076 Y145.919 E.02816
G1 X121.86 Y143.703 E.13896
G1 X121.092 Y143.57 E.03453
G1 X123.441 Y145.919 E.14726
G1 X122.805 Y145.919 E.02816
G1 X120.206 Y143.319 E.16303
G1 X119.761 Y143.161 E.02093
G1 X119.135 Y142.883 E.03036
G1 X122.371 Y146.12 E.20295
G1 E-.5 F1800
;WIPE_START
G1 F12000
G1 X120.957 Y144.706
;WIPE_END
G1 Z.45 F24000
G1 X123.629 Y123.88 Z.45
G1 Z.25
G1 E.5 F1800
G1 F5344.64
G1 X126.865 Y127.117 E.20296
G1 X126.239 Y126.838 E.03039
G1 X125.798 Y126.685 E.0207
G1 X123.194 Y124.081 E.16327
G1 X122.559 Y124.081 E.02816
G1 X124.908 Y126.429 E.14725
G1 X124.143 Y126.3 E.03438
G1 X121.924 Y124.081 E.13914
G1 X121.289 Y124.081 E.02816
G1 X123.444 Y126.236 E.1351
G1 X122.799 Y126.226 E.02858
G1 X120.654 Y124.081 E.13451
G1 X120.019 Y124.081 E.02816
G1 X122.197 Y126.259 E.13657
G1 X121.632 Y126.329 E.02523
G1 X119.384 Y124.081 E.14098
G1 X118.749 Y124.081 E.02816
G1 X121.097 Y126.429 E.14721
G1 X120.595 Y126.562 E.02301
G1 X118.114 Y124.081 E.15558
G1 X117.479 Y124.081 E.02816
G1 X120.112 Y126.714 E.1651
G1 X119.65 Y126.887 E.02188
