; HEADER_BLOCK_START
; generated by OrcaSlicer 2.1.1 on 2024-09-11 at 12:46:25
; total layer number: 115
; filament_density: 1.24
; filament_diameter: 1.75
; max_z_height: 23.00
; HEADER_BLOCK_END

; THUMBNAIL_BLOCK_START

;
; THUMBNAIL_BLOCK_END

; THUMBNAIL_BLOCK_START

;
; THUMBNAIL_BLOCK_END

; external perimeters extrusion width = 0.42mm
; perimeters extrusion width = 0.45mm
; infill extrusion width = 0.45mm
; solid infill extrusion width = 0.45mm
; top infill extrusion width = 0.42mm
; first layer extrusion width = 0.50mm

; EXECUTABLE_BLOCK_START
EXCLUDE_OBJECT_DEFINE NAME=Corps1.stl_id_0_copy_0 CENTER=115,115 POLYGON=[[84.5,105],[84.5126,104.776],[84.5501,104.555],[84.6122,104.339],[84.6981,104.132],[84.8066,103.936],[84.9363,103.753],[85.0858,103.586],[85.253,103.436],[85.4359,103.307],[85.6322,103.198],[85.8394,103.112],[86.055,103.05],[86.2761,103.013],[86.5,103],[143.5,103],[143.724,103.013],[143.945,103.05],[144.161,103.112],[144.368,103.198],[144.564,103.307],[144.747,103.436],[144.914,103.586],[145.064,103.753],[145.193,103.936],[145.302,104.132],[145.388,104.339],[145.45,104.555],[145.487,104.776],[145.5,105],[145.5,125],[145.487,125.224],[145.45,125.445],[145.388,125.661],[145.302,125.868],[145.193,126.064],[145.064,126.247],[144.914,126.414],[144.747,126.564],[144.564,126.693],[144.368,126.802],[144.161,126.888],[143.945,126.95],[143.724,126.987],[143.5,127],[86.5,127],[86.2761,126.987],[86.055,126.95],[85.8394,126.888],[85.6322,126.802],[85.4359,126.693],[85.253,126.564],[85.0858,126.414],[84.9363,126.247],[84.8066,126.064],[84.6981,125.868],[84.6122,125.661],[84.5501,125.445],[84.5126,125.224],[84.5,125],[84.5,105]]
M73 P0 R113
;TYPE:Custom
M220 S100
G90 ; use absolute coordinates
M83 ; extruder relative mode
M104 S150 ; set temporary nozzle temp to prevent oozing during homing
M140 S80 ; set final bed temp
G4 S30 ; allow partial nozzle warmup
G28 ; home all axis and restore leveling
BED_MESH_CALIBRATE PROFILE=adaptive ADAPTIVE=1 ADAPTIVE_MARGIN=0
G1 Z25 F240
G1 X10.0 Y30 F3000
M104 S253 ; set final nozzle temp
M190 S80 ; wait for bed temp to stabilize
M109 S253 ; wait for nozzle temp to stabilize
G1 Z0.28 F240
G92 E0 ; Move Z Axis up
G1 Z2.0 F5000 ; Move to start position
G1 X5 Y30 Z0.28 F300 ; Draw the first line
G1 X5 Y200 Z0.28 F1500 E15 ; Move to side a little
G1 X5.4 Y200 Z0.28 F5000.0 ; Draw the second line
G1 X5.4 Y50 Z0.28 F1500.0 E30 ; Reset Extruder
G92 E0 ; Move Z Axis up
G1 Z2.0 F3000
M117 Start Printing..
G90
G21
M83 ; use relative distances for extrusion
; filament start gcode
M106 S0
;LAYER_CHANGE
;Z:0.2
;HEIGHT:0.2
;BEFORE_LAYER_CHANGE
;0.2
G92 E0

G1 E-1.5 F1800
;_SET_FAN_SPEED_CHANGING_LAYER
SET_VELOCITY_LIMIT ACCEL=500
SET_VELOCITY_LIMIT SQUARE_CORNER_VELOCITY=7
G1 Z.2 F18000
G1 X91.311 Y121.263
G1 Z.2
G1 E1.5 F1800
;TYPE:Skirt
;WIDTH:0.5
G1 F3000
G1 X92.517 Y120.506 E.04871
G1 X93.567 Y120.177 E.03762
G1 X94.5 Y120.086 E.03208
G1 X151.663 Y120.09 E1.95531
G1 X152.433 Y120.177 E.0265
G1 X153.483 Y120.506 E.03763
G1 X154.25 Y120.93 E.02999
G1 X154.856 Y121.413 E.0265
G1 X155.44 Y122.067 E.02999
G1 X155.852 Y122.723 E.0265
G1 X156.188 Y123.533 E.02999
G1 X156.397 Y124.613 E.03762
G1 X156.414 Y145 E.69736
G1 X156.36 Y145.712 E.02442
G1 X156.067 Y146.807 E.03878
G1 X155.44 Y147.933 E.04408
G1 X154.689 Y148.737 E.03763
G1 X153.483 Y149.494 E.04871
G1 X152.433 Y149.823 E.03763
G1 X151.5 Y149.914 E.03207
G1 X94.337 Y149.91 E1.95531
G1 X93.033 Y149.688 E.04524
G1 X91.75 Y149.07 E.04871
G1 X90.763 Y148.189 E.04524
G1 X90.006 Y146.983 E.04871
G1 X89.677 Y145.933 E.03763
G1 X89.586 Y145 E.03207
G1 X89.603 Y124.613 E.69736
G1 X89.92 Y123.224 E.04871
G1 X90.43 Y122.25 E.03763
G1 X91.285 Y121.293 E.04387
G1 X91.616 Y121.604 F18000
G1 F3000
G1 X92.692 Y120.928 E.04348
G1 X93.643 Y120.628 E.03412
G1 X94.5 Y120.543 E.02945
G1 X151.638 Y120.547 E1.95444
G1 X152.357 Y120.628 E.02475
G1 X153.308 Y120.928 E.03413
G1 X153.986 Y121.303 E.02649
G1 X154.551 Y121.754 E.02474
G1 X155.068 Y122.331 E.02649
G1 X155.452 Y122.944 E.02474
G1 X155.749 Y123.659 E.02649
G1 X155.941 Y124.638 E.03413
G1 X155.941 Y145.362 E.70886
G1 X155.658 Y146.601 E.04347
G1 X155.068 Y147.669 E.04174
G1 X154.384 Y148.396 E.03413
G1 X153.308 Y149.072 E.04347
G1 X152.357 Y149.372 E.03413
G1 X151.5 Y149.457 E.02944
G1 X94.362 Y149.453 E1.95444
G1 X93.159 Y149.249 E.04174
G1 X92.014 Y148.697 E.04348
G1 X91.104 Y147.884 E.04174
G1 X90.428 Y146.808 E.04348
G1 X90.128 Y145.857 E.03413
G1 X90.043 Y145 E.02944
G1 X90.059 Y124.638 E.69649
G1 X90.251 Y123.659 E.03413
G1 X90.803 Y122.514 E.04348
G1 X91.589 Y121.634 E.04037
; printing object Corps1.stl id:0 copy 0
G1 E-1.5 F1800
;WIPE_START
G1 F12000
G1 X92.692 Y120.928
G1 X93.35 Y120.72
;WIPE_END
EXCLUDE_OBJECT_START NAME=Corps1.stl_id_0_copy_0
G1 Z.4 F18000
G1 X126.04 Y125.133 Z.4
G1 Z.2
G1 E1.5 F1800
;TYPE:Inner wall
;WIDTH:0.499999
G1 X151.364 Y125.128 E.86621
G1 X151.372 Y125.18 E.00178
G1 X151.372 Y144.872 E.67358
G1 X94.628 Y144.872 E1.94094
G1 X94.628 Y125.139 E.67498
M73 P0 R112
G1 X126 Y125.133 E1.07309
G1 X126.04 Y124.676 F18000
G1 F1800
G1 X151.533 Y124.671 E.87201
G1 X151.754 Y124.811 E.00893
G1 X151.829 Y125.18 E.01288
G1 X151.829 Y145.006 E.67816
G1 X151.731 Y145.217 E.00796
G1 X151.447 Y145.329 E.01043
G1 X94.492 Y145.329 E1.94818
G1 X94.283 Y145.231 E.00791
G1 X94.171 Y144.947 E.01042
G1 X94.171 Y124.992 E.68257
G1 X94.269 Y124.783 E.00791
G1 X94.514 Y124.682 E.00905
G1 X126 Y124.676 E1.07699
G1 X126.04 Y124.219 F18000
G1 F1800
G1 X151.32 Y124.214 E.86474
G1 X151.732 Y124.262 E.01419
G1 X152.071 Y124.475 E.01368
G1 X152.22 Y124.713 E.00961
G1 X152.286 Y125.18 E.01612
G1 X152.286 Y144.883 E.67398
G1 X152.259 Y145.172 E.00992
G1 X152.109 Y145.485 E.01187
G1 X151.865 Y145.684 E.01075
G1 X151.466 Y145.786 E.0141
G1 X94.617 Y145.786 E1.94457
G1 X94.327 Y145.759 E.00996
G1 X94.015 Y145.609 E.01185
G1 X93.816 Y145.365 E.01074
G1 X93.714 Y144.966 E.0141
G1 X93.714 Y124.887 E.6868
G1 X93.85 Y124.58 E.01149
G1 X94.068 Y124.358 E.01065
G1 X94.449 Y124.226 E.01379
G1 X126 Y124.219 E1.07923
G1 X126.04 Y123.757 F18000
G1 F1800
G1 X151.537 Y123.757 E.87214
G1 X152.018 Y123.878 E.01699
G1 X152.271 Y124.057 E.0106
G1 X152.477 Y124.252 E.00971
G1 X152.66 Y124.573 E.01264
G1 X152.743 Y125.18 E.02095
G1 X152.743 Y145.065 E.68017
G1 X152.614 Y145.541 E.01688
G1 X152.377 Y145.863 E.01368
G1 X152.054 Y146.105 E.01382
G1 X151.479 Y146.243 E.02023
G1 X94.435 Y146.243 E1.95123
G1 X93.963 Y146.116 E.01672
G1 X93.637 Y145.877 E.01383
G1 X93.395 Y145.554 E.0138
G1 X93.257 Y144.979 E.02023
G1 X93.257 Y124.935 E.68562
G1 X93.384 Y124.463 E.01672
G1 X93.623 Y124.137 E.01383
G1 X93.946 Y123.895 E.0138
G1 X94.383 Y123.769 E.01555
G1 X96.485 Y123.757 E.0719
G1 X126 Y123.757 E1.00958
G1 X126.04 Y123.3 F18000
;TYPE:Outer wall
G1 F1800
G1 X151.32 Y123.3 E.86474
G1 X151.878 Y123.344 E.01913
G1 X152.23 Y123.467 E.01276
G1 X152.705 Y123.804 E.01991
G1 X152.938 Y124.096 E.01279
G1 X153.1 Y124.433 E.01276
G1 X153.2 Y125.18 E.02578
G1 X153.2 Y144.883 E.67398
G1 X153.156 Y145.378 E.01698
G1 X153.028 Y145.741 E.01317
G1 X152.828 Y146.059 E.01285
G1 X152.559 Y146.328 E.01301
G1 X152.242 Y146.527 E.01279
G1 X151.887 Y146.629 E.01266
G1 X151.492 Y146.7 E.01373
G1 X94.617 Y146.7 E1.94545
G1 X94.122 Y146.656 E.01698
G1 X93.763 Y146.53 E.01301
G1 X93.441 Y146.328 E.01301
G1 X93.172 Y146.059 E.01301
G1 X92.973 Y145.742 E.01279
G1 X92.871 Y145.387 E.01266
G1 X92.8 Y144.992 E.01373
G1 X92.8 Y125.116 E.67986
G1 X92.844 Y124.622 E.01696
G1 X92.97 Y124.263 E.01301
G1 X93.172 Y123.941 E.01301
G1 X93.441 Y123.672 E.01301
G1 X93.758 Y123.473 E.01279
G1 X94.317 Y123.312 E.01992
G1 X96.483 Y123.3 E.07411
G1 X126 Y123.3 E1.00962
G1 E-1.5
;WIPE_START
G1 F12000
G1 X128 Y123.3
;WIPE_END
G1 Z.4 F18000
G1 X139.888 Y131.477 Z.4
G1 Z.2
G1 E1.5 F1800
;TYPE:Inner wall
G1 X140.138 Y131.776 E.01335
G1 X140.63 Y132.638 E.03394
G1 X140.967 Y133.582 E.03428
G1 X141.132 Y134.569 E.03423
G1 X141.12 Y135.567 E.03415
G1 X140.932 Y136.548 E.03415
G1 X140.705 Y137.169 E.02263
G1 X140.499 Y137.64 E.01758
G1 X140.059 Y138.335 E.02813
G1 X139.401 Y139.085 E.03415
G1 X138.62 Y139.708 E.03415
G1 X137.743 Y140.184 E.03415
G1 X136.795 Y140.498 E.03415
G1 X135.807 Y140.64 E.03415
G1 X134.815 Y140.606 E.03394
G1 X133.835 Y140.397 E.03428
G1 X132.908 Y140.019 E.03423
G1 X132.065 Y139.484 E.03415
G1 X131.33 Y138.809 E.03415
G1 X130.724 Y138.015 E.03415
G1 X130.27 Y137.133 E.03394
G1 X129.975 Y136.175 E.03428
G1 X129.894 Y135.628 E.01892
G1 X129.847 Y135.054 E.01969
G1 X129.905 Y134.254 E.02745
G1 X129.975 Y133.827 E.01479
G1 X130.142 Y133.214 E.02175
G1 X130.54 Y132.298 E.03415
G1 X131.093 Y131.467 E.03415
G1 X131.784 Y130.746 E.03415
G1 X132.591 Y130.158 E.03415
G1 X133.489 Y129.722 E.03415
G1 X134.45 Y129.45 E.03415
G1 X135.437 Y129.352 E.03394
G1 X136.03 Y129.373 E.02031
G1 X136.927 Y129.535 E.03117
G1 X137.867 Y129.872 E.03415
G1 X138.733 Y130.368 E.03415
G1 X139.498 Y131.01 E.03415
G1 X139.862 Y131.446 E.01944
G1 X139.543 Y131.774 F18000
G1 F1800
G1 X139.778 Y132.058 E.01261
G1 X140.226 Y132.852 E.03118
G1 X140.532 Y133.721 E.03154
G1 X140.679 Y134.629 E.03145
G1 X140.663 Y135.547 E.03139
G1 X140.486 Y136.447 E.03139
G1 X140.284 Y136.992 E.01987
G1 X140.021 Y137.552 E.02118
G1 X139.675 Y138.086 E.02175
G1 X139.067 Y138.773 E.03139
G1 X138.347 Y139.342 E.03139
G1 X137.538 Y139.775 E.03139
G1 X136.665 Y140.06 E.03139
G1 X135.756 Y140.186 E.03139
G1 X134.845 Y140.15 E.03118
G1 X133.945 Y139.953 E.03154
G1 X133.095 Y139.601 E.03145
G1 X132.322 Y139.106 E.03139
G1 X131.649 Y138.482 E.03139
G1 X131.096 Y137.75 E.03139
G1 X130.683 Y136.937 E.03118
G1 X130.416 Y136.055 E.03154
G1 X130.317 Y135.223 E.02867
G1 X130.31 Y134.859 E.01245
G1 X130.366 Y134.225 E.02175
G1 X130.583 Y133.334 E.03139
G1 X130.953 Y132.494 E.03139
G1 X131.465 Y131.732 E.03139
G1 X132.104 Y131.073 E.03139
G1 X132.848 Y130.536 E.03139
G1 X133.675 Y130.139 E.03139
G1 X134.56 Y129.894 E.03139
G1 X135.467 Y129.808 E.03119
G1 X136.001 Y129.829 E.01825
G1 X136.837 Y129.983 E.02908
G1 X137.699 Y130.297 E.03139
G1 X138.493 Y130.757 E.03139
G1 X139.193 Y131.351 E.03139
G1 X139.517 Y131.743 E.01741
G1 X139.196 Y132.068 F18000
G1 F1800
G1 X139.418 Y132.339 E.012
G1 X139.823 Y133.066 E.02843
G1 X140.097 Y133.861 E.02879
G1 X140.226 Y134.69 E.02868
G1 X140.206 Y135.527 E.02863
G1 X140.04 Y136.347 E.02863
G1 X139.863 Y136.815 E.01711
G1 X139.638 Y137.304 E.01842
G1 X139.292 Y137.837 E.02175
G1 X138.733 Y138.461 E.02863
G1 X138.073 Y138.976 E.02863
G1 X137.333 Y139.367 E.02863
G1 X136.536 Y139.621 E.02863
G1 X135.706 Y139.731 E.02863
G1 X134.875 Y139.694 E.02843
G1 X134.054 Y139.51 E.02879
G1 X133.282 Y139.184 E.02868
G1 X132.58 Y138.728 E.02863
G1 X131.969 Y138.156 E.02863
G1 X131.468 Y137.485 E.02863
G1 X131.096 Y136.741 E.02843
G1 X130.857 Y135.934 E.02879
G1 X130.772 Y135.182 E.02589
G1 X130.815 Y134.335 E.02903
G1 X131.024 Y133.453 E.03097
G1 X131.366 Y132.69 E.02863
G1 X131.837 Y131.998 E.02863
G1 X132.423 Y131.4 E.02864
G1 X133.105 Y130.914 E.02863
M73 P1 R112
G1 X133.862 Y130.556 E.02863
G1 X134.67 Y130.337 E.02863
G1 X135.498 Y130.264 E.02843
G1 X136.123 Y130.305 E.02143
G1 X136.746 Y130.431 E.02175
G1 X137.531 Y130.722 E.02863
G1 X138.253 Y131.146 E.02863
G1 X138.888 Y131.691 E.02863
G1 X139.171 Y132.037 E.01526
G1 X138.846 Y132.358 F18000
G1 F1800
G1 X139.058 Y132.621 E.01156
G1 X139.419 Y133.279 E.02568
G1 X139.662 Y134.001 E.02605
G1 X139.773 Y134.75 E.0259
G1 X139.75 Y135.506 E.02588
G1 X139.594 Y136.247 E.02588
G1 X139.311 Y136.948 E.02587
G1 X138.908 Y137.589 E.02588
G1 X138.399 Y138.148 E.02588
G1 X137.8 Y138.61 E.02588
G1 X137.128 Y138.958 E.02588
G1 X136.406 Y139.183 E.02588
G1 X135.655 Y139.277 E.02588
G1 X134.905 Y139.238 E.02568
G1 X134.164 Y139.066 E.02604
G1 X133.468 Y138.767 E.0259
G1 X132.837 Y138.35 E.02588
G1 X132.288 Y137.829 E.02588
G1 X131.84 Y137.219 E.02588
G1 X131.509 Y136.546 E.02568
G1 X131.298 Y135.814 E.02605
G1 X131.228 Y135.142 E.02312
G1 X131.271 Y134.375 E.02627
G1 X131.465 Y133.573 E.02821
G1 X131.779 Y132.885 E.02588
G1 X132.209 Y132.263 E.02587
G1 X132.743 Y131.727 E.02588
G1 X133.362 Y131.292 E.02588
G1 X134.048 Y130.974 E.02588
G1 X134.78 Y130.781 E.02588
G1 X135.528 Y130.72 E.02568
G1 X136.033 Y130.753 E.01728
G1 X136.656 Y130.879 E.02175
G1 X137.363 Y131.147 E.02588
G1 X138.013 Y131.535 E.02588
G1 X138.583 Y132.032 E.02588
G1 X138.821 Y132.327 E.01295
G1 X138.492 Y132.643 F18000
;TYPE:Outer wall
G1 F1800
G1 X138.698 Y132.903 E.01134
G1 X139.015 Y133.493 E.02293
G1 X139.226 Y134.141 E.0233
G1 X139.32 Y134.811 E.02313
G1 X139.293 Y135.486 E.02312
G1 X139.148 Y136.146 E.02312
G1 X138.89 Y136.771 E.02312
G1 X138.525 Y137.34 E.02312
G1 X138.066 Y137.836 E.02312
G1 X137.526 Y138.243 E.02312
G1 X136.923 Y138.549 E.02312
G1 X136.276 Y138.745 E.02312
G1 X135.605 Y138.823 E.02312
G1 X134.936 Y138.782 E.02293
G1 X134.273 Y138.622 E.0233
G1 X133.655 Y138.35 E.02313
G1 X133.094 Y137.972 E.02312
G1 X132.608 Y137.502 E.02312
G1 X132.213 Y136.954 E.02312
G1 X131.922 Y136.35 E.02293
G1 X131.739 Y135.693 E.0233
G1 X131.683 Y135.101 E.02034
G1 X131.726 Y134.415 E.02351
G1 X131.906 Y133.693 E.02546
G1 X132.192 Y133.081 E.02312
G1 X132.582 Y132.529 E.02312
G1 X133.062 Y132.053 E.02312
G1 X133.619 Y131.67 E.02312
G1 X134.235 Y131.391 E.02312
G1 X134.89 Y131.225 E.02312
G1 X135.559 Y131.176 E.02293
G1 X135.942 Y131.201 E.01314
G1 X136.565 Y131.327 E.02175
G1 X137.195 Y131.572 E.02312
G1 X137.773 Y131.924 E.02312
G1 X138.279 Y132.372 E.02312
G1 X138.467 Y132.611 E.01042
G1 E-1.5
;WIPE_START
G1 F12000
G1 X138.698 Y132.903
G1 X139.015 Y133.493
G1 X139.226 Y134.141
G1 X139.265 Y134.415
;WIPE_END
G1 Z.4 F18000
G1 X107.23 Y130.421 Z.4
G1 Z.2
G1 E1.5 F1800
;TYPE:Inner wall
G1 X107.591 Y130.158 E.01527
G1 X108.489 Y129.722 E.03415
G1 X109.45 Y129.45 E.03415
G1 X110.437 Y129.352 E.03394
G1 X111.03 Y129.373 E.02031
G1 X111.927 Y129.535 E.03117
G1 X112.867 Y129.872 E.03415
G1 X113.733 Y130.368 E.03415
G1 X114.498 Y131.01 E.03415
G1 X115.138 Y131.776 E.03415
G1 X115.633 Y132.643 E.03415
G1 X115.966 Y133.578 E.03394
G1 X116.122 Y134.498 E.03192
G1 X116.148 Y134.932 E.01487
G1 X116.12 Y135.567 E.02175
G1 X116.021 Y136.155 E.02038
G1 X115.886 Y136.718 E.0198
G1 X115.575 Y137.48 E.02816
G1 X115.059 Y138.335 E.03415
G1 X114.401 Y139.085 E.03415
G1 X113.62 Y139.708 E.03415
G1 X112.743 Y140.184 E.03415
G1 X111.795 Y140.498 E.03415
G1 X110.807 Y140.64 E.03415
G1 X109.815 Y140.606 E.03394
G1 X108.835 Y140.397 E.03428
G1 X107.908 Y140.019 E.03423
G1 X107.065 Y139.484 E.03415
G1 X106.33 Y138.809 E.03415
G1 X105.724 Y138.015 E.03415
G1 X105.268 Y137.127 E.03415
G1 X104.975 Y136.173 E.03415
G1 X104.855 Y135.182 E.03415
G1 X104.91 Y134.191 E.03394
G1 X105.141 Y133.216 E.03428
G1 X105.54 Y132.298 E.03423
G1 X106.093 Y131.467 E.03415
G1 X106.784 Y130.746 E.03415
G1 X107.198 Y130.445 E.01752
G1 X107.503 Y130.785 F18000
G1 F1800
G1 X107.848 Y130.536 E.01453
G1 X108.675 Y130.139 E.03139
G1 X109.56 Y129.894 E.03139
G1 X110.467 Y129.808 E.03119
G1 X111.001 Y129.829 E.01825
G1 X111.837 Y129.983 E.02908
G1 X112.699 Y130.297 E.03139
G1 X113.493 Y130.757 E.03139
G1 X114.193 Y131.351 E.03139
G1 X114.778 Y132.058 E.03139
G1 X115.229 Y132.857 E.03139
G1 X115.531 Y133.717 E.03118
G1 X115.669 Y134.559 E.02917
G1 X115.691 Y134.912 E.01209
G1 X115.663 Y135.547 E.02175
G1 X115.575 Y136.054 E.01762
G1 X115.45 Y136.58 E.01846
G1 X115.154 Y137.303 E.02674
G1 X114.675 Y138.086 E.03139
G1 X114.067 Y138.773 E.03139
G1 X113.347 Y139.342 E.03139
G1 X112.538 Y139.775 E.03139
G1 X111.665 Y140.06 E.03139
G1 X110.756 Y140.186 E.03139
G1 X109.845 Y140.15 E.03118
G1 X108.945 Y139.953 E.03154
G1 X108.095 Y139.601 E.03145
G1 X107.322 Y139.106 E.03139
G1 X106.649 Y138.482 E.03139
G1 X106.096 Y137.75 E.03139
G1 X105.681 Y136.932 E.03139
G1 X105.416 Y136.053 E.03139
G1 X105.31 Y135.141 E.03139
G1 X105.365 Y134.231 E.03118
G1 X105.582 Y133.335 E.03154
G1 X105.953 Y132.494 E.03145
G1 X106.465 Y131.732 E.03139
G1 X107.104 Y131.073 E.03139
G1 X107.471 Y130.808 E.01549
G1 X107.774 Y131.15 F18000
G1 F1800
G1 X108.105 Y130.914 E.01392
