; HEADER_BLOCK_START
; generated by OrcaSlicer 2.2.0 on 2024-11-25 at 18:14:15
; total layer number: 25
; filament_density: 1.27
; filament_diameter: 1.75
; max_z_height: 5.00
; HEADER_BLOCK_END

; THUMBNAIL_BLOCK_START

;
; THUMBNAIL_BLOCK_END

; THUMBNAIL_BLOCK_START

;
; THUMBNAIL_BLOCK_END

; external perimeters extrusion width = 0.42mm
; perimeters extrusion width = 0.45mm
; infill extrusion width = 0.45mm
; solid infill extrusion width = 0.45mm
; top infill extrusion width = 0.42mm
; first layer extrusion width = 0.50mm

; EXECUTABLE_BLOCK_START
EXCLUDE_OBJECT_DEFINE NAME=Corps3.stl_id_0_copy_0 CENTER=115,115 POLYGON=[[103,105.5],[103.007,105.229],[103.029,104.959],[103.066,104.691],[103.117,104.425],[103.182,104.162],[103.262,103.903],[103.355,103.649],[103.462,103.401],[103.582,103.158],[103.716,102.922],[103.862,102.694],[104.02,102.474],[104.189,102.263],[104.37,102.062],[104.562,101.87],[104.763,101.689],[104.974,101.52],[105.194,101.362],[105.422,101.216],[105.658,101.082],[105.901,100.962],[106.149,100.855],[106.403,100.762],[106.662,100.682],[106.925,100.617],[107.191,100.566],[107.459,100.529],[107.729,100.507],[108,100.5],[122,100.5],[122.271,100.507],[122.541,100.529],[122.809,100.566],[123.075,100.617],[123.338,100.682],[123.597,100.762],[123.851,100.855],[124.099,100.962],[124.342,101.082],[124.578,101.216],[124.806,101.362],[125.026,101.52],[125.237,101.689],[125.438,101.87],[125.63,102.062],[125.811,102.263],[125.98,102.474],[126.138,102.694],[126.284,102.922],[126.418,103.158],[126.538,103.401],[126.645,103.649],[126.738,103.903],[126.818,104.162],[126.883,104.425],[126.934,104.691],[126.971,104.959],[126.993,105.229],[127,105.5],[127,129.5],[103,129.5],[103,105.5]]
M73 P0 R5
;TYPE:Custom
M220 S100
G90 ; use absolute coordinates
M83 ; extruder relative mode
M104 S150 ; set temporary nozzle temp to prevent oozing during homing
M140 S70 ; set final bed temp
G4 S30 ; allow partial nozzle warmup
G28 ; home all axis and restore leveling
BED_MESH_CALIBRATE
G1 Z25 F240
G1 X10.0 Y30 F3000
M73 P2 R5
M104 S245 ; set final nozzle temp
M190 S70 ; wait for bed temp to stabilize
M109 S245 ; wait for nozzle temp to stabilize
M73 P2 R5
G1 Z0.28 F240
G92 E0 ; Move Z Axis up
LINE_PURGE
G92 E0 ; Move Z Axis up
G1 Z2.0 F3000
M73 P4 R4
M117 Start Printing..
G90
G21
M83 ; use relative distances for extrusion
; filament start gcode
M106 S0
;LAYER_CHANGE
;Z:0.2
;HEIGHT:0.2
;BEFORE_LAYER_CHANGE
;0.2
G92 E0

M73 P4 R4
G1 E-.5 F1800
;_SET_FAN_SPEED_CHANGING_LAYER
SET_VELOCITY_LIMIT ACCEL=1000
SET_VELOCITY_LIMIT SQUARE_CORNER_VELOCITY=7
; printing object Corps3.stl id:0 copy 0
EXCLUDE_OBJECT_START NAME=Corps3.stl_id_0_copy_0
G1 Z.4 F24000
G1 X111.757 Y148.743
G1 Z.4
G1 Z.2
G1 E.5 F1800
;TYPE:Inner wall
;WIDTH:0.499999
G1 F3000
G1 X111.757 Y125.529 E.83817
G1 X111.815 Y124.814 E.02591
G1 X111.956 Y124.248 E.02104
G1 X112.15 Y123.719 E.02036
G1 X112.418 Y123.235 E.01997
G1 X112.775 Y122.754 E.02163
G1 X113.15 Y122.366 E.01948
G1 X113.545 Y122.046 E.01835
G1 X114.013 Y121.752 E.01996
G1 X114.515 Y121.531 E.0198
G1 X115.232 Y121.332 E.02688
G1 X115.773 Y121.264 E.0197
G1 X130.024 Y121.259 E.51453
G1 X130.827 Y121.343 E.02917
G1 X131.354 Y121.48 E.01966
G1 X131.861 Y121.693 E.01984
G1 X132.446 Y122.041 E.02456
G1 X132.845 Y122.359 E.01844
G1 X133.227 Y122.747 E.01966
G1 X133.634 Y123.314 E.02519
G1 X133.892 Y123.835 E.02099
G1 X134.088 Y124.37 E.02059
G1 X134.196 Y124.901 E.01957
G1 X134.243 Y125.531 E.0228
G1 X134.243 Y148.743 E.83809
G1 X111.797 Y148.743 E.81043
M73 P5 R4
M73 P5 R4
G1 X111.3 Y149.2 F24000
;TYPE:Outer wall
G1 F3000
G1 X111.3 Y125.51 E.85534
G1 X111.363 Y124.739 E.02792
G1 X111.548 Y123.997 E.02764
G1 X111.735 Y123.527 E.01826
G1 X111.973 Y123.077 E.01837
G1 X112.259 Y122.656 E.01837
G1 X112.588 Y122.268 E.01837
G1 X112.958 Y121.918 E.01838
G1 X113.362 Y121.61 E.01835
G1 X113.799 Y121.348 E.01838
G1 X114.261 Y121.134 E.01837
G1 X114.743 Y120.972 E.01837
G1 X115.24 Y120.862 E.01838
G1 X115.746 Y120.807 E.0184
G1 X129.998 Y120.8 E.51456
G1 X130.508 Y120.828 E.01845
G1 X131.01 Y120.91 E.01837
G1 X131.501 Y121.046 E.01837
G1 X131.973 Y121.235 E.01837
G1 X132.423 Y121.473 E.01837
G1 X132.844 Y121.759 E.01837
G1 X133.232 Y122.088 E.01837
G1 X133.58 Y122.455 E.01827
G1 X134.027 Y123.078 E.02765
G1 X134.367 Y123.763 E.02764
G1 X134.554 Y124.36 E.02258
G1 X134.65 Y124.852 E.01809
G1 X134.7 Y125.531 E.02458
G1 X134.7 Y149.2 E.85459
G1 X111.34 Y149.2 E.84344
G1 E-.5 F1800
;WIPE_START
G1 F12000
G1 X111.337 Y147.2
;WIPE_END
G1 Z.4 F24000
G1 X130.573 Y132 Z.4
G1 Z.2
M73 P6 R4
M73 P6 R4
G1 E.5 F1800
;TYPE:Inner wall
G1 F3000
G1 X130.573 Y132.023 E.00084
G1 X131.05 Y132.677 E.02923
G1 X131.469 Y133.505 E.03349
G1 X131.739 Y134.392 E.03349
G1 X131.852 Y135.313 E.03349
G1 X131.804 Y136.239 E.03349
G1 X131.597 Y137.143 E.03349
G1 X131.237 Y137.998 E.03349
G1 X130.907 Y138.544 E.02305
G1 X130.526 Y139.033 E.02235
G1 X130.092 Y139.473 E.02235
G1 X129.609 Y139.861 E.02235
G1 X129.085 Y140.191 E.02235
G1 X128.527 Y140.458 E.02234
G1 X127.942 Y140.659 E.02235
G1 X127.337 Y140.79 E.02235
G1 X126.721 Y140.852 E.02234
G1 X125.813 Y140.811 E.0328
G1 X125.186 Y140.693 E.02305
G1 X124.596 Y140.506 E.02235
G1 X124.031 Y140.253 E.02235
G1 X123.596 Y139.995 E.01827
G1 X123.024 Y139.573 E.02567
G1 X122.977 Y139.573 E.00169
G1 X122.323 Y140.05 E.02923
G1 X121.385 Y140.512 E.03776
G1 X120.608 Y140.739 E.02922
G1 X119.687 Y140.852 E.03349
G1 X118.761 Y140.804 E.03349
G1 X118.135 Y140.679 E.02303
G1 X117.546 Y140.487 E.02237
G1 X116.984 Y140.229 E.02234
G1 X116.456 Y139.907 E.02235
G1 X115.967 Y139.526 E.02235
G1 X115.527 Y139.092 E.02235
G1 X115.139 Y138.609 E.02235
G1 X114.809 Y138.085 E.02235
G1 X114.542 Y137.527 E.02235
G1 X114.341 Y136.942 E.02235
G1 X114.21 Y136.337 E.02235
G1 X114.148 Y135.721 E.02234
G1 X114.189 Y134.813 E.0328
G1 X114.307 Y134.186 E.02304
G1 X114.494 Y133.596 E.02235
G1 X114.744 Y133.036 E.02215
G1 X115.063 Y132.5 E.02252
G1 X115.439 Y132.007 E.02237
G1 X115.108 Y131.566 E.01991
G1 X114.844 Y131.139 E.01814
G1 X114.424 Y130.205 E.03698
G1 X114.256 Y129.589 E.02305
G1 X114.165 Y128.977 E.02233
G1 X114.146 Y128.358 E.02237
G1 X114.248 Y127.456 E.03278
G1 X114.408 Y126.838 E.02305
G1 X114.678 Y126.198 E.02509
G1 X115.037 Y125.547 E.02682
G1 X115.387 Y125.077 E.02115
G1 X115.774 Y124.675 E.02015
G1 X116.143 Y124.326 E.01833
G1 X116.648 Y123.966 E.02239
G1 X117.114 Y123.709 E.01922
G1 X117.763 Y123.433 E.02545
G1 X118.354 Y123.268 E.02215
G1 X119.259 Y123.151 E.03297
G1 X119.898 Y123.159 E.02306
G1 X120.512 Y123.24 E.02235
G1 X121.112 Y123.392 E.02235
G1 X121.69 Y123.612 E.02235
G1 X122.291 Y123.944 E.0248
G1 X123.018 Y124.438 E.03175
G1 X123.592 Y124.022 E.02561
G1 X124.031 Y123.747 E.0187
G1 X124.522 Y123.522 E.01948
G1 X125.392 Y123.261 E.0328
G1 X126.313 Y123.148 E.03349
G1 X127.239 Y123.196 E.03349
G1 X128.143 Y123.403 E.03349
G1 X128.998 Y123.763 E.03349
G1 X129.46 Y124.056 E.01975
G1 X129.964 Y124.422 E.02248
G1 X130.377 Y124.814 E.02056
G1 X130.849 Y125.376 E.0265
G1 X131.366 Y126.262 E.03705
G1 X131.567 Y126.763 E.01948
G1 X131.786 Y127.644 E.0328
G1 X131.852 Y128.279 E.02304
G1 X131.841 Y128.898 E.02235
G1 X131.76 Y129.511 E.02234
G1 X131.608 Y130.112 E.02237
G1 X131.388 Y130.69 E.02233
G1 X131.111 Y131.223 E.02168
G1 X130.582 Y131.963 E.03284
G1 X129.913 Y132 F24000
;TYPE:Outer wall
G1 F3000
G1 X130.204 Y132.293 E.01489
G1 X130.681 Y132.947 E.02923
G1 X131.059 Y133.706 E.03064
G1 X131.3 Y134.52 E.03064
G1 X131.397 Y135.363 E.03064
G1 X131.347 Y136.21 E.03064
G1 X131.152 Y137.036 E.03064
G1 X130.817 Y137.816 E.03064
G1 X130.518 Y138.304 E.02067
G1 X130.168 Y138.749 E.02044
G1 X129.769 Y139.15 E.02044
G1 X129.326 Y139.503 E.02044
G1 X128.845 Y139.802 E.02044
G1 X128.333 Y140.044 E.02044
G1 X127.797 Y140.225 E.02045
G1 X127.243 Y140.343 E.02044
G1 X126.679 Y140.396 E.02044
G1 X125.838 Y140.354 E.03042
G1 X125.276 Y140.244 E.02067
G1 X124.737 Y140.071 E.02044
G1 X124.221 Y139.838 E.02044
G1 X123.736 Y139.546 E.02044
G1 X123.304 Y139.212 E.0197
G1 X123 Y138.913 E.01539
G1 X122.707 Y139.204 E.01489
G1 X122.053 Y139.681 E.02923
G1 X121.294 Y140.059 E.03064
G1 X120.48 Y140.3 E.03064
G1 X119.637 Y140.397 E.03064
G1 X118.79 Y140.347 E.03064
G1 X118.229 Y140.232 E.02066
G1 X117.691 Y140.054 E.02047
G1 X117.178 Y139.815 E.02043
G1 X116.696 Y139.518 E.02044
G1 X116.251 Y139.168 E.02044
G1 X115.85 Y138.769 E.02044
G1 X115.497 Y138.326 E.02044
G1 X115.198 Y137.845 E.02044
G1 X114.956 Y137.333 E.02044
G1 X114.775 Y136.796 E.02044
G1 X114.657 Y136.243 E.02044
G1 X114.604 Y135.679 E.02044
G1 X114.646 Y134.838 E.03042
G1 X114.756 Y134.276 E.02066
G1 X114.929 Y133.737 E.02045
G1 X115.16 Y133.226 E.02025
G1 X115.454 Y132.736 E.02063
G1 X115.8 Y132.288 E.02046
G1 X116.087 Y132 E.01465
G1 X115.8 Y131.712 E.01466
G1 X115.469 Y131.286 E.01949
G1 X115.175 Y130.802 E.02046
G1 X114.845 Y130.027 E.03041
G1 X114.698 Y129.474 E.02067
G1 X114.618 Y128.914 E.02043
G1 X114.603 Y128.347 E.02047
G1 X114.702 Y127.511 E.03041
G1 X114.849 Y126.958 E.02067
G1 X115.098 Y126.38 E.02271
G1 X115.425 Y125.788 E.02444
G1 X115.745 Y125.361 E.01925
G1 X116.287 Y124.819 E.02766
G1 X116.714 Y124.478 E.01974
G1 X117.332 Y124.111 E.02595
G1 X117.933 Y123.858 E.02355
G1 X118.473 Y123.709 E.02025
G1 X119.315 Y123.604 E.0306
G1 X119.887 Y123.616 E.02067
G1 X120.448 Y123.693 E.02045
G1 X120.996 Y123.834 E.02044
G1 X121.524 Y124.038 E.02044
G1 X122.066 Y124.342 E.02242
G1 X122.537 Y124.664 E.02062
G1 X122.994 Y125.081 E.02233
G1 X123.486 Y124.637 E.02392
G1 X124.026 Y124.285 E.02328
G1 X124.712 Y123.938 E.02775
G1 X125.52 Y123.7 E.03042
G1 X126.363 Y123.603 E.03064
G1 X127.21 Y123.652 E.03064
G1 X128.036 Y123.848 E.03064
G1 X128.816 Y124.183 E.03064
G1 X129.452 Y124.598 E.02744
G1 X129.866 Y124.947 E.01953
G1 X130.46 Y125.624 E.03252
G1 X130.942 Y126.432 E.03397
G1 X131.142 Y126.933 E.01948
G1 X131.342 Y127.751 E.03042
G1 X131.396 Y128.321 E.02067
G1 X131.384 Y128.887 E.02045
G1 X131.307 Y129.448 E.02043
G1 X131.166 Y129.996 E.02047
G1 X130.962 Y130.524 E.02043
G1 X130.707 Y131.009 E.01978
G1 X130.204 Y131.707 E.03107
G1 X129.941 Y131.972 E.01345
G1 E-.5 F1800
;WIPE_START
G1 F12000
G1 X130.204 Y132.293
G1 X130.681 Y132.947
G1 X131.027 Y133.641
M73 P7 R4
;WIPE_END
M73 P7 R4
G1 Z.4 F24000
G1 X131.849 Y121.842
G1 Z.4
G1 Z.2
G1 E.5 F1800
;TYPE:Bottom surface
;WIDTH:0.505409
G1 F5837.976
G1 X132.962 Y122.966 E.05779
G1 X133.339 Y123.491 E.02362
G1 X133.626 Y124.07 E.02359
G1 X133.728 Y124.375 E.01174
G1 X131.126 Y121.773 E.13443
G1 X130.838 Y121.693 E.01093
G1 X130.318 Y121.619 E.01918
G1 X133.872 Y125.172 E.18359
G1 X133.9 Y125.518 E.01268
G1 X133.9 Y125.854 E.01229
G1 X129.646 Y121.6 E.21981
G1 X128.992 Y121.6 E.0239
G1 X133.9 Y126.509 E.2536
G1 X133.9 Y127.163 E.02389
G1 X128.338 Y121.6 E.28739
G1 X127.683 Y121.6 E.0239
G1 X133.9 Y127.817 E.32119
G1 X133.9 Y128.471 E.02389
G1 X131.762 Y126.333 E.11047
G1 X131.651 Y126.059 E.01079
G1 X131.117 Y125.162 E.03813
G1 X130.535 Y124.474 E.03293
G1 X129.972 Y123.983 E.02728
G1 X129.142 Y123.452 E.03601
G1 X128.695 Y123.265 E.01771
G1 X127.029 Y121.6 E.08604
G1 X126.375 Y121.6 E.0239
G1 X127.735 Y122.96 E.07026
G1 X127.269 Y122.855 E.01747
G1 X126.961 Y122.84 E.01126
G1 X125.721 Y121.6 E.06405
G1 X125.067 Y121.6 E.0239
G1 X126.275 Y122.808 E.0624
G1 X125.687 Y122.874 E.0216
G1 X124.413 Y121.6 E.06583
G1 X123.759 Y121.6 E.0239
G1 X125.143 Y122.983 E.07148
G1 X124.638 Y123.133 E.01923
G1 X123.105 Y121.6 E.0792
G1 X122.451 Y121.6 E.0239
G1 X124.164 Y123.313 E.0885
G1 X123.725 Y123.528 E.01786
G1 X121.797 Y121.6 E.09961
G1 X121.143 Y121.6 E.0239
G1 X123.327 Y123.784 E.11287
G1 X122.995 Y124.01 E.01465
G1 X122.633 Y123.744 E.01644
G1 X120.489 Y121.6 E.11076
G1 X119.835 Y121.6 E.0239
G1 X121.346 Y123.111 E.07806
G1 X120.67 Y122.923 E.02561
M73 P8 R4
M73 P8 R4
G1 X120.474 Y122.893 E.00727
G1 X119.181 Y121.6 E.06681
G1 X118.527 Y121.6 E.0239
G1 X119.742 Y122.816 E.06282
G1 X119.337 Y122.802 E.01482
G1 X119.104 Y122.831 E.00857
G1 X117.873 Y121.6 E.06363
G1 X117.218 Y121.6 E.0239
G1 X118.522 Y122.904 E.06737
G1 X118.271 Y122.935 E.00926
G1 X117.981 Y123.017 E.01099
G1 X116.565 Y121.6 E.0732
G1 X115.916 Y121.606 E.02369
G1 X117.487 Y123.176 E.08115
G1 X117.024 Y123.368 E.01829
G1 X115.32 Y121.664 E.08804
G1 X114.957 Y121.744 E.01358
G1 X114.799 Y121.797 E.00609
G1 X116.602 Y123.599 E.09313
G1 X116.206 Y123.858 E.01726
G1 X114.331 Y121.983 E.09687
G1 X114.174 Y122.056 E.00633
G1 X113.909 Y122.215 E.01129
G1 X115.844 Y124.149 E.09995
G1 X115.506 Y124.466 E.01691
G1 X113.529 Y122.489 E.10215
G1 X113.188 Y122.802 E.01691
G1 X115.177 Y124.791 E.10278
G1 X114.889 Y125.157 E.01701
G1 X112.887 Y123.155 E.10343
G1 X112.628 Y123.55 E.01726
G1 X114.631 Y125.553 E.10348
G1 X114.51 Y125.747 E.00835
G1 X114.405 Y125.981 E.00939
G1 X112.412 Y123.988 E.10299
G1 X112.311 Y124.242 E.01
G1 X112.251 Y124.481 E.009
G1 X114.204 Y126.434 E.10089
G1 X114.124 Y126.614 E.00721
G1 X114.036 Y126.92 E.01163
G1 X112.142 Y125.026 E.09786
G1 X112.1 Y125.638 E.02241
G1 X113.911 Y127.449 E.09358
G1 X113.835 Y128.028 E.0213
G1 X112.1 Y126.292 E.08966
G1 X112.1 Y126.946 E.02389
G1 X113.818 Y128.664 E.08876
G1 X113.825 Y129.018 E.01294
G1 X113.875 Y129.376 E.01319
G1 X112.1 Y127.6 E.09173
G1 X112.1 Y128.254 E.02389
G1 X114.078 Y130.233 E.10222
G1 X114.105 Y130.332 E.00374
G1 X114.486 Y131.21 E.03496
G1 X114.617 Y131.426 E.00924
G1 X112.1 Y128.908 E.13007
G1 X112.1 Y129.563 E.02389
G1 X114.808 Y132.271 E.13991
G1 X114.56 Y132.677 E.01738
G1 X112.1 Y130.217 E.12711
G1 X112.1 Y130.871 E.02389
G1 X114.337 Y133.108 E.11559
M73 P9 R4
M73 P9 R4
G1 X114.143 Y133.567 E.01823
G1 X112.1 Y131.525 E.10554
G1 X112.1 Y132.179 E.02389
G1 X113.988 Y134.067 E.09756
G1 X113.881 Y134.614 E.02037
G1 X112.1 Y132.833 E.09203
G1 X112.1 Y133.487 E.02389
G1 X113.825 Y135.212 E.08915
G1 X113.802 Y135.66 E.01639
G1 X113.821 Y135.862 E.00738
G1 X112.1 Y134.141 E.08891
G1 X112.1 Y134.795 E.02389
G1 X113.921 Y136.616 E.09406
G1 X114.015 Y137.045 E.01606
G1 X114.182 Y137.532 E.01881
G1 X111.894 Y135.243 E.11823
G1 E-.5 F1800
;WIPE_START
G1 F12000
G1 X113.308 Y136.658
;WIPE_END
G1 Z.4 F24000
G1 X134.106 Y129.33 Z.4
G1 Z.2
G1 E.5 F1800
G1 F5837.976
G1 X132.046 Y127.27 E.10645
G1 X132.121 Y127.571 E.01132
G1 X132.172 Y128.051 E.01764
G1 X133.9 Y129.779 E.08928
G1 X133.9 Y130.433 E.02389
G1 X132.187 Y128.72 E.08852
G1 X132.184 Y128.912 E.00702
G1 X132.13 Y129.317 E.01494
G1 X133.9 Y131.087 E.09143
G1 X133.9 Y131.741 E.02389
G1 X132.023 Y129.863 E.097
G1 X131.878 Y130.373 E.01935
G1 X133.9 Y132.395 E.10446
G1 X133.9 Y133.049 E.02389
G1 X131.692 Y130.841 E.11411
G1 X131.471 Y131.274 E.01777
G1 X133.9 Y133.703 E.12551
G1 X133.9 Y134.357 E.02389
G1 X131.216 Y131.674 E.13865
G1 X130.98 Y132 E.01473
G1 X131.219 Y132.331 E.01491
G1 X133.9 Y135.011 E.1385
G1 X133.9 Y135.665 E.02389
G1 X131.875 Y133.64 E.10464
G1 X132.109 Y134.529 E.03358
G1 X133.9 Y136.319 E.09251
G1 X133.9 Y136.973 E.02389
G1 X132.191 Y135.265 E.08829
G1 X132.164 Y135.891 E.02292
G1 X133.9 Y137.628 E.08971
M73 P10 R4
M73 P10 R4
G1 X133.9 Y138.282 E.02389
G1 X132.106 Y136.488 E.09268
G1 X131.973 Y137.009 E.01964
G1 X133.9 Y138.936 E.09957
G1 X133.9 Y139.59 E.02389
G1 X131.821 Y137.51 E.10744
G1 X131.619 Y137.962 E.01809
G1 X133.9 Y140.244 E.11786
G1 X133.9 Y140.898 E.02389
G1 X131.399 Y138.397 E.1292
G1 X131.146 Y138.798 E.01732
G1 X133.9 Y141.552 E.14229
G1 X133.9 Y142.206 E.02389
G1 X130.856 Y139.162 E.15728
G1 X130.72 Y139.33 E.00791
G1 X130.543 Y139.503 E.00903
G1 X133.9 Y142.86 E.17343
G1 X133.9 Y143.514 E.02389
G1 X130.209 Y139.823 E.1907
G1 X129.841 Y140.109 E.01703
G1 X133.9 Y144.168 E.20972
G1 X133.9 Y144.822 E.02389
G1 X129.446 Y140.368 E.23015
G1 X129.026 Y140.602 E.01756
G1 X133.9 Y145.476 E.25184
G1 X133.9 Y146.13 E.02389
G1 X128.577 Y140.807 E.27504
G1 X128.087 Y140.971 E.01887
G1 X133.9 Y146.784 E.30034
G1 X133.9 Y147.438 E.02389
G1 X127.555 Y141.093 E.32785
G1 X127.371 Y141.133 E.00686
G1 X126.977 Y141.169 E.01447
G1 X133.9 Y148.092 E.35771
G1 X133.9 Y148.4 E.01124
G1 X133.554 Y148.4 E.01265
