; HEADER_BLOCK_START
; generated by OrcaSlicer 2.1.1 on 2024-06-28 at 20:27:19
; total layer number: 15
; filament_density: 1.24
; filament_diameter: 1.75
; max_z_height: 3.00
; HEADER_BLOCK_END

; THUMBNAIL_BLOCK_START

;
; THUMBNAIL_BLOCK_END

; THUMBNAIL_BLOCK_START

;
; THUMBNAIL_BLOCK_END

; external perimeters extrusion width = 0.42mm
; perimeters extrusion width = 0.45mm
; infill extrusion width = 0.45mm
; solid infill extrusion width = 0.45mm
; top infill extrusion width = 0.42mm
; first layer extrusion width = 0.50mm

; EXECUTABLE_BLOCK_START
EXCLUDE_OBJECT_DEFINE NAME=Corps11.stl_id_0_copy_0 CENTER=115,115 POLYGON=[[46.4571,84.5573],[46.4775,82.7849],[46.5387,81.0449],[46.6406,79.3373],[46.7834,77.6619],[46.9669,76.019],[47.1912,74.4084],[47.4564,72.8302],[47.7623,71.2843],[48.1089,69.7708],[48.4964,68.2896],[48.9247,66.8408],[49.3937,65.4244],[49.9036,64.0403],[50.4542,62.6886],[51.0456,61.3692],[51.6778,60.0823],[52.3508,58.8276],[53.0646,57.6054],[53.8191,56.4155],[54.6145,55.258],[55.4506,54.1329],[56.3275,53.0401],[57.2452,51.9797],[58.2037,50.9517],[59.203,49.956],[60.2431,48.9928],[61.3239,48.0619],[62.4456,47.1633],[63.608,46.2972],[64.8112,45.4634],[66.0552,44.662],[67.34,43.893],[68.4203,43.2972],[69.5254,42.7203],[70.6554,42.1623],[71.8103,41.6233],[72.9901,41.1031],[74.1947,40.6019],[75.4242,40.1197],[76.6786,39.6563],[77.9579,39.2119],[79.2621,38.7864],[80.5911,38.3798],[81.945,37.9921],[83.3239,37.6234],[84.7276,37.2735],[86.1562,36.9426],[87.6097,36.6306],[89.0881,36.3375],[90.5914,36.0634],[92.1195,35.8081],[93.6726,35.5718],[95.2506,35.3543],[96.8535,35.1558],[98.4813,34.9762],[100.134,34.8155],[101.812,34.6737],[103.514,34.5509],[105.242,34.4469],[106.994,34.3618],[108.771,34.2957],[110.573,34.2484],[112.401,34.22],[114.253,34.2106],[117.693,34.2354],[121.087,34.2959],[124.438,34.3968],[127.747,34.538],[131.013,34.7196],[134.238,34.9416],[137.42,35.2038],[140.56,35.5065],[142.107,35.6822],[143.633,35.8864],[145.136,36.1191],[146.617,36.3805],[148.076,36.6703],[149.513,36.9887],[150.927,37.3357],[152.32,37.7113],[153.69,38.1155],[155.038,38.5482],[156.364,39.0096],[157.668,39.4995],[158.949,40.0181],[160.208,40.5652],[161.445,41.141],[162.66,41.7455],[163.848,42.384],[165.005,43.0639],[166.13,43.785],[167.224,44.5475],[168.287,45.3512],[169.318,46.1962],[170.318,47.0824],[171.287,48.0099],[172.225,48.9786],[173.131,49.9885],[174.006,51.0395],[174.851,52.1318],[175.663,53.2652],[176.445,54.4398],[177.196,55.6556],[177.915,56.9124],[178.596,58.2172],[179.233,59.5785],[179.826,60.9963],[180.376,62.4705],[180.881,64.0012],[181.343,65.5882],[181.761,67.2317],[182.135,68.9316],[182.465,70.6878],[182.751,72.5003],[182.993,74.3691],[183.191,76.2943],[183.345,78.2757],[183.455,80.3133],[183.521,82.4072],[183.543,84.5573],[183.516,85.8791],[183.471,87.1817],[181.013,149.574],[180.906,151.657],[180.756,153.68],[180.563,155.644],[180.328,157.548],[180.049,159.392],[179.727,161.177],[179.363,162.901],[178.956,164.567],[178.505,166.172],[178.012,167.718],[177.476,169.204],[176.897,170.631],[176.275,171.998],[175.61,173.305],[174.908,174.562],[174.176,175.776],[173.412,176.948],[172.618,178.079],[171.793,179.167],[170.937,180.214],[170.051,181.218],[169.134,182.18],[168.186,183.101],[167.208,183.979],[166.198,184.815],[165.159,185.61],[164.088,186.362],[162.987,187.072],[161.855,187.74],[160.693,188.366],[159.504,188.957],[158.294,189.52],[157.063,190.056],[155.811,190.564],[154.537,191.044],[153.243,191.497],[151.927,191.922],[150.591,192.319],[149.233,192.688],[147.854,193.03],[146.453,193.344],[145.032,193.63],[143.589,193.889],[142.126,194.12],[140.641,194.323],[139.134,194.498],[136.083,194.801],[133.001,195.063],[129.887,195.285],[126.741,195.467],[123.565,195.608],[120.356,195.709],[117.117,195.769],[113.845,195.789],[111.903,195.781],[109.99,195.754],[108.108,195.71],[106.256,195.648],[104.434,195.569],[102.642,195.472],[100.881,195.357],[99.1497,195.225],[97.4487,195.075],[95.7779,194.907],[94.1373,194.722],[92.5269,194.519],[90.9466,194.298],[89.3967,194.06],[87.8769,193.804],[86.3872,193.53],[84.9278,193.239],[83.4986,192.93],[82.0996,192.604],[80.7307,192.26],[79.3921,191.898],[78.0837,191.519],[76.8054,191.122],[75.5573,190.707],[74.3395,190.275],[73.1518,189.825],[71.9943,189.357],[70.867,188.872],[69.7699,188.369],[68.703,187.849],[67.6662,187.311],[66.6597,186.755],[65.4167,186.011],[64.2132,185.231],[63.0492,184.415],[61.9247,183.564],[60.8396,182.677],[59.7939,181.754],[58.7877,180.795],[57.821,179.801],[56.8938,178.771],[56.0059,177.706],[55.1576,176.604],[54.3487,175.467],[53.5793,174.295],[52.8493,173.086],[52.1588,171.842],[51.5077,170.562],[50.8961,169.247],[50.324,167.895],[49.7913,166.508],[49.2981,165.086],[48.8443,163.628],[48.43,162.133],[48.0551,160.604],[47.7197,159.038],[47.4238,157.437],[47.1673,155.8],[46.9503,154.128],[46.7728,152.42],[46.6346,150.676],[46.536,148.896],[46.4768,147.081],[46.4571,145.23],[46.4571,84.5573]]
M73 P0 R80
;TYPE:Custom
M220 S100
G90 ; use absolute coordinates
M83 ; extruder relative mode
M104 S150 ; set temporary nozzle temp to prevent oozing during homing
M140 S55 ; set final bed temp
G4 S30 ; allow partial nozzle warmup
G28 ; home all axis and restore leveling
BED_MESH_CALIBRATE PROFILE=adaptive ADAPTIVE=1 ADAPTIVE_MARGIN=0
G1 Z25 F240
G1 X10.0 Y30 F3000
M104 S210 ; set final nozzle temp
M190 S55 ; wait for bed temp to stabilize
M109 S210 ; wait for nozzle temp to stabilize
G1 Z0.28 F240
G92 E0 ; Move Z Axis up
G1 Z2.0 F5000 ; Move to start position
G1 X5 Y30 Z0.28 F300 ; Draw the first line
G1 X5 Y200 Z0.28 F1500 E15 ; Move to side a little
G1 X5.4 Y200 Z0.28 F5000.0 ; Draw the second line
G1 X5.4 Y50 Z0.28 F1500.0 E30 ; Reset Extruder
G92 E0 ; Move Z Axis up
G1 Z2.0 F3000
M117 Start Printing..
G90
G21
M83 ; use relative distances for extrusion
; filament start gcode
M106 S0
;LAYER_CHANGE
;Z:0.2
;HEIGHT:0.2
;BEFORE_LAYER_CHANGE
;0.2
G92 E0

G1 E-.5 F1800
;_SET_FAN_SPEED_CHANGING_LAYER
SET_VELOCITY_LIMIT ACCEL=1000
SET_VELOCITY_LIMIT SQUARE_CORNER_VELOCITY=7
; printing object Corps11.stl id:0 copy 0
EXCLUDE_OBJECT_START NAME=Corps11.stl_id_0_copy_0
G1 Z.2 F24000
G1 X103.882 Y144.455
G1 Z.2
G1 E.5 F1800
;TYPE:Inner wall
;WIDTH:0.499999
G1 X103.728 Y144.453 E.00586
G1 X103.448 Y144.587 E.01181
G1 X103.258 Y144.826 E.0116
G1 X103.19 Y145.122 E.01155
G1 X103.19 Y165.234 E.76439
G1 X103.22 Y166.91 E.06371
G1 X103.253 Y167.796 E.03367
G1 X103.332 Y168.981 E.04515
G1 X103.441 Y170.115 E.04332
G1 X103.584 Y171.205 E.04177
G1 X103.708 Y171.931 E.028
G1 X104.007 Y173.355 E.0553
G1 X104.209 Y174.118 E.02999
G1 X104.425 Y174.797 E.02708
G1 X104.811 Y175.815 E.04137
G1 X105.146 Y176.537 E.03025
G1 X105.526 Y177.223 E.02982
G1 X105.949 Y177.859 E.02902
G1 X106.41 Y178.437 E.0281
G1 X107.02 Y179.046 E.03276
G1 X107.454 Y179.411 E.02156
G1 X108.002 Y179.797 E.02545
G1 X108.608 Y180.163 E.02689
G1 X109.259 Y180.5 E.02787
G1 X109.954 Y180.81 E.02896
G1 X110.893 Y181.159 E.03804
G1 X111.481 Y181.351 E.02352
G1 X112.459 Y181.617 E.03853
G1 X113.26 Y181.803 E.03124
G1 X114.11 Y181.97 E.03292
G1 X115.394 Y182.167 E.04938
G1 X117.141 Y182.365 E.06682
G1 X118.26 Y182.449 E.04263
G1 X119.802 Y182.521 E.05866
G1 X121.843 Y182.556 E.07759
G1 X123.011 Y182.544 E.0444
G1 X124.137 Y182.508 E.04282
G1 X125.224 Y182.449 E.04138
G1 X126.272 Y182.365 E.03997
G1 X127.292 Y182.255 E.03895
G1 X128.263 Y182.122 E.03726
G1 X129.196 Y181.965 E.03596
G1 X130.06 Y181.788 E.03354
G1 X130.946 Y181.574 E.03464
G1 X131.764 Y181.341 E.03232
G1 X132.544 Y181.083 E.03122
G1 X133.286 Y180.798 E.03019
G1 X133.989 Y180.486 E.02923
G1 X134.631 Y180.159 E.02741
G1 X135.279 Y179.782 E.02849
G1 X135.877 Y179.379 E.02739
G1 X136.442 Y178.923 E.0276
G1 X136.967 Y178.405 E.02803
G1 X137.451 Y177.828 E.02864
G1 X138.02 Y176.981 E.03876
G1 X138.3 Y176.502 E.0211
G1 X138.666 Y175.755 E.03162
G1 X138.994 Y174.952 E.03295
G1 X139.286 Y174.094 E.03443
G1 X139.542 Y173.181 E.03604
G1 X139.762 Y172.213 E.03775
G1 X139.946 Y171.202 E.03904
G1 X140.097 Y170.12 E.04151
G1 X140.215 Y168.983 E.04347
G1 X140.299 Y167.789 E.0455
G1 X140.356 Y165.987 E.06851
G1 X188.335 Y165.987 E1.82349
G1 X188.321 Y167.417 E.05435
G1 X188.257 Y169.544 E.08087
G1 X188.151 Y171.61 E.07863
G1 X188.002 Y173.616 E.07644
G1 X187.811 Y175.56 E.07427
G1 X187.578 Y177.445 E.07216
G1 X187.302 Y179.268 E.0701
G1 X186.984 Y181.031 E.06808
G1 X186.637 Y182.676 E.0639
G1 X186.223 Y184.375 E.06645
G1 X185.78 Y185.955 E.06237
G1 X185.295 Y187.475 E.06063
G1 X184.787 Y188.884 E.05696
G1 X184.201 Y190.332 E.05935
G1 X183.593 Y191.669 E.05584
G1 X182.942 Y192.949 E.05456
G1 X182.253 Y194.181 E.05366
G1 X181.534 Y195.374 E.05293
G1 X180.785 Y196.524 E.05217
G1 X180.006 Y197.632 E.05148
G1 X179.198 Y198.699 E.05085
G1 X178.36 Y199.723 E.0503
G1 X177.493 Y200.706 E.04982
G1 X176.596 Y201.648 E.04942
G1 X175.669 Y202.547 E.04909
G1 X174.713 Y203.406 E.04884
G1 X173.727 Y204.223 E.04867
G1 X172.711 Y204.999 E.04859
G1 X171.665 Y205.734 E.04858
G1 X170.589 Y206.427 E.04866
G1 X169.483 Y207.08 E.04881
G1 X168.345 Y207.693 E.04914
G1 X167.176 Y208.274 E.04963
G1 X165.983 Y208.83 E.05
G1 X164.769 Y209.358 E.0503
G1 X163.535 Y209.859 E.05064
G1 X162.279 Y210.332 E.05102
G1 X161.001 Y210.779 E.05143
G1 X159.703 Y211.198 E.05186
G1 X158.383 Y211.591 E.05232
G1 X157.042 Y211.955 E.05282
G1 X155.68 Y212.293 E.05335
G1 X154.342 Y212.593 E.05209
G1 X152.89 Y212.887 E.0563
G1 X151.464 Y213.142 E.05508
G1 X150.015 Y213.371 E.05572
G1 X148.546 Y213.572 E.05638
G1 X147.053 Y213.745 E.0571
G1 X144.014 Y214.047 E.11609
G1 X140.941 Y214.308 E.11718
G1 X137.838 Y214.529 E.11825
G1 X134.703 Y214.71 E.11936
G1 X131.536 Y214.851 E.12048
G1 X128.337 Y214.952 E.12162
G1 X125.107 Y215.012 E.12279
G1 X121.845 Y215.032 E.12401
G1 X119.911 Y215.024 E.07348
G1 X116.192 Y214.955 E.14138
G1 X112.471 Y214.813 E.14153
G1 X108.932 Y214.602 E.13472
G1 X107.214 Y214.47 E.0655
G1 X103.856 Y214.154 E.12819
G1 X102.229 Y213.97 E.06221
G1 X99.057 Y213.549 E.12164
G1 X96.008 Y213.058 E.11735
G1 X93.128 Y212.507 E.11147
G1 X91.664 Y212.191 E.05689
G1 X90.278 Y211.868 E.05411
G1 X88.922 Y211.527 E.05314
G1 X87.596 Y211.169 E.05218
G1 X86.301 Y210.793 E.05125
G1 X85.079 Y210.414 E.04863
G1 X83.803 Y209.991 E.0511
G1 X82.6 Y209.564 E.04851
G1 X81.428 Y209.12 E.04765
G1 X80.286 Y208.658 E.04681
G1 X79.174 Y208.18 E.04598
G1 X78.094 Y207.685 E.04519
G1 X77.043 Y207.172 E.04441
G1 X76.024 Y206.643 E.04367
G1 X75.037 Y206.099 E.04282
G1 X73.817 Y205.368 E.05404
G1 X72.636 Y204.603 E.05347
G1 X71.495 Y203.803 E.05297
G1 X70.393 Y202.969 E.05254
G1 X69.33 Y202.1 E.05219
G1 X68.306 Y201.196 E.05191
G1 X67.32 Y200.257 E.05172
G1 X66.374 Y199.284 E.0516
G1 X65.466 Y198.276 E.05156
G1 X64.597 Y197.232 E.05161
G1 X63.766 Y196.154 E.05174
G1 X62.974 Y195.04 E.05195
G1 X62.22 Y193.891 E.05223
G1 X61.504 Y192.707 E.0526
G1 X60.827 Y191.487 E.05303
G1 X60.189 Y190.231 E.05354
G1 X59.588 Y188.939 E.05413
G1 X59.026 Y187.612 E.05479
G1 X58.502 Y186.249 E.05551
G1 X58.017 Y184.849 E.05629
G1 X57.571 Y183.414 E.05714
G1 X57.163 Y181.942 E.05804
G1 X56.793 Y180.434 E.05901
G1 X56.462 Y178.89 E.06002
G1 X56.17 Y177.31 E.06108
G1 X55.917 Y175.693 E.06219
G1 X55.702 Y174.04 E.06335
G1 X55.527 Y172.351 E.06455
G1 X55.39 Y170.625 E.06579
G1 X55.292 Y168.863 E.06708
G1 X55.234 Y167.064 E.06838
G1 X55.214 Y165.226 E.06988
G1 X55.214 Y104.562 E2.30562
G1 X55.234 Y102.803 E.06686
G1 X55.295 Y101.081 E.06548
G1 X55.396 Y99.392 E.0643
G1 X55.537 Y97.736 E.06316
G1 X55.718 Y96.113 E.06207
G1 X55.94 Y94.523 E.06101
G1 X56.201 Y92.966 E.06
G1 X56.503 Y91.442 E.05905
G1 X56.844 Y89.951 E.05814
G1 X57.226 Y88.493 E.05729
G1 X57.647 Y87.067 E.0565
G1 X58.108 Y85.674 E.05576
G1 X58.61 Y84.314 E.0551
G1 X59.15 Y82.986 E.05448
G1 X59.731 Y81.691 E.05395
G1 X60.351 Y80.428 E.05348
G1 X61.011 Y79.198 E.05307
G1 X61.711 Y77.999 E.05274
G1 X62.451 Y76.833 E.0525
G1 X63.23 Y75.698 E.05231
G1 X64.05 Y74.596 E.05221
G1 X64.909 Y73.525 E.05218
G1 X65.809 Y72.486 E.05223
G1 X66.748 Y71.478 E.05236
G1 X67.695 Y70.535 E.05078
G1 X68.748 Y69.557 E.05462
G1 X69.808 Y68.644 E.05317
G1 X70.909 Y67.763 E.0536
G1 X72.05 Y66.912 E.0541
G1 X73.232 Y66.093 E.05466
G1 X74.455 Y65.305 E.05528
G1 X75.717 Y64.55 E.05593
G1 X76.778 Y63.964 E.04606
G1 X77.868 Y63.395 E.04672
G1 X78.983 Y62.845 E.04726
G1 X80.123 Y62.313 E.04782
G1 X81.288 Y61.799 E.04839
G1 X82.478 Y61.304 E.049
G1 X83.694 Y60.827 E.04961
G1 X84.934 Y60.369 E.05026
G1 X86.2 Y59.929 E.05091
G1 X87.49 Y59.508 E.0516
G1 X88.806 Y59.106 E.0523
M73 P0 R79
G1 X90.147 Y58.722 E.05301
G1 X91.51 Y58.357 E.05364
G1 X94.324 Y57.681 E.10998
G1 X97.227 Y57.082 E.11266
G1 X100.239 Y56.556 E.11621
G1 X103.349 Y56.105 E.11943
G1 X106.562 Y55.729 E.12294
G1 X108.2 Y55.57 E.06257
G1 X111.564 Y55.306 E.12824
G1 X115.028 Y55.118 E.13186
G1 X116.793 Y55.052 E.06712
G1 X120.409 Y54.977 E.13747
G1 X125.684 Y54.992 E.20048
G1 X129.069 Y55.053 E.12865
G1 X132.41 Y55.153 E.12706
G1 X135.71 Y55.294 E.12551
G1 X138.967 Y55.475 E.12397
G1 X142.181 Y55.696 E.12244
G1 X145.353 Y55.958 E.12096
G1 X148.481 Y56.259 E.11945
G1 X150.014 Y56.434 E.05866
G1 X151.474 Y56.629 E.05597
G1 X153.012 Y56.866 E.05916
G1 X154.478 Y57.125 E.05654
G1 X155.92 Y57.411 E.0559
G1 X157.341 Y57.726 E.05529
G1 X158.739 Y58.069 E.0547
G1 X160.114 Y58.44 E.05415
G1 X161.467 Y58.839 E.05361
G1 X162.798 Y59.266 E.05312
G1 X164.106 Y59.722 E.05265
G1 X165.392 Y60.205 E.05222
G1 X166.656 Y60.716 E.05181
G1 X167.898 Y61.256 E.05144
G1 X169.117 Y61.823 E.05112
G1 X170.312 Y62.418 E.05074
G1 X171.477 Y63.044 E.05026
G1 X172.608 Y63.709 E.04989
G1 X173.709 Y64.415 E.04968
G1 X174.779 Y65.16 E.04956
G1 X175.818 Y65.946 E.04952
G1 X176.827 Y66.773 E.04956
G1 X177.805 Y67.639 E.04968
G1 X178.753 Y68.547 E.04988
G1 X179.671 Y69.495 E.05015
G1 X180.558 Y70.484 E.0505
G1 X181.416 Y71.513 E.05093
G1 X182.243 Y72.584 E.05142
G1 X183.04 Y73.696 E.05199
G1 X183.808 Y74.849 E.05263
G1 X184.545 Y76.043 E.05333
G1 X185.251 Y77.276 E.054
G1 X185.917 Y78.553 E.05476
G1 X186.541 Y79.885 E.05591
G1 X187.122 Y81.275 E.05725
G1 X187.661 Y82.722 E.05868
G1 X188.158 Y84.226 E.06021
G1 X188.597 Y85.735 E.05973
G1 X189.024 Y87.407 E.06558
G1 X189.393 Y89.083 E.06522
G1 X189.719 Y90.817 E.06705
G1 X190.001 Y92.608 E.06892
G1 X190.241 Y94.456 E.07084
G1 X190.437 Y96.362 E.07282
G1 X190.589 Y98.325 E.07483
G1 X190.698 Y100.346 E.07689
G1 X190.767 Y102.678 E.0887
G1 X190.786 Y104.554 E.07127
G1 X190.76 Y105.858 E.0496
G1 X190.714 Y107.146 E.04899
G1 X190.567 Y109.673 E.09617
G1 X190.343 Y112.118 E.09332
G1 X190.044 Y114.485 E.09067
G1 X189.669 Y116.773 E.08814
G1 X189.219 Y118.984 E.08573
G1 X188.701 Y121.084 E.08221
G1 X188.402 Y122.153 E.04219
G1 X188.093 Y123.17 E.0404
G1 X187.764 Y124.168 E.03992
G1 X187.417 Y125.146 E.03946
G1 X187.052 Y126.105 E.039
G1 X186.667 Y127.044 E.03858
G1 X186.264 Y127.964 E.03818
G1 X185.843 Y128.865 E.03779
G1 X185.402 Y129.746 E.03745
G1 X184.943 Y130.608 E.03711
G1 X184.466 Y131.451 E.03682
G1 X183.97 Y132.275 E.03654
G1 X183.455 Y133.079 E.03629
G1 X182.922 Y133.865 E.03608
M73 P1 R79
G1 X182.389 Y134.605 E.03468
G1 X181.8 Y135.378 E.03695
G1 X181.211 Y136.106 E.03559
G1 X180.603 Y136.816 E.0355
G1 X179.976 Y137.506 E.03543
G1 X179.353 Y138.155 E.0342
G1 X178.667 Y138.831 E.0366
G1 X177.985 Y139.465 E.0354
G1 X177.283 Y140.08 E.03547
G1 X176.563 Y140.677 E.03555
G1 X175.823 Y141.255 E.03567
G1 X175.065 Y141.814 E.03581
G1 X174.287 Y142.355 E.03599
G1 X173.491 Y142.877 E.03619
G1 X172.676 Y143.38 E.03643
G1 X171.841 Y143.865 E.03669
G1 X170.987 Y144.331 E.03697
G1 X170.114 Y144.779 E.0373
G1 X169.222 Y145.208 E.03763
G1 X168.31 Y145.618 E.038
G1 X167.379 Y146.01 E.03839
G1 X166.428 Y146.383 E.03881
G1 X165.458 Y146.737 E.03924
G1 X164.473 Y147.071 E.03956
G1 X162.428 Y147.689 E.08117
G1 X161.388 Y147.966 E.04092
G1 X159.23 Y148.469 E.0842
G1 X156.995 Y148.896 E.0865
G1 X155.856 Y149.08 E.04384
G1 X153.54 Y149.39 E.0888
G1 X152.302 Y149.523 E.04736
G1 X147.568 Y149.925 E.18053
G1 X144.27 Y150.156 E.12567
