; HEADER_BLOCK_START
; generated by OrcaSlicer 2.2.0 on 2024-11-13 at 18:01:18
; total layer number: 50
; filament_density: 1.27
; filament_diameter: 1.75
; max_z_height: 10.00
; HEADER_BLOCK_END

; THUMBNAIL_BLOCK_START

;
; THUMBNAIL_BLOCK_END

; THUMBNAIL_BLOCK_START

;
; THUMBNAIL_BLOCK_END

; external perimeters extrusion width = 0.42mm
; perimeters extrusion width = 0.45mm
; infill extrusion width = 0.45mm
; solid infill extrusion width = 0.45mm
; top infill extrusion width = 0.42mm
; first layer extrusion width = 0.50mm

; EXECUTABLE_BLOCK_START
EXCLUDE_OBJECT_DEFINE NAME=Corps1.stl_id_0_copy_0 CENTER=115,115 POLYGON=[[95,78.5],[135,78.5],[135,151.5],[95,151.5],[95,78.5]]
M73 P0 R28
;TYPE:Custom
M220 S100
G90 ; use absolute coordinates
M83 ; extruder relative mode
M104 S150 ; set temporary nozzle temp to prevent oozing during homing
M140 S70 ; set final bed temp
G4 S30 ; allow partial nozzle warmup
G28 ; home all axis and restore leveling
BED_MESH_CALIBRATE PROFILE=adaptive ADAPTIVE=1 ADAPTIVE_MARGIN=0
G1 Z25 F240
G1 X10.0 Y30 F3000
M104 S245 ; set final nozzle temp
M190 S70 ; wait for bed temp to stabilize
M109 S245 ; wait for nozzle temp to stabilize
G1 Z0.28 F240
G92 E0 ; Move Z Axis up
G1 Z2.0 F5000 ; Move to start position
G1 X5 Y30 Z0.28 F300 ; Draw the first line
G1 X5 Y200 Z0.28 F1500 E15 ; Move to side a little
G1 X5.4 Y200 Z0.28 F5000.0 ; Draw the second line
M73 P1 R27
M73 P1 R27
G1 X5.4 Y50 Z0.28 F1500.0 E30 ; Reset Extruder
G92 E0 ; Move Z Axis up
G1 Z2.0 F3000
M117 Start Printing..
G90
G21
M83 ; use relative distances for extrusion
; filament start gcode
M106 S0
;LAYER_CHANGE
;Z:0.2
;HEIGHT:0.2
;BEFORE_LAYER_CHANGE
;0.2
G92 E0

G1 E-.5 F1800
;_SET_FAN_SPEED_CHANGING_LAYER
SET_VELOCITY_LIMIT ACCEL=1000
SET_VELOCITY_LIMIT SQUARE_CORNER_VELOCITY=7
; printing object Corps1.stl id:0 copy 0
EXCLUDE_OBJECT_START NAME=Corps1.stl_id_0_copy_0
G1 Z.4 F24000
G1 X142.243 Y170.743
G1 Z.4
G1 Z.2
G1 E.5 F1800
;TYPE:Inner wall
;WIDTH:0.499999
G1 F3000
G1 X103.757 Y170.743 E1.38957
G1 X103.757 Y99.267 E2.5807
G1 X142.243 Y99.267 E1.38957
G1 X142.243 Y170.703 E2.57926
G1 X142.7 Y171.2 F24000
;TYPE:Outer wall
G1 F3000
G1 X103.3 Y171.2 E1.42257
G1 X103.3 Y98.81 E2.61371
G1 X142.7 Y98.81 E1.42257
M73 P2 R27
M73 P2 R27
G1 X142.7 Y171.16 E2.61227
G1 E-.5 F1800
;WIPE_START
G1 F12000
G1 X140.7 Y171.162
;WIPE_END
G1 Z.4 F24000
G1 X142.106 Y100.33
G1 Z.4
G1 Z.2
G1 E.5 F1800
;TYPE:Bottom surface
;WIDTH:0.501094
G1 F5892.958
G1 X141.385 Y99.61 E.03688
G1 X140.737 Y99.61 E.02345
G1 X141.9 Y100.773 E.05952
G1 X141.9 Y101.421 E.02345
G1 X140.089 Y99.61 E.09269
G1 X139.441 Y99.61 E.02345
G1 X141.9 Y102.069 E.12585
G1 X141.9 Y102.717 E.02345
G1 X138.793 Y99.61 E.15902
G1 X138.145 Y99.61 E.02345
G1 X141.9 Y103.365 E.19218
G1 X141.9 Y104.013 E.02345
G1 X137.497 Y99.61 E.22535
G1 X136.849 Y99.61 E.02345
G1 X141.9 Y104.661 E.25851
G1 X141.9 Y105.308 E.02345
G1 X136.202 Y99.61 E.29167
G1 X135.554 Y99.61 E.02345
G1 X141.9 Y105.956 E.32484
G1 X141.9 Y106.604 E.02345
G1 X134.906 Y99.61 E.358
G1 X134.258 Y99.61 E.02345
G1 X141.9 Y107.252 E.39117
G1 X141.9 Y107.9 E.02345
G1 X133.61 Y99.61 E.42433
G1 X132.962 Y99.61 E.02345
G1 X141.9 Y108.548 E.4575
G1 X141.9 Y109.196 E.02345
G1 X132.314 Y99.61 E.49066
G1 X131.666 Y99.61 E.02345
G1 X141.9 Y109.844 E.52383
G1 X141.9 Y110.492 E.02345
G1 X131.018 Y99.61 E.55699
G1 X130.37 Y99.61 E.02345
G1 X141.9 Y111.14 E.59016
G1 X141.9 Y111.788 E.02345
G1 X129.722 Y99.61 E.62332
G1 X129.074 Y99.61 E.02345
G1 X141.9 Y112.436 E.65649
G1 X141.9 Y113.084 E.02345
G1 X128.426 Y99.61 E.68965
G1 X127.778 Y99.61 E.02345
G1 X141.9 Y113.732 E.72282
G1 X141.9 Y114.38 E.02345
G1 X127.13 Y99.61 E.75598
G1 X126.482 Y99.61 E.02345
G1 X141.9 Y115.028 E.78915
G1 X141.9 Y115.676 E.02345
G1 X125.834 Y99.61 E.82231
G1 X125.186 Y99.61 E.02345
G1 X141.9 Y116.324 E.85548
G1 X141.9 Y116.972 E.02345
G1 X124.538 Y99.61 E.88864
G1 X123.89 Y99.61 E.02345
G1 X141.9 Y117.62 E.92181
G1 X141.9 Y118.268 E.02345
G1 X123.242 Y99.61 E.95497
G1 X122.594 Y99.61 E.02345
G1 X141.9 Y118.916 E.98814
G1 X141.9 Y119.563 E.02345
G1 X121.947 Y99.61 E1.0213
G1 X121.299 Y99.61 E.02345
G1 X141.9 Y120.211 E1.05447
G1 X141.9 Y120.859 E.02345
G1 X120.651 Y99.61 E1.08763
G1 X120.003 Y99.61 E.02345
G1 X141.9 Y121.507 E1.1208
G1 X141.9 Y122.155 E.02345
G1 X119.355 Y99.61 E1.15396
G1 X118.707 Y99.61 E.02345
G1 X141.9 Y122.803 E1.18713
G1 X141.9 Y123.451 E.02345
G1 X118.059 Y99.61 E1.22029
G1 X117.411 Y99.61 E.02345
G1 X141.9 Y124.099 E1.25346
G1 X141.9 Y124.747 E.02345
G1 X116.763 Y99.61 E1.28662
G1 X116.115 Y99.61 E.02345
G1 X141.9 Y125.395 E1.31979
G1 X141.9 Y126.043 E.02345
G1 X115.467 Y99.61 E1.35295
G1 X114.819 Y99.61 E.02345
M73 P3 R27
M73 P3 R27
G1 X141.9 Y126.691 E1.38612
G1 X141.9 Y127.339 E.02345
G1 X114.171 Y99.61 E1.41928
G1 X113.523 Y99.61 E.02345
G1 X141.9 Y127.987 E1.45245
G1 X141.9 Y128.635 E.02345
G1 X112.875 Y99.61 E1.48561
G1 X112.227 Y99.61 E.02345
G1 X141.9 Y129.283 E1.51878
G1 X141.9 Y129.931 E.02345
G1 X111.579 Y99.61 E1.55194
G1 X110.931 Y99.61 E.02345
G1 X141.9 Y130.579 E1.58511
G1 X141.9 Y131.227 E.02345
G1 X110.283 Y99.61 E1.61827
G1 X109.635 Y99.61 E.02345
G1 X141.9 Y131.875 E1.65144
G1 X141.9 Y132.523 E.02345
G1 X108.987 Y99.61 E1.6846
G1 X108.339 Y99.61 E.02345
G1 X141.9 Y133.171 E1.71776
G1 X141.9 Y133.819 E.02345
G1 X107.691 Y99.61 E1.75093
G1 X107.044 Y99.61 E.02345
G1 X141.9 Y134.466 E1.78409
G1 X141.9 Y135.114 E.02345
G1 X106.396 Y99.61 E1.81726
G1 X105.748 Y99.61 E.02345
G1 X141.9 Y135.762 E1.85042
G1 X141.9 Y136.41 E.02345
G1 X105.1 Y99.61 E1.88359
G1 X104.452 Y99.61 E.02345
G1 X141.9 Y137.058 E1.91675
G1 X141.9 Y137.706 E.02345
G1 X104.1 Y99.906 E1.93476
G1 X104.1 Y100.554 E.02345
G1 X141.9 Y138.354 E1.93476
G1 X141.9 Y139.002 E.02345
G1 X104.1 Y101.202 E1.93476
G1 X104.1 Y101.85 E.02345
G1 X141.9 Y139.65 E1.93476
G1 X141.9 Y140.298 E.02345
G1 X104.1 Y102.498 E1.93476
G1 X104.1 Y103.146 E.02345
G1 X141.9 Y140.946 E1.93476
G1 X141.9 Y141.594 E.02345
G1 X104.1 Y103.794 E1.93476
G1 X104.1 Y104.442 E.02345
G1 X141.9 Y142.242 E1.93476
G1 X141.9 Y142.89 E.02345
G1 X104.1 Y105.09 E1.93476
G1 X104.1 Y105.738 E.02345
G1 X141.9 Y143.538 E1.93476
G1 X141.9 Y144.186 E.02345
G1 X104.1 Y106.386 E1.93476
G1 X104.1 Y107.034 E.02345
M73 P4 R27
M73 P4 R27
G1 X141.9 Y144.834 E1.93476
G1 X141.9 Y145.482 E.02345
G1 X104.1 Y107.681 E1.93476
G1 X104.1 Y108.329 E.02345
G1 X141.9 Y146.13 E1.93476
G1 X141.9 Y146.778 E.02345
G1 X104.1 Y108.977 E1.93476
G1 X104.1 Y109.625 E.02345
G1 X141.9 Y147.426 E1.93476
G1 X141.9 Y148.074 E.02345
G1 X104.1 Y110.273 E1.93476
G1 X104.1 Y110.921 E.02345
G1 X141.9 Y148.722 E1.93476
G1 X141.9 Y149.369 E.02345
G1 X104.1 Y111.569 E1.93476
G1 X104.1 Y112.217 E.02345
G1 X141.9 Y150.017 E1.93476
G1 X141.9 Y150.665 E.02345
G1 X104.1 Y112.865 E1.93476
G1 X104.1 Y113.513 E.02345
G1 X141.9 Y151.313 E1.93476
G1 X141.9 Y151.961 E.02345
G1 X104.1 Y114.161 E1.93476
G1 X104.1 Y114.809 E.02345
M73 P4 R26
M73 P4 R26
G1 X141.9 Y152.609 E1.93476
G1 X141.9 Y153.257 E.02345
G1 X104.1 Y115.457 E1.93476
G1 X104.1 Y116.105 E.02345
G1 X141.9 Y153.905 E1.93476
G1 X141.9 Y154.553 E.02345
G1 X104.1 Y116.753 E1.93476
G1 X104.1 Y117.401 E.02345
G1 X141.9 Y155.201 E1.93476
G1 X141.9 Y155.849 E.02345
G1 X104.1 Y118.049 E1.93476
G1 X104.1 Y118.697 E.02345
G1 X141.9 Y156.497 E1.93476
G1 X141.9 Y157.145 E.02345
G1 X104.1 Y119.345 E1.93476
G1 X104.1 Y119.993 E.02345
G1 X141.9 Y157.793 E1.93476
G1 X141.9 Y158.441 E.02345
G1 X104.1 Y120.641 E1.93476
G1 X104.1 Y121.289 E.02345
G1 X141.9 Y159.089 E1.93476
G1 X141.9 Y159.737 E.02345
G1 X104.1 Y121.937 E1.93476
G1 X104.1 Y122.584 E.02345
G1 X141.9 Y160.385 E1.93476
G1 X141.9 Y161.033 E.02345
G1 X104.1 Y123.232 E1.93476
M73 P5 R26
M73 P5 R26
G1 X104.1 Y123.88 E.02345
G1 X141.9 Y161.681 E1.93476
G1 X141.9 Y162.329 E.02345
G1 X104.1 Y124.528 E1.93476
G1 X104.1 Y125.176 E.02345
G1 X141.9 Y162.977 E1.93476
G1 X141.9 Y163.624 E.02345
G1 X104.1 Y125.824 E1.93476
G1 X104.1 Y126.472 E.02345
G1 X141.9 Y164.272 E1.93476
G1 X141.9 Y164.92 E.02345
G1 X104.1 Y127.12 E1.93476
G1 X104.1 Y127.768 E.02345
G1 X141.9 Y165.568 E1.93476
G1 X141.9 Y166.216 E.02345
G1 X104.1 Y128.416 E1.93476
G1 X104.1 Y129.064 E.02345
G1 X141.9 Y166.864 E1.93476
G1 X141.9 Y167.512 E.02345
G1 X104.1 Y129.712 E1.93476
G1 X104.1 Y130.36 E.02345
G1 X141.9 Y168.16 E1.93476
G1 X141.9 Y168.808 E.02345
G1 X104.1 Y131.008 E1.93476
G1 X104.1 Y131.656 E.02345
G1 X141.9 Y169.456 E1.93476
G1 X141.9 Y170.104 E.02345
G1 X104.1 Y132.304 E1.93476
G1 X104.1 Y132.952 E.02345
G1 X141.548 Y170.4 E1.91675
G1 X140.9 Y170.4 E.02345
G1 X104.1 Y133.6 E1.88359
G1 X104.1 Y134.248 E.02345
G1 X140.252 Y170.4 E1.85042
G1 X139.604 Y170.4 E.02345
G1 X104.1 Y134.896 E1.81726
G1 X104.1 Y135.544 E.02345
G1 X138.956 Y170.4 E1.78409
G1 X138.308 Y170.4 E.02345
G1 X104.1 Y136.192 E1.75093
G1 X104.1 Y136.84 E.02345
G1 X137.66 Y170.4 E1.71776
G1 X137.013 Y170.4 E.02345
G1 X104.1 Y137.487 E1.6846
G1 X104.1 Y138.135 E.02345
G1 X136.365 Y170.4 E1.65143
G1 X135.717 Y170.4 E.02345
G1 X104.1 Y138.783 E1.61827
G1 X104.1 Y139.431 E.02345
G1 X135.069 Y170.4 E1.5851
G1 X134.421 Y170.4 E.02345
G1 X104.1 Y140.079 E1.55194
G1 X104.1 Y140.727 E.02345
M73 P6 R26
M73 P6 R26
G1 X133.773 Y170.4 E1.51877
G1 X133.125 Y170.4 E.02345
G1 X104.1 Y141.375 E1.48561
G1 X104.1 Y142.023 E.02345
G1 X132.477 Y170.4 E1.45244
G1 X131.829 Y170.4 E.02345
G1 X104.1 Y142.671 E1.41928
G1 X104.1 Y143.319 E.02345
G1 X131.181 Y170.4 E1.38611
G1 X130.533 Y170.4 E.02345
G1 X104.1 Y143.967 E1.35295
G1 X104.1 Y144.615 E.02345
G1 X129.885 Y170.4 E1.31978
G1 X129.237 Y170.4 E.02345
G1 X104.1 Y145.263 E1.28662
G1 X104.1 Y145.911 E.02345
G1 X128.589 Y170.4 E1.25345
G1 X127.941 Y170.4 E.02345
G1 X104.1 Y146.559 E1.22029
G1 X104.1 Y147.207 E.02345
G1 X127.293 Y170.4 E1.18712
G1 X126.645 Y170.4 E.02345
G1 X104.1 Y147.855 E1.15396
G1 X104.1 Y148.503 E.02345
G1 X125.997 Y170.4 E1.12079
G1 X125.349 Y170.4 E.02345
G1 X104.1 Y149.151 E1.08763
G1 X104.1 Y149.799 E.02345
G1 X124.701 Y170.4 E1.05446
G1 X124.053 Y170.4 E.02345
G1 X104.1 Y150.447 E1.0213
G1 X104.1 Y151.095 E.02345
G1 X123.405 Y170.4 E.98813
G1 X122.758 Y170.4 E.02345
G1 X104.1 Y151.742 E.95497
G1 X104.1 Y152.39 E.02345
G1 X122.11 Y170.4 E.9218
G1 X121.462 Y170.4 E.02345
G1 X104.1 Y153.038 E.88864
G1 X104.1 Y153.686 E.02345
G1 X120.814 Y170.4 E.85547
G1 X120.166 Y170.4 E.02345
G1 X104.1 Y154.334 E.82231
G1 X104.1 Y154.982 E.02345
G1 X119.518 Y170.4 E.78914
G1 X118.87 Y170.4 E.02345
G1 X104.1 Y155.63 E.75598
G1 X104.1 Y156.278 E.02345
G1 X118.222 Y170.4 E.72281
G1 X117.574 Y170.4 E.02345
G1 X104.1 Y156.926 E.68965
G1 X104.1 Y157.574 E.02345
G1 X116.926 Y170.4 E.65648
G1 X116.278 Y170.4 E.02345
G1 X104.1 Y158.222 E.62332
G1 X104.1 Y158.87 E.02345
G1 X115.63 Y170.4 E.59016
G1 X114.982 Y170.4 E.02345
G1 X104.1 Y159.518 E.55699
G1 X104.1 Y160.166 E.02345
G1 X114.334 Y170.4 E.52383
G1 X113.686 Y170.4 E.02345
G1 X104.1 Y160.814 E.49066
G1 X104.1 Y161.462 E.02345
G1 X113.038 Y170.4 E.4575
G1 X112.39 Y170.4 E.02345
G1 X104.1 Y162.11 E.42433
G1 X104.1 Y162.758 E.02345
G1 X111.742 Y170.4 E.39117
G1 X111.094 Y170.4 E.02345
G1 X104.1 Y163.406 E.358
G1 X104.1 Y164.054 E.02345
G1 X110.446 Y170.4 E.32484
G1 X109.798 Y170.4 E.02345
G1 X104.1 Y164.702 E.29167
G1 X104.1 Y165.35 E.02345
G1 X109.15 Y170.4 E.25851
G1 X108.502 Y170.4 E.02345
G1 X104.1 Y165.998 E.22534
G1 X104.1 Y166.645 E.02345
G1 X107.855 Y170.4 E.19218
G1 X107.207 Y170.4 E.02345
G1 X104.1 Y167.293 E.15901
G1 X104.1 Y167.941 E.02345
G1 X106.559 Y170.4 E.12585
G1 X105.911 Y170.4 E.02345
G1 X104.1 Y168.589 E.09268
G1 X104.1 Y169.237 E.02345
G1 X105.263 Y170.4 E.05952
G1 X104.615 Y170.4 E.02345
G1 X103.894 Y169.68 E.03688
; stop printing object Corps1.stl id:0 copy 0
;LAYER_CHANGE
;Z:0.4
;HEIGHT:0.2
;BEFORE_LAYER_CHANGE
;0.4
G92 E0

G1 E-.5 F1800
;WIPE_START
G1 F12000
G1 X104.615 Y170.4
G1 X105.263 Y170.4
G1 X105.027 Y170.165
;WIPE_END
EXCLUDE_OBJECT_END NAME=Corps1.stl_id_0_copy_0
;_SET_FAN_SPEED_CHANGING_LAYER
SET_VELOCITY_LIMIT ACCEL=5000
M140 S70 ; set bed temperature
; printing object Corps1.stl id:0 copy 0
EXCLUDE_OBJECT_START NAME=Corps1.stl_id_0_copy_0
G1 Z.6 F24000
G1 X142.398 Y170.898 Z.6
G1 Z.4
G1 E.5 F1800
;TYPE:Inner wall
;WIDTH:0.449999
G1 F6632.618
G1 X103.602 Y170.898 E1.24753
G1 X103.602 Y99.132 E2.30773
G1 X142.398 Y99.132 E1.24753
M73 P7 R26
M73 P7 R26
G1 X142.398 Y170.858 E2.30644
G1 X142.79 Y171.29 F24000
SET_VELOCITY_LIMIT ACCEL=2000
;TYPE:Outer wall
;WIDTH:0.419999
G1 F7160.304
G1 X103.21 Y171.29 E1.17895
G1 X103.21 Y98.74 E2.16101
G1 X142.79 Y98.74 E1.17895
G1 X142.79 Y171.25 E2.15982
G1 E-.5 F1800
;WIPE_START
G1 F12000
G1 X140.79 Y171.252
;WIPE_END
SET_VELOCITY_LIMIT ACCEL=5000
G1 Z.6 F24000
G1 X141.449 Y170.776
G1 Z.6
G1 Z.4
G1 E.5 F1800
;TYPE:Internal solid infill
;WIDTH:0.452026
G1 F6599.757
G1 X142.093 Y170.132 E.02943
G1 X142.093 Y169.553 E.0187
G1 X141.053 Y170.593 E.0475
G1 X140.475 Y170.593 E.0187
G1 X142.093 Y168.975 E.07394
G1 X142.093 Y168.396 E.0187
G1 X139.896 Y170.593 E.10039
G1 X139.318 Y170.593 E.0187
G1 X142.093 Y167.818 E.12683
G1 X142.093 Y167.239 E.0187
G1 X138.739 Y170.593 E.15327
G1 X138.16 Y170.593 E.0187
G1 X142.093 Y166.66 E.17971
G1 X142.093 Y166.082 E.0187
G1 X137.582 Y170.593 E.20615
G1 X137.003 Y170.593 E.0187
G1 X142.093 Y165.503 E.23259
G1 X142.093 Y164.925 E.0187
G1 X136.425 Y170.593 E.25904
G1 X135.846 Y170.593 E.0187
G1 X142.093 Y164.346 E.28548
G1 X142.093 Y163.768 E.0187
G1 X135.268 Y170.593 E.31192
G1 X134.689 Y170.593 E.0187
G1 X142.093 Y163.189 E.33836
G1 X142.093 Y162.61 E.0187
G1 X134.11 Y170.593 E.3648
G1 X133.532 Y170.593 E.0187
G1 X142.093 Y162.032 E.39125
G1 X142.093 Y161.453 E.0187
G1 X132.953 Y170.593 E.41769
G1 X132.375 Y170.593 E.0187
G1 X142.093 Y160.875 E.44413
G1 X142.093 Y160.296 E.0187
G1 X131.796 Y170.593 E.47057
G1 X131.218 Y170.593 E.0187
G1 X142.093 Y159.718 E.49701
G1 X142.093 Y159.139 E.0187
G1 X130.639 Y170.593 E.52345
G1 X130.061 Y170.593 E.0187
G1 X142.093 Y158.561 E.5499
G1 X142.093 Y157.982 E.0187
G1 X129.482 Y170.593 E.57634
G1 X128.903 Y170.593 E.0187
G1 X142.093 Y157.403 E.60278
G1 X142.093 Y156.825 E.0187
G1 X128.325 Y170.593 E.62922
G1 X127.746 Y170.593 E.0187
G1 X142.093 Y156.246 E.65566
G1 X142.093 Y155.668 E.0187
G1 X127.168 Y170.593 E.6821
G1 X126.589 Y170.593 E.0187
G1 X142.093 Y155.089 E.70855
G1 X142.093 Y154.511 E.0187
G1 X126.011 Y170.593 E.73499
G1 X125.432 Y170.593 E.0187
G1 X142.093 Y153.932 E.76143
G1 X142.093 Y153.353 E.0187
G1 X124.853 Y170.593 E.78787
G1 X124.275 Y170.593 E.0187
G1 X142.093 Y152.775 E.81431
G1 X142.093 Y152.196 E.0187
G1 X123.696 Y170.593 E.84075
G1 X123.118 Y170.593 E.0187
G1 X142.093 Y151.618 E.8672
G1 X142.093 Y151.039 E.0187
G1 X122.539 Y170.593 E.89364
G1 X121.961 Y170.593 E.0187
G1 X142.093 Y150.461 E.92008
G1 X142.093 Y149.882 E.0187
G1 X121.382 Y170.593 E.94652
G1 X120.803 Y170.593 E.0187
G1 X142.093 Y149.304 E.97296
G1 X142.093 Y148.725 E.0187
G1 X120.225 Y170.593 E.9994
G1 X119.646 Y170.593 E.0187
G1 X142.093 Y148.146 E1.02585
G1 X142.093 Y147.568 E.0187
G1 X119.068 Y170.593 E1.05229
G1 X118.489 Y170.593 E.0187
G1 X142.093 Y146.989 E1.07873
G1 X142.093 Y146.411 E.0187
G1 X117.911 Y170.593 E1.10517
G1 X117.332 Y170.593 E.0187
G1 X142.093 Y145.832 E1.13161
G1 X142.093 Y145.254 E.0187
G1 X116.754 Y170.593 E1.15805
G1 X116.175 Y170.593 E.0187
G1 X142.093 Y144.675 E1.1845
G1 X142.093 Y144.096 E.0187
G1 X115.596 Y170.593 E1.21094
G1 X115.018 Y170.593 E.0187
G1 X142.093 Y143.518 E1.23738
G1 X142.093 Y142.939 E.0187
G1 X114.439 Y170.593 E1.26382
G1 X113.861 Y170.593 E.0187
G1 X142.093 Y142.361 E1.29026
G1 X142.093 Y141.782 E.0187
G1 X113.282 Y170.593 E1.3167
G1 X112.704 Y170.593 E.0187
G1 X142.093 Y141.204 E1.34315
G1 X142.093 Y140.625 E.0187
G1 X112.125 Y170.593 E1.36959
G1 X111.546 Y170.593 E.0187
G1 X142.093 Y140.046 E1.39603
G1 X142.093 Y139.468 E.0187
G1 X110.968 Y170.593 E1.42247
G1 X110.389 Y170.593 E.0187
G1 X142.093 Y138.889 E1.44891
G1 X142.093 Y138.311 E.0187
G1 X109.811 Y170.593 E1.47535
G1 X109.232 Y170.593 E.0187
M73 P8 R26
M73 P8 R26
G1 X142.093 Y137.732 E1.5018
