; HEADER_BLOCK_START
; generated by OrcaSlicer 2.0.0 on 2024-05-18 at 16:51:18
; total layer number: 70
; filament_density: 1.24
; filament_diameter: 1.75
; max_z_height: 14.00
; HEADER_BLOCK_END

; THUMBNAIL_BLOCK_START

;
; THUMBNAIL_BLOCK_END

; THUMBNAIL_BLOCK_START

;
; THUMBNAIL_BLOCK_END

; external perimeters extrusion width = 0.40mm
; perimeters extrusion width = 0.42mm
; infill extrusion width = 0.45mm
; solid infill extrusion width = 0.42mm
; top infill extrusion width = 0.40mm
; first layer extrusion width = 0.50mm

; EXECUTABLE_BLOCK_START
EXCLUDE_OBJECT_DEFINE NAME=Corps35.stl_id_0_copy_0 CENTER=110,110 POLYGON=[[78.5272,67.3364],[78.5435,67.3298],[78.5929,67.3099],[78.676,67.2767],[78.7937,67.2299],[78.9463,67.1698],[79.1332,67.097],[79.3539,67.0123],[79.6075,66.9166],[79.8669,66.8204],[79.8939,66.8106],[80.2113,66.6958],[80.5576,66.5735],[80.9302,66.4452],[81.2221,66.3465],[81.3269,66.3124],[81.7452,66.1765],[82.1828,66.0391],[82.5915,65.9151],[82.6373,65.9015],[83.1156,65.7625],[83.6224,65.6215],[83.9736,65.5267],[84.1558,65.4797],[84.7138,65.3385],[85.3672,65.1815],[85.8957,65.0631],[86.5158,64.9316],[86.7709,64.8801],[87.1527,64.8059],[87.8042,64.6873],[88.1833,64.6225],[88.4674,64.5763],[89.1394,64.474],[89.6031,64.4092],[89.8173,64.3809],[90.4983,64.298],[91.0288,64.2403],[91.1791,64.2253],[91.8564,64.1629],[92.4591,64.116],[92.5272,64.1112],[93.8926,64.0363],[93.953,64.034],[95.3279,64.0015],[95.3806,64.001],[96.7635,64.0114],[96.8085,64.0124],[98.1982,64.0662],[98.2353,64.0682],[99.6304,64.1656],[99.6597,64.1681],[101.059,64.3098],[101.08,64.3123],[102.482,64.4984],[102.496,64.5005],[103.899,64.7314],[103.905,64.7325],[105.306,65.0081],[105.308,65.0084],[106.698,65.3271],[106.707,65.3293],[108.079,65.6891],[108.096,65.6937],[109.448,66.0939],[109.472,66.1013],[110.805,66.5409],[110.835,66.5516],[112.146,67.0298],[112.184,67.0443],[113.472,67.5601],[113.516,67.5787],[114.781,68.1314],[114.832,68.1546],[116.071,68.7429],[116.128,68.7711],[117.342,69.3942],[117.405,69.4279],[118.592,70.0847],[118.66,70.1241],[119.82,70.8136],[119.894,70.8592],[121.024,71.5803],[121.103,71.6324],[122.205,72.384],[122.288,72.443],[123.359,73.2239],[123.447,73.2902],[124.488,74.0993],[124.579,74.1732],[125.588,75.0093],[125.683,75.091],[126.66,75.953],[126.758,76.0429],[127.701,76.9295],[127.803,77.0278],[128.713,77.9378],[128.816,78.0448],[129.692,78.9771],[129.797,79.093],[130.638,80.0462],[130.745,80.1713],[131.551,81.1442],[131.659,81.2786],[132.43,82.2701],[132.538,82.4139],[133.273,83.4226],[133.381,83.5761],[134.079,84.6008],[134.187,84.764],[134.849,85.8034],[134.956,85.9766],[135.581,87.0293],[135.686,87.2125],[136.275,88.2774],[136.378,88.4706],[136.93,89.5464],[137.03,89.7496],[137.545,90.8352],[137.642,91.0484],[137.824,91.4567],[138.097,92.0904],[138.213,92.3657],[138.364,92.7332],[138.621,93.3822],[138.743,93.7001],[138.868,94.0342],[139.103,94.6862],[139.23,95.0505],[139.327,95.335],[139.538,95.9777],[139.676,96.4153],[139.736,96.6112],[139.92,97.2331],[140.078,97.7935],[140.091,97.8407],[140.249,98.431],[140.393,99.0014],[140.437,99.1835],[140.524,99.5496],[140.643,100.073],[140.75,100.571],[140.753,100.584],[140.846,101.042],[140.934,101.495],[141.013,101.929],[141.025,101.994],[141.085,102.341],[141.148,102.728],[141.205,103.088],[141.253,103.411],[141.296,103.716],[141.332,103.979],[141.361,104.207],[141.386,104.399],[141.405,104.557],[141.419,104.679],[141.429,104.766],[141.435,104.818],[141.436,104.835],[141.473,114.83],[141.471,114.847],[141.466,114.899],[141.457,114.986],[141.443,115.108],[141.426,115.265],[141.403,115.457],[141.375,115.684],[141.341,115.947],[141.302,116.237],[141.255,116.574],[141.201,116.933],[141.141,117.32],[141.089,117.638],[141.072,117.731],[140.997,118.164],[140.913,118.617],[140.832,119.031],[140.821,119.087],[140.718,119.584],[140.603,120.107],[140.532,120.416],[140.476,120.655],[140.336,121.225],[140.19,121.792],[140.184,121.816],[140.018,122.423],[139.838,123.045],[139.806,123.156],[139.646,123.679],[139.44,124.323],[139.38,124.507],[139.222,124.972],[138.992,125.625],[138.912,125.845],[138.751,126.278],[138.499,126.928],[138.403,127.168],[138.238,127.572],[137.97,128.207],[137.854,128.474],[137.696,128.83],[137.265,129.763],[137.088,130.131],[136.637,131.033],[136.44,131.412],[135.97,132.283],[135.752,132.672],[135.264,133.512],[135.025,133.91],[134.521,134.719],[134.26,135.125],[133.741,135.902],[133.457,136.315],[132.925,137.061],[132.617,137.479],[132.074,138.194],[131.742,138.617],[131.188,139.3],[130.831,139.727],[130.269,140.378],[129.886,140.808],[129.317,141.428],[128.908,141.859],[128.333,142.448],[127.898,142.879],[127.318,143.436],[126.856,143.867],[126.273,144.394],[125.784,144.822],[125.199,145.318],[124.682,145.743],[124.097,146.209],[123.553,146.63],[122.968,147.066],[122.396,147.48],[121.814,147.888],[121.213,148.294],[120.634,148.673],[120.006,149.071],[119.431,149.422],[118.775,149.809],[118.206,150.133],[117.521,150.509],[116.959,150.807],[116.246,151.17],[115.692,151.441],[114.951,151.79],[114.406,152.037],[113.638,152.37],[113.102,152.592],[112.307,152.908],[111.782,153.107],[110.96,153.404],[110.446,153.581],[109.598,153.859],[109.097,154.014],[108.222,154.27],[107.735,154.405],[106.835,154.639],[106.361,154.754],[105.436,154.963],[104.978,155.06],[104.028,155.245],[103.585,155.324],[102.612,155.482],[102.186,155.544],[101.189,155.674],[100.78,155.721],[99.7614,155.822],[99.369,155.855],[98.3294,155.926],[97.9548,155.946],[96.8949,155.985],[96.5384,155.993],[95.4592,155.999],[95.1214,155.996],[94.0238,155.968],[93.7048,155.955],[92.5901,155.893],[92.2902,155.871],[91.9183,155.842],[91.2398,155.78],[90.8789,155.744],[90.558,155.708],[89.8759,155.626],[89.4722,155.572],[89.1967,155.534],[88.5235,155.432],[88.0714,155.358],[87.859,155.322],[87.2062,155.204],[86.6778,155.101],[86.5678,155.078],[85.9461,154.947],[85.2929,154.801],[84.7608,154.673],[84.2011,154.532],[83.9179,154.458],[83.6659,154.39],[83.1572,154.249],[82.6769,154.11],[82.554,154.073],[82.2205,153.972],[81.7811,153.834],[81.3607,153.698],[81.2027,153.646],[80.962,153.565],[80.5873,153.436],[80.239,153.314],[79.9195,153.198],[79.8651,153.178],[79.6313,153.092],[79.3758,152.996],[79.1536,152.91],[78.9652,152.837],[78.8114,152.777],[78.6928,152.73],[78.6089,152.696],[78.5591,152.676],[78.5427,152.669],[78.5272,151.583],[78.5272,67.3364]]
M73 P0 R30
;TYPE:Custom
M220 S100
G90 ; use absolute coordinates
M83 ; extruder relative mode
M104 S150 ; set temporary nozzle temp to prevent oozing during homing
M140 S55 ; set final bed temp
G4 S30 ; allow partial nozzle warmup
G28 ; home all axis and restore leveling
G1 Z25 F240
G1 X10.0 Y30 F3000
M104 S210 ; set final nozzle temp
M190 S55 ; wait for bed temp to stabilize
M109 S210 ; wait for nozzle temp to stabilize
G1 Z0.28 F240
G92 E0 ; Move Z Axis up
G1 Z2.0 F5000 ; Move to start position
G1 X10 Y30 Z0.28 F300 ; Draw the first line
G1 X10 Y200 Z0.28 F1500 E15 ; Move to side a little
G1 X10.4 Y200 Z0.28 F5000.0 ; Draw the second line
M73 P1 R29
G1 X10.4 Y50 Z0.28 F1500.0 E30 ; Reset Extruder
G92 E0 ; Move Z Axis up
G1 Z2.0 F3000
M117 Start Printing..
G90
G21
M83 ; use relative distances for extrusion
; filament start gcode
M106 S0
;LAYER_CHANGE
;Z:0.2
;HEIGHT:0.2
;BEFORE_LAYER_CHANGE
;0.2
G92 E0

G1 E-.5 F2400
;_SET_FAN_SPEED_CHANGING_LAYER
SET_VELOCITY_LIMIT ACCEL=500 ACCEL_TO_DECEL=250
SET_VELOCITY_LIMIT SQUARE_CORNER_VELOCITY=7
G1 Z.2 F18000
G1 X84.009 Y85.874
G1 Z.2
G1 E.5 F2400
;TYPE:Skirt
;WIDTH:0.5
G1 F3000
G1 X85.482 Y84.616 E.07216
G1 X89.804 Y83.109 E.17045
G1 X94.161 Y82.03 E.16721
G1 X97.16 Y81.529 E.11323
G1 X100.298 Y81.206 E.1175
G1 X104.754 Y81.097 E.16602
G1 X106.4 Y81.159 E.06136
G1 X109.352 Y81.41 E.11032
G1 X112.342 Y81.851 E.11257
G1 X113.959 Y82.168 E.06138
G1 X116.835 Y82.875 E.11031
G1 X118.415 Y83.344 E.06138
G1 X121.268 Y84.339 E.11256
G1 X123.999 Y85.485 E.11031
G1 X126.736 Y86.836 E.1137
G1 X128.158 Y87.624 E.06057
G1 X130.747 Y89.226 E.11337
G1 X133.165 Y90.936 E.11031
G1 X134.464 Y91.95 E.06139
G1 X136.755 Y93.921 E.11255
G1 X139.988 Y97.172 E.17077
G1 X141.961 Y99.492 E.11343
G1 X143.737 Y101.862 E.11031
G1 X146.193 Y105.725 E.17051
G1 X146.986 Y107.17 E.06139
G1 X148.313 Y109.885 E.11255
G1 X150.003 Y114.154 E.17103
G1 X150.876 Y116.977 E.11004
G1 X151.593 Y119.928 E.11312
G1 X152.325 Y124.447 E.17051
G1 X152.387 Y134.822 E.38642
G1 X152.183 Y136.676 E.06949
G1 X151.698 Y139.56 E.10891
G1 X150.611 Y143.943 E.16822
G1 X149.126 Y148.208 E.1682
G1 X147.247 Y152.328 E.16864
G1 X145.001 Y156.249 E.16831
G1 X142.402 Y159.946 E.16834
G1 X139.473 Y163.388 E.16834
G1 X136.239 Y166.545 E.16834
G1 X132.654 Y169.443 E.1717
G1 X128.907 Y171.935 E.16759
G1 X124.928 Y174.08 E.16837
G1 X120.768 Y175.849 E.16837
G1 X116.463 Y177.226 E.16837
G1 X112.049 Y178.2 E.16837
G1 X107.563 Y178.763 E.16837
G1 X103.046 Y178.909 E.16835
G1 X98.614 Y178.646 E.16535
G1 X95.553 Y178.226 E.1151
G1 X92.583 Y177.627 E.11282
G1 X88.317 Y176.422 E.16514
G1 X85.503 Y175.392 E.11158
G1 X84.28 Y174.5 E.05638
G1 X83.636 Y172.732 E.07009
G1 X83.615 Y87.335 E3.1807
G1 X83.998 Y85.912 E.05489
G1 X84.452 Y86.046 F18000
G1 F3000
G1 X84.464 Y86.004 E.00162
G1 X85.647 Y85.042 E.05676
G1 X88.419 Y84.024 E.10999
G1 X91.311 Y83.161 E.11241
G1 X94.333 Y82.462 E.11555
G1 X97.304 Y81.971 E.11214
G1 X100.323 Y81.663 E.11305
G1 X104.751 Y81.554 E.16496
G1 X109.306 Y81.865 E.17004
G1 X113.857 Y82.614 E.17178
G1 X118.271 Y83.778 E.17006
G1 X121.098 Y84.763 E.11149
G1 X123.816 Y85.903 E.10978
G1 X126.527 Y87.242 E.11264
G1 X127.941 Y88.027 E.06024
G1 X130.489 Y89.603 E.11157
G1 X132.895 Y91.305 E.10978
G1 X136.442 Y94.253 E.17177
G1 X139.646 Y97.474 E.16921
G1 X141.6 Y99.772 E.11234
G1 X143.367 Y102.13 E.10978
G1 X145.799 Y105.958 E.16892
G1 X147.894 Y110.066 E.17177
G1 X149.573 Y114.31 E.16998
G1 X150.457 Y117.179 E.11181
G1 X151.147 Y120.029 E.10921
G1 X151.872 Y124.505 E.16891
G1 X151.93 Y134.823 E.38431
G1 X151.731 Y136.607 E.06686
G1 X151.248 Y139.477 E.10838
G1 X150.172 Y143.819 E.16664
G1 X148.699 Y148.044 E.16663
G1 X146.838 Y152.125 E.16707
G1 X144.612 Y156.01 E.16676
G1 X142.036 Y159.672 E.16677
G1 X139.134 Y163.081 E.16674
G1 X135.93 Y166.208 E.16677
G1 X132.389 Y169.071 E.1696
G1 X128.677 Y171.539 E.16601
G1 X124.736 Y173.665 E.1668
G1 X120.615 Y175.418 E.1668
M73 P2 R29
G1 X116.35 Y176.783 E.16679
G1 X111.977 Y177.749 E.1668
G1 X107.534 Y178.307 E.1668
G1 X103.059 Y178.452 E.16678
G1 X100.075 Y178.319 E.11123
G1 X95.71 Y177.789 E.16379
G1 X92.768 Y177.201 E.11176
G1 X89.818 Y176.417 E.11368
G1 X85.668 Y174.965 E.16376
G1 X84.566 Y174.122 E.05169
G1 X84.093 Y172.723 E.055
G1 X84.073 Y87.335 E3.18035
G1 X84.441 Y86.084 E.04858
; printing object Corps35.stl id:0 copy 0
G1 E-.35 F2400
;WIPE_START
G1 F3000
G1 X84.464 Y86.004 E-.01252
G1 X85.175 Y85.426 E-.13748
;WIPE_END
EXCLUDE_OBJECT_START NAME=Corps35.stl_id_0_copy_0
G1 Z.4 F18000
G1 X148.216 Y124.164 Z.4
G1 Z.2
G1 E.5 F2400
;TYPE:Inner wall
;WIDTH:0.499999
G1 F1800
G1 X148.165 Y124.169 E.00192
G1 X147.939 Y124.309 E.00989
G1 X147.766 Y124.564 E.01147
G1 X147.724 Y124.88 E.0119
G1 X147.851 Y126.139 E.0471
G1 X147.942 Y127.369 E.04594
G1 X147.998 Y128.601 E.04594
G1 X148.02 Y129.834 E.04594
G1 X148.007 Y131.068 E.04594
G1 X147.96 Y132.3 E.04595
G1 X147.879 Y133.531 E.04595
G1 X147.758 Y134.824 E.04835
G1 X147.818 Y135.135 E.01178
G1 X147.984 Y135.364 E.01055
G1 X148.212 Y135.5 E.00989
G1 X148.675 Y135.54 E.01729
G1 X148.602 Y136.141 E.02256
G1 X148.393 Y137.511 E.0516
G1 X148.138 Y138.893 E.05235
G1 X147.842 Y140.263 E.05221
G1 X147.507 Y141.61 E.05172
G1 X147.128 Y142.953 E.05193
G1 X146.707 Y144.288 E.05214
G1 X146.249 Y145.6 E.05177
G1 X145.748 Y146.902 E.05197
G1 X145.208 Y148.188 E.05196
G1 X144.63 Y149.452 E.05177
G1 X144.007 Y150.712 E.05236
G1 X143.349 Y151.943 E.05197
G1 X142.66 Y153.145 E.05159
G1 X141.923 Y154.342 E.05236
G1 X141.155 Y155.507 E.05198
G1 X140.357 Y156.639 E.05159
G1 X139.513 Y157.763 E.05236
G1 X138.641 Y158.852 E.05197
G1 X137.742 Y159.907 E.0516
G1 X136.798 Y160.948 E.05235
G1 X135.829 Y161.952 E.05197
G1 X134.836 Y162.919 E.0516
G1 X133.8 Y163.868 E.05235
G1 X132.742 Y164.778 E.05198
G1 X131.665 Y165.649 E.05159
G1 X130.546 Y166.499 E.05236
G1 X129.409 Y167.308 E.05197
G1 X128.256 Y168.076 E.0516
G1 X127.071 Y168.813 E.05197
G1 X125.855 Y169.519 E.05236
G1 X124.636 Y170.177 E.05159
G1 X123.389 Y170.802 E.05198
G1 X122.113 Y171.393 E.05235
G1 X120.839 Y171.936 E.0516
G1 X119.539 Y172.443 E.05197
G1 X118.214 Y172.913 E.05235
G1 X116.895 Y173.336 E.0516
G1 X115.554 Y173.721 E.05197
G1 X114.191 Y174.067 E.05236
G1 X112.839 Y174.367 E.05159
G1 X111.468 Y174.626 E.05198
G1 X110.079 Y174.845 E.05235
G1 X108.705 Y175.018 E.0516
G1 X107.316 Y175.15 E.05197
G1 X105.913 Y175.24 E.05236
G1 X104.529 Y175.285 E.05159
G1 X103.133 Y175.289 E.05198
G1 X101.738 Y175.249 E.05198
G1 X100.345 Y175.166 E.05198
G1 X98.951 Y175.04 E.05213
G1 X97.566 Y174.872 E.05196
G1 X96.192 Y174.661 E.05176
G1 X94.816 Y174.407 E.05213
G1 X93.449 Y174.111 E.05211
G1 X92.097 Y173.774 E.05188
G1 X90.758 Y173.396 E.05183
G1 X89.418 Y172.973 E.05235
G1 X88.11 Y172.515 E.05161
G1 X87.244 Y172.182 E.03454
G1 X87.234 Y144.707 E1.02334
G1 X102.972 Y144.707 E.58616
G1 X104.572 Y144.682 E.05961
G1 X105.369 Y144.615 E.02978
G1 X106.187 Y144.5 E.03076
G1 X106.959 Y144.347 E.02933
G1 X107.447 Y144.223 E.01876
G1 X108.169 Y144.014 E.02797
G1 X108.88 Y143.769 E.02802
G1 X109.564 Y143.494 E.02745
G1 X110.255 Y143.175 E.02836
G1 X111.066 Y142.739 E.03429
G1 X111.832 Y142.266 E.03354
G1 X112.449 Y141.835 E.02802
G1 X113.052 Y141.367 E.02843
G1 X113.533 Y140.961 E.02346
G1 X114.452 Y140.055 E.04807
G1 X114.954 Y139.491 E.02811
G1 X115.438 Y138.887 E.02885
G1 X115.876 Y138.28 E.02787
G1 X116.27 Y137.672 E.02698
G1 X116.662 Y136.993 E.02919
G1 X117.008 Y136.313 E.02842
G1 X117.319 Y135.616 E.02844
G1 X117.613 Y134.844 E.03076
G1 X117.857 Y134.08 E.02989
G1 X118.148 Y132.853 E.04695
G1 X118.282 Y132.07 E.0296
G1 X118.368 Y131.344 E.02723
G1 X118.418 Y130.589 E.02818
G1 X118.426 Y129.703 E.03302
G1 X118.388 Y128.894 E.03016
G1 X118.339 Y128.332 E.021
G1 X118.229 Y127.552 E.02933
G1 X117.958 Y126.309 E.04742
G1 X117.756 Y125.603 E.02733
G1 X117.512 Y124.886 E.02821
G1 X117.227 Y124.175 E.02851
G1 X116.921 Y123.508 E.02735
G1 X116.571 Y122.837 E.02819
G1 X116.165 Y122.151 E.02971
G1 X115.704 Y121.465 E.03076
G1 X115.224 Y120.828 E.02972
G1 X114.888 Y120.43 E.01941
G1 X114.379 Y119.867 E.02827
G1 X113.845 Y119.333 E.02812
G1 X113.3 Y118.841 E.02735
G1 X112.721 Y118.369 E.02784
G1 X112.078 Y117.898 E.0297
G1 X111.521 Y117.528 E.02489
G1 X110.695 Y117.052 E.03551
G1 X110.074 Y116.733 E.02601
G1 X108.889 Y116.234 E.04787
G1 X108.178 Y115.988 E.02805
G1 X107.456 Y115.779 E.02799
G1 X106.726 Y115.606 E.02794
G1 X105.989 Y115.471 E.02791
G1 X105.247 Y115.374 E.02787
G1 X104.502 Y115.313 E.02785
G1 X103.702 Y115.293 E.02978
G1 X87.236 Y115.293 E.61331
G1 X87.237 Y87.821 E1.02322
G1 X88.111 Y87.484 E.03491
G1 X89.436 Y87.021 E.05227
G1 X90.794 Y86.593 E.05304
G1 X92.156 Y86.21 E.05269
G1 X93.521 Y85.872 E.05237
G1 X94.912 Y85.573 E.05298
G1 X96.301 Y85.32 E.05262
G1 X97.694 Y85.111 E.05244
G1 X99.107 Y84.943 E.053
G1 X100.51 Y84.821 E.05245
G1 X101.921 Y84.743 E.05265
G1 X103.334 Y84.709 E.05265
G1 X104.738 Y84.718 E.05228
G1 X106.161 Y84.772 E.05303
G1 X107.571 Y84.87 E.05265
G1 X108.977 Y85.012 E.05265
G1 X110.378 Y85.198 E.05265
G1 X111.763 Y85.426 E.05227
G1 X113.17 Y85.702 E.05341
G1 X114.538 Y86.016 E.05227
G1 X115.905 Y86.375 E.05265
G1 X117.261 Y86.776 E.05265
G1 X118.603 Y87.219 E.05265
G1 X119.94 Y87.708 E.05303
G1 X121.243 Y88.231 E.05228
G1 X122.538 Y88.798 E.05265
G1 X123.814 Y89.405 E.05265
G1 X125.071 Y90.051 E.05265
G1 X126.316 Y90.742 E.05303
G1 X127.522 Y91.461 E.05227
G1 X128.713 Y92.222 E.05265
G1 X129.879 Y93.02 E.05265
G1 X131.021 Y93.854 E.05265
G1 X132.143 Y94.73 E.05303
G1 X133.222 Y95.627 E.05227
G1 X134.281 Y96.564 E.05265
G1 X135.309 Y97.534 E.05265
G1 X136.307 Y98.535 E.05265
