; HEADER_BLOCK_START
; generated by OrcaSlicer 2.0.0 on 2024-05-20 at 06:57:42
; total layer number: 20
; filament_density: 1.24
; filament_diameter: 1.75
; max_z_height: 2.00
; HEADER_BLOCK_END

; THUMBNAIL_BLOCK_START

;
; THUMBNAIL_BLOCK_END

; THUMBNAIL_BLOCK_START

;
; THUMBNAIL_BLOCK_END

; external perimeters extrusion width = 0.40mm
; perimeters extrusion width = 0.42mm
; infill extrusion width = 0.45mm
; solid infill extrusion width = 0.42mm
; top infill extrusion width = 0.40mm
; first layer extrusion width = 0.50mm

; EXECUTABLE_BLOCK_START
EXCLUDE_OBJECT_DEFINE NAME=Corps1.stl_id_0_copy_0 CENTER=110,110 POLYGON=[[50,100],[50.0233,99.3176],[50.0931,98.6383],[50.2092,97.9654],[50.3708,97.302],[50.5774,96.6512],[50.8279,96.016],[51.1211,95.3993],[51.4558,94.8042],[51.8303,94.2332],[52.2429,93.6891],[52.6916,93.1745],[53.1745,92.6916],[53.6891,92.2429],[54.2332,91.8303],[54.8042,91.4558],[55.3993,91.1211],[56.016,90.8279],[56.6512,90.5774],[57.302,90.3708],[57.9654,90.2092],[58.6383,90.0931],[59.3176,90.0233],[60,90],[160,90],[160.682,90.0233],[161.362,90.0931],[162.035,90.2092],[162.698,90.3708],[163.349,90.5774],[163.984,90.8279],[164.601,91.1211],[165.196,91.4558],[165.767,91.8303],[166.311,92.2429],[166.826,92.6916],[167.308,93.1745],[167.757,93.6891],[168.17,94.2332],[168.544,94.8042],[168.879,95.3993],[169.172,96.016],[169.423,96.6512],[169.629,97.302],[169.791,97.9654],[169.907,98.6383],[169.977,99.3176],[170,100],[170,120],[169.977,120.682],[169.907,121.362],[169.791,122.035],[169.629,122.698],[169.423,123.349],[169.172,123.984],[168.879,124.601],[168.544,125.196],[168.17,125.767],[167.757,126.311],[167.308,126.826],[166.826,127.308],[166.311,127.757],[165.767,128.17],[165.196,128.544],[164.601,128.879],[163.984,129.172],[163.349,129.423],[162.698,129.629],[162.035,129.791],[161.362,129.907],[160.682,129.977],[160,130],[60,130],[59.3176,129.977],[58.6383,129.907],[57.9654,129.791],[57.302,129.629],[56.6512,129.423],[56.016,129.172],[55.3993,128.879],[54.8042,128.544],[54.2332,128.17],[53.6891,127.757],[53.1745,127.308],[52.6916,126.826],[52.2429,126.311],[51.8303,125.767],[51.4558,125.196],[51.1211,124.601],[50.8279,123.984],[50.5774,123.349],[50.3708,122.698],[50.2092,122.035],[50.0931,121.362],[50.0233,120.682],[50,120],[50,100]]
M73 P0 R35
;TYPE:Custom
M220 S100
G90 ; use absolute coordinates
M83 ; extruder relative mode
M104 S150 ; set temporary nozzle temp to prevent oozing during homing
M140 S55 ; set final bed temp
G4 S30 ; allow partial nozzle warmup
G28 ; home all axis and restore leveling
G1 Z25 F240
G1 X10.0 Y30 F3000
M104 S210 ; set final nozzle temp
M190 S55 ; wait for bed temp to stabilize
M109 S210 ; wait for nozzle temp to stabilize
G1 Z0.28 F240
G92 E0 ; Move Z Axis up
G1 Z2.0 F5000 ; Move to start position
G1 X10 Y30 Z0.28 F300 ; Draw the first line
G1 X10 Y200 Z0.28 F1500 E15 ; Move to side a little
G1 X10.4 Y200 Z0.28 F5000.0 ; Draw the second line
G1 X10.4 Y50 Z0.28 F1500.0 E30 ; Reset Extruder
G92 E0 ; Move Z Axis up
G1 Z2.0 F3000
M117 Start Printing..
G90
G21
M83 ; use relative distances for extrusion
; filament start gcode
M106 S0
;LAYER_CHANGE
;Z:0.1
;HEIGHT:0.1
;BEFORE_LAYER_CHANGE
;0.1
G92 E0

M73 P1 R35
G1 E-.5 F2400
;_SET_FAN_SPEED_CHANGING_LAYER
SET_VELOCITY_LIMIT ACCEL=500 ACCEL_TO_DECEL=250
SET_VELOCITY_LIMIT SQUARE_CORNER_VELOCITY=7
G1 Z.2 F18000
G1 X61.182 Y108.983
G1 Z.2
G1 Z.1
G1 E.5 F2400
;TYPE:Skirt
;WIDTH:0.5
G1 F3000
G1 X62.129 Y108.451 E.02118
G1 X63.757 Y107.759 E.03448
G1 X64.602 Y107.498 E.01725
G1 X66.136 Y107.179 E.03055
G1 X68 Y107.043 E.03644
G1 X168.101 Y107.045 E1.95172
G1 X169.664 Y107.152 E.03055
G1 X170.537 Y107.295 E.01725
G1 X171.593 Y107.552 E.02118
G1 X173.069 Y108.077 E.03055
G1 X174.818 Y108.983 E.0384
G1 X176.098 Y109.887 E.03055
G1 X176.769 Y110.463 E.01725
G1 X177.537 Y111.231 E.02118
G1 X178.505 Y112.419 E.02988
G1 X179.549 Y114.129 E.03907
G1 X180.174 Y115.566 E.03055
G1 X180.502 Y116.602 E.02118
G1 X180.821 Y118.136 E.03055
G1 X180.918 Y119.015 E.01725
G1 X180.957 Y140 E.40915
G1 X180.848 Y141.664 E.03251
G1 X180.502 Y143.398 E.03448
G1 X179.923 Y145.069 E.03448
G1 X179.122 Y146.645 E.03448
G1 X178.526 Y147.554 E.02118
G1 X177.399 Y148.916 E.03448
G1 X176.254 Y149.986 E.03055
G1 X174.818 Y151.017 E.03448
G1 X173.871 Y151.549 E.02118
G1 X172.243 Y152.241 E.03448
G1 X171.398 Y152.502 E.01725
G1 X169.864 Y152.821 E.03055
G1 X168 Y152.957 E.03644
G1 X67.015 Y152.918 E1.96895
G1 X65.265 Y152.664 E.03448
G1 X63.566 Y152.174 E.03448
G1 X61.95 Y151.456 E.03448
G1 X60.64 Y150.661 E.02988
G1 X59.902 Y150.113 E.01791
G1 X58.601 Y148.917 E.03448
G1 X57.474 Y147.554 E.03448
G1 X56.451 Y145.871 E.0384
G1 X55.759 Y144.243 E.03448
G1 X55.498 Y143.398 E.01725
G1 X55.179 Y141.864 E.03055
G1 X55.043 Y140 E.03644
G1 X55.043 Y120 E.38995
G1 X55.152 Y118.336 E.03251
G1 X55.336 Y117.265 E.02118
G1 X55.759 Y115.757 E.03055
G1 X56.451 Y114.129 E.03448
G1 X57.358 Y112.611 E.03448
G1 X58.463 Y111.231 E.03448
G1 X59.746 Y110.014 E.03448
G1 X61.15 Y109.006 E.0337
G1 X61.428 Y109.395 F18000
G1 F3000
G1 X61.445 Y109.383 E.0004
G1 X62.335 Y108.883 E.01991
G1 X63.901 Y108.215 E.0332
G1 X64.715 Y107.963 E.01661
G1 X66.217 Y107.651 E.02991
G1 X68 Y107.521 E.03485
G1 X168.085 Y107.523 E1.9514
G1 X169.615 Y107.628 E.02991
M73 P1 R34
G1 X170.621 Y107.801 E.01991
G1 X171.448 Y108.008 E.01661
G1 X172.893 Y108.522 E.02991
G1 X174.555 Y109.383 E.0365
G1 X175.808 Y110.268 E.02991
G1 X176.454 Y110.824 E.01661
G1 X177.176 Y111.546 E.01991
G1 X178.124 Y112.708 E.02925
G1 X179.117 Y114.335 E.03716
G1 X179.691 Y115.647 E.02792
G1 X179.992 Y116.552 E.0186
G1 X180.233 Y117.544 E.01991
G1 X180.442 Y119.064 E.02991
G1 X180.479 Y140 E.4082
G1 X180.372 Y141.615 E.03156
G1 X180.037 Y143.285 E.0332
G1 X179.478 Y144.893 E.0332
G1 X178.705 Y146.411 E.0332
G1 X178.145 Y147.264 E.01991
G1 X177.061 Y148.578 E.0332
G1 X175.808 Y149.732 E.0332
G1 X174.555 Y150.617 E.02991
G1 X173.665 Y151.117 E.01991
G1 X172.099 Y151.785 E.0332
G1 X171.285 Y152.037 E.01661
G1 X169.783 Y152.349 E.02991
G1 X168 Y152.479 E.03485
G1 X67.233 Y152.454 E1.9647
G1 X65.379 Y152.199 E.03649
G1 X63.742 Y151.728 E.0332
G1 X62.185 Y151.039 E.0332
G1 X60.902 Y150.261 E.02925
G1 X60.192 Y149.732 E.01728
G1 X58.939 Y148.578 E.0332
G1 X57.855 Y147.264 E.0332
G1 X56.883 Y145.665 E.03649
G1 X56.215 Y144.099 E.0332
G1 X55.963 Y143.285 E.01661
G1 X55.651 Y141.783 E.02991
G1 X55.521 Y140 E.03485
G1 X55.521 Y120 E.38995
G1 X55.628 Y118.385 E.03156
G1 X55.801 Y117.379 E.01991
G1 X56.272 Y115.742 E.0332
G1 X56.961 Y114.185 E.0332
G1 X57.855 Y112.736 E.0332
G1 X58.824 Y111.546 E.02991
G1 X60.06 Y110.375 E.0332
G1 X61.396 Y109.418 E.03203
; printing object Corps1.stl id:0 copy 0
G1 E-.35 F2400
;WIPE_START
G1 F3000
G1 X61.445 Y109.383 E-.00906
G1 X62.264 Y108.923 E-.14094
;WIPE_END
EXCLUDE_OBJECT_START NAME=Corps1.stl_id_0_copy_0
G1 Z.3 F18000
G1 X171.971 Y111.628 Z.3
G1 Z.1
G1 E.5 F2400
;TYPE:Inner wall
;WIDTH:0.499999
G1 F1800
G1 X172.265 Y111.768 E.00636
G1 X172.817 Y112.079 E.01234
G1 X173.346 Y112.426 E.01234
G1 X173.851 Y112.808 E.01234
G1 X174.328 Y113.224 E.01234
G1 X174.776 Y113.672 E.01234
G1 X175.192 Y114.149 E.01234
G1 X175.554 Y114.627 E.0117
G1 X175.922 Y115.184 E.01301
G1 X176.232 Y115.735 E.01232
G1 X176.503 Y116.306 E.01234
G1 X176.736 Y116.895 E.01234
G1 X176.927 Y117.499 E.01234
G1 X177.077 Y118.114 E.01234
G1 X177.185 Y118.738 E.01234
G1 X177.249 Y119.367 E.01234
G1 X177.271 Y120.174 E.01573
G1 X177.271 Y139.988 E.38632
G1 X177.249 Y140.633 E.01259
G1 X177.185 Y141.262 E.01234
G1 X177.077 Y141.886 E.01234
G1 X176.927 Y142.501 E.01234
G1 X176.736 Y143.105 E.01234
G1 X176.503 Y143.694 E.01234
G1 X176.232 Y144.265 E.01234
G1 X175.921 Y144.817 E.01234
M73 P2 R34
G1 X175.574 Y145.346 E.01234
G1 X175.192 Y145.851 E.01234
G1 X174.776 Y146.328 E.01234
G1 X174.328 Y146.776 E.01234
G1 X173.851 Y147.192 E.01234
G1 X173.346 Y147.574 E.01234
G1 X172.817 Y147.921 E.01234
G1 X172.265 Y148.232 E.01234
G1 X171.694 Y148.503 E.01234
G1 X171.105 Y148.736 E.01234
G1 X170.501 Y148.927 E.01234
G1 X169.886 Y149.077 E.01234
G1 X169.262 Y149.185 E.01234
G1 X168.633 Y149.249 E.01234
G1 X167.988 Y149.271 E.01259
G1 X68.012 Y149.271 E1.94926
G1 X67.367 Y149.249 E.01259
G1 X66.738 Y149.185 E.01234
G1 X66.114 Y149.077 E.01234
G1 X65.499 Y148.927 E.01234
G1 X64.895 Y148.736 E.01234
G1 X64.306 Y148.503 E.01234
G1 X63.735 Y148.232 E.01234
G1 X63.183 Y147.921 E.01234
G1 X62.681 Y147.592 E.0117
G1 X62.148 Y147.191 E.01301
G1 X61.672 Y146.776 E.01232
G1 X61.224 Y146.328 E.01234
G1 X60.808 Y145.851 E.01234
G1 X60.426 Y145.346 E.01234
G1 X60.079 Y144.817 E.01234
G1 X59.768 Y144.265 E.01234
G1 X59.511 Y143.723 E.0117
G1 X59.264 Y143.104 E.01301
G1 X59.073 Y142.501 E.01232
G1 X58.923 Y141.886 E.01234
G1 X58.815 Y141.262 E.01234
G1 X58.751 Y140.633 E.01234
G1 X58.729 Y139.988 E.01259
G1 X58.729 Y120.012 E.38946
G1 X58.751 Y119.367 E.01259
G1 X58.815 Y118.738 E.01234
G1 X58.923 Y118.114 E.01234
G1 X59.073 Y117.499 E.01234
G1 X59.264 Y116.895 E.01234
G1 X59.497 Y116.306 E.01234
G1 X59.768 Y115.735 E.01234
G1 X60.079 Y115.183 E.01234
G1 X60.426 Y114.654 E.01234
G1 X60.808 Y114.149 E.01234
G1 X61.224 Y113.672 E.01234
G1 X61.672 Y113.224 E.01234
G1 X62.149 Y112.808 E.01234
G1 X62.654 Y112.426 E.01234
G1 X63.183 Y112.079 E.01234
G1 X63.735 Y111.768 E.01234
G1 X64.306 Y111.497 E.01234
G1 X64.895 Y111.264 E.01234
G1 X65.499 Y111.073 E.01234
G1 X66.114 Y110.923 E.01234
G1 X66.738 Y110.815 E.01234
G1 X67.367 Y110.751 E.01234
G1 X68.012 Y110.729 E.01259
G1 X168.022 Y110.73 E1.94992
G1 X168.633 Y110.751 E.01192
G1 X169.262 Y110.815 E.01234
G1 X169.886 Y110.923 E.01234
G1 X170.501 Y111.073 E.01234
G1 X171.105 Y111.264 E.01234
G1 X171.694 Y111.497 E.01234
G1 X171.934 Y111.611 E.0052
G1 X172.177 Y111.197 F18000
;TYPE:Outer wall
G1 F1800
G1 X172.185 Y111.2 E.00018
G1 X172.776 Y111.507 E.01297
G1 X173.345 Y111.852 E.01298
G1 X173.888 Y112.236 E.01298
G1 X174.405 Y112.657 E.01299
G1 X174.892 Y113.112 E.013
G1 X175.35 Y113.603 E.01309
G1 X175.759 Y114.105 E.01261
G1 X176.143 Y114.65 E.01301
G1 X176.497 Y115.231 E.01327
G1 X176.801 Y115.818 E.01287
G1 X177.065 Y116.427 E.01295
G1 X177.288 Y117.053 E.01296
G1 X177.467 Y117.693 E.01297
G1 X177.603 Y118.345 E.01297
G1 X177.693 Y119.004 E.01297
G1 X177.739 Y119.67 E.01303
G1 X177.75 Y120.174 E.00982
G1 X177.75 Y139.996 E.38648
G1 X177.727 Y140.665 E.01306
G1 X177.659 Y141.328 E.01298
G1 X177.546 Y141.984 E.01298
G1 X177.388 Y142.63 E.01298
G1 X177.187 Y143.265 E.01298
G1 X176.943 Y143.884 E.01298
G1 X176.657 Y144.486 E.01298
G1 X176.33 Y145.066 E.01298
G1 X175.965 Y145.623 E.01298
G1 X175.563 Y146.153 E.01298
G1 X175.126 Y146.655 E.01298
G1 X174.655 Y147.126 E.01298
G1 X174.153 Y147.563 E.01298
G1 X173.623 Y147.965 E.01298
G1 X173.066 Y148.33 E.01298
G1 X172.486 Y148.657 E.01298
G1 X171.884 Y148.943 E.01298
G1 X171.265 Y149.187 E.01298
G1 X170.63 Y149.388 E.01298
G1 X169.984 Y149.546 E.01298
G1 X169.328 Y149.659 E.01298
G1 X168.665 Y149.727 E.01298
G1 X167.996 Y149.75 E.01306
G1 X68.004 Y149.75 E1.94958
G1 X67.335 Y149.727 E.01306
G1 X66.672 Y149.659 E.01298
G1 X66.016 Y149.546 E.01298
G1 X65.37 Y149.388 E.01298
G1 X64.735 Y149.187 E.01298
G1 X64.116 Y148.943 E.01298
G1 X63.514 Y148.657 E.01298
G1 X62.934 Y148.33 E.01298
G1 X62.406 Y147.984 E.01232
G1 X61.847 Y147.563 E.01364
G1 X61.345 Y147.126 E.01297
G1 X60.874 Y146.655 E.01298
G1 X60.437 Y146.153 E.01298
G1 X60.035 Y145.623 E.01298
G1 X59.67 Y145.066 E.01298
G1 X59.343 Y144.486 E.01298
G1 X59.072 Y143.915 E.01232
G1 X58.813 Y143.265 E.01365
G1 X58.612 Y142.63 E.01297
G1 X58.454 Y141.984 E.01298
G1 X58.341 Y141.328 E.01298
G1 X58.273 Y140.665 E.01298
G1 X58.25 Y139.996 E.01306
G1 X58.25 Y120.004 E.38978
G1 X58.273 Y119.335 E.01306
G1 X58.341 Y118.672 E.01298
G1 X58.454 Y118.016 E.01298
G1 X58.612 Y117.37 E.01298
G1 X58.813 Y116.735 E.01298
G1 X59.057 Y116.116 E.01298
G1 X59.343 Y115.514 E.01298
G1 X59.67 Y114.934 E.01298
G1 X60.035 Y114.377 E.01298
G1 X60.437 Y113.847 E.01298
G1 X60.874 Y113.345 E.01298
G1 X61.345 Y112.874 E.01298
G1 X61.847 Y112.437 E.01298
G1 X62.377 Y112.035 E.01298
G1 X62.934 Y111.67 E.01298
G1 X63.514 Y111.343 E.01298
G1 X64.116 Y111.057 E.01298
G1 X64.735 Y110.813 E.01298
G1 X65.37 Y110.612 E.01298
G1 X66.016 Y110.454 E.01298
G1 X66.672 Y110.341 E.01298
G1 X67.335 Y110.273 E.01298
G1 X68.004 Y110.25 E.01306
G1 X167.828 Y110.251 E1.9463
G1 X168.333 Y110.262 E.00985
G1 X168.997 Y110.307 E.01297
G1 X169.656 Y110.398 E.01297
G1 X170.307 Y110.533 E.01297
G1 X170.948 Y110.712 E.01297
G1 X171.575 Y110.935 E.01297
G1 X172.14 Y111.181 E.01202
G1 E-.35 F2400
;WIPE_START
G1 F1800
G1 X172.185 Y111.2 E-.00735
G1 X172.776 Y111.507 E-.09981
G1 X173.02 Y111.655 E-.04284
;WIPE_END
G1 Z.3 F18000
G1 X175.693 Y115.098
G1 Z.3
G1 Z.1
G1 E.5 F2400
;TYPE:Bottom surface
;WIDTH:0.501203
G1 F3600
G1 X174.076 Y113.481 E.04471
G1 X173.624 Y113.087 E.01171
G1 X173.139 Y112.719 E.01189
G1 X172.63 Y112.385 E.01189
G1 X171.917 Y112 E.01586
G1 X176 Y116.083 E.11288
G1 X176.174 Y116.449 E.00792
G1 X176.464 Y117.226 E.0162
G1 X170.774 Y111.536 E.15729
G1 X170.404 Y111.419 E.00758
G1 X169.841 Y111.281 E.01134
G1 X176.719 Y118.159 E.19012
G1 X176.847 Y118.966 E.01597
G1 X169.034 Y111.153 E.21599
G1 X168.608 Y111.109 E.00836
G1 X168.301 Y111.098 E.006
G1 X176.902 Y119.699 E.23774
G1 X176.913 Y120.388 E.01348
G1 X167.613 Y111.089 E.25707
G1 X166.934 Y111.089 E.01326
G1 X176.913 Y121.067 E.27582
G1 X176.913 Y121.745 E.01326
M73 P3 R34
G1 X166.256 Y111.089 E.29458
G1 X165.578 Y111.089 E.01326
G1 X176.913 Y122.424 E.31333
G1 X176.913 Y123.102 E.01326
G1 X164.899 Y111.089 E.33209
G1 X164.221 Y111.089 E.01326
G1 X176.913 Y123.781 E.35084
G1 X176.913 Y124.459 E.01326
G1 X163.542 Y111.089 E.3696
G1 X162.864 Y111.089 E.01326
G1 X176.913 Y125.137 E.38835
G1 X176.913 Y125.816 E.01326
G1 X162.185 Y111.089 E.40711
G1 X161.507 Y111.089 E.01326
G1 X176.913 Y126.494 E.42586
G1 X176.913 Y127.173 E.01326
G1 X160.828 Y111.089 E.44462
G1 X160.15 Y111.089 E.01326
G1 X176.913 Y127.851 E.46337
G1 X176.913 Y128.53 E.01326
G1 X159.471 Y111.089 E.48213
G1 X158.793 Y111.088 E.01326
G1 X176.913 Y129.208 E.50088
G1 X176.913 Y129.887 E.01326
G1 X158.114 Y111.088 E.51964
G1 X157.436 Y111.088 E.01326
G1 X176.913 Y130.565 E.53839
G1 X176.913 Y131.244 E.01326
G1 X156.757 Y111.088 E.55715
G1 X156.079 Y111.088 E.01326
G1 X176.913 Y131.922 E.5759
G1 X176.913 Y132.6 E.01326
G1 X155.401 Y111.088 E.59465
G1 X154.722 Y111.088 E.01326
G1 X176.913 Y133.279 E.61341
G1 X176.913 Y133.957 E.01326
G1 X154.044 Y111.088 E.63216
G1 X153.365 Y111.088 E.01326
G1 X176.913 Y134.636 E.65092
G1 X176.913 Y135.314 E.01326
G1 X152.687 Y111.088 E.66967
G1 X152.008 Y111.088 E.01326
G1 X176.913 Y135.993 E.68843
G1 X176.913 Y136.671 E.01326
G1 X151.33 Y111.088 E.70718
G1 X150.651 Y111.088 E.01326
G1 X176.913 Y137.35 E.72594
G1 X176.913 Y138.028 E.01326
G1 X149.973 Y111.088 E.74469
G1 X149.294 Y111.088 E.01326
G1 X176.913 Y138.707 E.76345
G1 X176.913 Y139.385 E.01326
G1 X148.616 Y111.088 E.7822
G1 X147.937 Y111.088 E.01326
G1 X176.91 Y140.061 E.80088
G1 X176.881 Y140.71 E.0127
G1 X147.259 Y111.088 E.81883
G1 X146.58 Y111.088 E.01326
G1 X176.811 Y141.319 E.83565
G1 X176.706 Y141.893 E.0114
G1 X145.902 Y111.088 E.85152
G1 X145.224 Y111.088 E.01326
G1 X176.571 Y142.436 E.86655
G1 X176.408 Y142.951 E.01056
G1 X144.545 Y111.088 E.88078
G1 X143.867 Y111.088 E.01326
M73 P4 R34
G1 X176.218 Y143.44 E.89428
G1 X176.005 Y143.905 E.01001
G1 X143.188 Y111.088 E.90716
G1 X142.51 Y111.088 E.01326
G1 X175.772 Y144.351 E.91947
G1 X175.519 Y144.776 E.00968
G1 X141.831 Y111.088 E.93123
G1 X141.153 Y111.088 E.01326
G1 X175.248 Y145.183 E.94248
G1 X174.955 Y145.569 E.00947
G1 X140.474 Y111.088 E.95315
G1 X139.796 Y111.088 E.01326
G1 X174.642 Y145.935 E.96326
G1 X174.313 Y146.283 E.00938
G1 X139.117 Y111.088 E.9729
G1 X138.439 Y111.088 E.01326
G1 X173.966 Y146.615 E.98207
G1 X173.602 Y146.93 E.0094
G1 X137.76 Y111.088 E.99077
G1 X137.082 Y111.088 E.01326
M73 P4 R33
G1 X173.216 Y147.222 E.99886
G1 X172.811 Y147.496 E.00955
G1 X136.403 Y111.088 E1.00642
