; HEADER_BLOCK_START
; generated by OrcaSlicer 2.0.0 on 2024-05-19 at 12:24:33
; total layer number: 50
; filament_density: 1.24
; filament_diameter: 1.75
; max_z_height: 10.00
; HEADER_BLOCK_END

; THUMBNAIL_BLOCK_START

;
; THUMBNAIL_BLOCK_END

; THUMBNAIL_BLOCK_START

;
; THUMBNAIL_BLOCK_END

; external perimeters extrusion width = 0.40mm
; perimeters extrusion width = 0.42mm
; infill extrusion width = 0.45mm
; solid infill extrusion width = 0.42mm
; top infill extrusion width = 0.40mm
; first layer extrusion width = 0.50mm

; EXECUTABLE_BLOCK_START
EXCLUDE_OBJECT_DEFINE NAME=Corps8.stl_id_0_copy_0 CENTER=110,110 POLYGON=[[75.0025,110],[75.0222,108.824],[75.0815,107.65],[75.1801,106.478],[75.3181,105.31],[75.4952,104.148],[75.7113,102.992],[75.9661,101.844],[76.2593,100.705],[76.5906,99.5766],[76.9596,98.4601],[77.3659,97.3565],[77.8091,96.2673],[78.2886,95.1936],[78.8039,94.1365],[79.3544,93.0974],[79.9395,92.0774],[80.5586,91.0776],[81.2109,90.0991],[81.8957,89.1431],[82.6122,88.2107],[83.3596,87.3029],[84.1372,86.4207],[84.9439,85.5651],[85.7789,84.737],[86.6412,83.9375],[87.5299,83.1675],[88.444,82.4277],[89.3824,81.719],[90.3441,81.0423],[91.328,80.3982],[92.333,79.7876],[93.3579,79.2111],[94.4016,78.6693],[95.4629,78.1629],[96.5407,77.6924],[97.6336,77.2584],[98.7405,76.8614],[99.8601,76.5018],[100.991,76.1799],[102.132,75.8963],[103.282,75.6512],[104.44,75.4448],[105.604,75.2775],[106.773,75.1493],[107.946,75.0605],[109.121,75.0111],[110.296,75.0012],[111.472,75.0309],[112.646,75.1],[113.817,75.2085],[114.983,75.3563],[116.144,75.5431],[117.299,75.7689],[118.444,76.0333],[119.581,76.3361],[120.706,76.6769],[121.82,77.0553],[122.92,77.4708],[124.005,77.9231],[125.075,78.4116],[126.127,78.9358],[127.162,79.495],[128.177,80.0887],[129.172,80.7161],[130.144,81.3766],[131.095,82.0694],[132.021,82.7937],[132.923,83.5488],[133.798,84.3337],[134.647,85.1475],[135.468,85.9895],[136.26,86.8585],[137.023,87.7537],[137.755,88.6739],[138.456,89.6183],[139.124,90.5856],[139.76,91.5749],[140.362,92.5849],[140.93,93.6147],[141.463,94.6629],[141.961,95.7284],[142.422,96.8101],[142.847,97.9066],[143.235,99.0168],[143.585,100.139],[143.897,101.273],[144.171,102.417],[144.407,103.569],[144.603,104.728],[144.761,105.893],[144.879,107.063],[144.958,108.237],[144.998,109.412],[144.998,110.588],[144.958,111.763],[144.879,112.937],[144.761,114.107],[144.603,115.272],[144.407,116.431],[144.171,117.583],[143.897,118.727],[143.585,119.861],[143.235,120.983],[142.847,122.093],[142.422,123.19],[141.961,124.272],[141.463,125.337],[140.93,126.385],[140.362,127.415],[139.76,128.425],[139.124,129.414],[138.456,130.382],[137.755,131.326],[137.023,132.246],[136.26,133.142],[135.468,134.011],[134.647,134.852],[133.798,135.666],[132.923,136.451],[132.021,137.206],[131.095,137.931],[130.144,138.623],[129.172,139.284],[128.177,139.911],[127.162,140.505],[126.127,141.064],[125.075,141.588],[124.005,142.077],[122.92,142.529],[121.82,142.945],[120.706,143.323],[119.581,143.664],[118.444,143.967],[117.299,144.231],[116.144,144.457],[114.983,144.644],[113.817,144.792],[112.646,144.9],[111.472,144.969],[110.296,144.999],[109.121,144.989],[107.946,144.94],[106.773,144.851],[105.604,144.723],[104.44,144.555],[103.282,144.349],[102.132,144.104],[100.991,143.82],[99.8601,143.498],[98.7405,143.139],[97.6336,142.742],[96.5407,142.308],[95.4629,141.837],[94.4016,141.331],[93.3579,140.789],[92.333,140.212],[91.328,139.602],[90.3441,138.958],[89.3824,138.281],[88.444,137.572],[87.5299,136.833],[86.6412,136.062],[85.7789,135.263],[84.9439,134.435],[84.1372,133.579],[83.3596,132.697],[82.6122,131.789],[81.8957,130.857],[81.2109,129.901],[80.5586,128.922],[79.9395,127.923],[79.3544,126.903],[78.8039,125.863],[78.2886,124.806],[77.8091,123.733],[77.3659,122.643],[76.9596,121.54],[76.5906,120.423],[76.2593,119.295],[75.9661,118.156],[75.7113,117.008],[75.4952,115.852],[75.3181,114.69],[75.1801,113.522],[75.0815,112.35],[75.0222,111.176],[75.0025,110]]
M73 P0 R21
;TYPE:Custom
M220 S100
G90 ; use absolute coordinates
M83 ; extruder relative mode
M104 S150 ; set temporary nozzle temp to prevent oozing during homing
M140 S55 ; set final bed temp
G4 S30 ; allow partial nozzle warmup
G28 ; home all axis and restore leveling
G1 Z25 F240
G1 X10.0 Y30 F3000
M104 S210 ; set final nozzle temp
M190 S55 ; wait for bed temp to stabilize
M109 S210 ; wait for nozzle temp to stabilize
G1 Z0.28 F240
G92 E0 ; Move Z Axis up
G1 Z2.0 F5000 ; Move to start position
M73 P1 R21
G1 X10 Y30 Z0.28 F300 ; Draw the first line
G1 X10 Y200 Z0.28 F1500 E15 ; Move to side a little
G1 X10.4 Y200 Z0.28 F5000.0 ; Draw the second line
G1 X10.4 Y50 Z0.28 F1500.0 E30 ; Reset Extruder
G92 E0 ; Move Z Axis up
G1 Z2.0 F3000
M117 Start Printing..
G90
G21
M83 ; use relative distances for extrusion
; filament start gcode
M106 S0
;LAYER_CHANGE
;Z:0.2
;HEIGHT:0.2
;BEFORE_LAYER_CHANGE
;0.2
G92 E0

M73 P2 R20
G1 E-.5 F2400
;_SET_FAN_SPEED_CHANGING_LAYER
SET_VELOCITY_LIMIT ACCEL=500 ACCEL_TO_DECEL=250
SET_VELOCITY_LIMIT SQUARE_CORNER_VELOCITY=7
G1 Z.2 F18000
G1 X91.928 Y102.878
G1 Z.2
G1 E.5 F2400
;TYPE:Skirt
;WIDTH:0.5
G1 F3000
G1 X94.79 Y100.392 E.14119
G1 X97.887 Y98.206 E.14119
G1 X101.189 Y96.343 E.14119
G1 X104.661 Y94.822 E.14119
G1 X108.269 Y93.658 E.14119
G1 X111.975 Y92.863 E.14119
G1 X114.58 Y92.533 E.09779
G1 X118.367 Y92.379 E.14119
G1 X122.151 Y92.607 E.14119
G1 X125.893 Y93.214 E.14119
G1 X129.555 Y94.195 E.14119
G1 X133.099 Y95.539 E.14119
G1 X136.487 Y97.232 E.14107
G1 X139.694 Y99.26 E.14131
G1 X142.677 Y101.599 E.14119
G1 X145.343 Y104.155 E.13755
G1 X147.805 Y107.037 E.14119
G1 X149.964 Y110.153 E.14119
G1 X151.799 Y113.47 E.14119
G1 X153.096 Y116.451 E.12108
G1 X154.115 Y119.447 E.1179
G1 X154.993 Y123.135 E.14119
G1 X155.497 Y126.892 E.14119
G1 X155.619 Y130.681 E.14119
G1 X155.359 Y134.463 E.14119
G1 X154.721 Y138.199 E.14119
G1 X153.709 Y141.853 E.14119
G1 X152.375 Y145.296 E.13755
G1 X150.661 Y148.678 E.14119
G1 X148.616 Y151.869 E.14119
G1 X146.26 Y154.839 E.14119
G1 X144.007 Y157.182 E.12108
G1 X141.633 Y159.276 E.1179
G1 X138.567 Y161.505 E.14119
G1 X135.292 Y163.414 E.14119
G1 X131.842 Y164.985 E.14119
G1 X128.345 Y166.173 E.13755
G1 X124.653 Y167.03 E.14119
G1 X120.893 Y167.511 E.14119
G1 X117.103 Y167.612 E.14119
G1 X113.323 Y167.33 E.14119
G1 X109.59 Y166.67 E.14119
G1 X105.943 Y165.637 E.14119
G1 X103.487 Y164.71 E.09779
G1 X100.068 Y163.073 E.14119
G1 X96.831 Y161.1 E.14119
G1 X93.884 Y158.875 E.13755
G1 X91.1 Y156.301 E.14119
G1 X88.59 Y153.46 E.14119
G1 X86.379 Y150.381 E.14119
G1 X85.034 Y148.126 E.09779
G1 X83.378 Y144.717 E.14119
G1 X82.072 Y141.158 E.14119
G1 X81.132 Y137.485 E.14119
G1 X80.566 Y133.737 E.14119
G1 X80.38 Y129.951 E.14119
G1 X80.576 Y126.165 E.14119
G1 X81.152 Y122.419 E.14119
G1 X82.102 Y118.749 E.14119
G1 X83.416 Y115.193 E.14119
G1 X85.034 Y111.874 E.13755
G1 X87.026 Y108.648 E.14119
G1 X89.332 Y105.639 E.14119
G1 X91.901 Y102.907 E.1397
G1 X92.234 Y103.22 F18000
G1 F3000
G1 X92.25 Y103.202 E.0009
G1 X95.078 Y100.747 E.13948
G1 X98.138 Y98.589 E.13948
G1 X101.399 Y96.749 E.13948
G1 X104.83 Y95.247 E.13948
G1 X108.394 Y94.098 E.13948
G1 X112.055 Y93.313 E.13948
G1 X114.614 Y92.989 E.09608
G1 X118.356 Y92.836 E.13948
G1 X122.094 Y93.06 E.13948
G1 X125.79 Y93.66 E.13948
G1 X129.408 Y94.628 E.13948
G1 X132.834 Y95.922 E.13641
G1 X136.185 Y97.586 E.13935
G1 X139.357 Y99.582 E.1396
G1 X142.31 Y101.885 E.13947
G1 X145.015 Y104.474 E.13948
G1 X146.721 Y106.409 E.09608
G1 X148.949 Y109.419 E.13947
G1 X150.863 Y112.637 E.13948
G1 X152.443 Y116.032 E.13948
G1 X153.674 Y119.569 E.13948
G1 X154.528 Y123.13 E.1364
G1 X155.034 Y126.841 E.13947
G1 X155.163 Y130.583 E.13948
G1 X154.916 Y134.32 E.13948
G1 X154.294 Y138.012 E.13948
G1 X153.304 Y141.624 E.13948
G1 X151.955 Y145.117 E.13948
G1 X150.261 Y148.457 E.13947
G1 X148.24 Y151.609 E.13948
G1 X145.912 Y154.542 E.13948
G1 X144.143 Y156.419 E.09608
G1 X141.351 Y158.916 E.13948
G1 X138.323 Y161.118 E.13947
G1 X135.162 Y162.967 E.13641
G1 X131.757 Y164.527 E.13947
G1 X128.213 Y165.736 E.13948
G1 X124.565 Y166.582 E.13948
G1 X120.851 Y167.056 E.13948
G1 X117.107 Y167.155 E.13947
G1 X113.373 Y166.876 E.13948
G1 X109.686 Y166.223 E.13948
G1 X106.083 Y165.202 E.13947
G1 X103.67 Y164.291 E.09608
G1 X100.364 Y162.714 E.13641
G1 X97.162 Y160.773 E.13947
G1 X94.171 Y158.519 E.13948
G1 X91.422 Y155.976 E.13948
G1 X88.943 Y153.17 E.13948
G1 X86.759 Y150.128 E.13947
G1 X85.438 Y147.912 E.09608
G1 X83.801 Y144.544 E.13948
G1 X82.511 Y141.029 E.13948
G1 X81.581 Y137.401 E.13947
G1 X81.021 Y133.699 E.13948
G1 X80.837 Y129.959 E.13948
G1 X81.03 Y126.219 E.13947
G1 X81.598 Y122.518 E.13948
G1 X82.536 Y118.892 E.13948
G1 X83.833 Y115.38 E.13948
G1 X85.438 Y112.088 E.1364
G1 X87.406 Y108.902 E.13948
G1 X89.684 Y105.93 E.13948
G1 X92.206 Y103.249 E.13709
; printing object Corps8.stl id:0 copy 0
G1 E-.35 F2400
;WIPE_START
G1 F3000
G1 X92.25 Y103.202 E-.00962
G1 X92.957 Y102.589 E-.14038
;WIPE_END
EXCLUDE_OBJECT_START NAME=Corps8.stl_id_0_copy_0
G1 Z.4 F18000
G1 X105.033 Y98.874 Z.4
G1 Z.2
G1 E.5 F2400
;TYPE:Inner wall
;WIDTH:0.499999
G1 F1800
G1 X106.086 Y98.456 E.0422
G1 X107.152 Y98.073 E.0422
G1 X108.231 Y97.727 E.0422
G1 X109.321 Y97.417 E.0422
G1 X110.42 Y97.144 E.0422
G1 X111.528 Y96.907 E.0422
G1 X112.644 Y96.709 E.0422
G1 X113.765 Y96.547 E.0422
G1 X114.891 Y96.424 E.0422
G1 X116.021 Y96.338 E.04219
G1 X117.153 Y96.291 E.0422
G1 X118.286 Y96.281 E.0422
G1 X119.418 Y96.31 E.0422
G1 X120.549 Y96.376 E.04219
G1 X121.677 Y96.481 E.0422
G1 X122.801 Y96.623 E.0422
G1 X123.92 Y96.803 E.0422
G1 X125.032 Y97.021 E.0422
G1 X126.136 Y97.276 E.0422
G1 X127.23 Y97.567 E.0422
G1 X128.315 Y97.896 E.0422
G1 X129.387 Y98.26 E.0422
G1 X130.447 Y98.66 E.0422
G1 X131.493 Y99.096 E.0422
G1 X132.524 Y99.567 E.04219
M73 P3 R20
G1 X133.538 Y100.072 E.0422
G1 X134.53 Y100.608 E.04203
G1 X135.512 Y101.183 E.04236
G1 X136.47 Y101.787 E.0422
G1 X137.408 Y102.423 E.0422
G1 X138.323 Y103.091 E.0422
G1 X139.216 Y103.789 E.0422
G1 X140.084 Y104.516 E.0422
G1 X140.928 Y105.272 E.0422
G1 X141.746 Y106.056 E.0422
G1 X142.537 Y106.868 E.0422
G1 X143.3 Y107.705 E.0422
G1 X144.035 Y108.567 E.0422
G1 X144.74 Y109.454 E.04219
G1 X145.415 Y110.364 E.0422
G1 X146.059 Y111.296 E.0422
G1 X146.672 Y112.249 E.0422
G1 X147.252 Y113.222 E.0422
G1 X147.799 Y114.214 E.0422
G1 X148.313 Y115.224 E.0422
G1 X148.792 Y116.25 E.0422
G1 X149.236 Y117.292 E.0422
G1 X149.646 Y118.349 E.0422
G1 X150.019 Y119.418 E.0422
G1 X150.357 Y120.5 E.0422
G1 X150.657 Y121.592 E.04219
G1 X150.921 Y122.694 E.0422
G1 X151.148 Y123.804 E.0422
G1 X151.338 Y124.921 E.0422
G1 X151.49 Y126.044 E.0422
G1 X151.604 Y127.171 E.0422
G1 X151.683 Y128.402 E.04595
G1 X151.718 Y129.534 E.04219
G1 X151.718 Y130.566 E.03844
G1 X151.68 Y131.699 E.0422
G1 X151.604 Y132.829 E.0422
G1 X151.49 Y133.956 E.0422
G1 X151.338 Y135.079 E.0422
G1 X151.148 Y136.196 E.0422
G1 X150.921 Y137.306 E.0422
G1 X150.657 Y138.408 E.0422
G1 X150.357 Y139.5 E.04219
G1 X150.019 Y140.582 E.0422
G1 X149.646 Y141.651 E.0422
G1 X149.236 Y142.708 E.0422
G1 X148.792 Y143.75 E.0422
G1 X148.313 Y144.776 E.0422
G1 X147.799 Y145.786 E.0422
G1 X147.252 Y146.778 E.0422
G1 X146.672 Y147.751 E.0422
G1 X146.059 Y148.704 E.0422
G1 X145.415 Y149.636 E.0422
G1 X144.74 Y150.546 E.0422
G1 X144.035 Y151.433 E.04219
G1 X143.3 Y152.295 E.0422
G1 X142.537 Y153.132 E.0422
G1 X141.746 Y153.944 E.0422
G1 X140.928 Y154.728 E.0422
G1 X140.084 Y155.484 E.0422
G1 X139.216 Y156.211 E.0422
G1 X138.323 Y156.909 E.0422
G1 X137.408 Y157.577 E.0422
G1 X136.47 Y158.213 E.0422
G1 X135.512 Y158.817 E.04219
G1 X134.53 Y159.392 E.04237
G1 X133.538 Y159.928 E.04203
G1 X132.524 Y160.433 E.0422
G1 X131.493 Y160.904 E.0422
G1 X130.447 Y161.34 E.0422
G1 X129.387 Y161.74 E.0422
G1 X128.315 Y162.104 E.0422
G1 X127.23 Y162.433 E.0422
G1 X126.136 Y162.724 E.0422
G1 X125.032 Y162.979 E.0422
G1 X123.92 Y163.197 E.04219
G1 X122.801 Y163.377 E.0422
G1 X121.677 Y163.519 E.0422
G1 X120.549 Y163.624 E.0422
G1 X119.418 Y163.69 E.04219
G1 X118.286 Y163.719 E.0422
G1 X117.153 Y163.709 E.0422
G1 X116.021 Y163.662 E.0422
G1 X114.891 Y163.576 E.04219
G1 X113.765 Y163.453 E.0422
G1 X112.644 Y163.291 E.0422
G1 X111.528 Y163.093 E.0422
G1 X110.42 Y162.856 E.0422
G1 X109.321 Y162.583 E.0422
G1 X108.231 Y162.273 E.0422
G1 X107.152 Y161.927 E.04219
G1 X106.086 Y161.544 E.0422
G1 X105.033 Y161.126 E.0422
G1 X103.995 Y160.673 E.0422
G1 X102.972 Y160.185 E.0422
G1 X101.967 Y159.663 E.04219
G1 X100.979 Y159.107 E.0422
G1 X100.011 Y158.519 E.0422
G1 X99.063 Y157.899 E.0422
G1 X98.137 Y157.247 E.0422
G1 X97.233 Y156.564 E.04219
G1 X96.352 Y155.851 E.0422
G1 X95.496 Y155.109 E.0422
G1 X94.665 Y154.339 E.0422
G1 X93.86 Y153.541 E.04219
G1 X93.083 Y152.717 E.0422
G1 X92.334 Y151.867 E.0422
G1 X91.614 Y150.992 E.0422
G1 X90.924 Y150.094 E.0422
G1 X90.264 Y149.173 E.0422
G1 X89.635 Y148.23 E.0422
G1 X89.039 Y147.267 E.0422
G1 X88.475 Y146.284 E.0422
G1 X87.945 Y145.283 E.0422
G1 X87.448 Y144.265 E.0422
G1 X86.986 Y143.23 E.0422
G1 X86.56 Y142.181 E.04219
G1 X86.168 Y141.118 E.0422
G1 X85.813 Y140.042 E.0422
G1 X85.493 Y138.955 E.0422
G1 X85.211 Y137.858 E.0422
G1 X84.965 Y136.752 E.0422
G1 X84.757 Y135.638 E.0422
G1 X84.587 Y134.518 E.0422
G1 X84.454 Y133.393 E.0422
G1 X84.359 Y132.264 E.0422
G1 X84.302 Y131.133 E.0422
G1 X84.283 Y130 E.0422
G1 X84.302 Y128.867 E.0422
G1 X84.359 Y127.736 E.0422
G1 X84.454 Y126.607 E.0422
G1 X84.587 Y125.482 E.0422
G1 X84.757 Y124.362 E.0422
G1 X84.965 Y123.248 E.0422
G1 X85.211 Y122.142 E.0422
G1 X85.493 Y121.045 E.0422
G1 X85.813 Y119.958 E.0422
G1 X86.168 Y118.882 E.0422
G1 X86.56 Y117.819 E.0422
G1 X86.986 Y116.77 E.04219
G1 X87.448 Y115.735 E.0422
G1 X87.945 Y114.717 E.0422
G1 X88.475 Y113.716 E.0422
G1 X89.039 Y112.733 E.0422
G1 X89.635 Y111.77 E.0422
G1 X90.264 Y110.827 E.0422
G1 X90.924 Y109.906 E.0422
G1 X91.614 Y109.008 E.0422
G1 X92.334 Y108.133 E.0422
G1 X93.083 Y107.283 E.0422
G1 X93.86 Y106.459 E.0422
G1 X94.665 Y105.661 E.0422
G1 X95.496 Y104.891 E.0422
G1 X96.352 Y104.149 E.0422
G1 X97.233 Y103.436 E.0422
G1 X98.137 Y102.753 E.04219
G1 X99.063 Y102.101 E.0422
G1 X100.011 Y101.481 E.0422
G1 X100.979 Y100.893 E.0422
G1 X101.967 Y100.337 E.0422
G1 X102.972 Y99.815 E.04219
G1 X103.995 Y99.327 E.0422
G1 X104.996 Y98.89 E.04071
G1 X104.857 Y98.452 F18000
;TYPE:Outer wall
G1 F1800
G1 X105.924 Y98.028 E.04277
G1 X107.005 Y97.641 E.04277
G1 X108.099 Y97.289 E.04277
G1 X109.203 Y96.975 E.04277
G1 X110.317 Y96.698 E.04277
G1 X111.44 Y96.459 E.04277
G1 X112.571 Y96.257 E.04277
G1 X113.708 Y96.094 E.04277
G1 X114.849 Y95.969 E.04277
G1 X115.994 Y95.882 E.04277
G1 X117.141 Y95.834 E.04277
G1 X118.29 Y95.824 E.04277
G1 X119.438 Y95.853 E.04277
G1 X120.584 Y95.921 E.04277
G1 X121.727 Y96.026 E.04277
G1 X122.866 Y96.171 E.04277
G1 X124 Y96.353 E.04277
G1 X125.127 Y96.574 E.04277
G1 X126.246 Y96.832 E.04277
G1 X127.355 Y97.128 E.04277
G1 X128.455 Y97.46 E.04277
G1 X129.542 Y97.83 E.04277
G1 X130.616 Y98.236 E.04277
G1 X131.676 Y98.677 E.04277
G1 X132.72 Y99.154 E.04277
G1 X133.748 Y99.666 E.04277
G1 X134.755 Y100.21 E.0426
G1 X135.75 Y100.792 E.04294
G1 X136.721 Y101.405 E.04277
G1 X137.671 Y102.05 E.04277
G1 X138.599 Y102.726 E.04277
G1 X139.503 Y103.433 E.04277
G1 X140.384 Y104.171 E.04277
G1 X141.239 Y104.937 E.04277
G1 X142.068 Y105.732 E.04277
G1 X142.869 Y106.554 E.04277
G1 X143.643 Y107.403 E.04277
G1 X144.388 Y108.277 E.04277
G1 X145.102 Y109.175 E.04277
G1 X145.787 Y110.097 E.04277
G1 X146.44 Y111.042 E.04277
G1 X147.06 Y112.008 E.04277
G1 X147.648 Y112.994 E.04277
G1 X148.203 Y114 E.04277
G1 X148.723 Y115.023 E.04277
G1 X149.209 Y116.064 E.04277
G1 X149.66 Y117.12 E.04277
G1 X150.075 Y118.191 E.04277
G1 X150.453 Y119.275 E.04277
G1 X150.795 Y120.371 E.04277
G1 X151.1 Y121.478 E.04277
G1 X151.368 Y122.595 E.04277
G1 X151.598 Y123.72 E.04277
G1 X151.79 Y124.852 E.04277
G1 X151.944 Y125.99 E.04277
G1 X152.059 Y127.133 E.04277
G1 X152.14 Y128.387 E.04681
G1 X152.175 Y129.534 E.04277
G1 X152.175 Y130.574 E.03872
G1 X152.136 Y131.722 E.04277
