; HEADER_BLOCK_START
; generated by OrcaSlicer 2.2.0 on 2024-11-16 at 09:05:19
; total layer number: 30
; filament_density: 1.27
; filament_diameter: 1.75
; max_z_height: 6.00
; HEADER_BLOCK_END

; THUMBNAIL_BLOCK_START

;
; THUMBNAIL_BLOCK_END

; THUMBNAIL_BLOCK_START

;
; THUMBNAIL_BLOCK_END

; external perimeters extrusion width = 0.42mm
; perimeters extrusion width = 0.45mm
; infill extrusion width = 0.45mm
; solid infill extrusion width = 0.45mm
; top infill extrusion width = 0.42mm
; first layer extrusion width = 0.50mm

; EXECUTABLE_BLOCK_START
EXCLUDE_OBJECT_DEFINE NAME=Corps3.stl_id_0_copy_0 CENTER=115,115 POLYGON=[[76.5,108.5],[76.5154,108.108],[76.5616,107.718],[76.6381,107.333],[76.7447,106.955],[76.8806,106.587],[77.045,106.23],[77.2368,105.888],[77.4549,105.561],[77.698,105.253],[77.9645,104.964],[78.2528,104.698],[78.5611,104.455],[78.8875,104.237],[79.23,104.045],[79.5866,103.881],[79.9549,103.745],[80.3328,103.638],[80.7178,103.562],[81.1077,103.515],[81.5,103.5],[148.5,103.5],[148.892,103.515],[149.282,103.562],[149.667,103.638],[150.045,103.745],[150.413,103.881],[150.77,104.045],[151.112,104.237],[151.439,104.455],[151.747,104.698],[152.036,104.964],[152.302,105.253],[152.545,105.561],[152.763,105.888],[152.955,106.23],[153.119,106.587],[153.255,106.955],[153.362,107.333],[153.438,107.718],[153.485,108.108],[153.5,108.5],[153.5,115.5],[143.5,126.5],[86.5,126.5],[76.5,115.5],[76.5,108.5]]
M73 P0 R11
;TYPE:Custom
M220 S100
G90 ; use absolute coordinates
M83 ; extruder relative mode
M104 S150 ; set temporary nozzle temp to prevent oozing during homing
M140 S70 ; set final bed temp
G4 S30 ; allow partial nozzle warmup
G28 ; home all axis and restore leveling
BED_MESH_CALIBRATE PROFILE=adaptive ADAPTIVE=1 ADAPTIVE_MARGIN=0
G1 Z25 F240
G1 X10.0 Y30 F3000
M104 S245 ; set final nozzle temp
M190 S70 ; wait for bed temp to stabilize
M109 S245 ; wait for nozzle temp to stabilize
G1 Z0.28 F240
G92 E0 ; Move Z Axis up
G1 Z2.0 F5000 ; Move to start position
M73 P1 R11
M73 P1 R11
G1 X5 Y30 Z0.28 F300 ; Draw the first line
G1 X5 Y200 Z0.28 F1500 E15 ; Move to side a little
M73 P2 R11
M73 P2 R11
G1 X5.4 Y200 Z0.28 F5000.0 ; Draw the second line
M73 P3 R11
M73 P3 R11
G1 X5.4 Y50 Z0.28 F1500.0 E30 ; Reset Extruder
G92 E0 ; Move Z Axis up
G1 Z2.0 F3000
M117 Start Printing..
G90
G21
M83 ; use relative distances for extrusion
; filament start gcode
M106 S0
;LAYER_CHANGE
;Z:0.2
;HEIGHT:0.2
;BEFORE_LAYER_CHANGE
;0.2
G92 E0

G1 E-.5 F1800
;_SET_FAN_SPEED_CHANGING_LAYER
SET_VELOCITY_LIMIT ACCEL=1000
SET_VELOCITY_LIMIT SQUARE_CORNER_VELOCITY=7
; printing object Corps3.stl id:0 copy 0
EXCLUDE_OBJECT_START NAME=Corps3.stl_id_0_copy_0
G1 Z.4 F24000
G1 X153.063 Y136.883
G1 Z.4
M73 P4 R11
M73 P4 R11
G1 Z.2
G1 E.5 F1800
;TYPE:Inner wall
;WIDTH:0.499999
G1 F3000
G1 X152.872 Y137.058 E.00936
G1 X152.771 Y137.293 E.00923
G1 X150.893 Y145.743 E.31255
G1 X95.107 Y145.743 E2.01418
G1 X93.375 Y137.948 E.28832
G1 X93.187 Y137.165 E.02908
G1 X92.989 Y136.907 E.01175
G1 X92.726 Y136.776 E.01059
G1 X85.257 Y134.909 E.27799
G1 X85.257 Y128.528 E.23038
G1 X85.311 Y127.837 E.02505
G1 X85.467 Y127.19 E.02402
G1 X85.721 Y126.575 E.02403
G1 X86.069 Y126.007 E.02403
G1 X86.501 Y125.501 E.02403
G1 X87.007 Y125.069 E.02403
G1 X87.575 Y124.721 E.02403
G1 X88.19 Y124.467 E.02403
G1 X88.837 Y124.311 E.02403
G1 X89.528 Y124.257 E.02505
G1 X156.491 Y124.258 E2.41775
G1 X157.163 Y124.311 E.02434
G1 X157.81 Y124.467 E.02404
G1 X158.425 Y124.721 E.02403
G1 X158.993 Y125.069 E.02403
G1 X159.499 Y125.501 E.02402
G1 X159.931 Y126.007 E.02403
G1 X160.279 Y126.575 E.02403
G1 X160.533 Y127.19 E.02403
G1 X160.689 Y127.837 E.02403
G1 X160.743 Y128.703 E.03134
G1 X160.743 Y134.909 E.22408
G1 X153.144 Y136.809 E.2828
G1 X153.092 Y136.856 E.00253
G1 X153.333 Y137.233 F24000
;TYPE:Outer wall
G1 F3000
G1 X153.217 Y137.389 E.007
G1 X151.259 Y146.2 E.3259
G1 X94.741 Y146.2 E2.04066
G1 X92.929 Y138.047 E.30156
G1 X92.751 Y137.316 E.02716
G1 X92.616 Y137.22 E.006
G1 X84.8 Y135.266 E.29087
G1 X84.8 Y128.51 E.24391
G1 X84.859 Y127.765 E.027
G1 X85.031 Y127.048 E.02662
G1 X85.313 Y126.367 E.02663
G1 X85.698 Y125.738 E.02662
G1 X86.177 Y125.177 E.02662
G1 X86.738 Y124.698 E.02662
G1 X87.367 Y124.313 E.02662
G1 X88.048 Y124.031 E.02662
G1 X88.765 Y123.859 E.02662
G1 X89.51 Y123.8 E.027
G1 X156.509 Y123.801 E2.41906
G1 X157.235 Y123.859 E.02629
M73 P5 R11
M73 P5 R11
G1 X157.952 Y124.031 E.02663
G1 X158.633 Y124.313 E.02662
G1 X159.262 Y124.698 E.02662
G1 X159.823 Y125.177 E.02662
G1 X160.302 Y125.738 E.02663
G1 X160.687 Y126.367 E.02662
G1 X160.969 Y127.048 E.02662
G1 X161.141 Y127.765 E.02662
G1 X161.2 Y128.703 E.03393
G1 X161.2 Y135.266 E.23696
G1 X153.371 Y137.223 E.29136
G1 E-.5 F1800
;WIPE_START
G1 F12000
G1 X153.217 Y137.389
G1 X152.833 Y139.12
;WIPE_END
G1 Z.4 F24000
G1 X141.751 Y134.271 Z.4
G1 Z.2
G1 E.5 F1800
;TYPE:Inner wall
G1 F3000
G1 X142.153 Y134.248 E.01457
G1 X142.994 Y134.35 E.03059
G1 X143.816 Y134.606 E.03105
G1 X144.567 Y134.997 E.03058
G1 X145.235 Y135.516 E.03055
G1 X145.81 Y136.155 E.03103
G1 X146.254 Y136.877 E.0306
G1 X146.567 Y137.677 E.03104
G1 X146.73 Y138.523 E.0311
G1 X146.741 Y139.356 E.03007
G1 X146.6 Y140.203 E.03099
G1 X146.308 Y141.013 E.03111
G1 X145.882 Y141.745 E.03058
G1 X145.334 Y142.39 E.03057
G1 X144.669 Y142.935 E.03103
G1 X143.929 Y143.346 E.03059
G1 X143.114 Y143.622 E.03105
G1 X142.277 Y143.747 E.03058
G1 X141.417 Y143.719 E.03106
G1 X140.589 Y143.541 E.03058
G1 X139.794 Y143.212 E.03106
G1 X139.082 Y142.754 E.03057
G1 X138.463 Y142.177 E.03055
G1 X137.948 Y141.488 E.03105
G1 X137.571 Y140.73 E.03058
G1 X137.332 Y139.903 E.03106
G1 X137.245 Y139.061 E.03057
G1 X137.31 Y138.218 E.03055
G1 X137.528 Y137.386 E.03105
G1 X137.885 Y136.617 E.03059
G1 X138.382 Y135.915 E.03104
G1 X138.986 Y135.322 E.03058
G1 X139.698 Y134.84 E.03106
G1 X140.473 Y134.497 E.03058
G1 X141.295 Y134.298 E.03056
G1 X141.711 Y134.273 E.01502
G1 X141.785 Y134.724 F24000
;TYPE:Outer wall
G1 F3000
G1 X142.174 Y134.704 E.01408
G1 X142.933 Y134.803 E.02763
G1 X143.674 Y135.04 E.0281
G1 X144.35 Y135.4 E.02763
G1 X144.951 Y135.873 E.02762
G1 X145.466 Y136.456 E.02809
G1 X145.862 Y137.111 E.02764
G1 X146.139 Y137.838 E.02809
G1 X146.281 Y138.604 E.02811
G1 X146.284 Y139.356 E.02715
G1 X146.15 Y140.122 E.02807
G1 X145.88 Y140.852 E.02812
G1 X145.49 Y141.511 E.02763
G1 X144.99 Y142.09 E.02763
G1 X144.384 Y142.578 E.02808
G1 X143.712 Y142.944 E.02763
G1 X142.973 Y143.188 E.0281
G1 X142.215 Y143.294 E.02763
G1 X141.438 Y143.262 E.0281
G1 X140.691 Y143.095 E.02763
G1 X139.974 Y142.792 E.0281
G1 X139.334 Y142.373 E.02763
G1 X138.778 Y141.847 E.02762
G1 X138.318 Y141.22 E.0281
G1 X137.983 Y140.532 E.02763
G1 X137.773 Y139.782 E.02811
G1 X137.701 Y139.02 E.02762
G1 X137.765 Y138.258 E.02762
G1 X137.968 Y137.507 E.0281
G1 X138.297 Y136.816 E.02763
G1 X138.751 Y136.184 E.02809
G1 X139.302 Y135.653 E.02763
G1 X139.95 Y135.221 E.0281
G1 X140.652 Y134.917 E.02763
G1 X141.397 Y134.743 E.02762
G1 X141.745 Y134.726 E.01256
G1 E-.5 F1800
;WIPE_START
G1 F12000
G1 X142.174 Y134.704
G1 X142.933 Y134.803
G1 X143.674 Y135.04
G1 X143.698 Y135.053
;WIPE_END
G1 Z.4 F24000
G1 X107.663 Y135.992 Z.4
G1 Z.2
G1 E.5 F1800
;TYPE:Inner wall
G1 F3000
G1 X107.81 Y136.155 E.0079
G1 X108.254 Y136.877 E.0306
G1 X108.567 Y137.677 E.03104
G1 X108.73 Y138.523 E.0311
G1 X108.741 Y139.356 E.03007
G1 X108.6 Y140.203 E.03099
G1 X108.308 Y141.013 E.03111
G1 X107.882 Y141.745 E.03058
G1 X107.334 Y142.39 E.03057
G1 X106.669 Y142.935 E.03103
G1 X105.929 Y143.346 E.03059
G1 X105.114 Y143.622 E.03105
G1 X104.277 Y143.747 E.03058
G1 X103.417 Y143.719 E.03106
G1 X102.589 Y143.541 E.03058
G1 X101.794 Y143.212 E.03106
G1 X101.082 Y142.754 E.03057
G1 X100.463 Y142.177 E.03055
G1 X99.948 Y141.488 E.03105
G1 X99.571 Y140.73 E.03058
G1 X99.332 Y139.903 E.03106
G1 X99.245 Y139.061 E.03057
G1 X99.31 Y138.217 E.03055
G1 X99.51 Y137.45 E.02865
G1 X99.885 Y136.617 E.03296
G1 X100.382 Y135.915 E.03104
G1 X100.998 Y135.314 E.0311
G1 X101.687 Y134.846 E.03006
G1 X102.472 Y134.498 E.03101
G1 X103.295 Y134.298 E.0306
G1 X104.153 Y134.248 E.03104
G1 X104.994 Y134.35 E.03059
G1 X105.816 Y134.606 E.03105
G1 X106.567 Y134.997 E.03058
G1 X107.235 Y135.516 E.03055
G1 X107.637 Y135.962 E.02168
G1 X107.33 Y136.302 F24000
;TYPE:Outer wall
G1 F3000
G1 X107.466 Y136.456 E.00742
G1 X107.862 Y137.111 E.02764
G1 X108.139 Y137.838 E.02809
G1 X108.281 Y138.604 E.02811
G1 X108.284 Y139.356 E.02715
G1 X108.15 Y140.122 E.02807
G1 X107.88 Y140.852 E.02812
G1 X107.49 Y141.511 E.02763
G1 X106.99 Y142.09 E.02763
G1 X106.384 Y142.578 E.02808
G1 X105.712 Y142.944 E.02763
G1 X104.973 Y143.188 E.0281
G1 X104.215 Y143.294 E.02763
G1 X103.438 Y143.262 E.0281
G1 X102.691 Y143.095 E.02763
G1 X101.974 Y142.792 E.0281
G1 X101.334 Y142.373 E.02763
G1 X100.778 Y141.847 E.02762
G1 X100.318 Y141.22 E.0281
G1 X99.983 Y140.532 E.02763
G1 X99.773 Y139.782 E.02811
G1 X99.701 Y139.02 E.02762
G1 X99.765 Y138.258 E.02762
G1 X99.951 Y137.571 E.0257
G1 X100.297 Y136.816 E.03
G1 X100.751 Y136.184 E.02809
G1 X101.313 Y135.645 E.02811
G1 X101.938 Y135.228 E.02715
G1 X102.652 Y134.918 E.02808
G1 X103.397 Y134.743 E.02764
G1 X104.174 Y134.704 E.02809
G1 X104.933 Y134.803 E.02763
G1 X105.674 Y135.04 E.0281
G1 X106.35 Y135.4 E.02763
G1 X106.951 Y135.873 E.02762
G1 X107.303 Y136.272 E.01923
G1 E-.5 F1800
;WIPE_START
G1 F12000
G1 X107.466 Y136.456
G1 X107.862 Y137.111
G1 X108.139 Y137.838
G1 X108.178 Y138.046
;WIPE_END
G1 Z.4 F24000
G1 X157.363 Y124.5
G1 Z.4
G1 Z.2
G1 E.5 F1800
;TYPE:Bottom surface
;WIDTH:0.50126
G1 F5890.824
G1 X160.221 Y127.358 E.14633
G1 X160.349 Y127.89 E.01981
G1 X160.37 Y128.155 E.00961
G1 X156.845 Y124.63 E.18049
G1 X156.477 Y124.601 E.01334
G1 X156.167 Y124.601 E.01123
G1 X160.4 Y128.834 E.21674
G1 X160.4 Y129.482 E.02347
G1 X155.519 Y124.601 E.24993
G1 X154.871 Y124.601 E.02347
G1 X160.4 Y130.13 E.28312
G1 X160.4 Y130.778 E.02347
G1 X154.223 Y124.601 E.31631
G1 X153.574 Y124.601 E.02347
G1 X160.4 Y131.426 E.3495
G1 X160.4 Y132.075 E.02347
G1 X152.926 Y124.601 E.38269
G1 X152.278 Y124.601 E.02347
G1 X160.4 Y132.723 E.41587
G1 X160.4 Y133.371 E.02347
M73 P6 R11
M73 P6 R11
G1 X151.63 Y124.601 E.44906
G1 X150.982 Y124.601 E.02347
G1 X160.4 Y134.019 E.48225
G1 X160.4 Y134.641 E.02252
G1 X160.379 Y134.646 E.00078
G1 X150.333 Y124.601 E.51437
G1 X149.685 Y124.601 E.02347
G1 X159.861 Y134.776 E.52101
G1 X159.342 Y134.906 E.01935
G1 X149.037 Y124.601 E.52765
G1 X148.389 Y124.601 E.02347
G1 X158.824 Y135.035 E.53429
G1 X158.305 Y135.165 E.01935
M73 P6 R10
M73 P6 R10
G1 X147.741 Y124.601 E.54093
G1 X147.092 Y124.601 E.02347
G1 X157.786 Y135.295 E.54756
G1 X157.268 Y135.424 E.01935
G1 X146.444 Y124.601 E.5542
G1 X145.796 Y124.601 E.02347
G1 X156.749 Y135.554 E.56084
G1 X156.231 Y135.684 E.01935
G1 X145.148 Y124.601 E.56748
G1 X144.5 Y124.601 E.02347
G1 X155.712 Y135.813 E.57412
G1 X155.194 Y135.943 E.01935
G1 X143.851 Y124.601 E.58075
G1 X143.203 Y124.601 E.02347
G1 X154.675 Y136.072 E.58739
G1 X154.157 Y136.202 E.01935
G1 X142.555 Y124.6 E.59403
G1 X141.907 Y124.6 E.02347
G1 X153.638 Y136.332 E.60067
G1 X153.127 Y136.469 E.01917
G1 X141.259 Y124.6 E.60767
G1 X140.61 Y124.6 E.02347
G1 X152.722 Y136.712 E.62014
G1 X152.54 Y136.941 E.0106
G1 X152.474 Y137.112 E.00663
G1 X139.962 Y124.6 E.64062
G1 X139.314 Y124.6 E.02347
G1 X152.344 Y137.631 E.66718
G1 X152.226 Y138.161 E.01967
G1 X138.666 Y124.6 E.69434
G1 X138.018 Y124.6 E.02347
G1 X152.109 Y138.691 E.72149
G1 X151.991 Y139.222 E.01967
G1 X137.369 Y124.6 E.74865
G1 X136.721 Y124.6 E.02347
G1 X151.873 Y139.752 E.7758
G1 X151.755 Y140.282 E.01967
G1 X136.073 Y124.6 E.80296
G1 X135.425 Y124.6 E.02347
M73 P7 R10
M73 P7 R10
G1 X151.637 Y140.813 E.83011
G1 X151.519 Y141.343 E.01967
G1 X134.777 Y124.6 E.85727
G1 X134.128 Y124.6 E.02347
G1 X143.753 Y134.225 E.49278
G1 X143.215 Y134.05 E.02045
G1 X142.867 Y133.987 E.01282
G1 X133.48 Y124.6 E.48062
G1 X132.832 Y124.6 E.02347
G1 X142.137 Y133.905 E.47643
G1 X141.522 Y133.939 E.02229
G1 X132.184 Y124.6 E.47814
G1 X131.536 Y124.6 E.02347
G1 X140.959 Y134.024 E.4825
G1 X140.436 Y134.149 E.01946
G1 X130.887 Y124.6 E.48893
G1 X130.239 Y124.6 E.02347
G1 X139.98 Y134.341 E.49877
G1 X139.532 Y134.542 E.01777
G1 X129.591 Y124.6 E.50902
G1 X128.943 Y124.6 E.02347
G1 X139.14 Y134.797 E.5221
G1 X138.76 Y135.065 E.01684
G1 X128.295 Y124.6 E.53584
G1 X127.646 Y124.6 E.02347
G1 X138.428 Y135.382 E.55203
G1 X138.107 Y135.71 E.0166
G1 X126.998 Y124.6 E.56882
G1 X126.35 Y124.6 E.02347
G1 X137.836 Y136.086 E.58812
G1 X137.618 Y136.389 E.0135
G1 X137.577 Y136.475 E.00346
G1 X125.702 Y124.6 E.60804
G1 X125.054 Y124.6 E.02347
G1 X137.366 Y136.913 E.63045
G1 X137.224 Y137.209 E.01188
G1 X137.179 Y137.374 E.00619
G1 X124.405 Y124.6 E.65403
G1 X123.757 Y124.6 E.02347
G1 X137.039 Y137.882 E.68005
G1 X136.981 Y138.091 E.00785
G1 X136.95 Y138.441 E.01272
G1 X123.109 Y124.6 E.70867
G1 X122.461 Y124.6 E.02347
G1 X136.903 Y139.043 E.7395
G1 X136.963 Y139.751 E.02573
G1 X121.813 Y124.6 E.77575
G1 X121.164 Y124.6 E.02347
G1 X137.534 Y140.97 E.83819
G1 E-.5 F1800
;WIPE_START
G1 F12000
G1 X136.12 Y139.556
;WIPE_END
G1 Z.4 F24000
G1 X146.411 Y136.883 Z.4
G1 Z.2
M73 P8 R10
M73 P8 R10
G1 E.5 F1800
G1 F5890.824
G1 X151.401 Y141.873 E.25554
G1 X151.284 Y142.404 E.01967
G1 X147 Y138.12 E.21932
G1 X147.084 Y138.636 E.01891
G1 X147.081 Y138.849 E.00772
G1 X151.166 Y142.934 E.20916
G1 X151.048 Y143.464 E.01967
G1 X147.07 Y139.487 E.20367
G1 X146.977 Y140.042 E.02038
G1 X150.93 Y143.995 E.20239
G1 X150.812 Y144.525 E.01967
G1 X146.845 Y140.558 E.20313
G1 X146.668 Y141.029 E.01822
G1 X150.694 Y145.055 E.20618
G1 X150.618 Y145.4 E.01278
G1 X150.391 Y145.4 E.00822
G1 X146.45 Y141.459 E.2018
G1 X146.201 Y141.859 E.01704
G1 X149.743 Y145.4 E.18132
G1 X149.094 Y145.4 E.02347
G1 X145.927 Y142.232 E.1622
G1 X145.625 Y142.578 E.01663
G1 X148.446 Y145.4 E.14447
G1 X147.798 Y145.4 E.02347
G1 X145.282 Y142.884 E.12882
G1 X144.922 Y143.172 E.0167
G1 X147.15 Y145.4 E.11408
G1 X146.502 Y145.4 E.02347
G1 X144.519 Y143.418 E.10151
G1 X144.098 Y143.644 E.01733
G1 X145.853 Y145.4 E.08989
G1 X145.205 Y145.4 E.02347
G1 X143.62 Y143.815 E.08116
G1 X143.127 Y143.97 E.01872
G1 X144.557 Y145.4 E.07324
G1 X143.909 Y145.4 E.02347
G1 X142.558 Y144.049 E.06916
G1 X142.189 Y144.096 E.01347
G1 X141.946 Y144.085 E.00882
G1 X143.261 Y145.4 E.06732
G1 X142.612 Y145.4 E.02347
G1 X141.254 Y144.042 E.06955
G1 X140.404 Y143.84 E.03162
G1 X141.964 Y145.4 E.07987
G1 X141.316 Y145.4 E.02347
G1 X120.516 Y124.6 E1.065
G1 X119.868 Y124.6 E.02347
G1 X140.668 Y145.4 E1.065
G1 X140.02 Y145.4 E.02347
G1 X119.22 Y124.6 E1.065
G1 X118.572 Y124.6 E.02347
G1 X139.372 Y145.4 E1.065
G1 X138.723 Y145.4 E.02347
G1 X117.923 Y124.6 E1.065
G1 X117.275 Y124.6 E.02347
G1 X138.075 Y145.4 E1.06501
G1 X137.427 Y145.4 E.02347
G1 X116.627 Y124.6 E1.06501
G1 X115.979 Y124.6 E.02347
G1 X136.779 Y145.4 E1.06501
G1 X136.131 Y145.4 E.02347
G1 X115.331 Y124.6 E1.06501
G1 X114.682 Y124.6 E.02347
G1 X135.482 Y145.4 E1.06501
M73 P9 R10
M73 P9 R10
G1 X134.834 Y145.4 E.02347
G1 X114.034 Y124.6 E1.06501
G1 X113.386 Y124.6 E.02347
G1 X134.186 Y145.4 E1.06501
G1 X133.538 Y145.4 E.02347
G1 X112.738 Y124.6 E1.06501
G1 X112.09 Y124.6 E.02347
G1 X132.89 Y145.4 E1.06501
G1 X132.241 Y145.4 E.02347
G1 X111.441 Y124.6 E1.06501
G1 X110.793 Y124.6 E.02347
G1 X131.593 Y145.4 E1.06501
G1 X130.945 Y145.4 E.02347
G1 X110.145 Y124.6 E1.06501
G1 X109.497 Y124.6 E.02347
G1 X130.297 Y145.4 E1.06501
G1 X129.649 Y145.4 E.02347
G1 X108.849 Y124.6 E1.06501
G1 X108.2 Y124.6 E.02347
G1 X129 Y145.4 E1.06501
G1 X128.352 Y145.4 E.02347
G1 X107.552 Y124.6 E1.06501
G1 X106.904 Y124.6 E.02347
G1 X127.704 Y145.4 E1.06501
G1 X127.056 Y145.4 E.02347
G1 X106.256 Y124.6 E1.06501
G1 X105.608 Y124.6 E.02347
G1 X126.408 Y145.4 E1.06501
G1 X125.76 Y145.4 E.02347
G1 X104.959 Y124.6 E1.06501
G1 X104.311 Y124.6 E.02347
G1 X125.111 Y145.4 E1.06501
G1 X124.463 Y145.4 E.02347
M73 P10 R10
M73 P10 R10
G1 X103.663 Y124.6 E1.06501
G1 X103.015 Y124.6 E.02347
G1 X123.815 Y145.4 E1.06501
G1 X123.167 Y145.4 E.02347
