; HEADER_BLOCK_START
; generated by OrcaSlicer 2.1.1 on 2024-07-12 at 18:55:09
; total layer number: 75
; filament_density: 1.24
; filament_diameter: 1.75
; max_z_height: 15.00
; HEADER_BLOCK_END

; THUMBNAIL_BLOCK_START

;
; THUMBNAIL_BLOCK_END

; THUMBNAIL_BLOCK_START

;
; THUMBNAIL_BLOCK_END

; external perimeters extrusion width = 0.42mm
; perimeters extrusion width = 0.45mm
; infill extrusion width = 0.45mm
; solid infill extrusion width = 0.45mm
; top infill extrusion width = 0.42mm
; first layer extrusion width = 0.50mm

; EXECUTABLE_BLOCK_START
EXCLUDE_OBJECT_DEFINE NAME=Corps1.stl_id_0_copy_0 CENTER=115,115 POLYGON=[[36.5086,114.537],[36.5772,113.613],[36.7141,112.696],[36.9185,111.793],[37.1892,110.907],[37.5249,110.043],[37.9236,109.207],[38.3831,108.402],[38.901,107.634],[39.4744,106.906],[40.1001,106.223],[40.7747,105.588],[41.4945,105.004],[42.2555,104.476],[43.0536,104.005],[96.7474,76.0938],[98.313,75.397],[99.9052,74.7632],[101.521,74.1934],[103.159,73.6885],[104.815,73.2493],[106.488,72.8764],[108.174,72.5706],[109.871,72.3322],[111.576,72.1616],[113.287,72.0592],[115,72.025],[116.713,72.0592],[118.424,72.1616],[120.129,72.3322],[121.826,72.5706],[123.512,72.8764],[125.185,73.2493],[126.841,73.6885],[128.479,74.1934],[130.095,74.7632],[131.687,75.397],[133.253,76.0938],[186.946,104.005],[187.744,104.476],[188.506,105.004],[189.225,105.588],[189.9,106.223],[190.526,106.906],[191.099,107.634],[191.617,108.402],[192.076,109.207],[192.475,110.043],[192.811,110.907],[193.082,111.793],[193.286,112.696],[193.423,113.613],[193.491,114.537],[193.491,115.463],[193.423,116.387],[193.286,117.304],[193.082,118.207],[192.811,119.093],[192.475,119.957],[192.076,120.793],[191.617,121.598],[191.099,122.366],[190.526,123.094],[189.9,123.777],[189.225,124.412],[188.506,124.996],[187.744,125.524],[186.946,125.995],[133.253,153.906],[131.687,154.603],[130.095,155.237],[128.479,155.807],[126.841,156.311],[125.185,156.751],[123.512,157.124],[121.826,157.429],[120.129,157.668],[118.424,157.838],[116.713,157.941],[115,157.975],[113.287,157.941],[111.576,157.838],[109.871,157.668],[108.174,157.429],[106.488,157.124],[104.815,156.751],[103.159,156.311],[101.521,155.807],[99.9052,155.237],[98.313,154.603],[96.7474,153.906],[43.0536,125.995],[42.2555,125.524],[41.4945,124.996],[40.7747,124.412],[40.1001,123.777],[39.4744,123.094],[38.901,122.366],[38.3831,121.598],[37.9236,120.793],[37.5249,119.957],[37.1892,119.093],[36.9185,118.207],[36.7141,117.304],[36.5772,116.387],[36.5086,115.463],[36.5086,114.537]]
M73 P0 R69
;TYPE:Custom
M220 S100
G90 ; use absolute coordinates
M83 ; extruder relative mode
M104 S150 ; set temporary nozzle temp to prevent oozing during homing
M140 S55 ; set final bed temp
G4 S30 ; allow partial nozzle warmup
G28 ; home all axis and restore leveling
BED_MESH_CALIBRATE PROFILE=adaptive ADAPTIVE=1 ADAPTIVE_MARGIN=0
G1 Z25 F240
G1 X10.0 Y30 F3000
M104 S210 ; set final nozzle temp
M190 S55 ; wait for bed temp to stabilize
M109 S210 ; wait for nozzle temp to stabilize
G1 Z0.28 F240
G92 E0 ; Move Z Axis up
G1 Z2.0 F5000 ; Move to start position
G1 X5 Y30 Z0.28 F300 ; Draw the first line
G1 X5 Y200 Z0.28 F1500 E15 ; Move to side a little
G1 X5.4 Y200 Z0.28 F5000.0 ; Draw the second line
M73 P0 R68
G1 X5.4 Y50 Z0.28 F1500.0 E30 ; Reset Extruder
G92 E0 ; Move Z Axis up
G1 Z2.0 F3000
M117 Start Printing..
G90
G21
M83 ; use relative distances for extrusion
; filament start gcode
M106 S0
;LAYER_CHANGE
;Z:0.2
;HEIGHT:0.2
;BEFORE_LAYER_CHANGE
;0.2
G92 E0

G1 E-.5 F1800
;_SET_FAN_SPEED_CHANGING_LAYER
SET_VELOCITY_LIMIT ACCEL=1000
SET_VELOCITY_LIMIT SQUARE_CORNER_VELOCITY=7
; printing object Corps1.stl id:0 copy 0
EXCLUDE_OBJECT_START NAME=Corps1.stl_id_0_copy_0
G1 Z.2 F24000
G1 X53.924 Y146.349
G1 Z.2
G1 E.5 F1800
;TYPE:Inner wall
;WIDTH:0.499999
G1 X53.863 Y146.317 E.00264
G1 X53.001 Y146.041 E.03438
G1 X52.194 Y145.714 E.03308
G1 X51.414 Y145.329 E.03308
G1 X50.664 Y144.886 E.03308
G1 X49.949 Y144.39 E.03308
G1 X49.273 Y143.842 E.03308
G1 X48.64 Y143.245 E.03308
G1 X48.052 Y142.603 E.03308
G1 X47.513 Y141.92 E.03308
G1 X47.027 Y141.198 E.03308
G1 X46.595 Y140.442 E.03308
G1 X46.22 Y139.657 E.03308
G1 X45.905 Y138.845 E.03308
G1 X45.651 Y138.013 E.03308
G1 X45.459 Y137.164 E.03308
G1 X45.33 Y136.303 E.03308
G1 X45.266 Y135.435 E.03308
G1 X45.266 Y134.565 E.03308
G1 X45.33 Y133.697 E.03308
G1 X45.459 Y132.836 E.03308
G1 X45.651 Y131.987 E.03308
G1 X45.905 Y131.155 E.03308
G1 X46.22 Y130.343 E.03308
G1 X46.595 Y129.558 E.03308
G1 X47.027 Y128.802 E.03308
G1 X47.513 Y128.08 E.03308
G1 X48.052 Y127.397 E.03308
G1 X48.64 Y126.755 E.03308
G1 X49.273 Y126.158 E.03308
G1 X49.949 Y125.61 E.03308
G1 X50.664 Y125.114 E.03308
G1 X51.414 Y124.671 E.03308
G1 X52.085 Y124.34 E.02842
G1 X52.583 Y124.129 E.02059
G1 X53.972 Y123.637 E.056
G1 X105.078 Y96.775 E2.1943
G1 X106.607 Y96.095 E.06362
G1 X108.171 Y95.472 E.06398
G1 X109.759 Y94.912 E.06398
G1 X111.368 Y94.416 E.06398
G1 X112.995 Y93.985 E.06398
G1 X114.638 Y93.619 E.06398
G1 X116.294 Y93.318 E.06398
G1 X117.961 Y93.084 E.06398
G1 X119.636 Y92.916 E.06398
G1 X121.317 Y92.816 E.06398
G1 X123.019 Y92.783 E.0647
G1 X124.683 Y92.816 E.06326
G1 X126.364 Y92.916 E.06398
G1 X128.039 Y93.084 E.06398
G1 X129.706 Y93.318 E.06398
G1 X131.362 Y93.619 E.06398
G1 X133.005 Y93.985 E.06398
G1 X134.651 Y94.422 E.0647
G1 X136.241 Y94.912 E.06326
G1 X137.829 Y95.472 E.06398
G1 X139.393 Y96.095 E.06398
G1 X140.922 Y96.775 E.06362
G1 X191.685 Y123.457 E2.17959
G1 X192.137 Y123.683 E.0192
G1 X192.999 Y123.959 E.03438
G1 X193.806 Y124.286 E.03308
G1 X194.586 Y124.671 E.03308
G1 X195.336 Y125.114 E.03308
G1 X196.051 Y125.61 E.03308
G1 X196.726 Y126.158 E.03305
G1 X197.376 Y126.771 E.03396
G1 X197.948 Y127.397 E.03223
G1 X198.487 Y128.08 E.03308
G1 X198.973 Y128.802 E.03308
G1 X199.405 Y129.558 E.03308
G1 X199.78 Y130.343 E.03308
G1 X200.095 Y131.155 E.03308
G1 X200.349 Y131.987 E.03308
G1 X200.541 Y132.836 E.03308
G1 X200.652 Y133.575 E.02842
G1 X200.734 Y134.687 E.04238
G1 X200.734 Y135.435 E.02842
G1 X200.67 Y136.303 E.03308
G1 X200.541 Y137.164 E.03308
G1 X200.349 Y138.012 E.03305
G1 X200.087 Y138.866 E.03396
G1 X199.78 Y139.657 E.03223
G1 X199.405 Y140.442 E.03308
G1 X198.974 Y141.197 E.03305
G1 X198.473 Y141.937 E.03396
G1 X197.948 Y142.603 E.03222
G1 X197.36 Y143.245 E.03308
G1 X196.727 Y143.842 E.03308
G1 X196.051 Y144.39 E.03308
G1 X195.336 Y144.886 E.03308
G1 X194.586 Y145.329 E.03308
G1 X193.806 Y145.714 E.03308
G1 X193.271 Y145.931 E.02194
G1 X192.028 Y146.363 E.05001
G1 X140.922 Y173.225 E2.1943
G1 X139.393 Y173.905 E.06362
G1 X137.829 Y174.528 E.06398
G1 X136.241 Y175.088 E.06398
G1 X134.633 Y175.584 E.06398
G1 X132.987 Y176.019 E.0647
G1 X131.362 Y176.381 E.06327
G1 X129.706 Y176.682 E.06398
G1 X128.039 Y176.916 E.06398
G1 X126.364 Y177.084 E.06398
G1 X124.683 Y177.184 E.06398
G1 X123 Y177.218 E.06398
G1 X121.298 Y177.183 E.0647
G1 X119.636 Y177.084 E.06327
G1 X117.961 Y176.916 E.06398
G1 X116.294 Y176.682 E.06398
G1 X114.638 Y176.381 E.06398
G1 X112.995 Y176.015 E.06398
G1 X111.349 Y175.578 E.0647
G1 X109.759 Y175.088 E.06326
G1 X108.171 Y174.528 E.06398
G1 X106.607 Y173.905 E.06398
G1 X105.078 Y173.225 E.06362
G1 X54.8 Y146.798 E2.15873
G1 X53.96 Y146.367 E.0359
G1 X53.731 Y146.756 F24000
;TYPE:Outer wall
G1 F1800
G1 X53.723 Y146.752 E.00035
G1 X52.845 Y146.471 E.03503
G1 X52.007 Y146.131 E.03437
G1 X51.196 Y145.731 E.03437
G1 X50.418 Y145.272 E.03437
G1 X49.675 Y144.756 E.03437
G1 X48.972 Y144.186 E.03437
G1 X48.314 Y143.567 E.03437
G1 X47.703 Y142.9 E.03437
G1 X47.144 Y142.189 E.03437
G1 X46.638 Y141.439 E.03437
G1 X46.19 Y140.654 E.03437
G1 X45.8 Y139.838 E.03437
G1 X45.473 Y138.995 E.03437
G1 X45.209 Y138.13 E.03437
G1 X45.009 Y137.248 E.03437
G1 X44.876 Y136.354 E.03437
G1 X44.809 Y135.452 E.03437
G1 X44.809 Y134.548 E.03437
G1 X44.876 Y133.646 E.03437
G1 X45.009 Y132.752 E.03437
G1 X45.209 Y131.87 E.03437
G1 X45.473 Y131.005 E.03437
G1 X45.8 Y130.162 E.03437
G1 X46.19 Y129.346 E.03437
G1 X46.638 Y128.561 E.03437
G1 X47.144 Y127.811 E.03437
G1 X47.703 Y127.1 E.03437
G1 X48.314 Y126.433 E.03437
G1 X48.972 Y125.814 E.03437
G1 X49.675 Y125.244 E.03437
G1 X50.417 Y124.728 E.03437
G1 X51.196 Y124.269 E.03437
G1 X52.007 Y123.869 E.03437
G1 X52.716 Y123.582 E.02906
G1 X53.76 Y123.233 E.04182
G1 X104.878 Y96.364 E2.19486
G1 X106.43 Y95.674 E.06453
M73 P1 R68
G1 X108.011 Y95.044 E.06468
G1 X109.615 Y94.478 E.06467
G1 X111.242 Y93.977 E.06467
G1 X112.886 Y93.541 E.06467
G1 X114.547 Y93.171 E.06468
G1 X116.222 Y92.867 E.06467
G1 X117.907 Y92.63 E.06467
G1 X119.6 Y92.461 E.06468
G1 X121.299 Y92.359 E.06467
G1 X123.019 Y92.325 E.0654
G1 X124.701 Y92.359 E.06395
G1 X126.4 Y92.461 E.06467
G1 X128.093 Y92.63 E.06468
G1 X129.778 Y92.867 E.06467
G1 X131.453 Y93.171 E.06467
G1 X133.114 Y93.541 E.06467
G1 X134.777 Y93.983 E.0654
G1 X136.385 Y94.478 E.06395
G1 X137.989 Y95.044 E.06467
G1 X139.57 Y95.674 E.06468
G1 X141.122 Y96.364 E.06453
G1 X192.277 Y123.248 E2.19636
G1 X193.155 Y123.529 E.03503
G1 X193.993 Y123.869 E.03437
G1 X194.804 Y124.269 E.03437
G1 X195.582 Y124.728 E.03437
G1 X196.325 Y125.244 E.03437
G1 X197.028 Y125.813 E.03436
G1 X197.702 Y126.45 E.03525
G1 X198.297 Y127.1 E.0335
G1 X198.856 Y127.811 E.03437
G1 X199.362 Y128.561 E.03437
G1 X199.81 Y129.346 E.03437
G1 X200.2 Y130.162 E.03437
G1 X200.527 Y131.005 E.03437
G1 X200.791 Y131.87 E.03437
G1 X200.991 Y132.752 E.03437
G1 X201.104 Y133.508 E.02906
G1 X201.191 Y134.687 E.04495
G1 X201.191 Y135.452 E.02906
G1 X201.124 Y136.354 E.03437
G1 X200.991 Y137.248 E.03437
G1 X200.791 Y138.13 E.03436
G1 X200.519 Y139.016 E.03525
G1 X200.2 Y139.838 E.0335
G1 X199.81 Y140.654 E.03437
G1 X199.362 Y141.439 E.03436
G1 X198.842 Y142.207 E.03525
G1 X198.297 Y142.9 E.0335
G1 X197.686 Y143.567 E.03437
G1 X197.028 Y144.186 E.03437
G1 X196.325 Y144.756 E.03437
G1 X195.583 Y145.272 E.03437
G1 X194.804 Y145.731 E.03437
G1 X193.993 Y146.131 E.03437
G1 X193.442 Y146.354 E.02258
G1 X192.24 Y146.767 E.04829
G1 X141.122 Y173.636 E2.19486
G1 X139.57 Y174.326 E.06453
G1 X137.989 Y174.956 E.06468
G1 X136.385 Y175.522 E.06467
G1 X134.758 Y176.023 E.06467
G1 X133.095 Y176.463 E.0654
G1 X131.453 Y176.829 E.06395
G1 X129.778 Y177.133 E.06467
G1 X128.093 Y177.37 E.06467
G1 X126.4 Y177.539 E.06468
G1 X124.701 Y177.641 E.06467
G1 X123 Y177.675 E.06467
G1 X121.28 Y177.64 E.0654
G1 X119.6 Y177.539 E.06395
G1 X117.907 Y177.37 E.06468
G1 X116.222 Y177.133 E.06467
G1 X114.547 Y176.829 E.06467
G1 X112.886 Y176.459 E.06467
G1 X111.223 Y176.017 E.0654
G1 X109.615 Y175.522 E.06395
G1 X108.011 Y174.956 E.06467
G1 X106.43 Y174.326 E.06468
G1 X104.878 Y173.636 E.06453
G1 X53.767 Y146.775 E2.19449
G1 E-.5
;WIPE_START
G1 F12000
G1 X53.723 Y146.752
G1 X52.845 Y146.471
G1 X52.007 Y146.131
G1 X51.895 Y146.076
;WIPE_END
G1 Z.4 F24000
G1 X183.873 Y134.983 Z.4
G1 Z.2
G1 E.5 F1800
;TYPE:Inner wall
G1 X183.906 Y134.387 E.02268
G1 X184.026 Y133.741 E.02499
G1 X184.228 Y133.115 E.02499
G1 X184.508 Y132.52 E.02499
G1 X184.862 Y131.966 E.02499
G1 X185.284 Y131.462 E.02499
G1 X185.767 Y131.016 E.02499
G1 X186.303 Y130.635 E.02499
G1 X186.883 Y130.326 E.02499
G1 X187.498 Y130.094 E.02499
G1 X188.138 Y129.942 E.02499
G1 X188.778 Y129.875 E.02445
G1 X189.447 Y129.889 E.02543
G1 X190.099 Y129.988 E.02508
G1 X190.731 Y130.17 E.02499
G1 X191.334 Y130.431 E.02499
G1 X191.836 Y130.728 E.02216
G1 X192.417 Y131.172 E.0278
G1 X192.878 Y131.641 E.02499
G1 X193.276 Y132.164 E.02499
G1 X193.592 Y132.714 E.0241
G1 X193.856 Y133.342 E.02587
G1 X194.028 Y133.976 E.02499
G1 X194.099 Y134.487 E.01961
G1 X194.123 Y135.285 E.03033
G1 X194.045 Y135.938 E.02499
G1 X193.883 Y136.575 E.02499
G1 X193.676 Y137.103 E.02156
G1 X193.324 Y137.762 E.0284
G1 X192.935 Y138.293 E.02499
G1 X192.627 Y138.619 E.01708
G1 X192.002 Y139.159 E.03137
G1 X191.414 Y139.528 E.02638
G1 X190.813 Y139.8 E.02508
G1 X190.185 Y139.992 E.02498
G1 X189.536 Y140.103 E.02499
G1 X188.879 Y140.13 E.02499
G1 X188.238 Y140.073 E.02445
G1 X187.584 Y139.932 E.02543
G1 X186.963 Y139.71 E.02508
G1 X186.378 Y139.41 E.02499
G1 X185.835 Y139.039 E.02499
G1 X185.345 Y138.601 E.02499
G1 X184.914 Y138.104 E.02499
G1 X184.551 Y137.556 E.02499
G1 X184.261 Y136.966 E.02499
G1 X184.048 Y136.344 E.02499
G1 X183.917 Y135.7 E.02499
G1 X183.869 Y135.044 E.02499
G1 X183.87 Y135.023 E.00079
G1 X184.326 Y135.008 F24000
;TYPE:Outer wall
G1 F1800
G1 X184.362 Y134.417 E.02252
G1 X184.474 Y133.828 E.02277
G1 X184.661 Y133.259 E.02277
G1 X184.92 Y132.719 E.02277
G1 X185.245 Y132.216 E.02277
G1 X185.632 Y131.758 E.02277
G1 X186.074 Y131.354 E.02277
G1 X186.564 Y131.01 E.02277
G1 X187.094 Y130.731 E.02277
G1 X187.656 Y130.523 E.02277
G1 X188.239 Y130.388 E.02277
G1 X188.821 Y130.329 E.02223
G1 X189.433 Y130.345 E.02327
G1 X190.026 Y130.439 E.0228
G1 X190.601 Y130.608 E.02277
G1 X191.149 Y130.849 E.02277
G1 X191.599 Y131.119 E.01993
G1 X192.132 Y131.53 E.02558
G1 X192.55 Y131.959 E.02277
G1 X192.91 Y132.438 E.02277
G1 X193.194 Y132.938 E.02188
G1 X193.432 Y133.513 E.02365
G1 X193.586 Y134.092 E.02277
G1 X193.664 Y134.686 E.02277
G1 X193.666 Y135.285 E.02277
G1 X193.591 Y135.879 E.02277
G1 X193.441 Y136.459 E.02277
G1 X193.252 Y136.931 E.01934
G1 X192.926 Y137.538 E.02617
G1 X192.569 Y138.019 E.02277
G1 X192.299 Y138.301 E.01485
G1 X191.717 Y138.801 E.02915
G1 X191.176 Y139.137 E.02421
G1 X190.628 Y139.382 E.0228
G1 X190.055 Y139.554 E.02276
G1 X189.463 Y139.652 E.02277
G1 X188.865 Y139.673 E.02277
G1 X188.282 Y139.618 E.02223
G1 X187.685 Y139.486 E.02326
G1 X187.121 Y139.281 E.0228
G1 X186.589 Y139.005 E.02277
G1 X186.097 Y138.664 E.02277
G1 X185.652 Y138.263 E.02277
G1 X185.262 Y137.808 E.02277
G1 X184.934 Y137.307 E.02277
G1 X184.672 Y136.768 E.02277
G1 X184.482 Y136.2 E.02277
G1 X184.366 Y135.612 E.02277
G1 X184.328 Y135.048 E.0215
G1 E-.5
;WIPE_START
G1 F12000
G1 X184.362 Y134.417
G1 X184.474 Y133.828
G1 X184.661 Y133.259
G1 X184.735 Y133.106
;WIPE_END
G1 Z.4 F24000
G1 X58.759 Y139.817 Z.4
G1 Z.2
G1 E.5 F1800
;TYPE:Inner wall
G1 X58.185 Y139.992 E.02284
G1 X57.536 Y140.103 E.02499
G1 X56.879 Y140.13 E.02499
G1 X56.238 Y140.073 E.02445
G1 X55.6 Y139.935 E.02482
G1 X54.963 Y139.71 E.02569
G1 X54.378 Y139.41 E.02499
G1 X53.835 Y139.039 E.02499
G1 X53.345 Y138.601 E.02499
G1 X52.923 Y138.115 E.02445
G1 X52.604 Y137.638 E.02181
G1 X52.261 Y136.966 E.02868
G1 X52.048 Y136.344 E.02499
G1 X51.917 Y135.7 E.02499
G1 X51.873 Y135.101 E.02283
G1 X51.906 Y134.387 E.02714
G1 X52.026 Y133.741 E.02499
G1 X52.228 Y133.115 E.02499
G1 X52.505 Y132.526 E.02477
G1 X52.862 Y131.966 E.0252
G1 X53.284 Y131.462 E.02499
G1 X53.675 Y131.099 E.02029
G1 X54.303 Y130.635 E.02966
G1 X54.883 Y130.326 E.02499
G1 X55.498 Y130.094 E.02499
G1 X56.138 Y129.942 E.02499
G1 X56.778 Y129.875 E.02445
G1 X57.447 Y129.889 E.02543
G1 X58.099 Y129.988 E.02508
G1 X58.731 Y130.17 E.02499
G1 X59.334 Y130.431 E.02499
G1 X59.899 Y130.767 E.02499
G1 X60.417 Y131.172 E.02499
G1 X60.878 Y131.641 E.02499
G1 X61.276 Y132.164 E.02499
G1 X61.604 Y132.734 E.02499
G1 X61.856 Y133.342 E.02499
G1 X62.028 Y133.976 E.02499
G1 X62.118 Y134.627 E.02499
G1 X62.123 Y135.285 E.02499
G1 X62.045 Y135.938 E.02499
G1 X61.883 Y136.575 E.02499
G1 X61.642 Y137.187 E.02499
G1 X61.324 Y137.762 E.02499
G1 X60.935 Y138.293 E.02499
G1 X60.482 Y138.769 E.02499
G1 X59.971 Y139.183 E.02499
G1 X59.412 Y139.529 E.02499
G1 X58.813 Y139.8 E.02499
G1 X58.797 Y139.805 E.00063
G1 X58.635 Y139.379 F24000
;TYPE:Outer wall
G1 F1800
G1 X58.628 Y139.382 E.00027
G1 X58.055 Y139.554 E.02277
G1 X57.463 Y139.652 E.02277
G1 X56.865 Y139.673 E.02277
G1 X56.282 Y139.618 E.02223
G1 X55.701 Y139.489 E.02265
G1 X55.121 Y139.281 E.02341
G1 X54.589 Y139.005 E.02277
G1 X54.097 Y138.664 E.02277
G1 X53.652 Y138.263 E.02277
G1 X53.271 Y137.818 E.02223
G1 X52.987 Y137.387 E.01964
G1 X52.672 Y136.768 E.0264
G1 X52.482 Y136.2 E.02277
G1 X52.366 Y135.612 E.02277
G1 X52.329 Y135.071 E.02061
G1 X52.362 Y134.417 E.02491
G1 X52.474 Y133.828 E.02277
G1 X52.661 Y133.259 E.02277
G1 X52.917 Y132.724 E.02255
G1 X53.245 Y132.216 E.02298
G1 X53.632 Y131.758 E.02277
