; HEADER_BLOCK_START
; generated by OrcaSlicer 2.2.0 on 2024-11-09 at 21:22:39
; total layer number: 15
; filament_density: 1.24
; filament_diameter: 1.75
; max_z_height: 3.00
; HEADER_BLOCK_END

; THUMBNAIL_BLOCK_START

;
; THUMBNAIL_BLOCK_END

; THUMBNAIL_BLOCK_START

;
; THUMBNAIL_BLOCK_END

; external perimeters extrusion width = 0.42mm
; perimeters extrusion width = 0.45mm
; infill extrusion width = 0.45mm
; solid infill extrusion width = 0.45mm
; top infill extrusion width = 0.42mm
; first layer extrusion width = 0.50mm

; EXECUTABLE_BLOCK_START
EXCLUDE_OBJECT_DEFINE NAME=Corps11.stl_id_0_copy_0 CENTER=115,115 POLYGON=[[10,81.0055],[220,81.0055],[220,99.0055],[195.869,119.455],[193.306,121.559],[190.688,123.595],[188.017,125.561],[185.295,127.456],[182.524,129.278],[179.706,131.027],[176.843,132.7],[173.936,134.296],[170.989,135.816],[168.002,137.257],[164.978,138.618],[161.919,139.9],[158.827,141.099],[155.705,142.217],[152.554,143.252],[149.377,144.203],[146.176,145.069],[142.953,145.851],[139.711,146.547],[136.451,147.158],[133.176,147.682],[129.889,148.119],[126.591,148.469],[123.285,148.732],[119.973,148.907],[116.658,148.995],[113.342,148.995],[110.027,148.907],[106.715,148.732],[103.409,148.469],[100.111,148.119],[96.8238,147.682],[93.5491,147.158],[90.2894,146.547],[87.047,145.851],[83.8241,145.069],[80.6231,144.203],[77.446,143.252],[74.2952,142.217],[71.1729,141.099],[68.0811,139.9],[65.0222,138.618],[61.9983,137.257],[59.0113,135.816],[56.0636,134.296],[53.157,132.7],[50.2937,131.027],[47.4755,129.278],[44.7046,127.456],[41.9829,125.561],[39.3122,123.595],[36.6944,121.559],[34.1313,119.455],[10,99.0055],[10,81.0055]]
M73 P0 R32
;TYPE:Custom
M220 S100
G90 ; use absolute coordinates
M83 ; extruder relative mode
M104 S150 ; set temporary nozzle temp to prevent oozing during homing
M140 S55 ; set final bed temp
G4 S30 ; allow partial nozzle warmup
G28 ; home all axis and restore leveling
BED_MESH_CALIBRATE PROFILE=adaptive ADAPTIVE=1 ADAPTIVE_MARGIN=0
G1 Z25 F240
G1 X10.0 Y30 F3000
M104 S210 ; set final nozzle temp
M190 S55 ; wait for bed temp to stabilize
M109 S210 ; wait for nozzle temp to stabilize
G1 Z0.28 F240
G92 E0 ; Move Z Axis up
G1 Z2.0 F5000 ; Move to start position
G1 X5 Y30 Z0.28 F300 ; Draw the first line
G1 X5 Y200 Z0.28 F1500 E15 ; Move to side a little
G1 X5.4 Y200 Z0.28 F5000.0 ; Draw the second line
M73 P1 R32
M73 P1 R32
G1 X5.4 Y50 Z0.28 F1500.0 E30 ; Reset Extruder
G92 E0 ; Move Z Axis up
G1 Z2.0 F3000
M117 Start Printing..
G90
G21
M83 ; use relative distances for extrusion
; filament start gcode
M106 S0
;LAYER_CHANGE
;Z:0.2
;HEIGHT:0.2
;BEFORE_LAYER_CHANGE
;0.2
G92 E0

G1 E-.5 F1800
;_SET_FAN_SPEED_CHANGING_LAYER
SET_VELOCITY_LIMIT ACCEL=1000
SET_VELOCITY_LIMIT SQUARE_CORNER_VELOCITY=7
; printing object Corps11.stl id:0 copy 0
EXCLUDE_OBJECT_START NAME=Corps11.stl_id_0_copy_0
G1 Z.4 F24000
G1 X219.72 Y118.248
G1 Z.4
G1 Z.2
G1 E.5 F1800
;TYPE:Inner wall
;WIDTH:0.499999
G1 F3000
G1 X218.537 Y118.248 E.03979
G1 X217.736 Y118.276 E.02695
G1 X217.512 Y118.389 E.00846
G1 X217.315 Y118.629 E.01042
G1 X217.243 Y118.934 E.01055
G1 X217.243 Y125.188 E.21036
G1 X215.241 Y127.449 E.10156
G1 X212.992 Y129.858 E.11087
G1 X210.679 Y132.207 E.11087
G1 X208.305 Y134.494 E.11087
G1 X205.872 Y136.718 E.11087
G1 X203.381 Y138.876 E.11087
G1 X200.833 Y140.968 E.11088
G1 X198.231 Y142.991 E.11087
G1 X195.576 Y144.946 E.11088
G1 X192.871 Y146.829 E.11087
G1 X190.117 Y148.64 E.11087
G1 X187.316 Y150.378 E.11087
G1 X184.47 Y152.041 E.11088
G1 X181.581 Y153.628 E.11086
G1 X178.552 Y155.186 E.11457
G1 X175.682 Y156.571 E.10719
G1 X172.676 Y157.924 E.11087
G1 X169.636 Y159.197 E.11087
G1 X166.459 Y160.427 E.11457
G1 X163.459 Y161.501 E.10719
G1 X160.327 Y162.529 E.11087
G1 X157.169 Y163.474 E.11087
G1 X153.988 Y164.336 E.11087
G1 X150.784 Y165.113 E.11087
G1 X147.562 Y165.805 E.11086
G1 X144.213 Y166.429 E.11457
G1 X141.066 Y166.932 E.10719
G1 X137.799 Y167.367 E.11087
G1 X134.521 Y167.715 E.11087
G1 X131.235 Y167.976 E.11087
G1 X127.943 Y168.15 E.11087
G1 X124.648 Y168.237 E.11088
G1 X121.352 Y168.237 E.11087
G1 X118.057 Y168.15 E.11088
G1 X114.765 Y167.976 E.11088
G1 X111.479 Y167.715 E.11087
G1 X108.201 Y167.367 E.11087
G1 X104.934 Y166.932 E.11087
G1 X101.679 Y166.412 E.11087
G1 X98.439 Y165.805 E.11088
G1 X95.216 Y165.113 E.11087
G1 X92.013 Y164.336 E.11086
G1 X88.726 Y163.443 E.11457
G1 X85.673 Y162.529 E.10719
G1 X82.541 Y161.501 E.11087
G1 X79.437 Y160.39 E.11087
G1 X76.364 Y159.197 E.11087
G1 X73.324 Y157.924 E.11088
G1 X70.318 Y156.571 E.11087
G1 X67.349 Y155.138 E.11087
G1 X64.419 Y153.628 E.11087
G1 X61.53 Y152.041 E.11087
G1 X58.684 Y150.378 E.11088
G1 X55.883 Y148.64 E.11087
G1 X53.129 Y146.829 E.11087
G1 X50.424 Y144.946 E.11087
G1 X47.769 Y142.991 E.11088
G1 X45.167 Y140.968 E.11087
G1 X42.619 Y138.876 E.11088
G1 X40.128 Y136.718 E.11087
G1 X37.695 Y134.494 E.11087
G1 X35.321 Y132.207 E.11087
G1 X33.008 Y129.858 E.11087
G1 X30.759 Y127.449 E.11087
G1 X28.757 Y125.188 E.10156
G1 X28.757 Y119.278 E.19879
G1 X28.731 Y118.747 E.01788
G1 X28.588 Y118.483 E.01009
G1 X28.354 Y118.309 E.00981
G1 X28.071 Y118.248 E.00973
G1 X18.757 Y118.248 E.31329
G1 X18.751 Y111.618 E.22301
;WIDTH:0.488509
G1 X18.74 Y110.931 E.02254
;WIDTH:0.501661
G1 X18.757 Y109.701 E.04153
;WIDTH:0.499999
G1 X18.757 Y101.763 E.267
G1 X227.243 Y101.763 E7.01254
G1 X227.243 Y109.349 E.25519
;WIDTH:0.52198
G1 X227.232 Y110.048 E.02463
G1 X227.245 Y110.392 E.01214
;WIDTH:0.495882
G1 X227.258 Y110.736 E.01148
;WIDTH:0.476188
G1 X227.255 Y111.425 E.02195
;WIDTH:0.513471
G1 X227.243 Y112.662 E.04282
;WIDTH:0.499999
G1 X227.243 Y118.248 E.18792
G1 X219.76 Y118.248 E.25169
G1 E-.5 F1800
;WIPE_START
G1 F12000
G1 X218.537 Y118.248
G1 X217.761 Y118.275
;WIPE_END
G1 Z.4 F24000
G1 X219.202 Y111.637 Z.4
G1 Z.2
G1 E.5 F1800
G1 F3000
G1 X219.145 Y111.064 E.01938
G1 X219.19 Y110.411 E.022
G1 X219.346 Y109.776 E.022
G1 X219.606 Y109.176 E.022
G1 X219.964 Y108.629 E.022
G1 X220.409 Y108.15 E.022
G1 X220.929 Y107.753 E.022
G1 X221.509 Y107.45 E.022
G1 X222.131 Y107.249 E.022
G1 X222.749 Y107.16 E.02099
G1 X223.426 Y107.174 E.02278
G1 X224.073 Y107.302 E.0222
G1 X224.684 Y107.537 E.022
G1 X225.246 Y107.871 E.022
G1 X225.743 Y108.296 E.022
G1 X226.162 Y108.798 E.022
G1 X226.489 Y109.365 E.022
;WIDTH:0.513087
G1 X226.722 Y109.976 E.02263
G1 X226.825 Y110.623 E.02266
;WIDTH:0.476188
G1 X226.831 Y111.274 E.02079
;WIDTH:0.495882
G1 X226.794 Y111.599 E.01087
;WIDTH:0.52198
G1 X226.756 Y111.923 E.0115
G1 X226.537 Y112.54 E.02312
;WIDTH:0.499999
G1 X226.227 Y113.116 E.022
M73 P2 R32
M73 P2 R32
G1 X225.824 Y113.631 E.022
G1 X225.339 Y114.071 E.022
G1 X224.788 Y114.422 E.022
G1 X224.185 Y114.675 E.022
G1 X223.547 Y114.822 E.022
G1 X222.894 Y114.86 E.022
G1 X222.245 Y114.786 E.022
G1 X221.617 Y114.604 E.022
G1 X221.028 Y114.319 E.022
G1 X220.497 Y113.938 E.022
G1 X220.037 Y113.473 E.022
G1 X219.663 Y112.936 E.022
G1 X219.384 Y112.345 E.022
G1 X219.21 Y111.714 E.022
G1 X219.206 Y111.677 E.00127
G1 X219.652 Y111.591 F24000
;TYPE:Outer wall
G1 F3000
G1 X219.6 Y111.025 E.01913
G1 X219.646 Y110.45 E.0194
G1 X219.788 Y109.891 E.0194
G1 X220.022 Y109.364 E.0194
G1 X220.343 Y108.885 E.0194
G1 X220.739 Y108.466 E.0194
G1 X221.201 Y108.121 E.0194
G1 X221.714 Y107.858 E.0194
G1 X222.265 Y107.686 E.0194
G1 X222.807 Y107.613 E.01839
G1 X223.41 Y107.631 E.02031
G1 X223.977 Y107.749 E.01947
G1 X224.513 Y107.961 E.0194
G1 X225.006 Y108.261 E.0194
G1 X225.441 Y108.639 E.0194
G1 X225.806 Y109.086 E.0194
G1 X226.09 Y109.587 E.0194
G1 X226.285 Y110.13 E.0194
G1 X226.386 Y110.698 E.0194
G1 X226.389 Y111.274 E.0194
G1 X226.295 Y111.843 E.0194
G1 X226.106 Y112.388 E.0194
G1 X225.828 Y112.893 E.0194
G1 X225.468 Y113.344 E.0194
G1 X225.037 Y113.727 E.0194
G1 X224.548 Y114.033 E.0194
G1 X224.014 Y114.251 E.0194
G1 X223.451 Y114.375 E.0194
G1 X222.875 Y114.403 E.0194
G1 X222.303 Y114.333 E.0194
G1 X221.75 Y114.167 E.0194
G1 X221.234 Y113.911 E.0194
G1 X220.768 Y113.57 E.0194
G1 X220.367 Y113.156 E.0194
G1 X220.041 Y112.68 E.0194
G1 X219.801 Y112.156 E.0194
G1 X219.661 Y111.63 E.01832
G1 E-.5 F1800
;WIPE_START
G1 F12000
G1 X219.6 Y111.025
G1 X219.646 Y110.45
G1 X219.788 Y109.891
G1 X219.885 Y109.673
;WIPE_END
G1 Z.4 F24000
G1 X28.3 Y118.934 Z.4
G1 Z.2
G1 E.5 F1800
G1 F3000
G1 X28.232 Y118.772 E.00591
G1 X28.071 Y118.705 E.00585
G1 X18.3 Y118.705 E.32867
G1 X18.3 Y101.305 E.58526
G1 X227.7 Y101.305 E7.04328
G1 X227.7 Y118.705 E.58526
M73 P2 R31
M73 P2 R31
G1 X217.929 Y118.705 E.32867
G1 X217.764 Y118.775 E.006
G1 X217.7 Y118.934 E.00577
G1 X217.7 Y125.361 E.21619
G1 X215.58 Y127.756 E.10759
G1 X213.322 Y130.174 E.11128
G1 X211.001 Y132.532 E.11128
G1 X208.618 Y134.828 E.11128
G1 X206.176 Y137.059 E.11128
G1 X203.675 Y139.226 E.11128
G1 X201.118 Y141.325 E.11128
G1 X198.507 Y143.356 E.11127
G1 X195.842 Y145.317 E.11129
G1 X193.127 Y147.208 E.11128
G1 X190.363 Y149.025 E.11128
G1 X187.552 Y150.769 E.11128
G1 X184.695 Y152.439 E.11128
G1 X181.796 Y154.032 E.11128
G1 X178.756 Y155.595 E.11498
G1 X175.875 Y156.985 E.10759
G1 X172.858 Y158.343 E.11128
G1 X169.807 Y159.621 E.11128
G1 X166.619 Y160.855 E.11497
G1 X163.607 Y161.933 E.10759
G1 X160.464 Y162.965 E.11128
G1 X157.295 Y163.914 E.11128
G1 X154.101 Y164.779 E.11128
G1 X150.886 Y165.559 E.11128
G1 X147.652 Y166.253 E.11128
G1 X144.291 Y166.879 E.11497
G1 X141.133 Y167.385 E.10759
G1 X137.853 Y167.821 E.11128
G1 X134.563 Y168.17 E.11128
G1 X131.265 Y168.432 E.11128
G1 X127.961 Y168.607 E.11128
G1 X124.654 Y168.695 E.11128
G1 X121.346 Y168.695 E.11128
G1 X118.039 Y168.607 E.11128
G1 X114.735 Y168.432 E.11128
G1 X111.437 Y168.17 E.11128
G1 X108.147 Y167.821 E.11128
G1 X104.867 Y167.385 E.11128
G1 X101.6 Y166.862 E.11128
G1 X98.349 Y166.253 E.11128
G1 X95.114 Y165.559 E.11128
G1 X91.899 Y164.779 E.11128
G1 X88.6 Y163.883 E.11498
G1 X85.536 Y162.965 E.10759
G1 X82.393 Y161.933 E.11128
G1 X79.278 Y160.818 E.11128
G1 X76.193 Y159.621 E.11128
G1 X73.142 Y158.343 E.11128
G1 X70.125 Y156.985 E.11128
G1 X67.145 Y155.547 E.11128
G1 X64.205 Y154.032 E.11128
G1 X61.305 Y152.439 E.11128
G1 X58.448 Y150.769 E.11128
G1 X55.637 Y149.025 E.11128
G1 X52.873 Y147.208 E.11128
G1 X50.158 Y145.317 E.11128
G1 X47.493 Y143.356 E.11129
G1 X44.882 Y141.325 E.11127
G1 X42.325 Y139.225 E.11129
G1 X39.824 Y137.059 E.11128
G1 X37.382 Y134.828 E.11128
G1 X34.999 Y132.532 E.11128
G1 X32.678 Y130.174 E.11128
G1 X30.42 Y127.756 E.11128
G1 X28.3 Y125.361 E.10759
G1 X28.3 Y118.974 E.21484
G1 E-.5 F1800
;WIPE_START
G1 F12000
G1 X28.232 Y118.772
G1 X28.071 Y118.705
G1 X26.459 Y118.705
;WIPE_END
G1 Z.4 F24000
G1 X26.835 Y111.347 Z.4
G1 Z.2
G1 E.5 F1800
;TYPE:Inner wall
G1 F3000
G1 X26.745 Y111.921 E.01954
G1 X26.537 Y112.54 E.022
G1 X26.227 Y113.116 E.022
G1 X25.85 Y113.599 E.0206
G1 X25.339 Y114.071 E.02338
G1 X24.788 Y114.422 E.022
G1 X24.185 Y114.675 E.022
G1 X23.547 Y114.822 E.022
G1 X22.894 Y114.86 E.022
G1 X22.245 Y114.786 E.022
G1 X21.617 Y114.604 E.022
G1 X21.028 Y114.319 E.022
G1 X20.497 Y113.938 E.022
G1 X20.037 Y113.473 E.022
G1 X19.663 Y112.936 E.022
G1 X19.384 Y112.345 E.022
G1 X19.213 Y111.714 E.022
;WIDTH:0.494879
G1 X19.162 Y111.062 E.02173
;WIDTH:0.488511
G1 X19.196 Y110.412 E.02136
;WIDTH:0.499999
G1 X19.346 Y109.776 E.02197
G1 X19.606 Y109.176 E.022
G1 X19.964 Y108.629 E.022
G1 X20.409 Y108.15 E.022
G1 X20.929 Y107.753 E.022
G1 X21.509 Y107.45 E.022
G1 X22.131 Y107.249 E.022
G1 X22.749 Y107.16 E.02099
G1 X23.426 Y107.174 E.02278
G1 X24.073 Y107.302 E.0222
G1 X24.684 Y107.537 E.022
G1 X25.246 Y107.871 E.022
G1 X25.743 Y108.296 E.022
G1 X26.162 Y108.798 E.022
G1 X26.489 Y109.365 E.022
G1 X26.716 Y109.978 E.022
G1 X26.836 Y110.621 E.022
G1 X26.846 Y111.274 E.022
G1 X26.841 Y111.307 E.00111
G1 X26.389 Y111.266 F24000
;TYPE:Outer wall
G1 F3000
G1 X26.389 Y111.274 E.00028
G1 X26.295 Y111.843 E.0194
G1 X26.106 Y112.388 E.0194
G1 X25.828 Y112.893 E.0194
G1 X25.494 Y113.312 E.018
G1 X25.037 Y113.727 E.02078
G1 X24.548 Y114.033 E.0194
G1 X24.014 Y114.251 E.0194
G1 X23.451 Y114.375 E.0194
G1 X22.875 Y114.403 E.0194
G1 X22.303 Y114.333 E.0194
G1 X21.75 Y114.167 E.0194
G1 X21.234 Y113.911 E.0194
G1 X20.768 Y113.57 E.0194
G1 X20.367 Y113.156 E.0194
G1 X20.041 Y112.68 E.0194
G1 X19.801 Y112.156 E.0194
G1 X19.652 Y111.599 E.0194
G1 X19.6 Y111.025 E.0194
G1 X19.646 Y110.45 E.0194
G1 X19.788 Y109.891 E.0194
G1 X20.022 Y109.364 E.0194
G1 X20.343 Y108.885 E.0194
G1 X20.739 Y108.466 E.0194
G1 X21.201 Y108.121 E.0194
G1 X21.714 Y107.858 E.0194
G1 X22.265 Y107.686 E.0194
G1 X22.807 Y107.613 E.01839
G1 X23.41 Y107.631 E.02031
G1 X23.977 Y107.749 E.01947
G1 X24.513 Y107.961 E.0194
G1 X25.006 Y108.261 E.0194
G1 X25.441 Y108.639 E.0194
G1 X25.806 Y109.086 E.0194
G1 X26.09 Y109.587 E.0194
G1 X26.285 Y110.13 E.0194
G1 X26.386 Y110.698 E.0194
G1 X26.389 Y111.226 E.01777
G1 E-.5 F1800
;WIPE_START
G1 F12000
G1 X26.389 Y111.274
G1 X26.295 Y111.843
G1 X26.106 Y112.388
G1 X25.828 Y112.893
G1 X25.689 Y113.067
;WIPE_END
G1 Z.4 F24000
G1 X226.617 Y112.688
G1 Z.4
G1 Z.2
G1 E.5 F1800
;TYPE:Bottom surface
;WIDTH:0.500429
G1 F6300
G1 X226.9 Y112.971 E.01346
G1 X226.9 Y113.618 E.02178
G1 X226.533 Y113.251 E.01748
G1 X226.433 Y113.422 E.00667
G1 X226.262 Y113.627 E.00899
G1 X226.9 Y114.265 E.03041
G1 X226.9 Y114.912 E.02178
G1 X225.965 Y113.977 E.04454
G1 X225.614 Y114.273 E.01546
G1 X226.9 Y115.559 E.06122
G1 X226.9 Y116.206 E.02178
G1 X225.237 Y114.543 E.0792
G1 X224.83 Y114.783 E.01591
G1 X226.9 Y116.853 E.09857
G1 X226.9 Y117.5 E.02178
G1 X224.363 Y114.963 E.12082
G1 X224.154 Y115.042 E.00752
G1 X223.858 Y115.105 E.01018
G1 X226.658 Y117.906 E.13332
G1 X226.011 Y117.906 E.02178
G1 X223.287 Y115.182 E.1297
G1 X222.905 Y115.202 E.0129
G1 X222.64 Y115.181 E.00896
G1 X225.364 Y117.906 E.12973
G1 X224.717 Y117.906 E.02178
G1 X221.517 Y114.705 E.15237
G1 E-.5 F1800
;WIPE_START
G1 F12000
G1 X222.931 Y116.12
;WIPE_END
G1 Z.4 F24000
G1 X226.181 Y101.9 Z.4
G1 Z.2
G1 E.5 F1800
G1 F6300
G1 X226.9 Y102.619 E.03424
G1 X226.9 Y103.266 E.02178
G1 X225.74 Y102.105 E.05526
G1 X225.093 Y102.105 E.02178
G1 X226.9 Y103.913 E.08606
G1 X226.9 Y104.56 E.02178
G1 X224.446 Y102.105 E.11687
G1 X223.799 Y102.105 E.02178
G1 X226.9 Y105.207 E.14767
G1 X226.9 Y105.854 E.02178
G1 X223.152 Y102.105 E.17848
G1 X222.505 Y102.105 E.02178
G1 X226.9 Y106.501 E.20929
G1 X226.9 Y107.148 E.02178
G1 X221.857 Y102.105 E.24009
G1 X221.21 Y102.105 E.02178
G1 X226.9 Y107.795 E.2709
G1 X226.9 Y108.442 E.02178
G1 X220.563 Y102.105 E.3017
G1 X219.916 Y102.105 E.02178
G1 X227.106 Y109.295 E.3423
G1 E-.5 F1800
;WIPE_START
G1 F12000
G1 X225.692 Y107.881
;WIPE_END
G1 Z.4 F24000
G1 X224.475 Y107.311 Z.4
G1 Z.2
G1 E.5 F1800
G1 F6300
G1 X219.269 Y102.105 E.24785
G1 X218.622 Y102.105 E.02178
G1 X223.347 Y106.83 E.22494
G1 X222.692 Y106.822 E.02205
G1 X217.975 Y102.105 E.22456
G1 X217.328 Y102.105 E.02178
G1 X222.123 Y106.9 E.22829
G1 X221.623 Y107.047 E.01754
G1 X216.681 Y102.105 E.2353
G1 X216.034 Y102.105 E.02178
G1 X221.172 Y107.243 E.24461
G1 X220.867 Y107.389 E.01138
G1 X220.753 Y107.471 E.00473
G1 X215.387 Y102.105 E.25545
G1 X214.74 Y102.105 E.02178
G1 X220.374 Y107.739 E.26825
G1 X220.287 Y107.802 E.00363
M73 P3 R31
M73 P3 R31
G1 X220.039 Y108.051 E.01183
G1 X214.093 Y102.105 E.28308
G1 X213.446 Y102.105 E.02178
G1 X219.728 Y108.387 E.29907
G1 X219.46 Y108.766 E.01563
G1 X212.799 Y102.105 E.31715
G1 X212.152 Y102.105 E.02178
G1 X219.233 Y109.186 E.33713
G1 X219.069 Y109.532 E.0129
G1 X219.039 Y109.639 E.00374
G1 X211.505 Y102.105 E.35871
G1 X210.858 Y102.105 E.02178
G1 X218.9 Y110.147 E.3829
G1 X218.859 Y110.298 E.00524
G1 X218.824 Y110.718 E.0142
G1 X210.211 Y102.105 E.41006
G1 X209.564 Y102.105 E.02178
G1 X218.831 Y111.372 E.4412
G1 X218.862 Y111.728 E.01202
G1 X218.975 Y112.164 E.01517
G1 X208.917 Y102.105 E.4789
G1 X208.27 Y102.105 E.02178
G1 X224.07 Y117.906 E.75229
G1 X223.423 Y117.906 E.02178
G1 X207.623 Y102.105 E.75229
G1 X206.976 Y102.105 E.02178
G1 X222.776 Y117.906 E.75229
G1 X222.129 Y117.906 E.02178
G1 X206.329 Y102.105 E.75229
G1 X205.682 Y102.105 E.02178
G1 X221.482 Y117.906 E.75229
