; HEADER_BLOCK_START
; generated by OrcaSlicer 2.1.1 on 2024-08-20 at 12:41:42
; total layer number: 25
; filament_density: 1.27
; filament_diameter: 1.75
; max_z_height: 5.00
; HEADER_BLOCK_END

; THUMBNAIL_BLOCK_START

;
; THUMBNAIL_BLOCK_END

; THUMBNAIL_BLOCK_START

;
; THUMBNAIL_BLOCK_END

; external perimeters extrusion width = 0.42mm
; perimeters extrusion width = 0.45mm
; infill extrusion width = 0.45mm
; solid infill extrusion width = 0.45mm
; top infill extrusion width = 0.42mm
; first layer extrusion width = 0.50mm

; EXECUTABLE_BLOCK_START
EXCLUDE_OBJECT_DEFINE NAME=Corps1.stl_id_0_copy_0 CENTER=115,115 POLYGON=[[112,112.54],[112.001,112.414],[112.008,112.287],[112.019,112.161],[112.036,112.035],[112.058,111.91],[112.086,111.787],[112.119,111.664],[112.157,111.543],[112.2,111.424],[112.247,111.307],[112.3,111.192],[112.358,111.079],[112.42,110.969],[112.487,110.861],[112.559,110.756],[112.635,110.655],[112.715,110.556],[112.799,110.462],[112.887,110.371],[112.979,110.283],[113.074,110.2],[113.173,110.121],[113.275,110.045],[113.38,109.975],[113.488,109.909],[113.599,109.847],[113.712,109.79],[113.828,109.738],[113.946,109.691],[114.065,109.649],[114.187,109.612],[114.309,109.581],[114.433,109.554],[114.558,109.533],[114.684,109.517],[114.81,109.506],[114.937,109.501],[115.063,109.501],[115.19,109.506],[115.316,109.517],[115.442,109.533],[115.567,109.554],[115.691,109.581],[115.813,109.612],[115.935,109.649],[116.054,109.691],[116.172,109.738],[116.288,109.79],[116.401,109.847],[116.512,109.909],[116.62,109.975],[116.725,110.045],[116.827,110.121],[116.926,110.2],[117.021,110.283],[117.113,110.371],[117.201,110.462],[117.285,110.556],[117.365,110.655],[117.441,110.756],[117.513,110.861],[117.58,110.969],[117.642,111.079],[117.7,111.192],[117.753,111.307],[117.8,111.424],[117.843,111.543],[117.881,111.664],[117.914,111.787],[117.942,111.91],[117.964,112.035],[117.981,112.161],[117.992,112.287],[117.999,112.414],[118,112.54],[118,117.46],[117.999,117.586],[117.992,117.713],[117.981,117.839],[117.964,117.965],[117.942,118.09],[117.914,118.213],[117.881,118.336],[117.843,118.457],[117.8,118.576],[117.753,118.693],[117.7,118.808],[117.642,118.921],[117.58,119.031],[117.513,119.139],[117.441,119.244],[117.365,119.345],[117.285,119.444],[117.201,119.538],[117.113,119.629],[117.021,119.717],[116.926,119.8],[116.827,119.879],[116.725,119.955],[116.62,120.025],[116.512,120.091],[116.401,120.153],[116.288,120.21],[116.172,120.262],[116.054,120.309],[115.935,120.351],[115.813,120.388],[115.691,120.419],[115.567,120.446],[115.442,120.467],[115.316,120.483],[115.19,120.494],[115.063,120.499],[114.937,120.499],[114.81,120.494],[114.684,120.483],[114.558,120.467],[114.433,120.446],[114.309,120.419],[114.187,120.388],[114.065,120.351],[113.946,120.309],[113.828,120.262],[113.712,120.21],[113.599,120.153],[113.488,120.091],[113.38,120.025],[113.275,119.955],[113.173,119.879],[113.074,119.8],[112.979,119.717],[112.887,119.629],[112.799,119.538],[112.715,119.444],[112.635,119.345],[112.559,119.244],[112.487,119.139],[112.42,119.031],[112.358,118.921],[112.3,118.808],[112.247,118.693],[112.2,118.576],[112.157,118.457],[112.119,118.336],[112.086,118.213],[112.058,118.09],[112.036,117.965],[112.019,117.839],[112.008,117.713],[112.001,117.586],[112,117.46],[112,112.54]]
M73 P0 R2
;TYPE:Custom
M220 S100
G90 ; use absolute coordinates
M83 ; extruder relative mode
M104 S150 ; set temporary nozzle temp to prevent oozing during homing
M140 S70 ; set final bed temp
G4 S30 ; allow partial nozzle warmup
G28 ; home all axis and restore leveling
BED_MESH_CALIBRATE PROFILE=adaptive ADAPTIVE=1 ADAPTIVE_MARGIN=0
G1 Z25 F240
G1 X10.0 Y30 F3000
M104 S245 ; set final nozzle temp
M190 S70 ; wait for bed temp to stabilize
M109 S245 ; wait for nozzle temp to stabilize
M73 P3 R2
G1 Z0.28 F240
G92 E0 ; Move Z Axis up
M73 P4 R2
G1 Z2.0 F5000 ; Move to start position
M73 P7 R2
G1 X5 Y30 Z0.28 F300 ; Draw the first line
G1 X5 Y200 Z0.28 F1500 E15 ; Move to side a little
M73 P8 R2
G1 X5.4 Y200 Z0.28 F5000.0 ; Draw the second line
M73 P12 R2
G1 X5.4 Y50 Z0.28 F1500.0 E30 ; Reset Extruder
G92 E0 ; Move Z Axis up
G1 Z2.0 F3000
M117 Start Printing..
G90
G21
M83 ; use relative distances for extrusion
; filament start gcode
SET_PRESSURE_ADVANCE ADVANCE=0.076; Override pressure advance value
M106 S0
;LAYER_CHANGE
;Z:0.2
;HEIGHT:0.2
;BEFORE_LAYER_CHANGE
;0.2
G92 E0

;_SET_FAN_SPEED_CHANGING_LAYER
SET_VELOCITY_LIMIT ACCEL=1000
SET_VELOCITY_LIMIT SQUARE_CORNER_VELOCITY=7
;CUSTOM_GCODE
M220 S75
; printing object Corps1.stl id:0 copy 0
M73 P16 R2
G1 E-.5 F1800
EXCLUDE_OBJECT_START NAME=Corps1.stl_id_0_copy_0
G1 Z.2 F24000
G1 X124.51 Y134.851
G1 Z.2
G1 E.5 F1800
;TYPE:Outer wall
;WIDTH:0.41791
G1 F812
G1 X124.507 Y134.853 E.0001
;WIDTH:0.465725
G1 X124.467 Y134.903 E.00225
;WIDTH:0.51354
G1 X124.426 Y134.952 E.00251
;WIDTH:0.561355
G1 X124.386 Y135.002 E.00276
;WIDTH:0.60917
G1 X124.345 Y135.052 E.00302
G1 X124.406 Y135.115 E.00413
;WIDTH:0.564727
G1 X124.466 Y135.179 E.00381
;WIDTH:0.520283
G1 X125.052 Y135.693 E.03095
;WIDTH:0.503707
G1 X125.415 Y136.216 E.02437
;WIDTH:0.500815
M73 P17 R2
G1 X125.493 Y136.396 E.00748
;WIDTH:0.497614
G1 X125.679 Y136.966 E.02267
;WIDTH:0.498517
G1 X125.729 Y137.655 E.02617
;WIDTH:0.502122
G1 X125.652 Y138.174 E.02001
G1 X125.471 Y138.676 E.02037
;WIDTH:0.50416
G1 X125.214 Y139.106 E.01923
G1 X124.825 Y139.537 E.02229
;WIDTH:0.503846
G1 X124.396 Y139.853 E.02042
;WIDTH:0.504642
G1 X123.98 Y140.055 E.01773
;WIDTH:0.505293
G1 X123.492 Y140.19 E.01945
G1 X122.766 Y140.223 E.02794
;WIDTH:0.502504
G1 X122.133 Y140.097 E.02466
G1 X121.669 Y139.887 E.01947
;WIDTH:0.49713
G1 X121.244 Y139.589 E.01962
;WIDTH:0.499589
G1 X120.853 Y139.2 E.02096
;WIDTH:0.50003
G1 X120.573 Y138.769 E.01953
G1 X120.383 Y138.286 E.01971
;WIDTH:0.495821
G1 X120.282 Y137.79 E.01908
G1 X120.277 Y137.249 E.02036
;WIDTH:0.498591
G1 X120.376 Y136.725 E.02019
;WIDTH:0.502162
G1 X120.561 Y136.258 E.01921
;WIDTH:0.504305
G1 X120.805 Y135.866 E.01773
;WIDTH:0.505123
G1 X121.14 Y135.492 E.01926
;WIDTH:0.539651
G1 X121.311 Y135.344 E.00937
;WIDTH:0.574178
G1 X121.483 Y135.196 E.01002
;WIDTH:0.608705
G1 X121.655 Y135.048 E.01067
G1 X121.611 Y134.997 E.00318
;WIDTH:0.559113
G1 X121.566 Y134.946 E.0029
;WIDTH:0.509521
G1 X121.522 Y134.895 E.00262
;WIDTH:0.459929
G1 X121.477 Y134.844 E.00234
;WIDTH:0.415724
G1 X120.91 Y134.344 E.02344
G1 X120.512 Y133.764 E.02183
;WIDTH:0.414056
G1 X120.276 Y133.098 E.02177
G1 X120.211 Y132.396 E.02177
;WIDTH:0.411073
G1 X120.285 Y131.852 E.01681
G1 X120.447 Y131.371 E.01554
;WIDTH:0.412279
G1 X120.74 Y130.862 E.01803
;WIDTH:0.419917
G1 X121.11 Y130.451 E.01733
G1 X121.506 Y130.141 E.01575
;WIDTH:0.41484
G1 X122.001 Y129.895 E.01711
G1 X122.228 Y129.825 E.00735
;WIDTH:0.40322
G1 X122.776 Y129.721 E.01671
;WIDTH:0.404075
G1 X123.278 Y129.726 E.01508
;WIDTH:0.406501
G1 X123.795 Y129.823 E.01589
;WIDTH:0.414406
G1 X124.293 Y130.027 E.01662
G1 X124.614 Y130.223 E.01163
;WIDTH:0.413978
M73 P18 R2
G1 X125.052 Y130.608 E.01798
;WIDTH:0.406967
G1 X125.406 Y131.089 E.01808
;WIDTH:0.418581
G1 X125.598 Y131.485 E.01375
G1 X125.735 Y131.936 E.01473
;WIDTH:0.410838
G1 X125.793 Y132.437 E.01544
;WIDTH:0.408516
G1 X125.736 Y133.034 E.01822
;WIDTH:0.406099
G1 X125.51 Y133.721 E.02183
;WIDTH:0.414995
G1 X125.236 Y134.17 E.01628
G1 X124.901 Y134.544 E.01554
;WIDTH:0.41791
G1 X124.541 Y134.826 E.01425
G1 X123.2 Y134.914 F24000
;WIDTH:0.42813
G1 F812
G1 X122.815 Y134.912 E.01232
;WIDTH:0.452719
G1 X122.608 Y134.896 E.00708
;WIDTH:0.496464
G1 X122.401 Y134.88 E.00783
;WIDTH:0.540209
G1 X122.194 Y134.864 E.00859
;WIDTH:0.574457
G1 X122.126 Y134.853 E.00308
;WIDTH:0.608705
G1 X122.057 Y134.842 E.00328
G1 X121.913 Y134.726 E.0087
;WIDTH:0.566545
G1 X121.769 Y134.61 E.00805
;WIDTH:0.524385
G1 X121.624 Y134.494 E.0074
;WIDTH:0.482225
G1 X121.48 Y134.379 E.00675
;WIDTH:0.440065
G1 X121.336 Y134.263 E.00611
;WIDTH:0.401829
G1 X120.896 Y133.706 E.02118
G1 X120.688 Y133.228 E.01556
;WIDTH:0.398627
G1 X120.579 Y132.626 E.0181
;WIDTH:0.400679
G1 X120.596 Y132.177 E.01336
;WIDTH:0.403665
G1 X120.684 Y131.774 E.01236
G1 X120.842 Y131.391 E.01244
;WIDTH:0.401846
G1 X121.118 Y130.969 E.01504
;WIDTH:0.405841
G1 X121.619 Y130.504 E.02063
;WIDTH:0.41484
G1 X122.165 Y130.229 E.0189
G1 X122.654 Y130.102 E.01564
;WIDTH:0.412614
G1 X123.19 Y130.08 E.01649
;WIDTH:0.406856
G1 X123.693 Y130.172 E.01546
G1 X124.253 Y130.42 E.01854
;WIDTH:0.410013
G1 X124.726 Y130.793 E.01838
G1 X125.108 Y131.296 E.01927
;WIDTH:0.406028
G1 X125.354 Y131.911 E.02001
;WIDTH:0.40851
G1 X125.428 Y132.414 E.01546
G1 X125.391 Y132.921 E.01543
;WIDTH:0.406613
G1 X125.18 Y133.569 E.02062
G1 X124.837 Y134.086 E.01876
;WIDTH:0.404838
G1 X124.458 Y134.44 E.01561
;WIDTH:0.446341
G1 X124.336 Y134.534 E.00519
;WIDTH:0.48849
G1 X124.213 Y134.629 E.00574
;WIDTH:0.53064
G1 X124.09 Y134.723 E.00628
;WIDTH:0.572789
G1 X123.967 Y134.817 E.00682
G1 X123.757 Y134.849 E.00934
;WIDTH:0.52457
G1 X123.548 Y134.882 E.00849
;WIDTH:0.47635
G1 X123.338 Y134.915 E.00764
;WIDTH:0.42813
G1 X123.24 Y134.914 E.00314
G1 X122.809 Y135.292 F24000
;WIDTH:0.427392
G1 F812
M73 P19 R2
G1 X123.279 Y135.287 E.01502
;WIDTH:0.465131
G1 X123.476 Y135.309 E.00697
;WIDTH:0.515107
G1 X123.673 Y135.331 E.00779
;WIDTH:0.565083
G1 X123.87 Y135.353 E.00862
;WIDTH:0.588885
G1 X123.951 Y135.375 E.00381
G1 X124.209 Y135.566 E.01455
;WIDTH:0.540832
G1 X124.466 Y135.757 E.01327
;WIDTH:0.492779
G1 X124.821 Y136.131 E.01929
;WIDTH:0.492212
G1 X125.07 Y136.548 E.01814
;WIDTH:0.497614
G1 X125.226 Y137.006 E.01831
;WIDTH:0.503571
G1 X125.275 Y137.595 E.02263
G1 X125.195 Y138.12 E.02034
;WIDTH:0.4966
G1 X125.005 Y138.589 E.01909
;WIDTH:0.495542
G1 X124.727 Y138.988 E.01831
;WIDTH:0.492757
G1 X124.383 Y139.312 E.01768
;WIDTH:0.495718
G1 X123.98 Y139.559 E.0178
G1 X123.58 Y139.706 E.01603
;WIDTH:0.503335
G1 X122.922 Y139.777 E.02534
G1 X122.408 Y139.704 E.01986
;WIDTH:0.497983
G1 X121.925 Y139.512 E.01967
;WIDTH:0.502951
G1 X121.464 Y139.181 E.02171
G1 X121.203 Y138.908 E.01445
;WIDTH:0.499502
G1 X120.955 Y138.513 E.01773
;WIDTH:0.497963
G1 X120.822 Y138.176 E.01367
;WIDTH:0.504142
G1 X120.725 Y137.572 E.02347
G1 X120.74 Y137.197 E.01441
;WIDTH:0.501784
G1 X120.835 Y136.778 E.01638
;WIDTH:0.498196
G1 X121.032 Y136.348 E.0179
;WIDTH:0.496007
G1 X121.312 Y135.967 E.01782
;WIDTH:0.511305
G1 X121.796 Y135.561 E.02462
;WIDTH:0.544173
G1 X121.945 Y135.46 E.00748
;WIDTH:0.57704
G1 X122.093 Y135.359 E.00797
G1 X122.28 Y135.337 E.00837
;WIDTH:0.527158
G1 X122.468 Y135.316 E.00759
;WIDTH:0.477275
G1 X122.655 Y135.294 E.00681
;WIDTH:0.427392
G1 X122.769 Y135.293 E.00364
; stop printing object Corps1.stl id:0 copy 0
G1 E-.5 F1800
EXCLUDE_OBJECT_END NAME=Corps1.stl_id_0_copy_0
;LAYER_CHANGE
;Z:0.4
;HEIGHT:0.2
;BEFORE_LAYER_CHANGE
;0.4
G92 E0

;_SET_FAN_SPEED_CHANGING_LAYER
SET_VELOCITY_LIMIT ACCEL=5000
M104 S240 ; set nozzle temperature
M140 S70 ; set bed temperature
; printing object Corps1.stl id:0 copy 0
EXCLUDE_OBJECT_START NAME=Corps1.stl_id_0_copy_0
G1 Z.4 F24000
G1 X124.484 Y134.825
G1 E.5 F1800
SET_VELOCITY_LIMIT ACCEL=2000
;WIDTH:0.490415
G1 F730
G1 X124.46 Y134.916 E.00351
;WIDTH:0.455207
G1 X124.435 Y135.007 E.00323
;WIDTH:0.462669
G1 X124.448 Y135.086 E.00281
;WIDTH:0.505339
G1 X124.461 Y135.166 E.00309
;WIDTH:0.50853
G1 X124.522 Y135.22 E.00316
;WIDTH:0.511879
G1 X125.058 Y135.693 E.02786
;WIDTH:0.512346
G1 X125.445 Y136.266 E.027
G1 X125.664 Y136.861 E.02473
;WIDTH:0.510173
G1 X125.728 Y137.38 E.02032
;WIDTH:0.50531
G1 X125.702 Y137.95 E.02195
G1 X125.557 Y138.476 E.02096
;WIDTH:0.50425
G1 X125.317 Y138.953 E.02049
;WIDTH:0.510281
G1 X124.949 Y139.429 E.02338
G1 X124.551 Y139.756 E.02002
;WIDTH:0.507758
G1 X124.08 Y140.021 E.02089
M73 P20 R2
G1 X123.599 Y140.172 E.01946
;WIDTH:0.505928
G1 X123.138 Y140.231 E.01793
;WIDTH:0.505588
G1 X122.583 Y140.208 E.02135
G1 X122.064 Y140.063 E.02074
;WIDTH:0.503569
G1 X121.613 Y139.86 E.01893
;WIDTH:0.508268
G1 X121.166 Y139.541 E.02126
;WIDTH:0.510972
G1 X120.825 Y139.171 E.01957
G1 X120.55 Y138.722 E.02051
;WIDTH:0.503982
G1 X120.358 Y138.218 E.02068
;WIDTH:0.505687
G1 X120.269 Y137.705 E.02005
G1 X120.273 Y137.249 E.01753
;WIDTH:0.50744
G1 X120.371 Y136.725 E.02059
;WIDTH:0.511066
G1 X120.557 Y136.256 E.01964
;WIDTH:0.51317
G1 X120.801 Y135.863 E.01809
;WIDTH:0.513395
G1 X121.121 Y135.502 E.01888
;WIDTH:0.514548
G1 X121.523 Y135.184 E.02009
G1 X121.545 Y135.131 E.00227
;WIDTH:0.484055
G1 X121.567 Y135.077 E.00212
;WIDTH:0.455264
G1 X121.511 Y134.843 E.00824
;WIDTH:0.478312
G1 X121.321 Y134.665 E.00942
;WIDTH:0.483052
G1 X120.896 Y134.265 E.02138
;WIDTH:0.490671
G1 X120.546 Y133.74 E.02349
;WIDTH:0.491813
G1 X120.314 Y133.085 E.02594
G1 X120.249 Y132.44 E.02417
;WIDTH:0.491391
G1 X120.31 Y131.926 E.01932
G1 X120.485 Y131.385 E.02122
;WIDTH:0.491017
G1 X120.775 Y130.882 E.02163
;WIDTH:0.49122
G1 X121.132 Y130.48 E.02003
G1 X121.531 Y130.174 E.01874
;WIDTH:0.49026
G1 X122.066 Y129.911 E.02216
;WIDTH:0.487732
G1 X122.618 Y129.773 E.02107
G1 X123.192 Y129.757 E.02121
;WIDTH:0.484831
G1 X123.73 Y129.859 E.02012
;WIDTH:0.487522
G1 X124.209 Y130.027 E.01878
G1 X124.681 Y130.322 E.02057
;WIDTH:0.485878
G1 X125.053 Y130.673 E.01884
;WIDTH:0.488498
G1 X125.366 Y131.091 E.01936
;WIDTH:0.48868
G1 X125.563 Y131.495 E.01667
;WIDTH:0.489491
G1 X125.695 Y131.941 E.01725
;WIDTH:0.491848
G1 X125.745 Y132.625 E.02563
;WIDTH:0.483576
G1 X125.672 Y133.14 E.01906
M73 P21 R2
G1 X125.513 Y133.614 E.01829
;WIDTH:0.485661
G1 X125.245 Y134.089 E.02007
;WIDTH:0.487255
G1 X124.888 Y134.507 E.02035
;WIDTH:0.490415
G1 X124.516 Y134.8 E.01761
SET_VELOCITY_LIMIT ACCEL=5000
G1 X123.211 Y134.78 F24000
SET_VELOCITY_LIMIT ACCEL=2000
;WIDTH:0.478872
G1 F730
G1 X122.903 Y134.805 E.0112
G1 X122.657 Y134.752 E.00912
;WIDTH:0.449436
G1 X122.411 Y134.699 E.00851
;WIDTH:0.455264
G1 X121.798 Y134.442 E.02279
;WIDTH:0.478312
G1 X121.611 Y134.34 E.00771
;WIDTH:0.483052
G1 X121.254 Y134.01 E.01779
;WIDTH:0.490671
G1 X120.959 Y133.567 E.01982
;WIDTH:0.491813
G1 X120.756 Y133.011 E.02209
G1 X120.692 Y132.41 E.02256
;WIDTH:0.487705
G1 X120.774 Y131.891 E.01943
;WIDTH:0.481047
G1 X120.951 Y131.44 E.01765
G1 X121.22 Y131.033 E.01777
;WIDTH:0.483188
G1 X121.564 Y130.693 E.01771
G1 X121.891 Y130.477 E.01435
;WIDTH:0.483434
G1 X122.253 Y130.316 E.01451
;WIDTH:0.484568
G1 X122.73 Y130.207 E.01797
G1 X123.214 Y130.202 E.01777
;WIDTH:0.483427
G1 X123.603 Y130.275 E.0145
;WIDTH:0.484485
G1 X124.056 Y130.447 E.01779
;WIDTH:0.485878
G1 X124.392 Y130.658 E.01461
;WIDTH:0.491733
G1 X124.813 Y131.077 E.02217
G1 X125.025 Y131.39 E.01411
;WIDTH:0.484692
G1 X125.183 Y131.75 E.01444
;WIDTH:0.484309
G1 X125.281 Y132.151 E.01515
;WIDTH:0.484137
G1 X125.305 Y132.621 E.01727
;WIDTH:0.490168
G1 X125.199 Y133.195 E.02171
;WIDTH:0.49037
G1 X125.051 Y133.554 E.01445
G1 X124.847 Y133.88 E.01431
G1 X124.581 Y134.184 E.01503
;WIDTH:0.487097
G1 X124.19 Y134.478 E.01807
;WIDTH:0.483699
G1 X123.406 Y134.764 E.03059
;WIDTH:0.478872
G1 X123.251 Y134.776 E.00564
SET_VELOCITY_LIMIT ACCEL=5000
G1 X122.81 Y135.255 F24000
SET_VELOCITY_LIMIT ACCEL=2000
;WIDTH:0.478932
G1 F730
M106 S0
G1 X122.876 Y135.24 E.00246
;WIDTH:0.479999
G1 X123.345 Y135.262 E.01706
;WIDTH:0.505339
G1 X124.185 Y135.556 E.03425
G1 X124.594 Y135.877 E.01997
;WIDTH:0.500994
G1 X124.893 Y136.241 E.01795
;WIDTH:0.498378
G1 X125.112 Y136.659 E.01785
;WIDTH:0.500553
M73 P22 R2
G1 X125.24 Y137.106 E.01771
;WIDTH:0.51178
G1 X125.272 Y137.563 E.01785
G1 X125.236 Y137.938 E.01468
;WIDTH:0.509047
G1 X125.095 Y138.393 E.01849
;WIDTH:0.512878
G1 X124.85 Y138.819 E.01918
G1 X124.617 Y139.101 E.0143
;WIDTH:0.511374
G1 X124.237 Y139.408 E.01905
G1 X123.87 Y139.605 E.01621
;WIDTH:0.506985
G1 X123.423 Y139.738 E.01798
;WIDTH:0.512237
G1 X122.958 Y139.772 E.01822
G1 X122.594 Y139.742 E.01424
;WIDTH:0.510982
G1 X122.017 Y139.55 E.02366
G1 X121.482 Y139.199 E.02493
;WIDTH:0.508169
G1 X121.147 Y138.824 E.01943
;WIDTH:0.513546
G1 X120.881 Y138.316 E.02247
G1 X120.793 Y138.061 E.01052
;WIDTH:0.509271
G1 X120.724 Y137.578 E.01892
;WIDTH:0.510675
