; HEADER_BLOCK_START
; generated by OrcaSlicer 2.2.0 on 2024-11-23 at 10:51:55
; total layer number: 25
; filament_density: 1.27
; filament_diameter: 1.75
; max_z_height: 5.00
; HEADER_BLOCK_END

; THUMBNAIL_BLOCK_START

;
; THUMBNAIL_BLOCK_END

; THUMBNAIL_BLOCK_START

;
; THUMBNAIL_BLOCK_END

; external perimeters extrusion width = 0.42mm
; perimeters extrusion width = 0.45mm
; infill extrusion width = 0.45mm
; solid infill extrusion width = 0.45mm
; top infill extrusion width = 0.42mm
; first layer extrusion width = 0.50mm

; EXECUTABLE_BLOCK_START
EXCLUDE_OBJECT_DEFINE NAME=Corps1.stl_id_0_copy_0 CENTER=115,115 POLYGON=[[104.403,143.682],[104.406,143.095],[107.5,76.9547],[107.515,76.781],[107.56,76.6127],[107.634,76.4547],[107.671,76.4002],[107.734,76.3119],[107.857,76.1886],[107.937,76.1301],[108,76.0886],[108.158,76.015],[108.326,75.9699],[108.5,75.9547],[121.5,75.9547],[121.674,75.9699],[121.842,76.015],[122,76.0886],[122.063,76.1301],[122.143,76.1886],[122.266,76.3119],[122.329,76.4002],[122.366,76.4547],[122.44,76.6127],[122.485,76.781],[122.5,76.9547],[125.594,143.095],[125.597,143.682],[125.568,144.267],[125.507,144.85],[125.413,145.428],[125.287,146.001],[125.13,146.566],[124.942,147.121],[124.724,147.665],[124.476,148.196],[124.199,148.712],[123.894,149.213],[123.561,149.696],[123.203,150.159],[122.819,150.602],[122.411,151.024],[121.981,151.422],[121.53,151.795],[121.058,152.144],[120.568,152.465],[120.061,152.759],[119.538,153.025],[119.002,153.261],[118.453,153.467],[117.894,153.643],[117.326,153.787],[116.751,153.9],[116.17,153.981],[115.586,154.029],[115,154.045],[114.414,154.029],[113.83,153.981],[113.249,153.9],[112.674,153.787],[112.106,153.643],[111.547,153.467],[110.998,153.261],[110.462,153.025],[109.939,152.759],[109.432,152.465],[108.942,152.144],[108.47,151.795],[108.019,151.422],[107.589,151.024],[107.181,150.602],[106.797,150.159],[106.439,149.696],[106.106,149.213],[105.801,148.712],[105.524,148.196],[105.276,147.665],[105.058,147.121],[104.87,146.566],[104.713,146.001],[104.587,145.428],[104.493,144.85],[104.432,144.267],[104.403,143.682]]
M73 P0 R14
;TYPE:Custom
M220 S100
G90 ; use absolute coordinates
M83 ; extruder relative mode
M104 S150 ; set temporary nozzle temp to prevent oozing during homing
M140 S70 ; set final bed temp
G4 S30 ; allow partial nozzle warmup
G28 ; home all axis and restore leveling
BED_MESH_CALIBRATE
G1 Z25 F240
G1 X10.0 Y30 F3000
M104 S245 ; set final nozzle temp
M190 S70 ; wait for bed temp to stabilize
M109 S245 ; wait for nozzle temp to stabilize
G1 Z0.28 F240
G92 E0 ; Move Z Axis up
LINE_PURGE
G92 E0 ; Move Z Axis up
G1 Z2.0 F3000
M73 P1 R14
M117 Start Printing..
G90
G21
M83 ; use relative distances for extrusion
; filament start gcode
M106 S0
;LAYER_CHANGE
;Z:0.2
;HEIGHT:0.2
;BEFORE_LAYER_CHANGE
;0.2
G92 E0

M73 P1 R14
G1 E-.5 F1800
;_SET_FAN_SPEED_CHANGING_LAYER
SET_VELOCITY_LIMIT ACCEL=1000
SET_VELOCITY_LIMIT SQUARE_CORNER_VELOCITY=7
; printing object Corps1.stl id:0 copy 0
EXCLUDE_OBJECT_START NAME=Corps1.stl_id_0_copy_0
G1 Z.4 F24000
G1 X117.754 Y98.199
G1 Z.4
G1 Z.2
G1 E.5 F1800
;TYPE:Inner wall
;WIDTH:0.499999
G1 F3000
G1 X128.256 Y98.199 E.37918
G1 X128.267 Y154.474 E2.03186
G1 X128.331 Y155.014 E.01964
G1 X128.46 Y155.803 E.02885
G1 X128.681 Y156.539 E.02774
G1 X129.119 Y157.53 E.03915
G1 X129.365 Y157.938 E.01718
G1 X129.957 Y158.818 E.03829
G1 X130.228 Y159.256 E.0186
G1 X130.62 Y160.02 E.03103
G1 X130.812 Y160.484 E.01813
G1 X131.08 Y161.32 E.03169
G1 X131.195 Y161.82 E.01852
G1 X131.319 Y162.681 E.03141
G1 X131.352 Y163.66 E.03536
G1 X131.284 Y164.525 E.03136
G1 X131.202 Y165.034 E.01861
G1 X130.991 Y165.882 E.03155
G1 X130.829 Y166.363 E.01831
G1 X130.578 Y166.958 E.02333
G1 X130.243 Y167.61 E.02647
G1 X129.888 Y168.169 E.02392
G1 X129.572 Y168.6 E.01928
G1 X129.153 Y169.097 E.02348
G1 X128.627 Y169.618 E.02673
G1 X128.135 Y170.036 E.0233
G1 X127.661 Y170.372 E.02101
G1 X127.152 Y170.69 E.02164
G1 X126.547 Y171.009 E.02471
G1 X125.753 Y171.333 E.03096
G1 X125.267 Y171.487 E.0184
G1 X124.533 Y171.656 E.02719
G1 X123.908 Y171.751 E.02284
G1 X122.986 Y171.8 E.03335
G1 X122.163 Y171.757 E.02973
G1 X121.606 Y171.683 E.0203
G1 X120.705 Y171.479 E.03335
G1 X119.86 Y171.188 E.03226
G1 X119.215 Y170.889 E.02568
G1 X118.773 Y170.644 E.01827
G1 X118.213 Y170.293 E.02383
G1 X117.487 Y169.723 E.03335
G1 X116.884 Y169.136 E.03037
G1 X116.526 Y168.726 E.01966
G1 X116.112 Y168.169 E.02503
G1 X115.742 Y167.584 E.02502
G1 X115.422 Y166.958 E.02537
G1 X115.171 Y166.363 E.02333
G1 X115.009 Y165.882 E.01831
G1 X114.798 Y165.034 E.03155
G1 X114.716 Y164.525 E.01861
G1 X114.648 Y163.66 E.03136
G1 X114.651 Y163.142 E.0187
G1 X114.728 Y162.276 E.03136
G1 X114.815 Y161.769 E.01859
G1 X115.035 Y160.922 E.03158
G1 X115.203 Y160.445 E.01828
G1 X115.425 Y159.926 E.02036
G1 X115.772 Y159.256 E.02726
G1 X116.04 Y158.823 E.01837
G1 X116.539 Y158.111 E.03139
G1 X116.755 Y157.728 E.01589
G1 X117.26 Y156.705 E.04119
G1 X117.576 Y155.644 E.03996
G1 X117.69 Y154.988 E.02406
G1 X117.733 Y154.474 E.01862
G1 X117.754 Y98.239 E2.03043
G1 X117.297 Y97.742 F24000
M73 P2 R14
M73 P2 R14
G1 F3000
G1 X128.713 Y97.742 E.41218
G1 X128.725 Y154.474 E2.04836
G1 X128.901 Y155.682 E.04408
G1 X129.098 Y156.354 E.02529
G1 X129.537 Y157.345 E.03915
G1 X130.628 Y159.035 E.07264
G1 X130.987 Y159.728 E.02818
G1 X131.22 Y160.27 E.02127
G1 X131.394 Y160.761 E.01881
G1 X131.538 Y161.265 E.01895
G1 X131.715 Y162.145 E.03239
G1 X131.778 Y162.668 E.01903
G1 X131.81 Y163.601 E.03371
G1 X131.786 Y164.128 E.01906
G1 X131.728 Y164.652 E.01903
G1 X131.561 Y165.533 E.03238
G1 X131.422 Y166.04 E.01895
G1 X131.253 Y166.533 E.01883
G1 X130.992 Y167.151 E.02424
G1 X130.661 Y167.8 E.02628
G1 X130.394 Y168.24 E.0186
G1 X130.101 Y168.663 E.01857
G1 X129.792 Y169.058 E.0181
G1 X129.18 Y169.726 E.03272
G1 X128.804 Y170.077 E.01857
G1 X128.407 Y170.403 E.01857
G1 X127.904 Y170.759 E.02224
G1 X127.366 Y171.094 E.02285
G1 X126.731 Y171.428 E.02591
G1 X125.896 Y171.768 E.03256
G1 X125.406 Y171.923 E.01856
G1 X124.907 Y172.048 E.01857
G1 X124.391 Y172.146 E.01897
G1 X123.514 Y172.242 E.03185
G1 X123 Y172.258 E.01857
G1 X122.486 Y172.242 E.01857
G1 X121.867 Y172.182 E.02245
G1 X121.093 Y172.048 E.02837
G1 X120.594 Y171.923 E.01857
G1 X120.104 Y171.768 E.01857
G1 X119.422 Y171.488 E.0266
G1 X118.959 Y171.271 E.0185
G1 X118.296 Y170.895 E.0275
G1 X117.593 Y170.403 E.03096
G1 X117.196 Y170.077 E.01857
G1 X116.82 Y169.726 E.01857
G1 X116.383 Y169.261 E.02305
G1 X115.899 Y168.663 E.02776
G1 X115.606 Y168.24 E.01857
G1 X115.339 Y167.8 E.0186
G1 X114.929 Y166.982 E.03302
G1 X114.734 Y166.501 E.01875
G1 X114.568 Y166.005 E.0189
G1 X114.351 Y165.132 E.03247
G1 X114.265 Y164.613 E.019
G1 X114.212 Y164.088 E.01905
G1 X114.192 Y163.195 E.03225
G1 X114.222 Y162.668 E.01906
G1 X114.285 Y162.145 E.01903
G1 X114.462 Y161.265 E.03239
G1 X114.606 Y160.761 E.01895
G1 X114.78 Y160.27 E.01881
G1 X115.013 Y159.728 E.02127
G1 X115.387 Y159.009 E.02928
G1 X115.659 Y158.57 E.01863
G1 X116.165 Y157.849 E.03184
G1 X116.35 Y157.516 E.01373
G1 X116.823 Y156.569 E.03822
G1 X117.127 Y155.562 E.03798
G1 X117.23 Y154.988 E.02108
G1 X117.275 Y154.474 E.01862
G1 X117.297 Y97.782 E2.04693
G1 X116.84 Y97.285 F24000
G1 F3000
G1 X129.17 Y97.285 E.44518
G1 X129.182 Y154.474 E2.06486
G1 X129.341 Y155.561 E.03967
G1 X129.516 Y156.169 E.02284
G1 X129.955 Y157.16 E.03915
G1 X130.732 Y158.333 E.05081
G1 X131.014 Y158.788 E.01932
G1 X131.26 Y159.24 E.01856
G1 X131.48 Y159.705 E.01859
G1 X131.675 Y160.182 E.01859
G1 X131.843 Y160.668 E.01857
G1 X131.983 Y161.163 E.01857
G1 X132.096 Y161.664 E.01855
G1 X132.18 Y162.17 E.01854
G1 X132.237 Y162.681 E.01853
G1 X132.267 Y163.652 E.03509
G1 X132.242 Y164.164 E.01851
G1 X132.188 Y164.674 E.01851
G1 X132.106 Y165.18 E.01851
G1 X131.996 Y165.68 E.01851
G1 X131.859 Y166.174 E.01851
G1 X131.695 Y166.66 E.01851
G1 X131.504 Y167.135 E.01851
G1 X131.287 Y167.6 E.01851
G1 X131.044 Y168.051 E.01851
G1 X130.777 Y168.489 E.01851
G1 X130.487 Y168.911 E.01851
G1 X130.173 Y169.317 E.0185
G1 X129.838 Y169.704 E.01851
G1 X129.481 Y170.073 E.01851
G1 X129.105 Y170.421 E.01851
G1 X128.71 Y170.748 E.01851
G1 X128.303 Y171.048 E.01826
G1 X127.627 Y171.473 E.02883
G1 X126.963 Y171.825 E.02714
G1 X126.5 Y172.029 E.01829
G1 X126.02 Y172.209 E.01851
G1 X125.531 Y172.363 E.01851
G1 X125.034 Y172.489 E.01851
G1 X124.531 Y172.588 E.01851
G1 X124.023 Y172.658 E.01851
G1 X123.512 Y172.701 E.01851
G1 X123 Y172.715 E.01851
G1 X122.488 Y172.701 E.01851
G1 X121.977 Y172.658 E.01851
G1 X121.469 Y172.588 E.01851
G1 X120.966 Y172.489 E.01851
G1 X120.469 Y172.363 E.01851
G1 X119.98 Y172.209 E.01851
G1 X119.507 Y172.032 E.01826
G1 X118.783 Y171.696 E.02883
G1 X118.126 Y171.33 E.02714
G1 X117.702 Y171.052 E.01829
G1 X117.29 Y170.748 E.01851
G1 X116.895 Y170.421 E.01851
G1 X116.519 Y170.073 E.01851
G1 X116.162 Y169.704 E.01851
G1 X115.827 Y169.317 E.01851
G1 X115.513 Y168.911 E.01851
G1 X115.223 Y168.489 E.01851
G1 X114.956 Y168.051 E.01851
G1 X114.713 Y167.6 E.01851
G1 X114.496 Y167.135 E.01851
G1 X114.305 Y166.66 E.01851
G1 X114.141 Y166.174 E.01851
G1 X114.004 Y165.68 E.01851
G1 X113.894 Y165.18 E.01851
G1 X113.812 Y164.674 E.01851
G1 X113.758 Y164.164 E.01851
G1 X113.733 Y163.652 E.01851
G1 X113.735 Y163.139 E.01851
G1 X113.766 Y162.628 E.01851
G1 X113.826 Y162.119 E.01851
G1 X113.913 Y161.613 E.01851
G1 X114.028 Y161.114 E.01851
G1 X114.171 Y160.622 E.01851
G1 X114.34 Y160.138 E.0185
G1 X114.536 Y159.664 E.01851
G1 X114.758 Y159.202 E.01851
G1 X115.006 Y158.753 E.01851
G1 X115.277 Y158.318 E.01853
G1 X115.791 Y157.586 E.03228
G1 X116.386 Y156.434 E.04682
G1 X116.677 Y155.48 E.03601
G1 X116.818 Y154.474 E.03669
G1 X116.84 Y97.325 E2.06342
G1 X116.517 Y96.828 F24000
;TYPE:Outer wall
G1 F3000
G1 X129.475 Y96.828 E.46784
G1 X129.578 Y96.863 E.00394
G1 X129.627 Y96.971 E.00428
G1 X129.639 Y154.474 E2.07619
G1 X129.782 Y155.439 E.03526
G1 X129.934 Y155.984 E.0204
G1 X130.373 Y156.975 E.03915
G1 X131.12 Y158.091 E.04848
G1 X131.429 Y158.595 E.02133
G1 X131.672 Y159.042 E.01837
M73 P3 R14
M73 P3 R14
G1 X131.903 Y159.53 E.0195
G1 X132.106 Y160.031 E.0195
G1 X132.282 Y160.541 E.01949
G1 X132.428 Y161.06 E.01948
G1 X132.546 Y161.586 E.01947
G1 X132.634 Y162.118 E.01945
G1 X132.693 Y162.653 E.01944
G1 X132.722 Y163.19 E.01943
G1 X132.721 Y163.728 E.01942
G1 X132.691 Y164.265 E.01941
G1 X132.631 Y164.798 E.0194
G1 X132.542 Y165.328 E.01938
G1 X132.423 Y165.851 E.01937
G1 X132.276 Y166.367 E.01936
G1 X132.101 Y166.873 E.01935
G1 X131.899 Y167.369 E.01934
G1 X131.67 Y167.853 E.01933
G1 X131.414 Y168.324 E.01936
G1 X131.131 Y168.781 E.01939
G1 X130.824 Y169.222 E.01942
G1 X130.484 Y169.657 E.01993
G1 X130.139 Y170.051 E.01891
G1 X129.763 Y170.435 E.01941
G1 X129.366 Y170.798 E.01942
G1 X128.95 Y171.139 E.01942
G1 X128.39 Y171.533 E.02471
G1 X127.561 Y172.026 E.03484
G1 X127.1 Y172.264 E.01874
G1 X126.623 Y172.471 E.01875
G1 X126.119 Y172.657 E.01941
G1 X125.605 Y172.816 E.01942
G1 X125.083 Y172.945 E.01942
G1 X124.555 Y173.046 E.01941
G1 X124.021 Y173.117 E.01942
G1 X123.485 Y173.159 E.01941
G1 X122.948 Y173.171 E.01942
G1 X122.41 Y173.153 E.01942
G1 X121.875 Y173.106 E.01941
G1 X121.342 Y173.029 E.01943
G1 X120.815 Y172.922 E.01942
G1 X120.295 Y172.787 E.01942
G1 X119.782 Y172.623 E.01942
G1 X119.038 Y172.318 E.02906
G1 X118.514 Y172.069 E.02093
G1 X117.831 Y171.684 E.0283
G1 X117.399 Y171.396 E.01875
G1 X116.951 Y171.06 E.02021
G1 X116.555 Y170.729 E.01862
G1 X116.163 Y170.362 E.01942
G1 X115.791 Y169.974 E.01941
G1 X115.441 Y169.565 E.01943
G1 X115.114 Y169.138 E.01941
G1 X114.812 Y168.693 E.01942
G1 X114.534 Y168.232 E.01945
G1 X114.281 Y167.755 E.01948
G1 X114.056 Y167.264 E.01951
G1 X113.857 Y166.762 E.0195
G1 X113.688 Y166.25 E.01949
G1 X113.546 Y165.729 E.01947
G1 X113.434 Y165.202 E.01946
G1 X113.352 Y164.669 E.01945
G1 X113.299 Y164.134 E.01944
G1 X113.276 Y163.596 E.01943
G1 X113.282 Y163.058 E.01942
G1 X113.318 Y162.522 E.01941
G1 X113.384 Y161.989 E.01939
G1 X113.479 Y161.461 E.01938
G1 X113.603 Y160.939 E.01937
G1 X113.755 Y160.425 E.01936
G1 X113.936 Y159.92 E.01934
G1 X114.144 Y159.427 E.01934
G1 X114.378 Y158.945 E.01933
G1 X114.686 Y158.402 E.02253
G1 X115.539 Y157.093 E.05643
G1 X115.95 Y156.299 E.03229
G1 X116.227 Y155.398 E.03404
G1 X116.361 Y154.474 E.03372
G1 X116.383 Y96.898 E2.07883
G1 X116.482 Y96.846 E.00402
G1 E-.5 F1800
;WIPE_START
G1 F12000
G1 X118.482 Y96.843
;WIPE_END
G1 Z.4 F24000
G1 X129.102 Y167.448 Z.4
G1 Z.2
G1 E.5 F1800
;TYPE:Inner wall
G1 F3000
G1 X129.009 Y167.631 E.00743
G1 X128.68 Y168.063 E.01958
G1 X128.116 Y168.68 E.03019
G1 X127.494 Y169.211 E.02954
G1 X127.121 Y169.495 E.01692
G1 X126.413 Y169.921 E.02982
G1 X125.754 Y170.215 E.02606
G1 X125.227 Y170.418 E.0204
G1 X124.428 Y170.625 E.02982
G1 X123.251 Y170.764 E.04279
G1 X122.094 Y170.709 E.04181
G1 X121.282 Y170.561 E.02982
G1 X120.616 Y170.354 E.02518
G1 X120.113 Y170.175 E.01926
G1 X119.326 Y169.776 E.03184
G1 X118.826 Y169.444 E.0217
G1 X118.355 Y169.107 E.02092
G1 X117.523 Y168.302 E.04178
G1 X117.024 Y167.675 E.02892
G1 X116.878 Y167.457 E.00948
G1 X116.75 Y167.159 E.01171
G1 X116.677 Y166.679 E.01753
G1 X116.677 Y160.211 E.23353
G1 X116.763 Y159.694 E.01894
G1 X116.967 Y159.292 E.01627
G1 X117.675 Y158.423 E.04048
G1 X118.275 Y157.855 E.02982
G1 X119.128 Y157.233 E.03813
G1 X119.931 Y156.808 E.03278
G1 X120.607 Y156.54 E.02627
G1 X121.282 Y156.33 E.02551
G1 X122.094 Y156.182 E.02982
G1 X123.149 Y156.127 E.03813
G1 X123.734 Y156.16 E.02116
G1 X124.718 Y156.33 E.03606
G1 X125.392 Y156.54 E.02549
G1 X125.937 Y156.741 E.02097
G1 X126.674 Y157.114 E.02982
G1 X127.389 Y157.598 E.03118
G1 X127.725 Y157.855 E.01528
G1 X128.325 Y158.423 E.02982
G1 X128.976 Y159.216 E.03703
G1 X129.23 Y159.672 E.01887
G1 X129.323 Y160.211 E.01975
G1 X129.323 Y166.679 E.23353
G1 X129.25 Y167.159 E.01753
G1 X129.121 Y167.412 E.01027
G1 X128.701 Y167.244 F24000
G1 F3000
G1 X128.642 Y167.359 E.00469
G1 X128.336 Y167.762 E.01827
G1 X127.779 Y168.372 E.02981
G1 X126.885 Y169.103 E.04169
G1 X126.178 Y169.529 E.02982
G1 X125.578 Y169.794 E.02368
G1 X125.113 Y169.976 E.01802
G1 X124.313 Y170.182 E.02982
G1 X123.238 Y170.307 E.03908
G1 X122.176 Y170.259 E.03838
G1 X121.364 Y170.111 E.02982
G1 X120.269 Y169.742 E.04169
G1 X119.533 Y169.369 E.02982
G1 X119.089 Y169.07 E.01932
G1 X118.646 Y168.754 E.01964
G1 X117.881 Y168.018 E.03836
G1 X117.382 Y167.391 E.02892
G1 X117.186 Y167.022 E.01507
G1 X117.134 Y166.679 E.01252
G1 X117.134 Y160.211 E.23353
G1 X117.217 Y159.782 E.01578
G1 X117.341 Y159.555 E.00935
G1 X117.989 Y158.755 E.03718
G1 X118.589 Y158.187 E.02982
G1 X119.392 Y157.607 E.03576
G1 X120.137 Y157.215 E.03041
G1 X120.753 Y156.973 E.02389
G1 X121.364 Y156.78 E.02313
G1 X122.176 Y156.631 E.02982
G1 X123.165 Y156.584 E.03576
G1 X123.701 Y156.616 E.01938
G1 X124.636 Y156.78 E.03428
G1 X125.731 Y157.148 E.04169
G1 X126.467 Y157.522 E.02982
G1 X127.126 Y157.972 E.0288
G1 X127.411 Y158.187 E.0129
G1 X128.011 Y158.755 E.02982
G1 X128.618 Y159.5 E.03471
G1 X128.805 Y159.842 E.01406
G1 X128.866 Y160.211 E.01353
G1 X128.866 Y166.679 E.23353
G1 X128.814 Y167.022 E.01252
G1 X128.719 Y167.208 E.00753
G1 X128.271 Y167.064 F24000
G1 F3000
G1 X128.18 Y167.215 E.00638
G1 X127.716 Y167.763 E.02594
G1 X127.37 Y168.132 E.01824
G1 X126.731 Y168.655 E.02982
G1 X126.169 Y169.001 E.02382
G1 X125.783 Y169.212 E.01588
G1 X125.092 Y169.501 E.02705
G1 X124.36 Y169.698 E.02738
G1 X123.709 Y169.8 E.02378
G1 X123.182 Y169.85 E.01912
G1 X122.357 Y169.82 E.02982
G1 X121.538 Y169.678 E.02998
G1 X120.908 Y169.488 E.02379
G1 X120.476 Y169.335 E.01652
G1 X119.74 Y168.961 E.02982
G1 X118.998 Y168.447 E.03258
G1 X118.512 Y168.001 E.02381
G1 X118.063 Y167.512 E.02397
G1 X117.74 Y167.106 E.01874
G1 X117.622 Y166.885 E.00904
G1 X117.591 Y166.493 E.01421
G1 X117.591 Y160.211 E.2268
G1 X117.641 Y159.954 E.00947
G1 X118.11 Y159.32 E.02848
G1 X118.304 Y159.087 E.01094
G1 X118.903 Y158.519 E.02982
G1 X119.655 Y157.98 E.03338
G1 X120.344 Y157.623 E.02803
G1 X120.899 Y157.406 E.02151
G1 X121.446 Y157.229 E.02076
