; HEADER_BLOCK_START
; generated by OrcaSlicer 2.2.0 on 2024-11-14 at 18:52:09
; total layer number: 30
; filament_density: 1.27
; filament_diameter: 1.75
; max_z_height: 6.00
; HEADER_BLOCK_END

; THUMBNAIL_BLOCK_START

;
; THUMBNAIL_BLOCK_END

; THUMBNAIL_BLOCK_START

;
; THUMBNAIL_BLOCK_END

; external perimeters extrusion width = 0.42mm
; perimeters extrusion width = 0.45mm
; infill extrusion width = 0.45mm
; solid infill extrusion width = 0.45mm
; top infill extrusion width = 0.42mm
; first layer extrusion width = 0.50mm

; EXECUTABLE_BLOCK_START
EXCLUDE_OBJECT_DEFINE NAME=Corps1.stl_id_0_copy_0 CENTER=115,115 POLYGON=[[86.9,94],[143.1,94],[143.1,126],[143.086,126.374],[143.044,126.745],[142.975,127.113],[142.878,127.474],[142.754,127.827],[142.605,128.169],[142.43,128.5],[142.231,128.817],[142.009,129.117],[141.765,129.401],[141.501,129.665],[141.217,129.909],[140.917,130.131],[140.6,130.33],[140.269,130.505],[129.968,135.802],[129.761,135.888],[129.545,135.95],[129.324,135.987],[129.1,136],[100.9,136],[100.676,135.987],[100.455,135.95],[100.239,135.888],[100.032,135.802],[89.7306,130.505],[89.4,130.33],[89.0834,130.131],[88.7826,129.909],[88.4991,129.665],[88.2347,129.401],[87.9908,129.117],[87.7688,128.817],[87.5699,128.5],[87.3952,128.169],[87.2456,127.827],[87.1221,127.474],[87.0254,127.113],[86.9558,126.745],[86.914,126.374],[86.9,126],[86.9,94]]
M73 P0 R15
;TYPE:Custom
M220 S100
G90 ; use absolute coordinates
M83 ; extruder relative mode
M104 S150 ; set temporary nozzle temp to prevent oozing during homing
M140 S70 ; set final bed temp
G4 S30 ; allow partial nozzle warmup
G28 ; home all axis and restore leveling
BED_MESH_CALIBRATE PROFILE=adaptive ADAPTIVE=1 ADAPTIVE_MARGIN=0
G1 Z25 F240
G1 X10.0 Y30 F3000
M104 S245 ; set final nozzle temp
M190 S70 ; wait for bed temp to stabilize
M109 S245 ; wait for nozzle temp to stabilize
G1 Z0.28 F240
G92 E0 ; Move Z Axis up
G1 Z2.0 F5000 ; Move to start position
M73 P1 R14
M73 P1 R14
G1 X5 Y30 Z0.28 F300 ; Draw the first line
G1 X5 Y200 Z0.28 F1500 E15 ; Move to side a little
G1 X5.4 Y200 Z0.28 F5000.0 ; Draw the second line
M73 P2 R14
M73 P2 R14
G1 X5.4 Y50 Z0.28 F1500.0 E30 ; Reset Extruder
G92 E0 ; Move Z Axis up
G1 Z2.0 F3000
M117 Start Printing..
G90
G21
M83 ; use relative distances for extrusion
; filament start gcode
M106 S0
;LAYER_CHANGE
;Z:0.2
;HEIGHT:0.2
;BEFORE_LAYER_CHANGE
;0.2
G92 E0

G1 E-.5 F1800
;_SET_FAN_SPEED_CHANGING_LAYER
SET_VELOCITY_LIMIT ACCEL=1000
SET_VELOCITY_LIMIT SQUARE_CORNER_VELOCITY=7
; printing object Corps1.stl id:0 copy 0
EXCLUDE_OBJECT_START NAME=Corps1.stl_id_0_copy_0
G1 Z.4 F24000
G1 X138.365 Y150.833
M73 P3 R14
M73 P3 R14
G1 Z.4
G1 Z.2
G1 E.5 F1800
;TYPE:Inner wall
;WIDTH:0.499999
G1 F3000
G1 X138.343 Y150.929 E.00353
G1 X138.343 Y153.883 E.10669
G1 X138.307 Y154.276 E.01422
G1 X138.142 Y154.654 E.01491
G1 X137.873 Y154.967 E.01491
G1 X137.504 Y155.163 E.01508
G1 X137.06 Y155.243 E.0163
G1 X109.08 Y155.243 E1.01024
G1 X108.473 Y155.16 E.02212
G1 X108.241 Y155.049 E.00928
G1 X107.944 Y154.775 E.01459
G1 X107.74 Y154.427 E.01456
G1 X107.657 Y153.82 E.02212
G1 X107.657 Y150.799 E.10909
G1 X107.512 Y150.507 E.01178
G1 X107.277 Y150.315 E.01097
G1 X106.971 Y150.243 E.01132
G1 X99.927 Y150.243 E.25435
G1 X99.268 Y150.194 E.02386
G1 X98.65 Y150.053 E.02288
G1 X98.06 Y149.821 E.02289
G1 X97.512 Y149.504 E.02286
G1 X97.006 Y149.099 E.02339
G1 X96.584 Y148.644 E.0224
G1 X96.227 Y148.12 E.02289
G1 X95.952 Y147.549 E.02289
G1 X95.765 Y146.944 E.02289
G1 X95.705 Y146.54 E.01472
G1 X95.657 Y145.986 E.0201
G1 X95.657 Y114.757 E1.12754
G1 X150.343 Y114.757 E1.97448
G1 X150.343 Y145.973 E1.12708
G1 X150.294 Y146.632 E.02386
G1 X150.153 Y147.25 E.02288
G1 X149.921 Y147.84 E.02289
G1 X149.604 Y148.389 E.02289
G1 X149.209 Y148.885 E.02289
G1 X148.744 Y149.316 E.02289
G1 X148.22 Y149.673 E.02289
G1 X147.649 Y149.948 E.02289
G1 X147.044 Y150.135 E.02289
G1 X146.64 Y150.195 E.01472
G1 X146.086 Y150.243 E.0201
G1 X139.733 Y150.243 E.22937
G1 X138.874 Y150.26 E.03101
G1 X138.589 Y150.402 E.01149
G1 X138.412 Y150.628 E.01037
G1 X138.374 Y150.794 E.00615
G1 X138.8 Y150.929 F24000
;TYPE:Outer wall
G1 F3000
G1 X138.8 Y153.883 E.10669
G1 X138.756 Y154.378 E.01793
G1 X138.63 Y154.737 E.01373
G1 X138.428 Y155.059 E.01373
G1 X138.159 Y155.328 E.01372
G1 X137.83 Y155.533 E.01403
G1 X137.478 Y155.656 E.01344
G1 X137.085 Y155.7 E.01428
G1 X108.921 Y155.7 E1.01689
G1 X108.333 Y155.6 E.02156
G1 X107.996 Y155.438 E.01347
G1 X107.699 Y155.201 E.01373
G1 X107.462 Y154.904 E.01374
G1 X107.3 Y154.567 E.01347
G1 X107.2 Y153.979 E.02156
G1 X107.2 Y150.929 E.11013
G1 X107.135 Y150.769 E.00624
G1 X106.971 Y150.7 E.0064
G1 X99.91 Y150.7 E.25497
G1 X99.2 Y150.647 E.02572
G1 X98.515 Y150.491 E.02536
G1 X97.861 Y150.234 E.02536
G1 X97.253 Y149.883 E.02535
G1 X96.694 Y149.435 E.02587
G1 X96.226 Y148.93 E.02485
G1 X95.83 Y148.35 E.02536
G1 X95.526 Y147.717 E.02536
G1 X95.319 Y147.046 E.02536
G1 X95.253 Y146.609 E.01596
G1 X95.2 Y145.994 E.02226
G1 X95.2 Y114.3 E1.14436
G1 X150.8 Y114.3 E2.00749
G1 X150.8 Y145.99 E1.1442
G1 X150.747 Y146.7 E.02572
G1 X150.591 Y147.385 E.02536
G1 X150.334 Y148.039 E.02536
G1 X149.983 Y148.647 E.02536
G1 X149.545 Y149.196 E.02536
G1 X149.03 Y149.674 E.02536
G1 X148.45 Y150.07 E.02536
G1 X147.817 Y150.374 E.02536
G1 X147.146 Y150.581 E.02536
G1 X146.709 Y150.647 E.01596
G1 X146.094 Y150.7 E.02226
G1 X139.029 Y150.7 E.25512
G1 X138.868 Y150.766 E.00627
G1 X138.815 Y150.892 E.00492
G1 E-.5 F1800
;WIPE_START
G1 F12000
G1 X138.805 Y152.892
;WIPE_END
G1 Z.4 F24000
G1 X141.766 Y132.663 Z.4
G1 Z.2
M73 P4 R14
M73 P4 R14
G1 E.5 F1800
;TYPE:Inner wall
G1 F3000
G1 X141.826 Y132.652 E.00217
G1 X142.334 Y132.666 E.01835
G1 X142.837 Y132.772 E.01856
G1 X143.446 Y133.04 E.02405
G1 X143.989 Y133.454 E.02462
G1 X144.415 Y133.98 E.02444
G1 X144.705 Y134.589 E.02437
G1 X144.843 Y135.25 E.02437
G1 X144.822 Y135.925 E.02437
G1 X144.643 Y136.576 E.02437
G1 X144.317 Y137.166 E.02437
G1 X143.867 Y137.658 E.02405
G1 X143.302 Y138.039 E.02462
G1 X142.667 Y138.275 E.02444
G1 X141.997 Y138.354 E.02437
G1 X141.326 Y138.273 E.02437
G1 X140.694 Y138.037 E.02437
G1 X140.134 Y137.659 E.02437
G1 X139.679 Y137.161 E.02437
G1 X139.354 Y136.569 E.02437
G1 X139.177 Y135.918 E.02437
G1 X139.158 Y135.243 E.02437
G1 X139.298 Y134.583 E.02437
G1 X139.511 Y134.124 E.01826
G1 X139.679 Y133.839 E.01195
G1 X140.015 Y133.45 E.01855
G1 X140.552 Y133.041 E.02437
G1 X141.17 Y132.77 E.02437
G1 X141.727 Y132.67 E.02043
G1 X141.848 Y133.111 F24000
;TYPE:Outer wall
G1 F3000
G1 X141.893 Y133.104 E.00166
G1 X142.24 Y133.113 E.0125
G1 X142.743 Y133.219 E.01856
G1 X143.25 Y133.453 E.02018
G1 X143.702 Y133.809 E.02077
G1 X144.052 Y134.257 E.02051
G1 X144.286 Y134.774 E.02049
G1 X144.393 Y135.331 E.02049
G1 X144.366 Y135.898 E.02049
G1 X144.206 Y136.442 E.02049
G1 X143.923 Y136.934 E.02049
G1 X143.539 Y137.34 E.02018
G1 X143.057 Y137.654 E.02077
G1 X142.521 Y137.842 E.02051
G1 X141.956 Y137.898 E.02049
G1 X141.394 Y137.821 E.02049
G1 X140.866 Y137.614 E.02049
G1 X140.401 Y137.288 E.02049
G1 X140.026 Y136.862 E.02049
G1 X139.761 Y136.361 E.02049
G1 X139.621 Y135.811 E.02049
G1 X139.615 Y135.243 E.02049
G1 X139.742 Y134.69 E.02049
G1 X139.995 Y134.182 E.02049
G1 X140.361 Y133.748 E.02049
G1 X140.818 Y133.412 E.02049
G1 X141.342 Y133.193 E.02049
G1 X141.809 Y133.118 E.01708
G1 E-.5 F1800
;WIPE_START
G1 F12000
G1 X141.893 Y133.104
G1 X142.24 Y133.113
G1 X142.743 Y133.219
G1 X143.25 Y133.453
G1 X143.639 Y133.76
;WIPE_END
G1 Z.4 F24000
G1 X122.83 Y117.659 Z.4
G1 Z.2
G1 E.5 F1800
;TYPE:Inner wall
G1 F3000
G1 X122.924 Y117.647 E.00341
G1 X123.626 Y117.705 E.02546
G1 X124.299 Y117.907 E.02535
G1 X124.913 Y118.245 E.02532
G1 X125.444 Y118.703 E.02532
G1 X125.868 Y119.261 E.02532
G1 X126.167 Y119.896 E.02532
G1 X126.328 Y120.578 E.02532
G1 X126.343 Y121.279 E.02532
G1 X126.212 Y121.968 E.02532
G1 X125.94 Y122.615 E.02532
G1 X125.54 Y123.191 E.02532
G1 X125.029 Y123.671 E.02532
G1 X124.429 Y124.034 E.02532
G1 X123.767 Y124.265 E.02532
G1 X123.072 Y124.354 E.02532
G1 X122.373 Y124.295 E.02532
G1 X121.706 Y124.094 E.02515
G1 X121.088 Y123.756 E.02546
G1 X120.556 Y123.297 E.02535
G1 X120.132 Y122.739 E.02532
G1 X119.869 Y122.187 E.02207
G1 X119.788 Y121.968 E.00841
G1 X119.672 Y121.422 E.02017
G1 X119.657 Y120.721 E.02532
G1 X119.788 Y120.032 E.02532
G1 X120.06 Y119.385 E.02531
G1 X120.46 Y118.809 E.02533
G1 X120.971 Y118.329 E.02532
G1 X121.571 Y117.966 E.02532
G1 X122.233 Y117.735 E.02532
G1 X122.79 Y117.664 E.02029
G1 X122.888 Y118.111 F24000
;TYPE:Outer wall
G1 F3000
G1 X122.972 Y118.101 E.00302
G1 X123.579 Y118.159 E.02204
G1 X124.157 Y118.342 E.02189
G1 X124.685 Y118.641 E.02188
G1 X125.138 Y119.042 E.02188
G1 X125.499 Y119.53 E.02188
G1 X125.75 Y120.081 E.02188
G1 X125.881 Y120.673 E.02188
G1 X125.886 Y121.279 E.02188
G1 X125.764 Y121.873 E.02188
G1 X125.523 Y122.429 E.02188
G1 X125.17 Y122.922 E.02188
G1 X124.723 Y123.331 E.02188
G1 X124.201 Y123.639 E.02188
G1 X123.626 Y123.831 E.02188
G1 X123.024 Y123.899 E.02188
G1 X122.421 Y123.841 E.02188
G1 X121.847 Y123.66 E.02172
G1 X121.316 Y123.36 E.02204
G1 X120.862 Y122.958 E.02189
G1 X120.501 Y122.47 E.02188
G1 X120.287 Y122.001 E.01864
G1 X120.119 Y121.327 E.02507
G1 X120.114 Y120.721 E.02188
G1 X120.236 Y120.127 E.02188
G1 X120.477 Y119.571 E.02188
G1 X120.83 Y119.078 E.02189
G1 X121.277 Y118.669 E.02188
G1 X121.799 Y118.361 E.02188
G1 X122.374 Y118.169 E.02188
G1 X122.849 Y118.115 E.01725
G1 E-.5 F1800
;WIPE_START
G1 F12000
G1 X122.972 Y118.101
G1 X123.579 Y118.159
G1 X124.157 Y118.342
G1 X124.685 Y118.641
G1 X124.725 Y118.676
;WIPE_END
G1 Z.4 F24000
G1 X104.255 Y132.664 Z.4
G1 Z.2
G1 E.5 F1800
;TYPE:Inner wall
G1 F3000
G1 X104.334 Y132.666 E.00284
G1 X104.837 Y132.772 E.01856
G1 X105.454 Y133.045 E.02437
G1 X105.955 Y133.426 E.02275
G1 X106.393 Y133.95 E.02464
G1 X106.705 Y134.589 E.02567
G1 X106.843 Y135.25 E.02437
G1 X106.822 Y135.925 E.02437
G1 X106.643 Y136.576 E.02437
G1 X106.317 Y137.166 E.02437
G1 X105.867 Y137.658 E.02405
G1 X105.302 Y138.039 E.02462
G1 X104.667 Y138.275 E.02444
G1 X103.997 Y138.354 E.02437
G1 X103.326 Y138.273 E.02437
G1 X102.694 Y138.037 E.02437
G1 X102.134 Y137.659 E.02437
G1 X101.679 Y137.161 E.02437
G1 X101.354 Y136.569 E.02437
G1 X101.177 Y135.918 E.02437
G1 X101.158 Y135.243 E.02437
G1 X101.295 Y134.591 E.02405
G1 X101.588 Y133.975 E.02462
G1 X102.015 Y133.45 E.02444
G1 X102.552 Y133.041 E.02437
G1 X103.17 Y132.77 E.02437
G1 X103.826 Y132.652 E.02405
G1 X104.215 Y132.663 E.01407
G1 X104.256 Y133.117 F24000
;TYPE:Outer wall
G1 F3000
G1 X104.743 Y133.219 E.01794
G1 X105.258 Y133.457 E.02049
G1 X105.667 Y133.781 E.01886
G1 X106.029 Y134.228 E.02075
G1 X106.286 Y134.774 E.02178
G1 X106.393 Y135.331 E.02049
G1 X106.366 Y135.898 E.02049
G1 X106.206 Y136.442 E.02049
G1 X105.923 Y136.934 E.02049
G1 X105.539 Y137.34 E.02018
G1 X105.057 Y137.654 E.02077
G1 X104.521 Y137.842 E.02051
G1 X103.956 Y137.898 E.02049
G1 X103.394 Y137.821 E.02049
G1 X102.866 Y137.614 E.02049
G1 X102.401 Y137.288 E.02049
G1 X102.026 Y136.862 E.02049
G1 X101.761 Y136.361 E.02049
G1 X101.621 Y135.811 E.02049
G1 X101.615 Y135.243 E.02049
G1 X101.74 Y134.698 E.02018
G1 X101.995 Y134.183 E.02077
G1 X102.361 Y133.748 E.02051
G1 X102.818 Y133.412 E.02049
G1 X103.342 Y133.193 E.02049
G1 X103.893 Y133.104 E.02018
G1 X104.217 Y133.113 E.01167
G1 E-.5 F1800
;WIPE_START
G1 F12000
G1 X104.743 Y133.219
G1 X105.258 Y133.457
G1 X105.667 Y133.781
G1 X105.903 Y134.072
;WIPE_END
G1 Z.4 F24000
G1 X150.206 Y115.818
G1 Z.4
G1 Z.2
G1 E.5 F1800
;TYPE:Bottom surface
;WIDTH:0.500123
G1 F5905.473
G1 X149.487 Y115.1 E.0367
G1 X148.841 Y115.1 E.02335
G1 X150 Y116.259 E.05922
G1 X150 Y116.906 E.02335
G1 X148.194 Y115.1 E.09224
G1 X147.548 Y115.1 E.02335
G1 X150 Y117.553 E.12527
G1 X150 Y118.199 E.02335
G1 X146.901 Y115.1 E.15829
G1 X146.254 Y115.1 E.02335
G1 X150 Y118.846 E.19132
G1 X150 Y119.492 E.02335
G1 X145.608 Y115.1 E.22434
G1 X144.961 Y115.1 E.02335
G1 X150 Y120.139 E.25737
G1 X150 Y120.785 E.02335
G1 X144.315 Y115.1 E.29039
G1 X143.668 Y115.1 E.02335
G1 X150 Y121.432 E.32341
G1 X150 Y122.079 E.02335
G1 X143.021 Y115.1 E.35644
G1 X142.375 Y115.1 E.02335
G1 X150 Y122.725 E.38946
G1 X150 Y123.372 E.02335
G1 X141.728 Y115.1 E.42249
G1 X141.082 Y115.1 E.02335
G1 X150 Y124.018 E.45551
G1 X150 Y124.665 E.02335
G1 X140.435 Y115.1 E.48854
G1 X139.789 Y115.1 E.02335
G1 X150 Y125.311 E.52156
G1 X150 Y125.958 E.02335
G1 X139.142 Y115.1 E.55459
G1 X138.495 Y115.1 E.02335
G1 X150 Y126.605 E.58761
G1 X150 Y127.251 E.02335
G1 X137.849 Y115.1 E.62064
G1 X137.202 Y115.1 E.02335
G1 X150 Y127.898 E.65366
G1 X150 Y128.544 E.02335
G1 X136.556 Y115.1 E.68668
G1 X135.909 Y115.1 E.02335
M73 P5 R14
M73 P5 R14
G1 X150 Y129.191 E.71971
G1 X150 Y129.838 E.02335
G1 X135.262 Y115.1 E.75273
G1 X134.616 Y115.1 E.02335
G1 X150 Y130.484 E.78576
G1 X150 Y131.131 E.02335
G1 X133.969 Y115.1 E.81878
G1 X133.323 Y115.1 E.02335
G1 X150 Y131.777 E.85181
G1 X150 Y132.424 E.02335
G1 X132.676 Y115.1 E.88483
G1 X132.03 Y115.1 E.02335
G1 X150 Y133.07 E.91786
G1 X150 Y133.717 E.02335
G1 X131.383 Y115.1 E.95088
G1 X130.736 Y115.1 E.02335
G1 X150 Y134.364 E.9839
G1 X150 Y135.01 E.02335
G1 X130.09 Y115.1 E1.01693
G1 X129.443 Y115.1 E.02335
G1 X150 Y135.657 E1.04995
G1 X150 Y136.303 E.02335
G1 X128.797 Y115.1 E1.08298
G1 X128.15 Y115.1 E.02335
G1 X150 Y136.95 E1.116
G1 X150 Y137.597 E.02335
G1 X127.503 Y115.1 E1.14903
G1 X126.857 Y115.1 E.02335
G1 X150 Y138.243 E1.18205
G1 X150 Y138.89 E.02335
G1 X126.21 Y115.1 E1.21508
G1 X125.564 Y115.1 E.02335
G1 X142.905 Y132.442 E.88573
G1 X143.02 Y132.466 E.00425
G1 X143.696 Y132.786 E.02701
G1 X144.209 Y133.191 E.02359
G1 X144.372 Y133.358 E.00842
G1 X144.692 Y133.777 E.01905
G1 X144.808 Y133.975 E.0083
G1 X145.021 Y134.457 E.01904
G1 X145.065 Y134.601 E.00543
G1 X150 Y139.536 E.25207
G1 X150 Y140.183 E.02335
G1 X145.196 Y135.379 E.24537
G1 X145.156 Y135.986 E.02196
G1 X150 Y140.829 E.24741
G1 X150 Y141.476 E.02335
G1 X145.023 Y136.499 E.25421
G1 X144.969 Y136.682 E.00688
G1 X144.837 Y136.959 E.01111
G1 X150 Y142.123 E.26371
G1 X150 Y142.769 E.02335
G1 X144.595 Y137.364 E.27607
G1 X144.47 Y137.529 E.00747
G1 X144.294 Y137.71 E.00911
G1 X150 Y143.416 E.29144
G1 X150 Y144.062 E.02335
G1 X143.96 Y138.022 E.3085
G1 X143.568 Y138.277 E.01688
G1 X150 Y144.709 E.32854
G1 X150 Y145.356 E.02335
G1 X143.124 Y138.48 E.35119
G1 X142.635 Y138.637 E.01856
G1 X149.997 Y145.999 E.37603
G1 X149.95 Y146.598 E.0217
M73 P6 R14
M73 P6 R14
G1 X142.042 Y138.69 E.40391
G1 X141.933 Y138.7 E.00393
G1 X141.323 Y138.618 E.02222
G1 X149.991 Y147.286 E.44271
G1 E-.5 F1800
;WIPE_START
G1 F12000
G1 X148.577 Y145.872
;WIPE_END
G1 Z.4 F24000
G1 X142.351 Y132.534 Z.4
G1 Z.2
G1 E.5 F1800
G1 F5905.473
G1 X124.917 Y115.1 E.89044
G1 X124.271 Y115.1 E.02335
G1 X141.525 Y132.354 E.88126
G1 X141.191 Y132.404 E.01218
G1 X141.001 Y132.477 E.00736
G1 X123.624 Y115.1 E.88754
G1 X122.977 Y115.1 E.02335
G1 X140.537 Y132.66 E.89687
G1 X140.357 Y132.759 E.00741
G1 X140.143 Y132.912 E.00952
G1 X122.331 Y115.1 E.90978
G1 X121.684 Y115.1 E.02335
G1 X124.05 Y117.466 E.12086
G1 X124.41 Y117.583 E.01366
G1 X124.596 Y117.666 E.00733
G1 X125.09 Y117.951 E.0206
G1 X125.254 Y118.07 E.00733
G1 X125.678 Y118.452 E.0206
G1 X125.814 Y118.603 E.00733
G1 X126.149 Y119.065 E.02061
G1 X126.251 Y119.24 E.00733
G1 X126.483 Y119.762 E.0206
G1 X126.547 Y119.963 E.00764
G1 X139.783 Y133.199 E.67603
G1 X139.486 Y133.548 E.01656
G1 X126.685 Y120.748 E.65379
G1 X126.68 Y121.389 E.02316
G1 X139.228 Y133.937 E.64091
G1 X139.011 Y134.366 E.01737
G1 X126.567 Y121.923 E.63556
G1 X126.521 Y122.139 E.00799
G1 X126.403 Y122.405 E.01052
G1 X138.879 Y134.881 E.63718
G1 X138.823 Y135.113 E.00863
G1 X138.818 Y135.467 E.01278
G1 X126.202 Y122.851 E.64439
G1 X125.931 Y123.226 E.01673
G1 X139.169 Y136.465 E.67617
G1 E-.5 F1800
;WIPE_START
G1 F12000
G1 X137.755 Y135.05
;WIPE_END
G1 Z.4 F24000
G1 X125.491 Y123.433 Z.4
G1 Z.2
G1 E.5 F1800
G1 F5905.473
G1 X149.65 Y147.592 E1.23393
G1 X149.611 Y147.691 E.00384
G1 X149.425 Y148.013 E.01345
G1 X125.296 Y123.885 E1.23239
