; HEADER_BLOCK_START
; generated by OrcaSlicer 2.2.0 on 2024-11-14 at 18:28:21
; total layer number: 30
; filament_density: 1.27
; filament_diameter: 1.75
; max_z_height: 6.00
; HEADER_BLOCK_END

; THUMBNAIL_BLOCK_START

;
; THUMBNAIL_BLOCK_END

; THUMBNAIL_BLOCK_START

;
; THUMBNAIL_BLOCK_END

; external perimeters extrusion width = 0.42mm
; perimeters extrusion width = 0.45mm
; infill extrusion width = 0.45mm
; solid infill extrusion width = 0.45mm
; top infill extrusion width = 0.42mm
; first layer extrusion width = 0.50mm

; EXECUTABLE_BLOCK_START
EXCLUDE_OBJECT_DEFINE NAME=Corps1.stl_id_0_copy_0 CENTER=115,115 POLYGON=[[86.7,94],[143.3,94],[143.3,126],[143.286,126.374],[143.244,126.745],[143.175,127.113],[143.078,127.474],[142.954,127.827],[142.805,128.169],[142.63,128.5],[142.431,128.817],[142.209,129.117],[141.965,129.401],[141.701,129.665],[141.417,129.909],[141.117,130.131],[140.8,130.33],[140.469,130.505],[130.168,135.802],[129.961,135.888],[129.745,135.95],[129.524,135.987],[129.3,136],[100.7,136],[100.476,135.987],[100.255,135.95],[100.039,135.888],[99.8322,135.802],[89.5306,130.505],[89.2,130.33],[88.8834,130.131],[88.5826,129.909],[88.2991,129.665],[88.0347,129.401],[87.7908,129.117],[87.5688,128.817],[87.3699,128.5],[87.1952,128.169],[87.0456,127.827],[86.9221,127.474],[86.8254,127.113],[86.7558,126.745],[86.714,126.374],[86.7,126],[86.7,94]]
M73 P0 R15
;TYPE:Custom
M220 S100
G90 ; use absolute coordinates
M83 ; extruder relative mode
M104 S150 ; set temporary nozzle temp to prevent oozing during homing
M140 S70 ; set final bed temp
G4 S30 ; allow partial nozzle warmup
G28 ; home all axis and restore leveling
BED_MESH_CALIBRATE PROFILE=adaptive ADAPTIVE=1 ADAPTIVE_MARGIN=0
G1 Z25 F240
G1 X10.0 Y30 F3000
M104 S245 ; set final nozzle temp
M190 S70 ; wait for bed temp to stabilize
M109 S245 ; wait for nozzle temp to stabilize
G1 Z0.28 F240
G92 E0 ; Move Z Axis up
G1 Z2.0 F5000 ; Move to start position
M73 P1 R15
M73 P1 R15
G1 X5 Y30 Z0.28 F300 ; Draw the first line
G1 X5 Y200 Z0.28 F1500 E15 ; Move to side a little
G1 X5.4 Y200 Z0.28 F5000.0 ; Draw the second line
M73 P2 R14
M73 P2 R14
G1 X5.4 Y50 Z0.28 F1500.0 E30 ; Reset Extruder
G92 E0 ; Move Z Axis up
G1 Z2.0 F3000
M117 Start Printing..
G90
G21
M83 ; use relative distances for extrusion
; filament start gcode
M106 S0
;LAYER_CHANGE
;Z:0.2
;HEIGHT:0.2
;BEFORE_LAYER_CHANGE
;0.2
G92 E0

G1 E-.5 F1800
;_SET_FAN_SPEED_CHANGING_LAYER
SET_VELOCITY_LIMIT ACCEL=1000
SET_VELOCITY_LIMIT SQUARE_CORNER_VELOCITY=7
; printing object Corps1.stl id:0 copy 0
EXCLUDE_OBJECT_START NAME=Corps1.stl_id_0_copy_0
G1 Z.4 F24000
G1 X138.74 Y150.462
G1 Z.4
M73 P3 R14
M73 P3 R14
G1 Z.2
G1 E.5 F1800
;TYPE:Inner wall
;WIDTH:0.499999
G1 F3000
G1 X138.598 Y150.658 E.00873
G1 X138.543 Y150.929 E.00996
G1 X138.543 Y153.883 E.10668
G1 X138.507 Y154.276 E.01423
G1 X138.342 Y154.654 E.01491
G1 X138.073 Y154.967 E.01491
G1 X137.704 Y155.163 E.01508
G1 X137.26 Y155.243 E.0163
G1 X108.88 Y155.243 E1.02468
G1 X108.273 Y155.16 E.02212
G1 X108.041 Y155.049 E.00928
G1 X107.744 Y154.775 E.01459
G1 X107.531 Y154.409 E.01529
G1 X107.457 Y153.979 E.01576
G1 X107.457 Y150.929 E.11013
G1 X107.428 Y150.731 E.0072
G1 X107.304 Y150.497 E.00958
G1 X107.057 Y150.305 E.01129
G1 X106.771 Y150.243 E.01054
G1 X99.727 Y150.243 E.25435
G1 X99.068 Y150.194 E.02386
G1 X98.45 Y150.053 E.02288
G1 X97.86 Y149.821 E.02289
G1 X97.311 Y149.504 E.02289
G1 X96.816 Y149.109 E.02286
G1 X96.376 Y148.634 E.02339
G1 X96.027 Y148.121 E.02239
G1 X95.752 Y147.549 E.0229
G1 X95.565 Y146.944 E.02289
G1 X95.505 Y146.54 E.01472
G1 X95.457 Y145.986 E.0201
G1 X95.457 Y114.757 E1.12754
G1 X150.543 Y114.757 E1.98893
G1 X150.543 Y145.973 E1.12708
G1 X150.494 Y146.632 E.02386
G1 X150.353 Y147.25 E.02288
G1 X150.121 Y147.84 E.02289
G1 X149.804 Y148.389 E.02289
G1 X149.409 Y148.885 E.02289
G1 X148.944 Y149.316 E.02289
G1 X148.42 Y149.673 E.02289
G1 X147.849 Y149.948 E.02289
G1 X147.244 Y150.135 E.02289
G1 X146.84 Y150.195 E.01472
G1 X146.286 Y150.243 E.0201
G1 X139.833 Y150.243 E.23298
G1 X139.055 Y150.265 E.02811
G1 X138.775 Y150.415 E.01146
G1 X138.764 Y150.43 E.00069
G1 X139.068 Y150.766 F24000
;TYPE:Outer wall
G1 F3000
G1 X139 Y150.929 E.00636
G1 X139 Y153.883 E.10668
G1 X138.956 Y154.378 E.01793
G1 X138.83 Y154.737 E.01373
G1 X138.628 Y155.059 E.01373
G1 X138.359 Y155.328 E.01372
G1 X138.03 Y155.533 E.01403
G1 X137.678 Y155.656 E.01344
G1 X137.285 Y155.7 E.01428
G1 X108.721 Y155.7 E1.03133
G1 X108.133 Y155.6 E.02156
G1 X107.796 Y155.438 E.01347
G1 X107.499 Y155.201 E.01373
G1 X107.262 Y154.904 E.01374
G1 X107.097 Y154.561 E.01373
G1 X107 Y153.992 E.02085
G1 X107 Y150.929 E.11059
G1 X106.933 Y150.767 E.0063
G1 X106.771 Y150.7 E.00633
G1 X99.71 Y150.7 E.25497
G1 X99 Y150.647 E.02572
G1 X98.315 Y150.491 E.02536
G1 X97.661 Y150.234 E.02536
G1 X97.053 Y149.883 E.02536
G1 X96.504 Y149.445 E.02535
G1 X96.018 Y148.919 E.02587
G1 X95.63 Y148.35 E.02485
G1 X95.326 Y147.717 E.02537
G1 X95.119 Y147.046 E.02536
G1 X95.053 Y146.609 E.01596
G1 X95 Y145.994 E.02226
G1 X95 Y114.3 E1.14436
G1 X151 Y114.3 E2.02193
G1 X151 Y145.99 E1.1442
G1 X150.947 Y146.7 E.02572
G1 X150.791 Y147.385 E.02536
G1 X150.534 Y148.039 E.02536
G1 X150.183 Y148.647 E.02536
G1 X149.745 Y149.196 E.02536
G1 X149.23 Y149.674 E.02536
G1 X148.65 Y150.07 E.02536
G1 X148.017 Y150.374 E.02536
G1 X147.346 Y150.581 E.02536
G1 X146.909 Y150.647 E.01596
G1 X146.294 Y150.7 E.02226
G1 X139.229 Y150.7 E.25512
G1 X139.105 Y150.751 E.00483
G1 E-.5 F1800
;WIPE_START
G1 F12000
G1 X139 Y150.929
G1 X139 Y152.722
;WIPE_END
G1 Z.4 F24000
G1 X142.164 Y132.661 Z.4
G1 Z.2
M73 P4 R14
M73 P4 R14
G1 E.5 F1800
;TYPE:Inner wall
G1 F3000
G1 X142.334 Y132.666 E.00612
G1 X142.837 Y132.772 E.01856
G1 X143.454 Y133.045 E.02437
G1 X143.99 Y133.455 E.02437
G1 X144.415 Y133.98 E.02437
G1 X144.705 Y134.589 E.02437
G1 X144.843 Y135.25 E.02437
G1 X144.822 Y135.925 E.02437
G1 X144.643 Y136.576 E.02437
G1 X144.317 Y137.166 E.02437
G1 X143.86 Y137.664 E.02437
G1 X143.3 Y138.04 E.02437
G1 X142.667 Y138.275 E.02437
G1 X141.997 Y138.354 E.02437
G1 X141.326 Y138.273 E.02437
G1 X140.694 Y138.037 E.02437
G1 X140.134 Y137.659 E.02437
G1 X139.679 Y137.161 E.02437
G1 X139.354 Y136.569 E.02437
G1 X139.177 Y135.918 E.02437
G1 X139.158 Y135.243 E.02437
G1 X139.291 Y134.607 E.02345
G1 X139.588 Y133.975 E.02521
G1 X140.015 Y133.45 E.02444
G1 X140.518 Y133.065 E.02287
G1 X141.17 Y132.77 E.02585
G1 X141.826 Y132.652 E.02405
G1 X142.124 Y132.66 E.01079
G1 X142.152 Y133.111 F24000
;TYPE:Outer wall
G1 F3000
G1 X142.24 Y133.113 E.00317
G1 X142.743 Y133.219 E.01856
G1 X143.258 Y133.457 E.02049
G1 X143.702 Y133.81 E.02049
G1 X144.052 Y134.257 E.02049
G1 X144.286 Y134.774 E.02049
G1 X144.393 Y135.331 E.02049
G1 X144.366 Y135.898 E.02049
G1 X144.206 Y136.442 E.02049
G1 X143.923 Y136.934 E.02049
G1 X143.532 Y137.346 E.02049
G1 X143.056 Y137.654 E.02049
G1 X142.521 Y137.842 E.02049
G1 X141.956 Y137.898 E.02049
G1 X141.394 Y137.821 E.02049
G1 X140.866 Y137.614 E.02049
G1 X140.401 Y137.288 E.02049
G1 X140.026 Y136.862 E.02049
G1 X139.761 Y136.361 E.02049
G1 X139.621 Y135.811 E.02049
G1 X139.615 Y135.243 E.02049
G1 X139.736 Y134.714 E.01958
G1 X139.995 Y134.183 E.02135
G1 X140.361 Y133.748 E.02051
G1 X140.784 Y133.437 E.01898
G1 X141.342 Y133.193 E.02196
G1 X141.893 Y133.104 E.02018
G1 X142.112 Y133.11 E.00789
G1 E-.5 F1800
;WIPE_START
G1 F12000
G1 X142.24 Y133.113
G1 X142.743 Y133.219
G1 X143.258 Y133.457
G1 X143.702 Y133.81
G1 X143.84 Y133.986
;WIPE_END
G1 Z.4 F24000
G1 X123.314 Y117.67 Z.4
G1 Z.2
G1 E.5 F1800
;TYPE:Inner wall
G1 F3000
G1 X123.517 Y117.686 E.00738
G1 X124.069 Y117.821 E.02051
G1 X124.717 Y118.119 E.02575
G1 X125.287 Y118.547 E.02575
G1 X125.751 Y119.082 E.02557
G1 X126.096 Y119.71 E.02589
G1 X126.299 Y120.395 E.02578
G1 X126.353 Y121.106 E.02575
G1 X126.254 Y121.812 E.02575
G1 X126.044 Y122.392 E.02228
G1 X125.865 Y122.727 E.01369
G1 X125.582 Y123.145 E.01824
G1 X125.128 Y123.593 E.02302
G1 X124.546 Y123.975 E.02514
G1 X123.867 Y124.24 E.02634
G1 X123.162 Y124.35 E.02575
G1 X122.45 Y124.309 E.02575
G1 X121.763 Y124.118 E.02575
G1 X121.132 Y123.786 E.02575
G1 X120.585 Y123.328 E.02575
G1 X120.257 Y122.912 E.01915
G1 X120.054 Y122.595 E.01358
G1 X119.839 Y122.122 E.01875
G1 X119.674 Y121.434 E.02557
G1 X119.658 Y120.717 E.02589
G1 X119.793 Y120.016 E.02578
G1 X120.074 Y119.361 E.02574
G1 X120.487 Y118.779 E.02575
G1 X121.013 Y118.298 E.02575
G1 X121.629 Y117.939 E.02575
G1 X122.307 Y117.718 E.02575
G1 X123.012 Y117.646 E.02557
G1 X123.274 Y117.667 E.00949
G1 X123.278 Y118.12 F24000
;TYPE:Outer wall
G1 F3000
G1 X123.409 Y118.13 E.00473
G1 X123.961 Y118.265 E.02051
G1 X124.517 Y118.53 E.02225
G1 X125.005 Y118.906 E.02225
G1 X125.4 Y119.373 E.02208
G1 X125.691 Y119.921 E.02241
G1 X125.858 Y120.515 E.02226
G1 X125.896 Y121.13 E.02225
G1 X125.803 Y121.739 E.02225
G1 X125.619 Y122.226 E.01879
G1 X125.247 Y122.832 E.02565
G1 X124.809 Y123.265 E.02225
G1 X124.304 Y123.588 E.02164
G1 X123.712 Y123.81 E.02285
G1 X123.101 Y123.897 E.02225
G1 X122.487 Y123.853 E.02225
G1 X121.895 Y123.68 E.02225
G1 X121.354 Y123.386 E.02225
G1 X120.886 Y122.984 E.02225
G1 X120.515 Y122.493 E.02225
G1 X120.258 Y121.939 E.02205
G1 X120.121 Y121.337 E.02228
G1 X120.115 Y120.716 E.02241
G1 X120.24 Y120.113 E.02226
G1 X120.49 Y119.549 E.02225
G1 X120.853 Y119.051 E.02226
G1 X121.314 Y118.642 E.02225
G1 X121.85 Y118.339 E.02225
G1 X122.439 Y118.156 E.02225
G1 X123.048 Y118.102 E.02208
G1 X123.238 Y118.116 E.00688
G1 E-.5 F1800
;WIPE_START
G1 F12000
G1 X123.409 Y118.13
G1 X123.961 Y118.265
G1 X124.517 Y118.53
G1 X125.005 Y118.906
G1 X125.023 Y118.928
;WIPE_END
G1 Z.4 F24000
G1 X104.148 Y132.661 Z.4
G1 Z.2
G1 E.5 F1800
;TYPE:Inner wall
G1 F3000
G1 X104.334 Y132.666 E.00672
G1 X104.837 Y132.772 E.01856
G1 X105.454 Y133.045 E.02437
G1 X105.99 Y133.455 E.02437
G1 X106.337 Y133.877 E.01974
G1 X106.497 Y134.119 E.01047
G1 X106.705 Y134.589 E.01855
G1 X106.843 Y135.25 E.02437
G1 X106.822 Y135.925 E.02437
G1 X106.643 Y136.576 E.02437
G1 X106.317 Y137.166 E.02437
G1 X105.867 Y137.658 E.02405
G1 X105.302 Y138.039 E.02462
G1 X104.796 Y138.231 E.01952
G1 X104.508 Y138.308 E.01075
G1 X103.997 Y138.354 E.01855
G1 X103.326 Y138.273 E.02437
G1 X102.702 Y138.041 E.02405
G1 X102.136 Y137.661 E.02462
G1 X101.679 Y137.161 E.02444
G1 X101.354 Y136.569 E.02437
G1 X101.177 Y135.918 E.02436
G1 X101.158 Y135.243 E.02439
G1 X101.298 Y134.583 E.02437
G1 X101.589 Y133.974 E.02437
G1 X102.015 Y133.45 E.02437
G1 X102.552 Y133.041 E.02437
G1 X103.17 Y132.77 E.02437
G1 X103.826 Y132.652 E.02405
G1 X104.108 Y132.66 E.01019
G1 X104.135 Y133.11 F24000
;TYPE:Outer wall
G1 F3000
G1 X104.24 Y133.113 E.00377
G1 X104.743 Y133.219 E.01856
G1 X105.258 Y133.457 E.02049
G1 X105.702 Y133.81 E.02049
G1 X106.049 Y134.254 E.02035
G1 X106.286 Y134.774 E.02062
G1 X106.393 Y135.331 E.02049
G1 X106.366 Y135.898 E.02049
G1 X106.206 Y136.442 E.02049
G1 X105.923 Y136.934 E.02049
G1 X105.539 Y137.34 E.02018
G1 X105.057 Y137.654 E.02077
G1 X104.521 Y137.842 E.02051
G1 X103.956 Y137.898 E.02049
G1 X103.394 Y137.821 E.02049
G1 X102.873 Y137.617 E.02018
G1 X102.401 Y137.288 E.02077
G1 X102.026 Y136.862 E.02051
G1 X101.761 Y136.361 E.02049
G1 X101.621 Y135.811 E.02048
G1 X101.615 Y135.243 E.0205
G1 X101.742 Y134.69 E.02049
G1 X101.995 Y134.182 E.02049
G1 X102.361 Y133.748 E.02049
G1 X102.818 Y133.412 E.02049
G1 X103.342 Y133.193 E.02049
G1 X103.893 Y133.104 E.02018
G1 X104.095 Y133.109 E.00729
G1 E-.5 F1800
;WIPE_START
G1 F12000
G1 X104.24 Y133.113
G1 X104.743 Y133.219
G1 X105.258 Y133.457
G1 X105.702 Y133.81
G1 X105.83 Y133.973
;WIPE_END
G1 Z.4 F24000
G1 X150.406 Y115.823
G1 Z.4
G1 Z.2
G1 E.5 F1800
;TYPE:Bottom surface
;WIDTH:0.502218
G1 F5878.536
G1 X149.683 Y115.1 E.0371
G1 X149.033 Y115.1 E.02357
G1 X150.2 Y116.267 E.05987
G1 X150.2 Y116.916 E.02357
G1 X148.384 Y115.1 E.0932
G1 X147.734 Y115.1 E.02357
G1 X150.2 Y117.566 E.12653
G1 X150.2 Y118.215 E.02357
G1 X147.085 Y115.1 E.15985
G1 X146.435 Y115.1 E.02357
G1 X150.2 Y118.865 E.19318
G1 X150.2 Y119.514 E.02357
G1 X145.786 Y115.1 E.22651
G1 X145.136 Y115.1 E.02357
G1 X150.2 Y120.164 E.25984
G1 X150.2 Y120.814 E.02357
G1 X144.486 Y115.1 E.29317
G1 X143.837 Y115.1 E.02357
G1 X150.2 Y121.463 E.32649
G1 X150.2 Y122.113 E.02357
G1 X143.187 Y115.1 E.35982
G1 X142.538 Y115.1 E.02357
G1 X150.2 Y122.762 E.39315
G1 X150.2 Y123.412 E.02357
G1 X141.888 Y115.1 E.42648
G1 X141.239 Y115.1 E.02357
G1 X150.2 Y124.061 E.4598
G1 X150.2 Y124.711 E.02357
G1 X140.589 Y115.1 E.49313
G1 X139.94 Y115.1 E.02357
G1 X150.2 Y125.36 E.52646
G1 X150.2 Y126.01 E.02357
G1 X139.29 Y115.1 E.55979
G1 X138.641 Y115.1 E.02357
G1 X150.2 Y126.659 E.59312
G1 X150.2 Y127.309 E.02357
G1 X137.991 Y115.1 E.62644
G1 X137.341 Y115.1 E.02357
G1 X150.2 Y127.959 E.65977
G1 X150.2 Y128.608 E.02357
G1 X136.692 Y115.1 E.6931
G1 X136.042 Y115.1 E.02357
M73 P5 R14
M73 P5 R14
G1 X150.2 Y129.258 E.72643
G1 X150.2 Y129.907 E.02357
G1 X135.393 Y115.1 E.75975
G1 X134.743 Y115.1 E.02357
G1 X150.2 Y130.557 E.79308
G1 X150.2 Y131.206 E.02357
G1 X134.094 Y115.1 E.82641
G1 X133.444 Y115.1 E.02357
G1 X150.2 Y131.856 E.85974
G1 X150.2 Y132.505 E.02357
G1 X132.795 Y115.1 E.89307
G1 X132.145 Y115.1 E.02357
G1 X150.2 Y133.155 E.92639
G1 X150.2 Y133.804 E.02357
G1 X131.496 Y115.1 E.95972
G1 X130.846 Y115.1 E.02357
G1 X150.2 Y134.454 E.99305
G1 X150.2 Y135.104 E.02357
G1 X130.196 Y115.1 E1.02638
G1 X129.547 Y115.1 E.02357
G1 X150.2 Y135.753 E1.0597
G1 X150.2 Y136.403 E.02357
G1 X128.897 Y115.1 E1.09303
G1 X128.248 Y115.1 E.02357
G1 X150.2 Y137.052 E1.12636
G1 X150.2 Y137.702 E.02357
G1 X127.598 Y115.1 E1.15969
G1 X126.949 Y115.1 E.02357
G1 X150.2 Y138.351 E1.19302
G1 X150.2 Y139.001 E.02357
G1 X126.299 Y115.1 E1.22634
G1 X125.65 Y115.1 E.02357
G1 X143.015 Y132.465 E.89099
G1 X143.705 Y132.791 E.02771
G1 X144.211 Y133.192 E.02343
G1 X144.372 Y133.358 E.00836
G1 X144.692 Y133.777 E.01913
G1 X144.808 Y133.975 E.00834
G1 X145.027 Y134.477 E.01988
G1 X150.2 Y139.65 E.26543
G1 X150.2 Y140.3 E.02357
G1 X145.184 Y135.284 E.25738
G1 X145.197 Y135.366 E.00302
G1 X145.161 Y135.91 E.01979
G1 X150.2 Y140.949 E.25855
G1 X150.2 Y141.599 E.02357
G1 X145.04 Y136.439 E.26474
G1 X144.969 Y136.682 E.00917
G1 X144.864 Y136.913 E.00921
G1 X150.2 Y142.249 E.27377
G1 X150.2 Y142.898 E.02357
G1 X144.623 Y137.321 E.28614
G1 X144.469 Y137.529 E.0094
G1 X144.327 Y137.675 E.00737
G1 X150.2 Y143.548 E.30132
G1 X150.2 Y144.197 E.02357
G1 X143.996 Y137.993 E.31832
G1 X143.606 Y138.253 E.017
G1 X150.2 Y144.847 E.33834
G1 X150.2 Y145.496 E.02357
G1 X143.169 Y138.465 E.36075
G1 X142.679 Y138.624 E.01871
G1 X150.187 Y146.133 E.38526
G1 X150.154 Y146.581 E.0163
G1 X150.122 Y146.718 E.00509
G1 X142.09 Y138.686 E.41212
G1 X141.933 Y138.7 E.00572
M73 P6 R14
M73 P6 R14
G1 X141.381 Y138.626 E.0202
G1 X150.149 Y147.394 E.44985
G1 E-.5 F1800
;WIPE_START
G1 F12000
G1 X148.735 Y145.979
;WIPE_END
G1 Z.4 F24000
G1 X142.456 Y132.556 Z.4
G1 Z.2
G1 E.5 F1800
G1 F5878.536
G1 X125 Y115.1 E.89567
G1 X124.351 Y115.1 E.02357
G1 X141.595 Y132.345 E.88482
G1 X141.191 Y132.403 E.01482
G1 X141.057 Y132.455 E.00524
G1 X123.701 Y115.1 E.8905
G1 X123.051 Y115.1 E.02357
G1 X140.588 Y132.636 E.89978
G1 X140.357 Y132.759 E.00946
G1 X140.185 Y132.883 E.00772
G1 X122.402 Y115.1 E.91242
G1 X121.752 Y115.1 E.02357
G1 X124.137 Y117.484 E.12235
G1 X124.351 Y117.559 E.00822
G1 X124.872 Y117.813 E.02105
G1 X125.047 Y117.922 E.00749
G1 X125.504 Y118.281 E.02105
G1 X125.651 Y118.424 E.00748
G1 X126.019 Y118.867 E.02088
G1 X126.133 Y119.039 E.00746
G1 X126.403 Y119.557 E.02121
G1 X126.507 Y119.855 E.01144
G1 X139.818 Y133.166 E.68297
G1 X139.516 Y133.513 E.0167
G1 X126.673 Y120.67 E.65897
G1 X126.695 Y121.094 E.0154
G1 X126.68 Y121.326 E.00847
G1 X139.249 Y133.895 E.6449
G1 X139.029 Y134.325 E.01752
G1 X126.585 Y121.881 E.6385
G1 X126.568 Y121.982 E.00369
G1 X126.421 Y122.366 E.01494
G1 X138.89 Y134.835 E.63977
G1 X138.825 Y135.093 E.00962
G1 X138.82 Y135.416 E.01172
G1 X126.219 Y122.814 E.64658
G1 X125.96 Y123.204 E.017
G1 X139.153 Y136.398 E.67694
G1 E-.5 F1800
;WIPE_START
G1 F12000
