; HEADER_BLOCK_START
; generated by OrcaSlicer 2.2.0 on 2024-11-23 at 11:13:39
; total layer number: 25
; filament_density: 1.27
; filament_diameter: 1.75
; max_z_height: 5.00
; HEADER_BLOCK_END

; THUMBNAIL_BLOCK_START

;
; THUMBNAIL_BLOCK_END

; THUMBNAIL_BLOCK_START

;
; THUMBNAIL_BLOCK_END

; external perimeters extrusion width = 0.42mm
; perimeters extrusion width = 0.45mm
; infill extrusion width = 0.45mm
; solid infill extrusion width = 0.45mm
; top infill extrusion width = 0.42mm
; first layer extrusion width = 0.50mm

; EXECUTABLE_BLOCK_START
EXCLUDE_OBJECT_DEFINE NAME=Corps1.stl_id_0_copy_0 CENTER=115,115 POLYGON=[[104.3,143.555],[104.312,142.968],[107.5,76.8363],[107.515,76.6626],[107.56,76.4942],[107.634,76.3363],[107.671,76.2818],[107.734,76.1935],[107.857,76.0702],[107.937,76.0117],[108,75.9702],[108.158,75.8966],[108.326,75.8514],[108.5,75.8363],[121.5,75.8363],[121.674,75.8514],[121.842,75.8966],[122,75.9702],[122.063,76.0117],[122.143,76.0702],[122.266,76.1935],[122.329,76.2818],[122.366,76.3363],[122.44,76.4942],[122.485,76.6626],[122.5,76.8363],[125.688,142.968],[125.7,143.555],[125.679,144.141],[125.626,144.725],[125.541,145.306],[125.424,145.881],[125.277,146.448],[125.098,147.007],[124.889,147.555],[124.65,148.091],[124.382,148.613],[124.086,149.119],[123.762,149.608],[123.413,150.079],[123.038,150.531],[122.639,150.96],[122.217,151.368],[121.773,151.751],[121.309,152.11],[120.826,152.443],[120.325,152.749],[119.808,153.027],[119.277,153.276],[118.733,153.495],[118.178,153.685],[117.613,153.844],[117.041,153.971],[116.462,154.067],[115.879,154.132],[115.293,154.164],[114.707,154.164],[114.121,154.132],[113.538,154.067],[112.959,153.971],[112.387,153.844],[111.822,153.685],[111.267,153.495],[110.723,153.276],[110.192,153.027],[109.675,152.749],[109.174,152.443],[108.691,152.11],[108.227,151.751],[107.783,151.368],[107.361,150.96],[106.962,150.531],[106.587,150.079],[106.237,149.608],[105.914,149.119],[105.618,148.613],[105.35,148.091],[105.111,147.555],[104.902,147.007],[104.723,146.448],[104.576,145.881],[104.459,145.306],[104.374,144.725],[104.321,144.141],[104.3,143.555]]
M73 P0 R14
;TYPE:Custom
M220 S100
G90 ; use absolute coordinates
M83 ; extruder relative mode
M104 S150 ; set temporary nozzle temp to prevent oozing during homing
M140 S70 ; set final bed temp
G4 S30 ; allow partial nozzle warmup
G28 ; home all axis and restore leveling
BED_MESH_CALIBRATE
G1 Z25 F240
G1 X10.0 Y30 F3000
M104 S245 ; set final nozzle temp
M190 S70 ; wait for bed temp to stabilize
M109 S245 ; wait for nozzle temp to stabilize
G1 Z0.28 F240
G92 E0 ; Move Z Axis up
LINE_PURGE
G92 E0 ; Move Z Axis up
G1 Z2.0 F3000
M73 P1 R14
M117 Start Printing..
G90
G21
M83 ; use relative distances for extrusion
; filament start gcode
M106 S0
;LAYER_CHANGE
;Z:0.2
;HEIGHT:0.2
;BEFORE_LAYER_CHANGE
;0.2
G92 E0

M73 P1 R14
G1 E-.5 F1800
;_SET_FAN_SPEED_CHANGING_LAYER
SET_VELOCITY_LIMIT ACCEL=1000
SET_VELOCITY_LIMIT SQUARE_CORNER_VELOCITY=7
; printing object Corps1.stl id:0 copy 0
EXCLUDE_OBJECT_START NAME=Corps1.stl_id_0_copy_0
G1 Z.4 F24000
G1 X128.256 Y98.08
G1 Z.4
G1 Z.2
G1 E.5 F1800
;TYPE:Inner wall
;WIDTH:0.499999
G1 F3000
G1 X128.268 Y154.335 E2.03113
G1 X128.343 Y155.018 E.02479
G1 X128.468 Y155.668 E.02391
G1 X128.692 Y156.426 E.02851
G1 X129.142 Y157.428 E.03967
G1 X130.312 Y159.226 E.07747
G1 X130.676 Y159.923 E.02837
G1 X130.873 Y160.385 E.01813
G1 X131.151 Y161.222 E.03185
G1 X131.272 Y161.72 E.01853
G1 X131.408 Y162.584 E.03155
G1 X131.454 Y163.564 E.03545
G1 X131.399 Y164.434 E.03148
G1 X131.324 Y164.946 E.01866
G1 X131.127 Y165.8 E.03166
G1 X130.973 Y166.277 E.0181
G1 X130.664 Y167.021 E.02908
G1 X130.396 Y167.563 E.02181
G1 X130.016 Y168.181 E.02622
G1 X129.7 Y168.622 E.01958
G1 X129.342 Y169.059 E.02042
G1 X128.692 Y169.72 E.03346
G1 X128.033 Y170.26 E.03076
G1 X127.6 Y170.561 E.01905
G1 X126.802 Y171.01 E.03306
G1 X126.349 Y171.23 E.01816
G1 X125.498 Y171.545 E.03279
G1 X124.696 Y171.749 E.02988
G1 X124.141 Y171.845 E.02032
G1 X123.355 Y171.913 E.02848
G1 X122.754 Y171.919 E.02172
G1 X121.831 Y171.841 E.03346
G1 X120.964 Y171.673 E.03188
G1 X120.475 Y171.537 E.01831
G1 X119.856 Y171.308 E.02382
G1 X119.374 Y171.101 E.01896
G1 X118.385 Y170.552 E.04084
G1 X117.686 Y170.043 E.03124
G1 X117.287 Y169.701 E.01896
G1 X116.757 Y169.166 E.02718
G1 X116.344 Y168.681 E.02302
G1 X115.984 Y168.181 E.02223
G1 X115.579 Y167.52 E.028
G1 X115.194 Y166.716 E.03219
G1 X115.014 Y166.243 E.01824
G1 X114.769 Y165.399 E.03176
G1 X114.667 Y164.894 E.0186
G1 X114.564 Y164.027 E.03151
G1 X114.546 Y163.509 E.01874
G1 X114.586 Y162.638 E.03147
G1 X114.653 Y162.125 E.01868
G1 X114.836 Y161.268 E.03163
G1 X114.983 Y160.788 E.01815
G1 X115.333 Y159.924 E.03364
G1 X115.761 Y159.1 E.03355
G1 X116.68 Y157.721 E.05983
G1 X117.252 Y156.575 E.04623
G1 X117.569 Y155.523 E.03968
G1 X117.657 Y155.018 E.01851
G1 X117.732 Y154.335 E.02478
G1 X117.754 Y98.08 E2.03115
G1 X128.216 Y98.08 E.37774
G1 X128.713 Y97.623 F24000
G1 F3000
M73 P2 R14
M73 P2 R14
G1 X128.725 Y154.335 E2.04763
G1 X128.797 Y154.958 E.02266
G1 X128.91 Y155.551 E.02177
G1 X129.109 Y156.238 E.02584
G1 X129.657 Y157.416 E.0469
G1 X130.374 Y158.462 E.04579
G1 X130.644 Y158.884 E.01809
G1 X130.896 Y159.335 E.01867
G1 X131.278 Y160.167 E.03305
G1 X131.458 Y160.657 E.01883
G1 X131.608 Y161.16 E.01897
G1 X131.797 Y162.041 E.03253
G1 X131.867 Y162.564 E.01905
G1 X131.911 Y163.5 E.03382
G1 X131.895 Y164.028 E.0191
G1 X131.845 Y164.554 E.01907
G1 X131.69 Y165.441 E.03248
G1 X131.56 Y165.95 E.019
G1 X131.397 Y166.448 E.01892
G1 X131.075 Y167.223 E.03029
G1 X130.791 Y167.793 E.023
G1 X130.313 Y168.56 E.03262
G1 X130.007 Y168.975 E.0186
G1 X129.677 Y169.37 E.01861
G1 X129.046 Y170.015 E.03257
G1 X128.662 Y170.35 E.0184
G1 X128.255 Y170.666 E.01861
G1 X127.83 Y170.956 E.01854
G1 X127.003 Y171.421 E.03427
G1 X126.521 Y171.654 E.01935
G1 X125.716 Y171.955 E.03102
G1 X125.203 Y172.103 E.01928
G1 X124.7 Y172.217 E.01861
G1 X124.191 Y172.3 E.01861
G1 X123.38 Y172.369 E.02938
G1 X122.783 Y172.377 E.02159
G1 X122.268 Y172.35 E.01861
G1 X121.756 Y172.292 E.01861
G1 X120.864 Y172.119 E.03279
G1 X120.379 Y171.985 E.01818
G1 X119.901 Y171.824 E.01821
G1 X119.196 Y171.523 E.02767
G1 X118.556 Y171.193 E.026
G1 X118.126 Y170.928 E.01825
G1 X117.38 Y170.384 E.03334
G1 X116.989 Y170.048 E.0186
G1 X116.619 Y169.689 E.01861
G1 X116.271 Y169.31 E.0186
G1 X115.717 Y168.604 E.03238
G1 X115.432 Y168.175 E.01861
G1 X115.173 Y167.728 E.01865
G1 X114.776 Y166.902 E.03309
G1 X114.589 Y166.416 E.01881
G1 X114.431 Y165.915 E.01895
G1 X114.228 Y165.037 E.03256
G1 X114.149 Y164.515 E.01904
G1 X114.104 Y163.988 E.01909
G1 X114.096 Y163.092 E.03237
G1 X114.133 Y162.564 E.0191
G1 X114.203 Y162.041 E.01905
G1 X114.392 Y161.16 E.03253
G1 X114.539 Y160.668 E.01856
G1 X114.814 Y159.953 E.02767
G1 X115.122 Y159.301 E.026
G1 X115.376 Y158.854 E.01857
G1 X116.276 Y157.506 E.05851
G1 X116.815 Y156.444 E.04303
G1 X117.1 Y155.495 E.03578
G1 X117.203 Y154.958 E.01972
G1 X117.275 Y154.335 E.02265
G1 X117.297 Y97.623 E2.04764
G1 X128.673 Y97.623 E.41074
G1 X129.17 Y97.166 F24000
G1 F3000
G1 X129.182 Y154.335 E2.06413
G1 X129.25 Y154.899 E.02052
G1 X129.352 Y155.433 E.01963
G1 X129.525 Y156.051 E.02317
G1 X129.976 Y157.053 E.03967
G1 X130.768 Y158.23 E.05122
G1 X131.055 Y158.684 E.01938
G1 X131.306 Y159.133 E.01859
G1 X131.532 Y159.597 E.01862
G1 X131.732 Y160.073 E.01863
G1 X131.905 Y160.558 E.01862
G1 X132.052 Y161.052 E.01861
G1 X132.171 Y161.553 E.01859
G1 X132.262 Y162.06 E.01858
G1 X132.325 Y162.57 E.01857
G1 X132.369 Y163.544 E.03519
G1 X132.351 Y164.057 E.01855
G1 X132.305 Y164.569 E.01855
G1 X132.231 Y165.077 E.01855
G1 X132.128 Y165.581 E.01855
G1 X131.999 Y166.078 E.01855
G1 X131.844 Y166.56 E.0183
G1 X131.545 Y167.302 E.02889
G1 X131.212 Y167.978 E.0272
G1 X130.956 Y168.416 E.01833
G1 X130.673 Y168.845 E.01855
G1 X130.367 Y169.257 E.01854
G1 X130.039 Y169.653 E.01855
G1 X129.689 Y170.029 E.01855
G1 X129.319 Y170.386 E.01855
G1 X128.931 Y170.722 E.01855
G1 X128.524 Y171.036 E.01855
G1 X128.107 Y171.323 E.0183
G1 X127.416 Y171.727 E.02888
G1 X126.74 Y172.059 E.0272
G1 X126.269 Y172.249 E.01833
G1 X125.783 Y172.415 E.01855
G1 X125.288 Y172.554 E.01855
G1 X124.787 Y172.666 E.01855
G1 X124.28 Y172.75 E.01855
G1 X123.77 Y172.806 E.01855
G1 X123.257 Y172.834 E.01855
G1 X122.743 Y172.834 E.01855
G1 X122.23 Y172.806 E.01855
G1 X121.72 Y172.75 E.01855
G1 X121.213 Y172.666 E.01855
G1 X120.712 Y172.554 E.01855
G1 X120.217 Y172.415 E.01855
G1 X119.737 Y172.251 E.0183
G1 X119.001 Y171.937 E.02888
G1 X118.332 Y171.592 E.0272
G1 X117.866 Y171.305 E.01975
G1 X117.444 Y171.012 E.01855
G1 X117.04 Y170.696 E.01854
G1 X116.652 Y170.358 E.01855
G1 X116.284 Y170 E.01854
G1 X115.936 Y169.622 E.01854
G1 X115.61 Y169.226 E.01855
G1 X115.305 Y168.812 E.01854
G1 X115.024 Y168.382 E.01855
G1 X114.766 Y167.937 E.01858
G1 X114.533 Y167.477 E.01862
G1 X114.325 Y167.005 E.01863
G1 X114.143 Y166.522 E.01862
G1 X113.989 Y166.03 E.01861
G1 X113.862 Y165.531 E.0186
G1 X113.762 Y165.026 E.01859
G1 X113.69 Y164.517 E.01857
G1 X113.647 Y164.005 E.01856
G1 X113.632 Y163.491 E.01855
G1 X113.644 Y162.978 E.01854
G1 X113.685 Y162.466 E.01853
G1 X113.754 Y161.958 E.01852
G1 X113.85 Y161.454 E.01851
G1 X113.974 Y160.957 E.01849
G1 X114.13 Y160.459 E.01884
G1 X114.506 Y159.534 E.03605
G1 X114.742 Y159.044 E.01963
G1 X114.99 Y158.608 E.01813
G1 X115.872 Y157.292 E.05719
G1 X116.377 Y156.312 E.03983
G1 X116.663 Y155.363 E.03578
G1 X116.75 Y154.899 E.01704
G1 X116.818 Y154.335 E.02051
G1 X116.84 Y97.166 E2.06414
G1 X129.13 Y97.166 E.44373
G1 X129.578 Y96.745 F24000
;TYPE:Outer wall
G1 F3000
G1 X129.627 Y96.853 E.00428
G1 X129.641 Y154.364 E2.07652
G1 X129.794 Y155.316 E.03478
G1 X129.942 Y155.864 E.0205
G1 X130.393 Y156.866 E.03967
G1 X131.154 Y157.984 E.04884
G1 X131.453 Y158.459 E.02029
G1 X131.716 Y158.931 E.0195
G1 X131.952 Y159.418 E.01953
G1 X132.161 Y159.917 E.01953
G1 X132.343 Y160.426 E.01952
G1 X132.496 Y160.944 E.01951
G1 X132.62 Y161.47 E.0195
G1 X132.715 Y162.001 E.01949
G1 X132.781 Y162.536 E.01947
G1 X132.818 Y163.074 E.01946
G1 X132.824 Y163.613 E.01946
G1 X132.802 Y164.151 E.01944
G1 X132.75 Y164.687 E.01943
G1 X132.668 Y165.218 E.01942
G1 X132.558 Y165.744 E.01941
G1 X132.419 Y166.263 E.0194
G1 X132.244 Y166.791 E.02006
G1 X131.895 Y167.626 E.03271
G1 X131.58 Y168.255 E.02538
G1 X131.316 Y168.701 E.01873
G1 X131.017 Y169.149 E.01945
G1 X130.693 Y169.58 E.01945
G1 X130.347 Y169.992 E.01946
G1 X129.978 Y170.385 E.01945
G1 X129.589 Y170.757 E.01945
G1 X129.179 Y171.107 E.01945
G1 X128.751 Y171.434 E.01944
G1 X128.292 Y171.745 E.02002
G1 X127.405 Y172.241 E.03668
G1 X126.863 Y172.502 E.02173
G1 X126.38 Y172.694 E.01878
G1 X125.869 Y172.865 E.01945
G1 X125.349 Y173.008 E.01945
G1 X124.823 Y173.123 E.01944
G1 X124.291 Y173.208 E.01945
M73 P3 R14
M73 P3 R14
G1 X123.755 Y173.264 E.01945
G1 X123.211 Y173.291 E.01967
G1 X122.679 Y173.288 E.01923
G1 X122.141 Y173.256 E.01944
G1 X121.606 Y173.194 E.01945
G1 X121.075 Y173.103 E.01945
G1 X120.55 Y172.983 E.01944
G1 X120.032 Y172.835 E.01946
G1 X119.318 Y172.569 E.02749
G1 X118.745 Y172.319 E.02258
G1 X118.037 Y171.947 E.02889
G1 X117.607 Y171.681 E.01824
G1 X117.165 Y171.373 E.01945
G1 X116.741 Y171.042 E.01944
G1 X116.335 Y170.687 E.01946
G1 X115.949 Y170.311 E.01945
G1 X115.568 Y169.894 E.02041
G1 X115.243 Y169.498 E.01849
G1 X114.924 Y169.064 E.01944
G1 X114.629 Y168.613 E.01946
G1 X114.359 Y168.146 E.01949
G1 X114.115 Y167.663 E.01952
G1 X113.898 Y167.168 E.01954
G1 X113.708 Y166.661 E.01953
G1 X113.546 Y166.146 E.01951
G1 X113.414 Y165.622 E.0195
G1 X113.31 Y165.092 E.01949
G1 X113.235 Y164.558 E.01948
G1 X113.19 Y164.021 E.01947
G1 X113.175 Y163.482 E.01945
G1 X113.189 Y162.944 E.01945
G1 X113.232 Y162.407 E.01944
G1 X113.305 Y161.874 E.01942
G1 X113.406 Y161.346 E.01941
G1 X113.537 Y160.825 E.0194
G1 X113.703 Y160.295 E.02007
G1 X114.093 Y159.339 E.03726
G1 X114.343 Y158.82 E.02081
G1 X114.605 Y158.362 E.01904
G1 X115.468 Y157.078 E.05587
G1 X115.939 Y156.18 E.03663
G1 X116.225 Y155.231 E.03578
G1 X116.297 Y154.84 E.01436
G1 X116.361 Y154.335 E.01838
G1 X116.383 Y96.779 E2.0781
G1 X116.517 Y96.709 E.00547
G1 X129.475 Y96.709 E.46784
G1 X129.54 Y96.732 E.00249
G1 E-.5 F1800
;WIPE_START
G1 F12000
G1 X129.627 Y96.853
G1 X129.628 Y98.704
;WIPE_END
G1 Z.4 F24000
G1 X129.235 Y167.443 Z.4
G1 Z.2
G1 E.5 F1800
;TYPE:Inner wall
G1 F3000
G1 X129.158 Y167.614 E.00677
G1 X128.839 Y168.052 E.01955
G1 X128.279 Y168.675 E.03025
G1 X127.687 Y169.204 E.02866
G1 X127.277 Y169.535 E.01902
G1 X126.476 Y170.023 E.03389
G1 X125.95 Y170.263 E.02086
G1 X125.386 Y170.497 E.02207
G1 X124.313 Y170.774 E.03999
G1 X123.153 Y170.886 E.04207
G1 X122.309 Y170.855 E.0305
G1 X121.582 Y170.739 E.0266
G1 X121.023 Y170.619 E.02063
G1 X120.223 Y170.348 E.0305
G1 X119.27 Y169.881 E.03832
G1 X118.626 Y169.447 E.02802
G1 X118.19 Y169.117 E.01975
G1 X117.579 Y168.534 E.0305
G1 X116.842 Y167.614 E.04256
G1 X116.626 Y167.125 E.01933
G1 X116.577 Y166.733 E.01427
G1 X116.577 Y160.203 E.23576
G1 X116.668 Y159.671 E.01949
G1 X116.92 Y159.213 E.01885
G1 X117.427 Y158.569 E.02961
G1 X118.19 Y157.818 E.03866
G1 X119.058 Y157.182 E.03886
G1 X119.783 Y156.793 E.02971
G1 X120.223 Y156.587 E.01752
G1 X121.023 Y156.316 E.0305
G1 X122.078 Y156.105 E.03886
G1 X123.153 Y156.05 E.03886
G1 X123.749 Y156.083 E.02154
G1 X124.752 Y156.258 E.03678
G1 X125.336 Y156.438 E.02205
G1 X125.991 Y156.678 E.02518
G1 X126.743 Y157.061 E.0305
G1 X127.387 Y157.498 E.02809
G1 X127.81 Y157.818 E.01914
G1 X128.424 Y158.404 E.03065
G1 X129.08 Y159.213 E.03762
G1 X129.332 Y159.671 E.01885
G1 X129.423 Y160.203 E.01949
G1 X129.423 Y166.733 E.23576
G1 X129.371 Y167.138 E.01476
G1 X129.251 Y167.407 E.01062
G1 X128.807 Y167.278 F24000
G1 F3000
G1 X128.745 Y167.408 E.0052
G1 X128.435 Y167.821 E.01865
G1 X127.868 Y168.447 E.03049
G1 X127.396 Y168.852 E.02244
G1 X126.961 Y169.195 E.02
G1 X126.237 Y169.633 E.03057
G1 X125.238 Y170.065 E.0393
G1 X124.175 Y170.331 E.03956
G1 X123.336 Y170.423 E.0305
G1 X122.818 Y170.416 E.01868
G1 X122.242 Y170.392 E.02082
G1 X121.664 Y170.289 E.0212
G1 X121.17 Y170.186 E.01824
G1 X120.37 Y169.915 E.0305
G1 X119.478 Y169.474 E.03593
G1 X118.891 Y169.075 E.02563
G1 X118.506 Y168.787 E.01736
G1 X117.895 Y168.203 E.0305
G1 X117.223 Y167.362 E.03886
G1 X117.069 Y167.013 E.01381
G1 X117.034 Y166.421 E.02139
G1 X117.034 Y160.203 E.22452
G1 X117.12 Y159.769 E.01598
G1 X117.279 Y159.496 E.0114
G1 X117.786 Y158.852 E.02961
G1 X118.506 Y158.149 E.03632
G1 X119.323 Y157.554 E.03647
G1 X119.991 Y157.2 E.02732
G1 X120.37 Y157.02 E.01513
G1 X121.17 Y156.749 E.0305
G1 X122.161 Y156.555 E.03647
G1 X123.17 Y156.506 E.03647
G1 X123.716 Y156.539 E.01975
G1 X124.67 Y156.707 E.03498
G1 X125.189 Y156.871 E.01965
G1 X125.783 Y157.085 E.02279
G1 X126.536 Y157.469 E.0305
G1 X127.123 Y157.871 E.0257
G1 X127.494 Y158.149 E.01675
G1 X128.107 Y158.734 E.03061
G1 X128.721 Y159.496 E.03533
G1 X128.901 Y159.823 E.01347
G1 X128.966 Y160.215 E.01434
G1 X128.966 Y166.733 E.23534
G1 X128.929 Y167.022 E.01054
G1 X128.824 Y167.242 E.00878
G1 X128.353 Y167.156 F24000
G1 F3000
G1 X128.141 Y167.459 E.01333
G1 X127.601 Y168.061 E.0292
G1 X127.106 Y168.499 E.02388
G1 X126.593 Y168.883 E.02313
G1 X126.001 Y169.242 E.02499
G1 X125.211 Y169.583 E.03107
G1 X124.576 Y169.768 E.02388
G1 X123.928 Y169.899 E.02387
G1 X123.286 Y169.969 E.02332
G1 X122.4 Y169.944 E.03199
G1 X121.747 Y169.84 E.02389
G1 X121.105 Y169.682 E.02386
G1 X120.516 Y169.482 E.02244
G1 X119.686 Y169.067 E.03354
G1 X119.155 Y168.702 E.02324
G1 X118.642 Y168.285 E.02386
G1 X118.21 Y167.873 E.02156
G1 X117.559 Y167.031 E.03843
G1 X117.491 Y166.733 E.01105
G1 X117.491 Y160.203 E.23576
G1 X117.542 Y159.942 E.00959
G1 X118.078 Y159.219 E.03249
G1 X118.821 Y158.479 E.03787
G1 X119.587 Y157.927 E.03408
G1 X120.199 Y157.607 E.02493
G1 X120.516 Y157.453 E.01274
G1 X121.316 Y157.182 E.0305
G1 X122.243 Y157.005 E.03408
G1 X123.186 Y156.963 E.03408
G1 X123.757 Y157.005 E.02064
G1 X124.587 Y157.157 E.0305
G1 X125.484 Y157.453 E.03408
