; HEADER_BLOCK_START
; generated by OrcaSlicer 2.1.1 on 2024-09-11 at 16:00:53
; total layer number: 110
; filament_density: 1.24
; filament_diameter: 1.75
; max_z_height: 22.00
; HEADER_BLOCK_END

; THUMBNAIL_BLOCK_START

;
; THUMBNAIL_BLOCK_END

; THUMBNAIL_BLOCK_START

;
; THUMBNAIL_BLOCK_END

; external perimeters extrusion width = 0.42mm
; perimeters extrusion width = 0.45mm
; infill extrusion width = 0.45mm
; solid infill extrusion width = 0.45mm
; top infill extrusion width = 0.42mm
; first layer extrusion width = 0.50mm

; EXECUTABLE_BLOCK_START
EXCLUDE_OBJECT_DEFINE NAME=Corps1.stl_id_0_copy_0 CENTER=115,115 POLYGON=[[84.5,105],[84.5126,104.776],[84.5501,104.555],[84.6122,104.339],[84.6981,104.132],[84.8066,103.936],[84.9363,103.753],[85.0858,103.586],[85.253,103.436],[85.4359,103.307],[85.6322,103.198],[85.8394,103.112],[86.055,103.05],[86.2761,103.013],[86.5,103],[143.5,103],[143.724,103.013],[143.945,103.05],[144.161,103.112],[144.368,103.198],[144.564,103.307],[144.747,103.436],[144.914,103.586],[145.064,103.753],[145.193,103.936],[145.302,104.132],[145.388,104.339],[145.45,104.555],[145.487,104.776],[145.5,105],[145.5,125],[145.487,125.224],[145.45,125.445],[145.388,125.661],[145.302,125.868],[145.193,126.064],[145.064,126.247],[144.914,126.414],[144.747,126.564],[144.564,126.693],[144.368,126.802],[144.161,126.888],[143.945,126.95],[143.724,126.987],[143.5,127],[86.5,127],[86.2761,126.987],[86.055,126.95],[85.8394,126.888],[85.6322,126.802],[85.4359,126.693],[85.253,126.564],[85.0858,126.414],[84.9363,126.247],[84.8066,126.064],[84.6981,125.868],[84.6122,125.661],[84.5501,125.445],[84.5126,125.224],[84.5,125],[84.5,105]]
M73 P0 R110
;TYPE:Custom
M220 S100
G90 ; use absolute coordinates
M83 ; extruder relative mode
M104 S150 ; set temporary nozzle temp to prevent oozing during homing
M140 S80 ; set final bed temp
G4 S30 ; allow partial nozzle warmup
G28 ; home all axis and restore leveling
BED_MESH_CALIBRATE PROFILE=adaptive ADAPTIVE=1 ADAPTIVE_MARGIN=0
G1 Z25 F240
G1 X10.0 Y30 F3000
M104 S253 ; set final nozzle temp
M190 S80 ; wait for bed temp to stabilize
M109 S253 ; wait for nozzle temp to stabilize
G1 Z0.28 F240
G92 E0 ; Move Z Axis up
G1 Z2.0 F5000 ; Move to start position
G1 X5 Y30 Z0.28 F300 ; Draw the first line
G1 X5 Y200 Z0.28 F1500 E15 ; Move to side a little
G1 X5.4 Y200 Z0.28 F5000.0 ; Draw the second line
G1 X5.4 Y50 Z0.28 F1500.0 E30 ; Reset Extruder
G92 E0 ; Move Z Axis up
G1 Z2.0 F3000
M117 Start Printing..
G90
G21
M83 ; use relative distances for extrusion
; filament start gcode
M106 S0
;LAYER_CHANGE
;Z:0.2
;HEIGHT:0.2
;BEFORE_LAYER_CHANGE
;0.2
G92 E0

G1 E-1.5 F1800
;_SET_FAN_SPEED_CHANGING_LAYER
SET_VELOCITY_LIMIT ACCEL=500
SET_VELOCITY_LIMIT SQUARE_CORNER_VELOCITY=7
G1 Z.2 F18000
G1 X91.311 Y121.263
G1 Z.2
G1 E1.5 F1800
;TYPE:Skirt
;WIDTH:0.5
G1 F3000
G1 X92.517 Y120.506 E.04871
G1 X93.567 Y120.177 E.03762
G1 X94.5 Y120.086 E.03208
G1 X151.663 Y120.09 E1.95531
G1 X152.433 Y120.177 E.0265
G1 X153.483 Y120.506 E.03763
G1 X154.25 Y120.93 E.02999
G1 X154.856 Y121.413 E.0265
G1 X155.44 Y122.067 E.02999
G1 X155.852 Y122.723 E.0265
G1 X156.188 Y123.533 E.02999
G1 X156.397 Y124.613 E.03762
G1 X156.414 Y145 E.69736
G1 X156.36 Y145.712 E.02442
G1 X156.08 Y146.776 E.03763
G1 X155.44 Y147.933 E.04524
M73 P0 R109
G1 X154.689 Y148.737 E.03763
G1 X153.483 Y149.494 E.04871
G1 X152.433 Y149.823 E.03763
G1 X151.5 Y149.914 E.03207
G1 X94.337 Y149.91 E1.95531
G1 X93.033 Y149.688 E.04524
G1 X91.75 Y149.07 E.04871
G1 X90.763 Y148.189 E.04524
G1 X90.006 Y146.983 E.04871
G1 X89.677 Y145.933 E.03763
G1 X89.586 Y145 E.03207
G1 X89.603 Y124.613 E.69736
G1 X89.92 Y123.224 E.04871
G1 X90.456 Y122.212 E.03918
G1 X91.284 Y121.293 E.04231
G1 X91.616 Y121.604 F18000
G1 F3000
G1 X92.692 Y120.928 E.04348
G1 X93.643 Y120.628 E.03412
G1 X94.5 Y120.543 E.02945
G1 X151.638 Y120.547 E1.95443
G1 X152.357 Y120.628 E.02475
G1 X153.101 Y120.842 E.02649
G1 X153.753 Y121.156 E.02475
G1 X154.551 Y121.754 E.03413
G1 X155.068 Y122.331 E.02649
G1 X155.452 Y122.944 E.02474
G1 X155.749 Y123.659 E.02649
G1 X155.941 Y124.638 E.03413
G1 X155.941 Y145.362 E.70886
G1 X155.658 Y146.601 E.04348
G1 X155.068 Y147.669 E.04174
G1 X154.384 Y148.396 E.03413
G1 X153.308 Y149.072 E.04348
G1 X152.357 Y149.372 E.03413
G1 X151.5 Y149.457 E.02944
G1 X94.362 Y149.453 E1.95444
G1 X93.159 Y149.249 E.04174
G1 X92.014 Y148.697 E.04348
G1 X91.104 Y147.884 E.04174
G1 X90.428 Y146.808 E.04348
G1 X90.128 Y145.857 E.03413
G1 X90.043 Y145 E.02944
G1 X90.059 Y124.638 E.69649
G1 X90.342 Y123.399 E.04348
G1 X90.829 Y122.477 E.03568
G1 X91.589 Y121.634 E.03881
; printing object Corps1.stl id:0 copy 0
G1 E-1.5 F1800
;WIPE_START
G1 F12000
G1 X92.692 Y120.928
G1 X93.35 Y120.72
;WIPE_END
EXCLUDE_OBJECT_START NAME=Corps1.stl_id_0_copy_0
G1 Z.4 F18000
G1 X96.939 Y144.872 Z.4
G1 Z.2
G1 E1.5 F1800
;TYPE:Inner wall
;WIDTH:0.499999
G1 X94.675 Y144.872 E.07744
G1 X94.628 Y144.825 E.00228
G1 X94.628 Y125.128 E.67372
G1 X151.372 Y125.128 E1.94094
G1 X151.372 Y144.872 E.67533
G1 X96.979 Y144.872 E1.86053
G1 X96.939 Y145.329 F18000
G1 F1800
G1 X94.68 Y145.329 E.07729
G1 X94.401 Y145.289 E.00965
G1 X94.259 Y145.205 E.00564
G1 X94.171 Y144.863 E.01206
G1 X94.171 Y125.119 E.67537
G1 X94.202 Y124.894 E.00775
G1 X94.331 Y124.732 E.00708
G1 X94.591 Y124.671 E.00915
G1 X151.508 Y124.671 E1.94687
G1 X151.717 Y124.769 E.00791
G1 X151.829 Y125.053 E.01042
G1 X151.829 Y145.008 E.68257
G1 X151.731 Y145.217 E.00791
G1 X151.447 Y145.329 E.01042
G1 X96.979 Y145.329 E1.86311
G1 X96.939 Y145.786 F18000
G1 F1800
G1 X94.68 Y145.786 E.07729
G1 X94.213 Y145.72 E.01612
G1 X94.01 Y145.599 E.00809
G1 X93.814 Y145.358 E.01064
G1 X93.714 Y144.902 E.01597
G1 X93.714 Y125.119 E.67669
G1 X93.742 Y124.823 E.01015
G1 X93.891 Y124.515 E.01173
G1 X94.161 Y124.299 E.01181
G1 X94.566 Y124.214 E.01413
G1 X151.385 Y124.214 E1.94353
G1 X151.673 Y124.241 E.00991
G1 X151.985 Y124.391 E.01185
G1 X152.184 Y124.635 E.01074
G1 X152.286 Y125.045 E.01448
G1 X152.286 Y144.883 E.67857
G1 X152.259 Y145.173 E.00996
G1 X152.109 Y145.485 E.01184
G1 X151.865 Y145.684 E.01074
G1 X151.466 Y145.786 E.0141
G1 X96.979 Y145.786 E1.86376
G1 X96.939 Y146.243 F18000
G1 F1800
G1 X94.68 Y146.243 E.07729
G1 X94.073 Y146.16 E.02095
G1 X93.841 Y146.049 E.0088
G1 X93.544 Y145.775 E.01383
G1 X93.34 Y145.427 E.01379
G1 X93.257 Y144.94 E.0169
G1 X93.257 Y125.119 E.67801
G1 X93.294 Y124.72 E.01368
G1 X93.457 Y124.347 E.01393
G1 X93.728 Y124.032 E.01423
G1 X94.093 Y123.839 E.01413
G1 X94.54 Y123.757 E.01554
G1 X151.461 Y123.757 E1.94702
G1 X151.903 Y123.837 E.01537
G1 X152.272 Y124.032 E.01426
G1 X152.529 Y124.325 E.01333
G1 X152.645 Y124.584 E.00971
G1 X152.743 Y125.045 E.01614
G1 X152.743 Y145.065 E.68479
G1 X152.616 Y145.537 E.01672
G1 X152.377 Y145.863 E.01382
G1 X152.054 Y146.105 E.01381
G1 X151.479 Y146.243 E.02023
G1 X96.979 Y146.243 E1.86419
G1 X96.939 Y146.7 F18000
;TYPE:Outer wall
G1 F1800
G1 X94.521 Y146.7 E.08271
G1 X93.933 Y146.6 E.02042
G1 X93.596 Y146.438 E.01277
G1 X93.299 Y146.201 E.01301
G1 X93.062 Y145.904 E.01301
G1 X92.9 Y145.567 E.01276
G1 X92.8 Y144.979 E.02043
G1 X92.8 Y125.119 E.67933
G1 X92.845 Y124.618 E.01721
G1 X92.97 Y124.263 E.01285
G1 X93.172 Y123.941 E.01301
G1 X93.441 Y123.672 E.01301
G1 X93.763 Y123.47 E.013
G1 X94.127 Y123.343 E.01317
G1 X94.515 Y123.3 E.01336
G1 X151.385 Y123.3 E1.94527
G1 X151.878 Y123.344 E.01694
G1 X152.237 Y123.47 E.01301
G1 X152.559 Y123.672 E.01301
G1 X152.828 Y123.941 E.01301
G1 X153.027 Y124.258 E.01278
G1 X153.149 Y124.681 E.01506
G1 X153.2 Y125.045 E.01261
G1 X153.2 Y144.883 E.67857
G1 X153.156 Y145.378 E.01698
G1 X153.03 Y145.737 E.01301
G1 X152.828 Y146.059 E.01301
G1 X152.559 Y146.328 E.01301
G1 X152.242 Y146.527 E.01279
G1 X151.887 Y146.629 E.01266
G1 X151.492 Y146.7 E.01373
G1 X96.979 Y146.7 E1.86463
G1 E-1.5
;WIPE_START
G1 F12000
G1 X94.979 Y146.7
;WIPE_END
G1 Z.4 F18000
G1 X130.028 Y137.977 Z.4
G1 Z.2
G1 E1.5 F1800
;TYPE:Inner wall
G1 X129.833 Y137.632 E.01355
G1 X129.48 Y136.677 E.03484
G1 X129.372 Y136.186 E.0172
G1 X129.288 Y135.676 E.01766
G1 X129.261 Y135.168 E.01741
G1 X129.261 Y134.658 E.01745
G1 X129.315 Y134.157 E.01723
G1 X129.399 Y133.649 E.01762
G1 X129.7 Y132.675 E.03484
G1 X130.154 Y131.764 E.03484
G1 X130.751 Y130.938 E.03484
G1 X131.474 Y130.221 E.03485
G1 X132.304 Y129.63 E.03484
G1 X133.219 Y129.182 E.03485
G1 X134.195 Y128.889 E.03484
G1 X135.2 Y128.759 E.03467
G1 X135.796 Y128.755 E.0204
G1 X136.727 Y128.873 E.03207
G1 X137.706 Y129.153 E.03484
G1 X138.626 Y129.59 E.03484
G1 X139.464 Y130.169 E.03484
G1 X140.193 Y130.874 E.03467
G1 X140.803 Y131.694 E.03497
G1 X141.27 Y132.601 E.0349
G1 X141.583 Y133.57 E.03484
G1 X141.735 Y134.578 E.03485
G1 X141.72 Y135.596 E.03484
G1 X141.541 Y136.599 E.03484
G1 X141.201 Y137.559 E.03484
G1 X140.709 Y138.451 E.03485
G1 X140.079 Y139.252 E.03484
G1 X139.327 Y139.939 E.03484
G1 X138.474 Y140.496 E.03484
G1 X137.542 Y140.906 E.03485
G1 X136.555 Y141.159 E.03484
G1 X135.54 Y141.249 E.03484
G1 X134.524 Y141.172 E.03484
G1 X133.535 Y140.932 E.03484
M73 P1 R109
G1 X132.597 Y140.533 E.03484
G1 X131.736 Y139.988 E.03484
G1 X130.976 Y139.31 E.03484
G1 X130.336 Y138.518 E.03484
G1 X130.048 Y138.012 E.01992
G1 X130.421 Y137.747 F18000
G1 F1800
G1 X130.236 Y137.417 E.01293
G1 X129.913 Y136.53 E.0323
G1 X129.739 Y135.602 E.0323
G1 X129.718 Y134.658 E.0323
G1 X129.85 Y133.723 E.0323
G1 X130.133 Y132.822 E.0323
G1 X130.558 Y131.979 E.0323
G1 X131.114 Y131.216 E.0323
G1 X131.787 Y130.554 E.0323
G1 X132.559 Y130.01 E.0323
G1 X133.409 Y129.598 E.0323
G1 X134.315 Y129.33 E.0323
G1 X135.246 Y129.213 E.03213
G1 X135.787 Y129.212 E.01851
G1 X136.661 Y129.325 E.03015
G1 X137.568 Y129.589 E.0323
G1 X138.42 Y129.997 E.0323
G1 X139.194 Y130.538 E.0323
G1 X139.866 Y131.194 E.03213
G1 X140.429 Y131.957 E.03243
G1 X140.858 Y132.799 E.03234
G1 X141.144 Y133.699 E.0323
G1 X141.281 Y134.634 E.0323
G1 X141.264 Y135.578 E.0323
G1 X141.093 Y136.506 E.0323
G1 X140.774 Y137.395 E.0323
G1 X140.315 Y138.22 E.0323
G1 X139.728 Y138.96 E.0323
G1 X139.028 Y139.594 E.0323
G1 X138.235 Y140.106 E.0323
G1 X137.369 Y140.483 E.0323
G1 X136.453 Y140.713 E.0323
G1 X135.512 Y140.792 E.0323
G1 X134.571 Y140.717 E.0323
G1 X133.654 Y140.491 E.0323
G1 X132.787 Y140.118 E.0323
G1 X131.991 Y139.609 E.0323
G1 X131.289 Y138.978 E.0323
G1 X130.699 Y138.241 E.0323
G1 X130.441 Y137.782 E.018
G1 X130.816 Y137.52 F18000
G1 F1800
G1 X130.639 Y137.202 E.01242
G1 X130.346 Y136.384 E.02975
G1 X130.19 Y135.528 E.02976
G1 X130.175 Y134.658 E.02976
G1 X130.301 Y133.797 E.02976
G1 X130.566 Y132.969 E.02976
G1 X130.961 Y132.194 E.02976
G1 X131.477 Y131.494 E.02975
G1 X132.101 Y130.887 E.02976
G1 X132.814 Y130.389 E.02976
G1 X133.599 Y130.014 E.02976
G1 X134.434 Y129.771 E.02976
G1 X135.293 Y129.668 E.02959
G1 X135.919 Y129.68 E.02142
G1 X136.596 Y129.778 E.0234
G1 X137.43 Y130.025 E.02976
G1 X138.213 Y130.405 E.02976
G1 X138.924 Y130.907 E.02976
G1 X139.54 Y131.514 E.02959
G1 X140.055 Y132.22 E.02989
G1 X140.446 Y132.998 E.02979
G1 X140.706 Y133.828 E.02975
G1 X140.827 Y134.689 E.02976
G1 X140.807 Y135.559 E.02976
G1 X140.646 Y136.414 E.02976
G1 X140.347 Y137.231 E.02975
G1 X139.921 Y137.989 E.02976
G1 X139.376 Y138.668 E.02976
G1 X138.729 Y139.249 E.02976
G1 X137.996 Y139.717 E.02976
G1 X137.196 Y140.06 E.02976
G1 X136.351 Y140.268 E.02976
G1 X135.484 Y140.336 E.02976
G1 X134.617 Y140.263 E.02976
G1 X133.774 Y140.049 E.02976
G1 X132.977 Y139.702 E.02976
G1 X132.246 Y139.229 E.02976
G1 X131.602 Y138.645 E.02976
G1 X131.062 Y137.963 E.02976
G1 X130.835 Y137.555 E.01596
G1 X131.212 Y137.297 F18000
G1 F1800
G1 X131.043 Y136.987 E.01206
G1 X130.779 Y136.237 E.02721
G1 X130.641 Y135.453 E.02721
G1 X130.632 Y134.658 E.02721
G1 X130.752 Y133.872 E.02721
G1 X130.999 Y133.115 E.02721
G1 X131.365 Y132.409 E.02721
G1 X131.84 Y131.771 E.02721
G1 X132.414 Y131.22 E.02721
G1 X133.069 Y130.768 E.02721
G1 X133.789 Y130.43 E.02721
G1 X134.554 Y130.212 E.02721
G1 X135.34 Y130.123 E.02705
G1 X135.854 Y130.133 E.0176
G1 X136.531 Y130.23 E.0234
G1 X137.293 Y130.461 E.02721
G1 X138.006 Y130.813 E.02721
G1 X138.653 Y131.275 E.02721
G1 X139.213 Y131.834 E.02705
G1 X139.681 Y132.483 E.02736
G1 X140.035 Y133.196 E.02723
G1 X140.267 Y133.957 E.02721
G1 X140.374 Y134.745 E.02722
G1 X140.35 Y135.54 E.02721
G1 X140.198 Y136.321 E.02721
G1 X139.921 Y137.067 E.02721
G1 X139.526 Y137.758 E.02721
G1 X139.025 Y138.375 E.02721
G1 X138.429 Y138.903 E.02721
G1 X137.756 Y139.327 E.02721
G1 X137.023 Y139.636 E.02721
G1 X136.25 Y139.822 E.02721
G1 X135.456 Y139.88 E.02721
G1 X134.664 Y139.808 E.02721
G1 X133.894 Y139.608 E.02721
G1 X133.167 Y139.286 E.02721
G1 X132.501 Y138.85 E.02721
G1 X131.915 Y138.312 E.02721
G1 X131.425 Y137.685 E.02721
G1 X131.231 Y137.332 E.01379
G1 X131.611 Y137.078 F18000
;TYPE:Outer wall
G1 F1800
G1 X131.446 Y136.773 E.01188
G1 X131.212 Y136.09 E.02467
G1 X131.092 Y135.379 E.02467
G1 X131.089 Y134.658 E.02467
G1 X131.203 Y133.946 E.02467
G1 X131.431 Y133.262 E.02467
G1 X131.768 Y132.624 E.02467
G1 X132.204 Y132.049 E.02467
G1 X132.727 Y131.553 E.02467
G1 X133.324 Y131.148 E.02467
G1 X133.979 Y130.845 E.02467
G1 X134.674 Y130.653 E.02467
G1 X135.386 Y130.577 E.02451
G1 X135.789 Y130.585 E.01378
G1 X136.466 Y130.682 E.0234
G1 X137.155 Y130.897 E.02467
G1 X137.8 Y131.22 E.02467
G1 X138.383 Y131.644 E.02467
G1 X138.887 Y132.154 E.02451
G1 X139.307 Y132.746 E.02482
G1 X139.623 Y133.394 E.02468
G1 X139.829 Y134.085 E.02467
G1 X139.92 Y134.801 E.02467
G1 X139.893 Y135.522 E.02467
G1 X139.75 Y136.229 E.02467
G1 X139.494 Y136.903 E.02467
G1 X139.132 Y137.527 E.02467
G1 X138.673 Y138.083 E.02467
G1 X138.13 Y138.558 E.02467
G1 X137.517 Y138.938 E.02467
G1 X136.851 Y139.213 E.02467
G1 X136.148 Y139.377 E.02467
G1 X135.428 Y139.424 E.02467
G1 X134.711 Y139.353 E.02467
G1 X134.014 Y139.167 E.02467
G1 X133.356 Y138.87 E.02467
G1 X132.756 Y138.471 E.02467
G1 X132.229 Y137.979 E.02467
G1 X131.788 Y137.408 E.02467
G1 X131.63 Y137.114 E.01142
G1 E-1.5
;WIPE_START
G1 F12000
G1 X131.446 Y136.773
G1 X131.212 Y136.09
G1 X131.092 Y135.379
G1 X131.091 Y135.209
;WIPE_END
G1 Z.4 F18000
G1 X104.302 Y134.352 Z.4
G1 Z.2
G1 E1.5 F1800
;TYPE:Inner wall
G1 X104.399 Y133.649 E.02429
G1 X104.7 Y132.675 E.03484
G1 X105.154 Y131.764 E.03484
G1 X105.751 Y130.938 E.03484
G1 X106.474 Y130.221 E.03485
G1 X107.304 Y129.63 E.03484
G1 X108.219 Y129.182 E.03485
G1 X109.195 Y128.889 E.03484
G1 X110.2 Y128.759 E.03467
G1 X110.796 Y128.755 E.0204
G1 X111.727 Y128.873 E.03207
G1 X112.706 Y129.153 E.03484
G1 X113.626 Y129.59 E.03484
G1 X114.464 Y130.169 E.03484
G1 X115.196 Y130.878 E.03484
G1 X115.803 Y131.695 E.03484
G1 X116.27 Y132.601 E.03485
G1 X116.583 Y133.57 E.03484
G1 X116.672 Y134.066 E.01723
G1 X116.735 Y134.578 E.01762
G1 X116.741 Y135.087 E.01741
G1 X116.72 Y135.596 E.01745
G1 X116.646 Y136.093 E.01718
G1 X116.542 Y136.594 E.0175
G1 X116.201 Y137.558 E.03496
G1 X115.709 Y138.451 E.0349
G1 X115.083 Y139.248 E.03467
G1 X114.329 Y139.938 E.03496
G1 X113.474 Y140.496 E.0349
G1 X112.542 Y140.906 E.03484
G1 X111.555 Y141.159 E.03484
G1 X110.54 Y141.249 E.03484
G1 X109.524 Y141.172 E.03484
G1 X108.535 Y140.932 E.03484
G1 X107.597 Y140.533 E.03484
G1 X106.736 Y139.988 E.03484
G1 X105.976 Y139.311 E.03484
G1 X105.336 Y138.518 E.03484
G1 X104.833 Y137.632 E.03484
G1 X104.48 Y136.677 E.03484
G1 X104.288 Y135.676 E.03484
G1 X104.261 Y134.658 E.03484
G1 X104.297 Y134.392 E.00918
G1 X104.753 Y134.408 F18000
G1 F1800
G1 X104.85 Y133.723 E.02367
G1 X105.133 Y132.822 E.0323
G1 X105.558 Y131.979 E.0323
G1 X106.114 Y131.216 E.0323
G1 X106.787 Y130.554 E.0323
G1 X107.559 Y130.01 E.0323
G1 X108.409 Y129.598 E.0323
G1 X109.315 Y129.33 E.0323
G1 X110.246 Y129.213 E.03213
G1 X110.787 Y129.212 E.01851
G1 X111.662 Y129.325 E.03015
G1 X112.568 Y129.589 E.0323
G1 X113.42 Y129.997 E.0323
G1 X114.194 Y130.538 E.0323
G1 X114.87 Y131.197 E.0323
G1 X115.429 Y131.958 E.0323
G1 X115.858 Y132.799 E.0323
G1 X116.144 Y133.699 E.0323
G1 X116.281 Y134.634 E.0323
G1 X116.264 Y135.578 E.0323
G1 X116.094 Y136.501 E.03213
G1 X115.775 Y137.394 E.03243
