; HEADER_BLOCK_START
; generated by OrcaSlicer 2.1.1 on 2024-07-21 at 17:28:49
; total layer number: 100
; filament_density: 1.27
; filament_diameter: 1.75
; max_z_height: 20.00
; HEADER_BLOCK_END

; THUMBNAIL_BLOCK_START

;
; THUMBNAIL_BLOCK_END

; THUMBNAIL_BLOCK_START

;
; THUMBNAIL_BLOCK_END

; external perimeters extrusion width = 0.42mm
; perimeters extrusion width = 0.45mm
; infill extrusion width = 0.45mm
; solid infill extrusion width = 0.45mm
; top infill extrusion width = 0.42mm
; first layer extrusion width = 0.50mm

; EXECUTABLE_BLOCK_START
EXCLUDE_OBJECT_DEFINE NAME=Corps1.stl_id_0_copy_0 CENTER=115,115 POLYGON=[[79.7743,90],[150.226,90],[150.226,140],[79.7743,140],[79.7743,90]]
M73 P0 R24
;TYPE:Custom
M220 S100
G90 ; use absolute coordinates
M83 ; extruder relative mode
M104 S150 ; set temporary nozzle temp to prevent oozing during homing
M140 S70 ; set final bed temp
G4 S30 ; allow partial nozzle warmup
G28 ; home all axis and restore leveling
BED_MESH_CALIBRATE PROFILE=adaptive ADAPTIVE=1 ADAPTIVE_MARGIN=0
G1 Z25 F240
G1 X10.0 Y30 F3000
M104 S245 ; set final nozzle temp
M190 S70 ; wait for bed temp to stabilize
M109 S245 ; wait for nozzle temp to stabilize
G1 Z0.28 F240
G92 E0 ; Move Z Axis up
G1 Z2.0 F5000 ; Move to start position
G1 X5 Y30 Z0.28 F300 ; Draw the first line
G1 X5 Y200 Z0.28 F1500 E15 ; Move to side a little
G1 X5.4 Y200 Z0.28 F5000.0 ; Draw the second line
M73 P1 R24
G1 X5.4 Y50 Z0.28 F1500.0 E30 ; Reset Extruder
G92 E0 ; Move Z Axis up
G1 Z2.0 F3000
M117 Start Printing..
G90
G21
M83 ; use relative distances for extrusion
; filament start gcode
M106 S0
;LAYER_CHANGE
;Z:0.2
;HEIGHT:0.2
;BEFORE_LAYER_CHANGE
;0.2
G92 E0

G1 E-.5 F1800
;_SET_FAN_SPEED_CHANGING_LAYER
SET_VELOCITY_LIMIT ACCEL=1000
SET_VELOCITY_LIMIT SQUARE_CORNER_VELOCITY=7
; printing object Corps1.stl id:0 copy 0
EXCLUDE_OBJECT_START NAME=Corps1.stl_id_0_copy_0
G1 Z.2 F24000
G1 X157.469 Y159.243
G1 Z.2
G1 E.5 F1800
;TYPE:Inner wall
;WIDTH:0.499999
G1 X88.531 Y159.243 E2.48905
G1 X88.531 Y110.757 E1.75063
M73 P2 R24
G1 X157.469 Y110.757 E2.48905
G1 X157.469 Y159.203 E1.74918
G1 X157.926 Y159.7 F24000
;TYPE:Outer wall
G1 F1800
G1 X88.074 Y159.7 E2.52206
G1 X88.074 Y110.3 E1.78363
G1 X157.926 Y110.3 E2.52206
G1 X157.926 Y159.66 E1.78219
G1 E-.5
;WIPE_START
M73 P2 R23
G1 F12000
G1 X155.926 Y159.661
;WIPE_END
G1 Z.4 F24000
G1 X157.332 Y111.823
G1 Z.4
M73 P3 R23
G1 Z.2
G1 E.5 F1800
;TYPE:Bottom surface
;WIDTH:0.502406
G1 F3600
G1 X156.608 Y111.1 E.03713
G1 X155.958 Y111.1 E.02359
G1 X157.126 Y112.267 E.05993
G1 X157.126 Y112.917 E.02359
G1 X155.309 Y111.1 E.09328
G1 X154.659 Y111.1 E.02359
G1 X157.126 Y113.567 E.12664
G1 X157.126 Y114.217 E.02359
G1 X154.009 Y111.1 E.15999
G1 X153.359 Y111.1 E.02359
G1 X157.126 Y114.867 E.19335
G1 X157.126 Y115.516 E.02359
G1 X152.709 Y111.1 E.2267
G1 X152.059 Y111.1 E.02359
G1 X157.126 Y116.166 E.26006
G1 X157.126 Y116.816 E.02359
G1 X151.41 Y111.1 E.29341
G1 X150.76 Y111.1 E.02359
G1 X157.126 Y117.466 E.32677
G1 X157.126 Y118.116 E.02359
G1 X150.11 Y111.1 E.36013
G1 X149.46 Y111.1 E.02359
G1 X157.126 Y118.766 E.39348
G1 X157.126 Y119.415 E.02359
G1 X148.81 Y111.1 E.42684
G1 X148.161 Y111.1 E.02359
G1 X157.126 Y120.065 E.46019
G1 X157.126 Y120.715 E.02359
G1 X147.511 Y111.1 E.49355
G1 X146.861 Y111.1 E.02359
G1 X157.126 Y121.365 E.5269
G1 X157.126 Y122.015 E.02359
G1 X146.211 Y111.1 E.56026
G1 X145.561 Y111.1 E.02359
G1 X157.126 Y122.664 E.59361
G1 X157.126 Y123.314 E.02359
G1 X144.912 Y111.1 E.62697
G1 X144.262 Y111.1 E.02359
G1 X157.126 Y123.964 E.66032
G1 X157.126 Y124.614 E.02359
G1 X143.612 Y111.1 E.69368
G1 X142.962 Y111.1 E.02359
G1 X157.126 Y125.264 E.72703
G1 X157.126 Y125.913 E.02359
G1 X142.312 Y111.1 E.76039
G1 X141.662 Y111.1 E.02359
G1 X157.126 Y126.563 E.79374
G1 X157.126 Y127.213 E.02359
G1 X141.013 Y111.1 E.8271
G1 X140.363 Y111.1 E.02359
G1 X157.126 Y127.863 E.86045
G1 X157.126 Y128.513 E.02359
G1 X139.713 Y111.1 E.89381
G1 X139.063 Y111.1 E.02359
G1 X157.126 Y129.163 E.92716
G1 X157.126 Y129.812 E.02359
G1 X138.413 Y111.1 E.96052
G1 X137.764 Y111.1 E.02359
G1 X157.126 Y130.462 E.99387
G1 X157.126 Y131.112 E.02359
G1 X137.114 Y111.1 E1.02723
G1 X136.464 Y111.1 E.02359
G1 X157.126 Y131.762 E1.06058
G1 X157.126 Y132.412 E.02359
G1 X135.814 Y111.1 E1.09394
G1 X135.164 Y111.1 E.02359
G1 X157.126 Y133.061 E1.12729
G1 X157.126 Y133.711 E.02359
G1 X134.515 Y111.1 E1.16065
G1 X133.865 Y111.1 E.02359
G1 X157.126 Y134.361 E1.194
G1 X157.126 Y135.011 E.02359
G1 X133.215 Y111.1 E1.22736
G1 X132.565 Y111.1 E.02359
G1 X157.126 Y135.661 E1.26071
G1 X157.126 Y136.31 E.02359
G1 X131.915 Y111.1 E1.29407
G1 X131.266 Y111.1 E.02359
M73 P4 R23
G1 X157.126 Y136.96 E1.32742
G1 X157.126 Y137.61 E.02359
G1 X130.616 Y111.1 E1.36078
G1 X129.966 Y111.1 E.02359
G1 X157.126 Y138.26 E1.39413
G1 X157.126 Y138.91 E.02359
G1 X129.316 Y111.1 E1.42749
G1 X128.666 Y111.1 E.02359
G1 X157.126 Y139.559 E1.46084
G1 X157.126 Y140.209 E.02359
G1 X128.016 Y111.1 E1.4942
G1 X127.367 Y111.1 E.02359
G1 X157.126 Y140.859 E1.52755
G1 X157.126 Y141.509 E.02359
G1 X126.717 Y111.1 E1.56091
G1 X126.067 Y111.1 E.02359
G1 X157.126 Y142.159 E1.59426
G1 X157.126 Y142.809 E.02359
G1 X125.417 Y111.1 E1.62762
G1 X124.767 Y111.1 E.02359
G1 X157.126 Y143.458 E1.66097
G1 X157.126 Y144.108 E.02359
G1 X124.118 Y111.1 E1.69433
G1 X123.468 Y111.1 E.02359
G1 X157.126 Y144.758 E1.72768
G1 X157.126 Y145.408 E.02359
G1 X122.818 Y111.1 E1.76104
G1 X122.168 Y111.1 E.02359
G1 X157.126 Y146.058 E1.79439
G1 X157.126 Y146.707 E.02359
G1 X121.518 Y111.1 E1.82775
G1 X120.869 Y111.1 E.02359
G1 X157.126 Y147.357 E1.8611
G1 X157.126 Y148.007 E.02359
G1 X120.219 Y111.1 E1.89446
G1 X119.569 Y111.1 E.02359
M73 P5 R23
G1 X157.126 Y148.657 E1.92781
G1 X157.126 Y149.307 E.02359
G1 X118.919 Y111.1 E1.96117
G1 X118.269 Y111.1 E.02359
G1 X157.126 Y149.956 E1.99452
G1 X157.126 Y150.606 E.02359
G1 X117.619 Y111.1 E2.02788
G1 X116.97 Y111.1 E.02359
G1 X157.126 Y151.256 E2.06123
G1 X157.126 Y151.906 E.02359
G1 X116.32 Y111.1 E2.09459
G1 X115.67 Y111.1 E.02359
G1 X157.126 Y152.556 E2.12795
G1 X157.126 Y153.206 E.02359
G1 X115.02 Y111.1 E2.1613
G1 X114.37 Y111.1 E.02359
G1 X157.126 Y153.855 E2.19466
G1 X157.126 Y154.505 E.02359
G1 X113.721 Y111.1 E2.22801
G1 X113.071 Y111.1 E.02359
G1 X157.126 Y155.155 E2.26137
G1 X157.126 Y155.805 E.02359
G1 X112.421 Y111.1 E2.29472
G1 X111.771 Y111.1 E.02359
G1 X157.126 Y156.455 E2.32808
G1 X157.126 Y157.104 E.02359
G1 X111.121 Y111.1 E2.36143
G1 X110.472 Y111.1 E.02359
M73 P6 R23
G1 X157.126 Y157.754 E2.39479
G1 X157.126 Y158.404 E.02359
G1 X109.822 Y111.1 E2.42814
G1 X109.172 Y111.1 E.02359
G1 X156.972 Y158.9 E2.45361
G1 X156.322 Y158.9 E.02359
G1 X108.522 Y111.1 E2.45361
G1 X107.872 Y111.1 E.02359
G1 X155.673 Y158.9 E2.45361
G1 X155.023 Y158.9 E.02359
G1 X107.222 Y111.1 E2.45361
G1 X106.573 Y111.1 E.02359
G1 X154.373 Y158.9 E2.45361
G1 X153.723 Y158.9 E.02359
G1 X105.923 Y111.1 E2.45361
G1 X105.273 Y111.1 E.02359
G1 X153.073 Y158.9 E2.45361
G1 X152.423 Y158.9 E.02359
G1 X104.623 Y111.1 E2.45361
G1 X103.973 Y111.1 E.02359
G1 X151.774 Y158.9 E2.45361
G1 X151.124 Y158.9 E.02359
G1 X103.324 Y111.1 E2.45361
G1 X102.674 Y111.1 E.02359
M73 P7 R22
G1 X150.474 Y158.9 E2.45361
G1 X149.824 Y158.9 E.02359
G1 X102.024 Y111.1 E2.45361
G1 X101.374 Y111.1 E.02359
G1 X149.174 Y158.9 E2.45361
G1 X148.525 Y158.9 E.02359
G1 X100.724 Y111.1 E2.45361
G1 X100.075 Y111.1 E.02359
G1 X147.875 Y158.9 E2.45361
G1 X147.225 Y158.9 E.02359
G1 X99.425 Y111.1 E2.45361
G1 X98.775 Y111.1 E.02359
G1 X146.575 Y158.9 E2.45361
G1 X145.925 Y158.9 E.02359
G1 X98.125 Y111.1 E2.45361
G1 X97.475 Y111.1 E.02359
G1 X145.276 Y158.9 E2.45361
G1 X144.626 Y158.9 E.02359
G1 X96.826 Y111.1 E2.45361
G1 X96.176 Y111.1 E.02359
G1 X143.976 Y158.9 E2.45361
G1 X143.326 Y158.9 E.02359
G1 X95.526 Y111.1 E2.45361
G1 X94.876 Y111.1 E.02359
G1 X142.676 Y158.9 E2.45361
G1 X142.026 Y158.9 E.02359
M73 P8 R22
G1 X94.226 Y111.1 E2.45361
G1 X93.576 Y111.1 E.02359
G1 X141.377 Y158.9 E2.45361
G1 X140.727 Y158.9 E.02359
G1 X92.927 Y111.1 E2.45361
G1 X92.277 Y111.1 E.02359
G1 X140.077 Y158.9 E2.45361
G1 X139.427 Y158.9 E.02359
G1 X91.627 Y111.1 E2.45361
G1 X90.977 Y111.1 E.02359
G1 X138.777 Y158.9 E2.45361
G1 X138.128 Y158.9 E.02359
G1 X90.327 Y111.1 E2.45361
G1 X89.678 Y111.1 E.02359
G1 X137.478 Y158.9 E2.45361
G1 X136.828 Y158.9 E.02359
G1 X89.028 Y111.1 E2.45361
G1 X88.874 Y111.1 E.00558
G1 X88.874 Y111.596 E.01801
G1 X136.178 Y158.9 E2.42814
G1 X135.528 Y158.9 E.02359
G1 X88.874 Y112.246 E2.39478
G1 X88.874 Y112.896 E.02359
G1 X134.879 Y158.9 E2.36143
G1 X134.229 Y158.9 E.02359
M73 P9 R22
G1 X88.874 Y113.545 E2.32807
G1 X88.874 Y114.195 E.02359
G1 X133.579 Y158.9 E2.29472
G1 X132.929 Y158.9 E.02359
G1 X88.874 Y114.845 E2.26136
G1 X88.874 Y115.495 E.02359
G1 X132.279 Y158.9 E2.22801
G1 X131.63 Y158.9 E.02359
G1 X88.874 Y116.145 E2.19465
G1 X88.874 Y116.795 E.02359
G1 X130.98 Y158.9 E2.1613
G1 X130.33 Y158.9 E.02359
G1 X88.874 Y117.444 E2.12794
G1 X88.874 Y118.094 E.02359
G1 X129.68 Y158.9 E2.09459
G1 X129.03 Y158.9 E.02359
G1 X88.874 Y118.744 E2.06123
G1 X88.874 Y119.394 E.02359
G1 X128.38 Y158.9 E2.02788
G1 X127.731 Y158.9 E.02359
G1 X88.874 Y120.044 E1.99452
G1 X88.874 Y120.693 E.02359
G1 X127.081 Y158.9 E1.96117
G1 X126.431 Y158.9 E.02359
G1 X88.874 Y121.343 E1.92781
G1 X88.874 Y121.993 E.02359
G1 X125.781 Y158.9 E1.89446
G1 X125.131 Y158.9 E.02359
M73 P10 R22
G1 X88.874 Y122.643 E1.8611
G1 X88.874 Y123.293 E.02359
G1 X124.482 Y158.9 E1.82775
G1 X123.832 Y158.9 E.02359
G1 X88.874 Y123.942 E1.79439
G1 X88.874 Y124.592 E.02359
G1 X123.182 Y158.9 E1.76104
G1 X122.532 Y158.9 E.02359
G1 X88.874 Y125.242 E1.72768
G1 X88.874 Y125.892 E.02359
G1 X121.882 Y158.9 E1.69433
G1 X121.233 Y158.9 E.02359
G1 X88.874 Y126.542 E1.66097
G1 X88.874 Y127.192 E.02359
G1 X120.583 Y158.9 E1.62761
G1 X119.933 Y158.9 E.02359
G1 X88.874 Y127.841 E1.59426
G1 X88.874 Y128.491 E.02359
G1 X119.283 Y158.9 E1.5609
G1 X118.633 Y158.9 E.02359
G1 X88.874 Y129.141 E1.52755
G1 X88.874 Y129.791 E.02359
G1 X117.983 Y158.9 E1.49419
G1 X117.334 Y158.9 E.02359
G1 X88.874 Y130.441 E1.46084
G1 X88.874 Y131.09 E.02359
G1 X116.684 Y158.9 E1.42748
G1 X116.034 Y158.9 E.02359
G1 X88.874 Y131.74 E1.39413
G1 X88.874 Y132.39 E.02359
G1 X115.384 Y158.9 E1.36077
G1 X114.734 Y158.9 E.02359
G1 X88.874 Y133.04 E1.32742
G1 X88.874 Y133.69 E.02359
G1 X114.085 Y158.9 E1.29406
G1 X113.435 Y158.9 E.02359
M73 P11 R21
G1 X88.874 Y134.339 E1.26071
G1 X88.874 Y134.989 E.02359
G1 X112.785 Y158.9 E1.22735
G1 X112.135 Y158.9 E.02359
G1 X88.874 Y135.639 E1.194
G1 X88.874 Y136.289 E.02359
G1 X111.485 Y158.9 E1.16064
G1 X110.836 Y158.9 E.02359
G1 X88.874 Y136.939 E1.12729
G1 X88.874 Y137.589 E.02359
G1 X110.186 Y158.9 E1.09393
G1 X109.536 Y158.9 E.02359
G1 X88.874 Y138.238 E1.06058
G1 X88.874 Y138.888 E.02359
G1 X108.886 Y158.9 E1.02722
G1 X108.236 Y158.9 E.02359
G1 X88.874 Y139.538 E.99387
G1 X88.874 Y140.188 E.02359
G1 X107.586 Y158.9 E.96051
G1 X106.937 Y158.9 E.02359
G1 X88.874 Y140.838 E.92716
G1 X88.874 Y141.487 E.02359
G1 X106.287 Y158.9 E.8938
G1 X105.637 Y158.9 E.02359
G1 X88.874 Y142.137 E.86045
G1 X88.874 Y142.787 E.02359
G1 X104.987 Y158.9 E.82709
G1 X104.337 Y158.9 E.02359
G1 X88.874 Y143.437 E.79374
G1 X88.874 Y144.087 E.02359
G1 X103.688 Y158.9 E.76038
G1 X103.038 Y158.9 E.02359
G1 X88.874 Y144.736 E.72703
G1 X88.874 Y145.386 E.02359
G1 X102.388 Y158.9 E.69367
G1 X101.738 Y158.9 E.02359
G1 X88.874 Y146.036 E.66032
G1 X88.874 Y146.686 E.02359
G1 X101.088 Y158.9 E.62696
G1 X100.439 Y158.9 E.02359
G1 X88.874 Y147.336 E.59361
G1 X88.874 Y147.985 E.02359
G1 X99.789 Y158.9 E.56025
G1 X99.139 Y158.9 E.02359
G1 X88.874 Y148.635 E.5269
G1 X88.874 Y149.285 E.02359
G1 X98.489 Y158.9 E.49354
G1 X97.839 Y158.9 E.02359
G1 X88.874 Y149.935 E.46019
G1 X88.874 Y150.585 E.02359
G1 X97.19 Y158.9 E.42683
G1 X96.54 Y158.9 E.02359
G1 X88.874 Y151.235 E.39348
G1 X88.874 Y151.884 E.02359
G1 X95.89 Y158.9 E.36012
G1 X95.24 Y158.9 E.02359
G1 X88.874 Y152.534 E.32677
G1 X88.874 Y153.184 E.02359
G1 X94.59 Y158.9 E.29341
G1 X93.94 Y158.9 E.02359
G1 X88.874 Y153.834 E.26006
G1 X88.874 Y154.484 E.02359
G1 X93.291 Y158.9 E.2267
G1 X92.641 Y158.9 E.02359
G1 X88.874 Y155.133 E.19335
G1 X88.874 Y155.783 E.02359
G1 X91.991 Y158.9 E.15999
G1 X91.341 Y158.9 E.02359
G1 X88.874 Y156.433 E.12664
G1 X88.874 Y157.083 E.02359
G1 X90.691 Y158.9 E.09328
G1 X90.042 Y158.9 E.02359
G1 X88.874 Y157.733 E.05993
G1 X88.874 Y158.382 E.02359
G1 X89.597 Y159.106 E.03713
; stop printing object Corps1.stl id:0 copy 0
;LAYER_CHANGE
;Z:0.4
;HEIGHT:0.2
;BEFORE_LAYER_CHANGE
;0.4
G92 E0

G1 E-.5 F1800
;WIPE_START
G1 F12000
G1 X88.874 Y158.382
G1 X88.874 Y157.733
G1 X89.106 Y157.964
;WIPE_END
EXCLUDE_OBJECT_END NAME=Corps1.stl_id_0_copy_0
;_SET_FAN_SPEED_CHANGING_LAYER
SET_VELOCITY_LIMIT ACCEL=5000
M104 S240 ; set nozzle temperature
M140 S70 ; set bed temperature
; printing object Corps1.stl id:0 copy 0
EXCLUDE_OBJECT_START NAME=Corps1.stl_id_0_copy_0
G1 Z.4 F24000
G1 X157.624 Y159.398 Z.4
G1 E.5 F1800
;TYPE:Inner wall
;WIDTH:0.449999
M73 P12 R21
G1 F3600
G1 X88.376 Y159.398 E2.22674
G1 X88.376 Y110.602 E1.56909
G1 X157.624 Y110.602 E2.22674
G1 X157.624 Y159.358 E1.56781
G1 X158.016 Y159.79 F24000
SET_VELOCITY_LIMIT ACCEL=2000
;TYPE:Outer wall
;WIDTH:0.419999
G1 F3600
G1 X87.984 Y159.79 E2.086
G1 X87.984 Y110.21 E1.47682
G1 X158.016 Y110.21 E2.086
G1 X158.016 Y159.75 E1.47562
G1 E-.5 F1800
;WIPE_START
G1 F12000
G1 X156.016 Y159.751
;WIPE_END
SET_VELOCITY_LIMIT ACCEL=5000
G1 Z.6 F24000
G1 X156.675 Y159.276
G1 Z.6
G1 Z.4
G1 E.5 F1800
;TYPE:Internal solid infill
;WIDTH:0.451887
G1 F6000
G1 X157.318 Y158.632 E.02941
G1 X157.318 Y158.054 E.01868
G1 X156.279 Y159.093 E.04746
G1 X155.701 Y159.093 E.01868
G1 X157.318 Y157.475 E.07389
G1 X157.318 Y156.897 E.01868
G1 X155.123 Y159.093 E.10031
G1 X154.544 Y159.093 E.01868
G1 X157.318 Y156.319 E.12674
G1 X157.318 Y155.74 E.01868
G1 X153.966 Y159.093 E.15316
G1 X153.388 Y159.093 E.01868
G1 X157.318 Y155.162 E.17958
G1 X157.318 Y154.584 E.01868
G1 X152.809 Y159.093 E.20601
G1 X152.231 Y159.093 E.01868
G1 X157.318 Y154.005 E.23243
G1 X157.318 Y153.427 E.01868
G1 X151.653 Y159.093 E.25885
G1 X151.074 Y159.093 E.01868
G1 X157.318 Y152.848 E.28528
G1 X157.318 Y152.27 E.01868
G1 X150.496 Y159.093 E.3117
G1 X149.917 Y159.093 E.01868
G1 X157.318 Y151.692 E.33813
G1 X157.318 Y151.113 E.01868
G1 X149.339 Y159.093 E.36455
G1 X148.761 Y159.093 E.01868
G1 X157.318 Y150.535 E.39097
G1 X157.318 Y149.957 E.01868
G1 X148.182 Y159.093 E.4174
G1 X147.604 Y159.093 E.01868
G1 X157.318 Y149.378 E.44382
G1 X157.318 Y148.8 E.01868
G1 X147.026 Y159.093 E.47024
G1 X146.447 Y159.093 E.01868
G1 X157.318 Y148.221 E.49667
G1 X157.318 Y147.643 E.01868
G1 X145.869 Y159.093 E.52309
G1 X145.29 Y159.093 E.01868
G1 X157.318 Y147.065 E.54952
G1 X157.318 Y146.486 E.01868
G1 X144.712 Y159.093 E.57594
G1 X144.134 Y159.093 E.01868
G1 X157.318 Y145.908 E.60236
G1 X157.318 Y145.33 E.01868
G1 X143.555 Y159.093 E.62879
G1 X142.977 Y159.093 E.01868
G1 X157.318 Y144.751 E.65521
G1 X157.318 Y144.173 E.01868
G1 X142.399 Y159.093 E.68163
G1 X141.82 Y159.093 E.01868
G1 X157.318 Y143.595 E.70806
G1 X157.318 Y143.016 E.01868
G1 X141.242 Y159.093 E.73448
G1 X140.664 Y159.093 E.01868
G1 X157.318 Y142.438 E.76091
G1 X157.318 Y141.859 E.01868
G1 X140.085 Y159.093 E.78733
G1 X139.507 Y159.093 E.01868
G1 X157.318 Y141.281 E.81375
G1 X157.318 Y140.703 E.01868
G1 X138.928 Y159.093 E.84018
G1 X138.35 Y159.093 E.01868
G1 X157.318 Y140.124 E.8666
G1 X157.318 Y139.546 E.01868
G1 X137.772 Y159.093 E.89302
G1 X137.193 Y159.093 E.01868
G1 X157.318 Y138.968 E.91945
G1 X157.318 Y138.389 E.01868
G1 X136.615 Y159.093 E.94587
G1 X136.037 Y159.093 E.01868
M73 P13 R21
G1 X157.318 Y137.811 E.97229
G1 X157.318 Y137.233 E.01868
G1 X135.458 Y159.093 E.99872
G1 X134.88 Y159.093 E.01868
G1 X157.318 Y136.654 E1.02514
G1 X157.318 Y136.076 E.01868
G1 X134.302 Y159.093 E1.05157
G1 X133.723 Y159.093 E.01868
G1 X157.318 Y135.497 E1.07799
G1 X157.318 Y134.919 E.01868
G1 X133.145 Y159.093 E1.10441
G1 X132.566 Y159.093 E.01868
