; HEADER_BLOCK_START
; generated by OrcaSlicer 2.2.0 on 2024-11-13 at 14:16:21
; total layer number: 120
; filament_density: 1.27
; filament_diameter: 1.75
; max_z_height: 24.00
; HEADER_BLOCK_END

; THUMBNAIL_BLOCK_START

;
; THUMBNAIL_BLOCK_END

; THUMBNAIL_BLOCK_START

;
; THUMBNAIL_BLOCK_END

; external perimeters extrusion width = 0.42mm
; perimeters extrusion width = 0.45mm
; infill extrusion width = 0.45mm
; solid infill extrusion width = 0.45mm
; top infill extrusion width = 0.42mm
; first layer extrusion width = 0.50mm

; EXECUTABLE_BLOCK_START
EXCLUDE_OBJECT_DEFINE NAME=Corps14.stl_id_0_copy_0 CENTER=115,115 POLYGON=[[19.5,112.5],[210.5,112.5],[210.5,117.5],[19.5,117.5],[19.5,112.5]]
M73 P0 R24
;TYPE:Custom
M220 S100
G90 ; use absolute coordinates
M83 ; extruder relative mode
M104 S150 ; set temporary nozzle temp to prevent oozing during homing
M140 S70 ; set final bed temp
G4 S30 ; allow partial nozzle warmup
G28 ; home all axis and restore leveling
BED_MESH_CALIBRATE PROFILE=adaptive ADAPTIVE=1 ADAPTIVE_MARGIN=0
G1 Z25 F240
G1 X10.0 Y30 F3000
M73 P0 R23
M104 S245 ; set final nozzle temp
M190 S70 ; wait for bed temp to stabilize
M109 S245 ; wait for nozzle temp to stabilize
M73 P0 R23
G1 Z0.28 F240
G92 E0 ; Move Z Axis up
G1 Z2.0 F5000 ; Move to start position
G1 X5 Y30 Z0.28 F300 ; Draw the first line
G1 X5 Y200 Z0.28 F1500 E15 ; Move to side a little
G1 X5.4 Y200 Z0.28 F5000.0 ; Draw the second line
M73 P1 R23
M73 P1 R23
G1 X5.4 Y50 Z0.28 F1500.0 E30 ; Reset Extruder
G92 E0 ; Move Z Axis up
G1 Z2.0 F3000
M117 Start Printing..
G90
G21
M83 ; use relative distances for extrusion
; filament start gcode
M106 S0
;LAYER_CHANGE
;Z:0.2
;HEIGHT:0.2
;BEFORE_LAYER_CHANGE
;0.2
G92 E0

G1 E-.5 F1800
;_SET_FAN_SPEED_CHANGING_LAYER
SET_VELOCITY_LIMIT ACCEL=1000
SET_VELOCITY_LIMIT SQUARE_CORNER_VELOCITY=7
; printing object Corps14.stl id:0 copy 0
EXCLUDE_OBJECT_START NAME=Corps14.stl_id_0_copy_0
G1 Z.4 F24000
G1 X110.457 Y133.948
G1 Z.4
G1 Z.2
G1 E.5 F1800
;TYPE:Inner wall
;WIDTH:0.499999
G1 F3000
G1 X110.274 Y134.223 E.01192
G1 X110.243 Y134.743 E.01881
G1 X99.757 Y134.743 E.3786
G1 X99.726 Y134.223 E.01881
G1 X99.515 Y133.906 E.01375
;WIDTH:0.514381
G1 X99.071 Y133.736 E.01768
G1 X95.319 Y133.736 E.13975
G1 X94.88 Y134.017 E.01942
;WIDTH:0.499999
G1 X94.743 Y134.429 E.01566
G1 X94.743 Y136.743 E.08356
G1 X28.257 Y136.743 E2.40054
M73 P2 R23
M73 P2 R23
G1 X28.257 Y133.257 E.12586
G1 X94.5 Y133.257 E2.39176
;WIDTH:0.514381
G1 X99.753 Y133.257 E.19563
;WIDTH:0.499999
G1 X110.247 Y133.257 E.37891
;WIDTH:0.514381
G1 X116 Y133.257 E.21425
;WIDTH:0.499999
G1 X130 Y133.257 E.50548
;WIDTH:0.514381
G1 X135.753 Y133.257 E.21425
;WIDTH:0.499999
G1 X146.247 Y133.257 E.37891
;WIDTH:0.514381
G1 X151.5 Y133.257 E.19563
;WIDTH:0.499999
G1 X217.743 Y133.257 E2.39176
G1 X217.743 Y136.743 E.12586
G1 X151.257 Y136.743 E2.40054
G1 X151.257 Y134.429 E.08356
G1 X151.12 Y134.017 E.01566
;WIDTH:0.514381
G1 X150.571 Y133.736 E.02296
G1 X146.822 Y133.736 E.13964
G1 X146.485 Y133.906 E.01405
;WIDTH:0.499999
G1 X146.274 Y134.223 E.01375
G1 X146.243 Y134.743 E.01881
G1 X135.757 Y134.743 E.3786
G1 X135.726 Y134.223 E.01881
G1 X135.515 Y133.906 E.01375
;WIDTH:0.514381
G1 X135.071 Y133.736 E.01768
G1 X130.819 Y133.736 E.15837
G1 X130.38 Y134.017 E.01942
;WIDTH:0.499999
G1 X130.243 Y134.429 E.01566
G1 X130.243 Y136.743 E.08356
G1 X115.757 Y136.743 E.52303
G1 X115.757 Y134.429 E.08356
G1 X115.62 Y134.017 E.01566
;WIDTH:0.514381
G1 X115.071 Y133.736 E.02296
G1 X110.822 Y133.736 E.15826
G1 X110.485 Y133.906 E.01405
;WIDTH:0.499999
G1 X110.479 Y133.914 E.00038
G1 X110.781 Y134.254 F24000
;TYPE:Outer wall
G1 F3000
G1 X110.7 Y134.429 E.00694
G1 X110.7 Y135.2 E.02785
G1 X99.3 Y135.2 E.41161
G1 X99.3 Y134.429 E.02785
G1 X99.219 Y134.254 E.00694
G1 X99.071 Y134.2 E.00568
G1 X95.429 Y134.2 E.13153
G1 X95.246 Y134.291 E.00738
G1 X95.2 Y134.429 E.00522
G1 X95.2 Y137.2 E.10007
G1 X27.8 Y137.2 E2.43354
G1 X27.8 Y132.8 E.15887
G1 X218.2 Y132.8 E6.87457
G1 X218.2 Y137.2 E.15887
G1 X150.8 Y137.2 E2.43354
G1 X150.8 Y134.429 E.10007
M73 P3 R23
M73 P3 R23
G1 X150.754 Y134.291 E.00522
G1 X150.571 Y134.2 E.00738
G1 X146.929 Y134.2 E.13153
G1 X146.781 Y134.254 E.00568
G1 X146.7 Y134.429 E.00694
G1 X146.7 Y135.2 E.02785
G1 X135.3 Y135.2 E.41161
G1 X135.3 Y134.429 E.02785
G1 X135.219 Y134.254 E.00694
G1 X135.071 Y134.2 E.00568
G1 X130.929 Y134.2 E.14958
G1 X130.746 Y134.291 E.00738
G1 X130.7 Y134.429 E.00522
G1 X130.7 Y137.2 E.10007
G1 X115.3 Y137.2 E.55603
G1 X115.3 Y134.429 E.10007
G1 X115.254 Y134.291 E.00522
G1 X115.071 Y134.2 E.00738
G1 X110.929 Y134.2 E.14958
G1 X110.818 Y134.24 E.00424
G1 E-.5 F1800
;WIPE_START
G1 F12000
G1 X110.7 Y134.429
G1 X110.7 Y135.2
G1 X109.694 Y135.2
;WIPE_END
G1 Z.4 F24000
G1 X109.482 Y133.394
G1 Z.4
G1 Z.2
G1 E.5 F1800
;TYPE:Bottom surface
;WIDTH:0.507132
G1 F5816.308
G1 X110.048 Y133.961 E.02937
G1 X109.946 Y134.114 E.00675
G1 X109.913 Y134.4 E.01057
G1 X109.831 Y134.4 E.003
G1 X109.031 Y133.6 E.0415
G1 X108.374 Y133.6 E.02407
G1 X109.174 Y134.4 E.0415
G1 X108.518 Y134.4 E.02407
G1 X107.718 Y133.6 E.0415
G1 X107.061 Y133.6 E.02407
G1 X107.862 Y134.4 E.0415
G1 X107.205 Y134.4 E.02407
G1 X106.405 Y133.6 E.0415
G1 X105.748 Y133.6 E.02407
G1 X106.549 Y134.4 E.0415
G1 X105.892 Y134.4 E.02407
G1 X105.092 Y133.6 E.0415
G1 X104.435 Y133.6 E.02407
G1 X105.236 Y134.4 E.0415
G1 X104.579 Y134.4 E.02407
G1 X103.779 Y133.6 E.0415
G1 X103.122 Y133.6 E.02407
G1 X103.923 Y134.4 E.0415
G1 X103.266 Y134.4 E.02407
G1 X102.466 Y133.6 E.0415
G1 X101.809 Y133.6 E.02407
G1 X102.61 Y134.4 E.0415
G1 X101.953 Y134.4 E.02407
G1 X101.153 Y133.6 E.0415
G1 X100.496 Y133.6 E.02407
G1 X101.297 Y134.4 E.0415
G1 X100.64 Y134.4 E.02407
G1 X99.634 Y133.394 E.05217
G1 E-.5 F1800
;WIPE_START
G1 F12000
G1 X100.64 Y134.4
G1 X101.217 Y134.4
;WIPE_END
G1 Z.4 F24000
G1 X94.055 Y133.394 Z.4
G1 Z.2
G1 E.5 F1800
;WIDTH:0.500503
G1 F5900.569
G1 X94.568 Y133.907 E.02621
G1 X94.406 Y134.392 E.01849
G1 X93.614 Y133.6 E.0405
G1 X92.967 Y133.6 E.02339
G1 X94.4 Y135.033 E.07328
G1 X94.4 Y135.681 E.02339
G1 X92.319 Y133.6 E.10636
G1 X91.672 Y133.6 E.02339
G1 X94.4 Y136.328 E.13944
G1 X94.4 Y136.4 E.00262
G1 X93.825 Y136.4 E.02077
G1 X91.025 Y133.6 E.14314
G1 X90.378 Y133.6 E.02339
G1 X93.178 Y136.4 E.14314
G1 X92.531 Y136.4 E.02339
G1 X89.731 Y133.6 E.14314
G1 X89.084 Y133.6 E.02339
G1 X91.884 Y136.4 E.14314
G1 X91.237 Y136.4 E.02339
G1 X88.437 Y133.6 E.14314
G1 X87.79 Y133.6 E.02339
G1 X90.59 Y136.4 E.14314
G1 X89.943 Y136.4 E.02339
G1 X87.143 Y133.6 E.14314
G1 X86.495 Y133.6 E.02339
G1 X89.296 Y136.4 E.14314
G1 X88.649 Y136.4 E.02339
G1 X85.848 Y133.6 E.14314
G1 X85.201 Y133.6 E.02339
G1 X88.001 Y136.4 E.14314
G1 X87.354 Y136.4 E.02339
G1 X84.554 Y133.6 E.14314
G1 X83.907 Y133.6 E.02339
G1 X86.707 Y136.4 E.14314
G1 X86.06 Y136.4 E.02339
G1 X83.26 Y133.6 E.14314
G1 X82.613 Y133.6 E.02339
G1 X85.413 Y136.4 E.14314
G1 X84.766 Y136.4 E.02339
G1 X81.966 Y133.6 E.14314
G1 X81.318 Y133.6 E.02339
G1 X84.119 Y136.4 E.14314
G1 X83.472 Y136.4 E.02339
G1 X80.671 Y133.6 E.14314
G1 X80.024 Y133.6 E.02339
G1 X82.824 Y136.4 E.14314
G1 X82.177 Y136.4 E.02339
G1 X79.377 Y133.6 E.14314
G1 X78.73 Y133.6 E.02339
G1 X81.53 Y136.4 E.14314
G1 X80.883 Y136.4 E.02339
G1 X78.083 Y133.6 E.14314
G1 X77.436 Y133.6 E.02339
G1 X80.236 Y136.4 E.14314
G1 X79.589 Y136.4 E.02339
G1 X76.789 Y133.6 E.14314
G1 X76.141 Y133.6 E.02339
G1 X78.942 Y136.4 E.14314
G1 X78.295 Y136.4 E.02339
G1 X75.494 Y133.6 E.14314
G1 X74.847 Y133.6 E.02339
G1 X77.647 Y136.4 E.14314
G1 X77 Y136.4 E.02339
G1 X74.2 Y133.6 E.14314
G1 X73.553 Y133.6 E.02339
G1 X76.353 Y136.4 E.14314
G1 X75.706 Y136.4 E.02339
G1 X72.906 Y133.6 E.14314
G1 X72.259 Y133.6 E.02339
G1 X75.059 Y136.4 E.14314
G1 X74.412 Y136.4 E.02339
G1 X71.612 Y133.6 E.14314
G1 X70.965 Y133.6 E.02339
G1 X73.765 Y136.4 E.14314
G1 X73.118 Y136.4 E.02339
G1 X70.317 Y133.6 E.14314
G1 X69.67 Y133.6 E.02339
G1 X72.471 Y136.4 E.14314
G1 X71.823 Y136.4 E.02339
G1 X69.023 Y133.6 E.14314
G1 X68.376 Y133.6 E.02339
G1 X71.176 Y136.4 E.14314
G1 X70.529 Y136.4 E.02339
G1 X67.729 Y133.6 E.14314
G1 X67.082 Y133.6 E.02339
G1 X69.882 Y136.4 E.14314
G1 X69.235 Y136.4 E.02339
G1 X66.435 Y133.6 E.14314
G1 X65.788 Y133.6 E.02339
G1 X68.588 Y136.4 E.14314
G1 X67.941 Y136.4 E.02339
G1 X65.14 Y133.6 E.14314
G1 X64.493 Y133.6 E.02339
G1 X67.294 Y136.4 E.14314
G1 X66.646 Y136.4 E.02339
G1 X63.846 Y133.6 E.14314
G1 X63.199 Y133.6 E.02339
G1 X65.999 Y136.4 E.14314
G1 X65.352 Y136.4 E.02339
G1 X62.552 Y133.6 E.14314
G1 X61.905 Y133.6 E.02339
G1 X64.705 Y136.4 E.14314
G1 X64.058 Y136.4 E.02339
G1 X61.258 Y133.6 E.14314
G1 X60.611 Y133.6 E.02339
G1 X63.411 Y136.4 E.14314
G1 X62.764 Y136.4 E.02339
G1 X59.963 Y133.6 E.14314
G1 X59.316 Y133.6 E.02339
G1 X62.117 Y136.4 E.14314
G1 X61.469 Y136.4 E.02339
G1 X58.669 Y133.6 E.14314
G1 X58.022 Y133.6 E.02339
G1 X60.822 Y136.4 E.14314
G1 X60.175 Y136.4 E.02339
G1 X57.375 Y133.6 E.14314
G1 X56.728 Y133.6 E.02339
G1 X59.528 Y136.4 E.14314
G1 X58.881 Y136.4 E.02339
G1 X56.081 Y133.6 E.14314
G1 X55.434 Y133.6 E.02339
G1 X58.234 Y136.4 E.14314
G1 X57.587 Y136.4 E.02339
G1 X54.787 Y133.6 E.14314
G1 X54.139 Y133.6 E.02339
G1 X56.94 Y136.4 E.14314
G1 X56.293 Y136.4 E.02339
G1 X53.492 Y133.6 E.14314
G1 X52.845 Y133.6 E.02339
G1 X55.645 Y136.4 E.14314
G1 X54.998 Y136.4 E.02339
G1 X52.198 Y133.6 E.14314
G1 X51.551 Y133.6 E.02339
G1 X54.351 Y136.4 E.14314
G1 X53.704 Y136.4 E.02339
M73 P4 R23
M73 P4 R23
G1 X50.904 Y133.6 E.14314
G1 X50.257 Y133.6 E.02339
G1 X53.057 Y136.4 E.14314
G1 X52.41 Y136.4 E.02339
G1 X49.61 Y133.6 E.14314
G1 X48.962 Y133.6 E.02339
G1 X51.763 Y136.4 E.14314
G1 X51.116 Y136.4 E.02339
G1 X48.315 Y133.6 E.14314
G1 X47.668 Y133.6 E.02339
G1 X50.468 Y136.4 E.14314
G1 X49.821 Y136.4 E.02339
G1 X47.021 Y133.6 E.14314
G1 X46.374 Y133.6 E.02339
G1 X49.174 Y136.4 E.14314
G1 X48.527 Y136.4 E.02339
G1 X45.727 Y133.6 E.14314
G1 X45.08 Y133.6 E.02339
G1 X47.88 Y136.4 E.14314
G1 X47.233 Y136.4 E.02339
G1 X44.433 Y133.6 E.14314
G1 X43.785 Y133.6 E.02339
G1 X46.586 Y136.4 E.14314
G1 X45.939 Y136.4 E.02339
G1 X43.138 Y133.6 E.14314
G1 X42.491 Y133.6 E.02339
G1 X45.291 Y136.4 E.14314
G1 X44.644 Y136.4 E.02339
G1 X41.844 Y133.6 E.14314
G1 X41.197 Y133.6 E.02339
G1 X43.997 Y136.4 E.14314
G1 X43.35 Y136.4 E.02339
G1 X40.55 Y133.6 E.14314
G1 X39.903 Y133.6 E.02339
G1 X42.703 Y136.4 E.14314
G1 X42.056 Y136.4 E.02339
G1 X39.256 Y133.6 E.14314
G1 X38.609 Y133.6 E.02339
G1 X41.409 Y136.4 E.14314
G1 X40.762 Y136.4 E.02339
G1 X37.961 Y133.6 E.14314
G1 X37.314 Y133.6 E.02339
G1 X40.115 Y136.4 E.14314
G1 X39.467 Y136.4 E.02339
G1 X36.667 Y133.6 E.14314
G1 X36.02 Y133.6 E.02339
G1 X38.82 Y136.4 E.14314
G1 X38.173 Y136.4 E.02339
G1 X35.373 Y133.6 E.14314
G1 X34.726 Y133.6 E.02339
M73 P4 R22
M73 P4 R22
G1 X37.526 Y136.4 E.14314
G1 X36.879 Y136.4 E.02339
G1 X34.079 Y133.6 E.14314
G1 X33.432 Y133.6 E.02339
G1 X36.232 Y136.4 E.14314
G1 X35.585 Y136.4 E.02339
G1 X32.784 Y133.6 E.14314
G1 X32.137 Y133.6 E.02339
G1 X34.938 Y136.4 E.14314
G1 X34.29 Y136.4 E.02339
G1 X31.49 Y133.6 E.14314
G1 X30.843 Y133.6 E.02339
G1 X33.643 Y136.4 E.14314
G1 X32.996 Y136.4 E.02339
G1 X30.196 Y133.6 E.14314
G1 X29.549 Y133.6 E.02339
G1 X32.349 Y136.4 E.14314
G1 X31.702 Y136.4 E.02339
G1 X28.902 Y133.6 E.14314
G1 X28.6 Y133.6 E.01091
G1 X28.6 Y133.945 E.01248
G1 X31.055 Y136.4 E.12549
G1 X30.408 Y136.4 E.02339
G1 X28.6 Y134.592 E.09241
G1 X28.6 Y135.239 E.02339
G1 X29.761 Y136.4 E.05933
G1 X29.113 Y136.4 E.02339
G1 X28.394 Y135.681 E.03677
G1 E-.5 F1800
;WIPE_START
G1 F12000
G1 X29.113 Y136.4
G1 X29.761 Y136.4
G1 X29.523 Y136.163
;WIPE_END
G1 Z.4 F24000
G1 X130.225 Y134.087 Z.4
G1 Z.2
G1 E.5 F1800
;WIDTH:0.511418
G1 F5763.098
G1 X129.738 Y133.6 E.02549
G1 X129.075 Y133.6 E.02452
G1 X129.9 Y134.425 E.04318
G1 X129.9 Y135.087 E.02452
G1 X128.413 Y133.6 E.07785
G1 X127.75 Y133.6 E.02452
G1 X129.9 Y135.75 E.11253
G1 X129.9 Y136.4 E.02406
G1 X127.087 Y133.6 E.14688
G1 X126.425 Y133.6 E.02452
G1 X129.225 Y136.4 E.14656
G1 X128.563 Y136.4 E.02452
G1 X125.762 Y133.6 E.14656
G1 X125.1 Y133.6 E.02452
G1 X127.9 Y136.4 E.14656
G1 X127.237 Y136.4 E.02452
G1 X124.437 Y133.6 E.14656
G1 X123.775 Y133.6 E.02452
G1 X126.575 Y136.4 E.14656
G1 X125.912 Y136.4 E.02452
G1 X123.112 Y133.6 E.14656
G1 X122.45 Y133.6 E.02452
G1 X125.25 Y136.4 E.14656
G1 X124.587 Y136.4 E.02452
G1 X121.787 Y133.6 E.14656
G1 X121.124 Y133.6 E.02452
G1 X123.925 Y136.4 E.14656
G1 X123.262 Y136.4 E.02452
G1 X120.462 Y133.6 E.14656
G1 X119.799 Y133.6 E.02452
G1 X122.6 Y136.4 E.14656
G1 X121.937 Y136.4 E.02452
G1 X119.137 Y133.6 E.14656
G1 X118.474 Y133.6 E.02452
G1 X121.274 Y136.4 E.14656
G1 X120.612 Y136.4 E.02452
G1 X117.812 Y133.6 E.14656
G1 X117.149 Y133.6 E.02452
G1 X119.949 Y136.4 E.14656
G1 X119.287 Y136.4 E.02452
G1 X116.487 Y133.6 E.14656
G1 X115.827 Y133.603 E.02442
G1 X118.624 Y136.4 E.14642
G1 X117.962 Y136.4 E.02452
G1 X116.1 Y134.538 E.09744
G1 X116.1 Y135.201 E.02452
G1 X117.299 Y136.4 E.06277
G1 X116.637 Y136.4 E.02452
G1 X115.894 Y135.658 E.03886
G1 E-.5 F1800
;WIPE_START
G1 F12000
G1 X116.637 Y136.4
G1 X117.299 Y136.4
G1 X117.096 Y136.197
;WIPE_END
G1 Z.4 F24000
G1 X145.482 Y133.394 Z.4
G1 Z.2
G1 E.5 F1800
;WIDTH:0.507132
G1 F5816.308
G1 X146.048 Y133.961 E.02937
G1 X145.946 Y134.114 E.00675
G1 X145.913 Y134.4 E.01057
G1 X145.831 Y134.4 E.003
G1 X145.031 Y133.6 E.0415
G1 X144.374 Y133.6 E.02407
G1 X145.174 Y134.4 E.0415
G1 X144.518 Y134.4 E.02407
G1 X143.718 Y133.6 E.0415
G1 X143.061 Y133.6 E.02407
G1 X143.862 Y134.4 E.0415
G1 X143.205 Y134.4 E.02407
G1 X142.405 Y133.6 E.0415
G1 X141.748 Y133.6 E.02407
G1 X142.549 Y134.4 E.0415
G1 X141.892 Y134.4 E.02407
G1 X141.092 Y133.6 E.0415
G1 X140.435 Y133.6 E.02407
G1 X141.236 Y134.4 E.0415
G1 X140.579 Y134.4 E.02407
G1 X139.779 Y133.6 E.0415
G1 X139.122 Y133.6 E.02407
G1 X139.923 Y134.4 E.0415
G1 X139.266 Y134.4 E.02407
G1 X138.466 Y133.6 E.0415
G1 X137.809 Y133.6 E.02407
G1 X138.61 Y134.4 E.0415
G1 X137.953 Y134.4 E.02407
G1 X137.153 Y133.6 E.0415
G1 X136.496 Y133.6 E.02407
G1 X137.297 Y134.4 E.0415
G1 X136.64 Y134.4 E.02407
G1 X135.634 Y133.394 E.05217
G1 E-.5 F1800
;WIPE_START
G1 F12000
G1 X136.64 Y134.4
G1 X137.217 Y134.4
;WIPE_END
G1 Z.4 F24000
G1 X217.606 Y134.323 Z.4
G1 Z.2
G1 E.5 F1800
;WIDTH:0.502305
G1 F5877.423
G1 X216.883 Y133.6 E.03711
G1 X216.233 Y133.6 E.02358
G1 X217.4 Y134.767 E.0599
G1 X217.4 Y135.417 E.02358
G1 X215.583 Y133.6 E.09324
G1 X214.934 Y133.6 E.02358
G1 X217.4 Y136.066 E.12658
G1 X217.4 Y136.4 E.01211
G1 X217.084 Y136.4 E.01146
G1 X214.284 Y133.6 E.14371
G1 X213.634 Y133.6 E.02358
G1 X216.435 Y136.4 E.14371
G1 X215.785 Y136.4 E.02358
G1 X212.985 Y133.6 E.14371
G1 X212.335 Y133.6 E.02358
G1 X215.135 Y136.4 E.14371
G1 X214.486 Y136.4 E.02358
G1 X211.685 Y133.6 E.14371
G1 X211.036 Y133.6 E.02358
G1 X213.836 Y136.4 E.14371
G1 X213.186 Y136.4 E.02358
G1 X210.386 Y133.6 E.14371
G1 X209.736 Y133.6 E.02358
G1 X212.537 Y136.4 E.14371
G1 X211.887 Y136.4 E.02358
G1 X209.087 Y133.6 E.14371
G1 X208.437 Y133.6 E.02358
G1 X211.237 Y136.4 E.14371
G1 X210.588 Y136.4 E.02358
M73 P5 R22
M73 P5 R22
G1 X207.787 Y133.6 E.14371
G1 X207.138 Y133.6 E.02358
G1 X209.938 Y136.4 E.14371
G1 X209.288 Y136.4 E.02358
G1 X206.488 Y133.6 E.14371
G1 X205.838 Y133.6 E.02358
G1 X208.639 Y136.4 E.14371
G1 X207.989 Y136.4 E.02358
G1 X205.189 Y133.6 E.14371
G1 X204.539 Y133.6 E.02358
G1 X207.339 Y136.4 E.14371
G1 X206.69 Y136.4 E.02358
G1 X203.889 Y133.6 E.14371
G1 X203.24 Y133.6 E.02358
G1 X206.04 Y136.4 E.14371
G1 X205.39 Y136.4 E.02358
G1 X202.59 Y133.6 E.14371
G1 X201.94 Y133.6 E.02358
G1 X204.741 Y136.4 E.14371
G1 X204.091 Y136.4 E.02358
G1 X201.291 Y133.6 E.14371
G1 X200.641 Y133.6 E.02358
G1 X203.441 Y136.4 E.14371
G1 X202.791 Y136.4 E.02358
G1 X199.991 Y133.6 E.14371
G1 X199.342 Y133.6 E.02358
G1 X202.142 Y136.4 E.14371
G1 X201.492 Y136.4 E.02358
G1 X198.692 Y133.6 E.14371
G1 X198.042 Y133.6 E.02358
G1 X200.842 Y136.4 E.14371
G1 X200.193 Y136.4 E.02358
G1 X197.393 Y133.6 E.14371
G1 X196.743 Y133.6 E.02358
G1 X199.543 Y136.4 E.14371
G1 X198.893 Y136.4 E.02358
G1 X196.093 Y133.6 E.14371
