; HEADER_BLOCK_START
; generated by OrcaSlicer 2.2.0 on 2024-11-15 at 18:09:26
; total layer number: 30
; filament_density: 1.27
; filament_diameter: 1.75
; max_z_height: 6.00
; HEADER_BLOCK_END

; THUMBNAIL_BLOCK_START

;
; THUMBNAIL_BLOCK_END

; THUMBNAIL_BLOCK_START

;
; THUMBNAIL_BLOCK_END

; external perimeters extrusion width = 0.42mm
; perimeters extrusion width = 0.45mm
; infill extrusion width = 0.45mm
; solid infill extrusion width = 0.45mm
; top infill extrusion width = 0.42mm
; first layer extrusion width = 0.50mm

; EXECUTABLE_BLOCK_START
EXCLUDE_OBJECT_DEFINE NAME=Corps1.stl_id_0_copy_0 CENTER=115,115 POLYGON=[[86.5,94],[143.5,94],[143.5,126],[143.486,126.374],[143.444,126.745],[143.375,127.113],[143.278,127.474],[143.154,127.827],[143.005,128.169],[142.83,128.5],[142.631,128.817],[142.409,129.117],[142.165,129.401],[141.901,129.665],[141.617,129.909],[141.317,130.131],[141,130.33],[140.669,130.505],[130.368,135.802],[130.161,135.888],[129.945,135.95],[129.724,135.987],[129.5,136],[100.5,136],[100.276,135.987],[100.055,135.95],[99.8394,135.888],[99.6322,135.802],[89.3306,130.505],[89,130.33],[88.6834,130.131],[88.3826,129.909],[88.0991,129.665],[87.8347,129.401],[87.5908,129.117],[87.3688,128.817],[87.1699,128.5],[86.9952,128.169],[86.8456,127.827],[86.7221,127.474],[86.6254,127.113],[86.5558,126.745],[86.514,126.374],[86.5,126],[86.5,94]]
M73 P0 R15
;TYPE:Custom
M220 S100
G90 ; use absolute coordinates
M83 ; extruder relative mode
M104 S150 ; set temporary nozzle temp to prevent oozing during homing
M140 S70 ; set final bed temp
G4 S30 ; allow partial nozzle warmup
G28 ; home all axis and restore leveling
BED_MESH_CALIBRATE PROFILE=adaptive ADAPTIVE=1 ADAPTIVE_MARGIN=0
G1 Z25 F240
G1 X10.0 Y30 F3000
M104 S245 ; set final nozzle temp
M190 S70 ; wait for bed temp to stabilize
M109 S245 ; wait for nozzle temp to stabilize
G1 Z0.28 F240
G92 E0 ; Move Z Axis up
G1 Z2.0 F5000 ; Move to start position
M73 P1 R15
M73 P1 R15
G1 X5 Y30 Z0.28 F300 ; Draw the first line
G1 X5 Y200 Z0.28 F1500 E15 ; Move to side a little
G1 X5.4 Y200 Z0.28 F5000.0 ; Draw the second line
M73 P2 R14
M73 P2 R14
G1 X5.4 Y50 Z0.28 F1500.0 E30 ; Reset Extruder
G92 E0 ; Move Z Axis up
G1 Z2.0 F3000
M117 Start Printing..
G90
G21
M83 ; use relative distances for extrusion
; filament start gcode
M106 S0
;LAYER_CHANGE
;Z:0.2
;HEIGHT:0.2
;BEFORE_LAYER_CHANGE
;0.2
G92 E0

G1 E-.5 F1800
;_SET_FAN_SPEED_CHANGING_LAYER
SET_VELOCITY_LIMIT ACCEL=1000
SET_VELOCITY_LIMIT SQUARE_CORNER_VELOCITY=7
; printing object Corps1.stl id:0 copy 0
EXCLUDE_OBJECT_START NAME=Corps1.stl_id_0_copy_0
G1 Z.4 F24000
G1 X139.377 Y150.243
G1 Z.4
M73 P3 R14
M73 P3 R14
G1 Z.2
G1 E.5 F1800
;TYPE:Inner wall
;WIDTH:0.499999
G1 F3000
G1 X139.291 Y150.243 E.00312
G1 X139.011 Y150.385 E.01136
G1 X138.813 Y150.627 E.01127
G1 X138.743 Y150.929 E.01119
G1 X138.743 Y153.883 E.10669
G1 X138.707 Y154.276 E.01422
G1 X138.542 Y154.654 E.01491
G1 X138.273 Y154.967 E.01491
G1 X137.904 Y155.163 E.01508
G1 X137.46 Y155.243 E.01629
G1 X108.54 Y155.243 E1.04415
G1 X108.102 Y155.165 E.01607
G1 X107.745 Y154.979 E.01455
G1 X107.443 Y154.641 E.01636
G1 X107.306 Y154.298 E.01336
G1 X107.257 Y153.883 E.01506
G1 X107.257 Y150.8 E.11134
G1 X107.122 Y150.519 E.01124
G1 X106.88 Y150.316 E.01141
G1 X106.578 Y150.243 E.01121
G1 X99.527 Y150.243 E.25458
G1 X98.868 Y150.194 E.02386
G1 X98.25 Y150.053 E.02288
G1 X97.66 Y149.821 E.02289
G1 X97.111 Y149.504 E.02289
G1 X96.615 Y149.109 E.02289
G1 X96.184 Y148.644 E.02289
G1 X95.827 Y148.12 E.02289
G1 X95.553 Y147.55 E.02285
G1 X95.362 Y146.927 E.02354
G1 X95.304 Y146.541 E.0141
G1 X95.257 Y145.986 E.0201
G1 X95.257 Y114.757 E1.12754
G1 X150.743 Y114.757 E2.00337
G1 X150.743 Y145.973 E1.12708
G1 X150.694 Y146.632 E.02386
G1 X150.553 Y147.25 E.02288
G1 X150.321 Y147.84 E.02289
G1 X150.004 Y148.389 E.02289
G1 X149.609 Y148.885 E.02289
G1 X149.144 Y149.316 E.02289
G1 X148.62 Y149.673 E.02289
G1 X148.049 Y149.948 E.02289
G1 X147.444 Y150.135 E.02289
G1 X147.04 Y150.195 E.01472
G1 X146.486 Y150.243 E.0201
G1 X139.417 Y150.243 E.25521
G1 X139.419 Y150.7 F24000
;TYPE:Outer wall
G1 F3000
G1 X139.26 Y150.774 E.00634
G1 X139.2 Y150.929 E.00597
G1 X139.2 Y153.883 E.10669
G1 X139.156 Y154.378 E.01793
G1 X139.03 Y154.737 E.01373
G1 X138.828 Y155.059 E.01373
G1 X138.559 Y155.328 E.01372
G1 X138.229 Y155.533 E.01404
G1 X137.878 Y155.656 E.01343
G1 X137.485 Y155.7 E.01428
G1 X108.617 Y155.7 E1.04233
G1 X108.122 Y155.656 E.01793
G1 X107.763 Y155.53 E.01373
G1 X107.447 Y155.332 E.01347
G1 X107.059 Y154.898 E.02102
G1 X106.969 Y154.71 E.00751
G1 X106.844 Y154.329 E.01449
G1 X106.8 Y153.883 E.01616
G1 X106.8 Y150.901 E.10769
G1 X106.724 Y150.759 E.00581
G1 X106.574 Y150.7 E.00585
G1 X99.51 Y150.7 E.25504
G1 X98.8 Y150.647 E.02572
G1 X98.115 Y150.491 E.02535
G1 X97.461 Y150.234 E.02536
G1 X96.853 Y149.883 E.02536
G1 X96.304 Y149.445 E.02536
G1 X95.826 Y148.93 E.02536
G1 X95.43 Y148.35 E.02536
G1 X95.126 Y147.717 E.02535
G1 X94.915 Y147.028 E.02602
G1 X94.852 Y146.608 E.01532
G1 X94.8 Y145.994 E.02224
G1 X94.8 Y114.3 E1.14436
G1 X151.2 Y114.3 E2.03638
G1 X151.2 Y145.99 E1.1442
G1 X151.147 Y146.7 E.02572
G1 X150.991 Y147.385 E.02536
G1 X150.734 Y148.039 E.02536
G1 X150.383 Y148.647 E.02536
G1 X149.945 Y149.196 E.02536
G1 X149.43 Y149.674 E.02536
G1 X148.85 Y150.07 E.02536
G1 X148.217 Y150.374 E.02536
G1 X147.546 Y150.581 E.02536
G1 X147.109 Y150.647 E.01596
G1 X146.494 Y150.7 E.02226
G1 X139.459 Y150.7 E.25402
G1 E-.5 F1800
;WIPE_START
G1 F12000
G1 X139.26 Y150.774
G1 X139.2 Y150.929
G1 X139.2 Y152.551
;WIPE_END
G1 Z.4 F24000
G1 X142.276 Y132.664 Z.4
G1 Z.2
M73 P4 R14
M73 P4 R14
G1 E.5 F1800
;TYPE:Inner wall
G1 F3000
G1 X142.334 Y132.666 E.00209
G1 X142.837 Y132.772 E.01856
G1 X143.446 Y133.04 E.02405
G1 X143.989 Y133.454 E.02462
G1 X144.415 Y133.98 E.02444
G1 X144.705 Y134.589 E.02437
G1 X144.843 Y135.25 E.02437
G1 X144.822 Y135.925 E.02437
G1 X144.643 Y136.576 E.02437
G1 X144.317 Y137.166 E.02437
G1 X143.86 Y137.664 E.02437
G1 X143.3 Y138.04 E.02437
G1 X142.667 Y138.275 E.02437
G1 X141.997 Y138.354 E.02437
G1 X141.326 Y138.273 E.02437
G1 X140.702 Y138.041 E.02405
G1 X140.136 Y137.661 E.02462
G1 X139.679 Y137.161 E.02444
G1 X139.354 Y136.569 E.02437
G1 X139.177 Y135.918 E.02437
G1 X139.158 Y135.243 E.02437
G1 X139.295 Y134.591 E.02405
G1 X139.588 Y133.975 E.02462
G1 X140.015 Y133.45 E.02444
G1 X140.552 Y133.041 E.02437
G1 X141.17 Y132.77 E.02437
G1 X141.826 Y132.652 E.02405
G1 X142.236 Y132.663 E.01482
G1 X142.277 Y133.121 F24000
;TYPE:Outer wall
G1 F3000
G1 X142.743 Y133.219 E.01719
G1 X143.25 Y133.453 E.02018
G1 X143.702 Y133.809 E.02077
G1 X144.052 Y134.257 E.02051
G1 X144.286 Y134.774 E.02049
G1 X144.393 Y135.331 E.02049
G1 X144.366 Y135.898 E.02049
G1 X144.206 Y136.442 E.02049
G1 X143.923 Y136.934 E.02049
G1 X143.532 Y137.346 E.02049
G1 X143.056 Y137.654 E.02049
G1 X142.521 Y137.842 E.02049
G1 X141.956 Y137.898 E.02049
G1 X141.394 Y137.821 E.02049
G1 X140.873 Y137.617 E.02018
G1 X140.401 Y137.288 E.02077
G1 X140.026 Y136.862 E.02051
G1 X139.761 Y136.361 E.02049
G1 X139.621 Y135.811 E.02049
G1 X139.615 Y135.243 E.02049
G1 X139.74 Y134.698 E.02018
G1 X139.995 Y134.183 E.02077
G1 X140.361 Y133.748 E.02051
G1 X140.818 Y133.412 E.02049
G1 X141.342 Y133.193 E.02049
G1 X141.893 Y133.104 E.02018
G1 X142.238 Y133.113 E.01243
G1 E-.5 F1800
;WIPE_START
G1 F12000
G1 X142.743 Y133.219
G1 X143.25 Y133.453
G1 X143.702 Y133.809
G1 X143.917 Y134.085
;WIPE_END
G1 Z.4 F24000
G1 X128.679 Y139.105 Z.4
G1 Z.2
G1 E.5 F1800
;TYPE:Inner wall
G1 F3000
G1 X128.588 Y139.216 E.00521
G1 X128.272 Y139.357 E.01248
G1 X117.829 Y139.357 E.37708
G1 X117.524 Y139.286 E.01129
G1 X117.323 Y139.134 E.0091
G1 X117.186 Y138.91 E.00947
G1 X117.143 Y138.671 E.00876
G1 X117.143 Y123.329 E.55397
G1 X117.196 Y123.065 E.00971
G1 X117.342 Y122.846 E.00951
G1 X117.606 Y122.68 E.01127
G1 X117.829 Y122.643 E.00814
G1 X128.171 Y122.643 E.37344
G1 X128.494 Y122.724 E.01201
G1 X128.72 Y122.917 E.01074
G1 X128.846 Y123.205 E.01134
G1 X128.857 Y138.671 E.55844
G1 X128.786 Y138.975 E.01126
G1 X128.705 Y139.074 E.00462
G1 X128.34 Y138.826 F24000
;TYPE:Outer wall
G1 F3000
G1 X128.191 Y138.9 E.00602
G1 X117.829 Y138.9 E.37414
G1 X117.672 Y138.838 E.00606
G1 X117.6 Y138.671 E.00657
G1 X117.6 Y123.329 E.55397
G1 X117.666 Y123.168 E.00628
G1 X117.829 Y123.1 E.00635
G1 X128.171 Y123.1 E.37344
G1 X128.334 Y123.168 E.00635
G1 X128.4 Y123.329 E.00628
G1 X128.4 Y138.671 E.55397
G1 X128.355 Y138.788 E.00453
G1 E-.5 F1800
;WIPE_START
G1 F12000
G1 X128.191 Y138.9
G1 X126.389 Y138.9
;WIPE_END
G1 Z.4 F24000
G1 X104.243 Y132.663 Z.4
G1 Z.2
G1 E.5 F1800
;TYPE:Inner wall
G1 F3000
G1 X104.334 Y132.666 E.00327
G1 X104.837 Y132.772 E.01856
G1 X105.454 Y133.045 E.02437
G1 X105.99 Y133.455 E.02437
G1 X106.415 Y133.98 E.02437
G1 X106.705 Y134.589 E.02437
G1 X106.843 Y135.25 E.02437
G1 X106.822 Y135.925 E.02437
G1 X106.643 Y136.576 E.02437
G1 X106.317 Y137.166 E.02437
G1 X105.86 Y137.664 E.02437
G1 X105.3 Y138.04 E.02437
G1 X104.667 Y138.275 E.02437
G1 X103.997 Y138.354 E.02437
G1 X103.326 Y138.273 E.02437
G1 X102.694 Y138.037 E.02437
G1 X102.134 Y137.659 E.02437
G1 X101.679 Y137.161 E.02437
G1 X101.354 Y136.569 E.02437
G1 X101.177 Y135.918 E.02437
G1 X101.158 Y135.243 E.02437
G1 X101.295 Y134.591 E.02405
G1 X101.588 Y133.975 E.02462
G1 X102.015 Y133.45 E.02444
G1 X102.552 Y133.041 E.02437
G1 X103.17 Y132.77 E.02437
G1 X103.826 Y132.652 E.02405
G1 X104.203 Y132.662 E.01364
G1 X104.231 Y133.113 F24000
;TYPE:Outer wall
G1 F3000
G1 X104.24 Y133.113 E.00032
G1 X104.743 Y133.219 E.01856
G1 X105.258 Y133.457 E.02049
G1 X105.702 Y133.81 E.02049
G1 X106.052 Y134.257 E.02049
G1 X106.286 Y134.774 E.02049
G1 X106.393 Y135.331 E.02049
G1 X106.366 Y135.898 E.02049
G1 X106.206 Y136.442 E.02049
G1 X105.923 Y136.934 E.02049
G1 X105.532 Y137.346 E.02049
G1 X105.056 Y137.654 E.02049
G1 X104.521 Y137.842 E.02049
G1 X103.956 Y137.898 E.02049
G1 X103.394 Y137.821 E.02049
G1 X102.866 Y137.614 E.02049
G1 X102.401 Y137.288 E.02049
G1 X102.026 Y136.862 E.02049
G1 X101.761 Y136.361 E.02049
G1 X101.621 Y135.811 E.02049
G1 X101.615 Y135.243 E.02049
G1 X101.74 Y134.698 E.02018
G1 X101.995 Y134.183 E.02077
G1 X102.361 Y133.748 E.02051
G1 X102.818 Y133.412 E.02049
G1 X103.342 Y133.193 E.02049
G1 X103.893 Y133.104 E.02018
G1 X104.191 Y133.112 E.01074
G1 E-.5 F1800
;WIPE_START
G1 F12000
G1 X104.24 Y133.113
G1 X104.743 Y133.219
G1 X105.258 Y133.457
G1 X105.702 Y133.81
G1 X105.888 Y134.048
;WIPE_END
G1 Z.4 F24000
G1 X150.606 Y115.82
G1 Z.4
G1 Z.2
G1 E.5 F1800
;TYPE:Bottom surface
;WIDTH:0.500921
G1 F5895.184
G1 X149.886 Y115.1 E.03685
G1 X149.238 Y115.1 E.02343
G1 X150.4 Y116.262 E.05947
G1 X150.4 Y116.91 E.02343
G1 X148.59 Y115.1 E.09261
G1 X147.942 Y115.1 E.02343
G1 X150.4 Y117.558 E.12575
G1 X150.4 Y118.205 E.02343
G1 X147.295 Y115.1 E.15889
G1 X146.647 Y115.1 E.02343
G1 X150.4 Y118.853 E.19203
G1 X150.4 Y119.501 E.02343
G1 X145.999 Y115.1 E.22517
G1 X145.352 Y115.1 E.02343
G1 X150.4 Y120.148 E.25831
G1 X150.4 Y120.796 E.02343
G1 X144.704 Y115.1 E.29145
G1 X144.056 Y115.1 E.02343
G1 X150.4 Y121.444 E.32459
G1 X150.4 Y122.092 E.02343
G1 X143.408 Y115.1 E.35773
G1 X142.761 Y115.1 E.02343
G1 X150.4 Y122.739 E.39087
G1 X150.4 Y123.387 E.02343
G1 X142.113 Y115.1 E.42401
G1 X141.465 Y115.1 E.02343
G1 X150.4 Y124.035 E.45715
G1 X150.4 Y124.682 E.02343
G1 X140.818 Y115.1 E.49028
G1 X140.17 Y115.1 E.02343
G1 X150.4 Y125.33 E.52342
G1 X150.4 Y125.978 E.02343
M73 P5 R14
M73 P5 R14
G1 X139.522 Y115.1 E.55656
G1 X138.874 Y115.1 E.02343
G1 X150.4 Y126.626 E.5897
G1 X150.4 Y127.273 E.02343
G1 X138.227 Y115.1 E.62284
G1 X137.579 Y115.1 E.02343
G1 X150.4 Y127.921 E.65598
G1 X150.4 Y128.569 E.02343
G1 X136.931 Y115.1 E.68912
G1 X136.284 Y115.1 E.02343
G1 X150.4 Y129.216 E.72226
G1 X150.4 Y129.864 E.02343
G1 X135.636 Y115.1 E.7554
G1 X134.988 Y115.1 E.02343
G1 X150.4 Y130.512 E.78854
G1 X150.4 Y131.16 E.02343
G1 X134.34 Y115.1 E.82168
G1 X133.693 Y115.1 E.02343
G1 X150.4 Y131.807 E.85482
G1 X150.4 Y132.455 E.02343
G1 X133.045 Y115.1 E.88796
G1 X132.397 Y115.1 E.02343
G1 X150.4 Y133.103 E.9211
G1 X150.4 Y133.75 E.02343
G1 X131.75 Y115.1 E.95424
G1 X131.102 Y115.1 E.02343
G1 X150.4 Y134.398 E.98738
G1 X150.4 Y135.046 E.02343
G1 X130.454 Y115.1 E1.02052
G1 X129.807 Y115.1 E.02343
G1 X150.4 Y135.693 E1.05366
G1 X150.4 Y136.341 E.02343
G1 X129.159 Y115.1 E1.0868
G1 X128.511 Y115.1 E.02343
G1 X150.4 Y136.989 E1.11994
G1 X150.4 Y137.637 E.02343
G1 X127.863 Y115.1 E1.15308
G1 X127.216 Y115.1 E.02343
G1 X150.4 Y138.284 E1.18622
G1 X150.4 Y138.932 E.02343
G1 X126.568 Y115.1 E1.21936
G1 X125.92 Y115.1 E.02343
G1 X150.4 Y139.58 E1.2525
G1 X150.4 Y140.227 E.02343
G1 X145.133 Y134.96 E.26949
G1 X145.197 Y135.366 E.01486
G1 X145.178 Y135.653 E.01041
G1 X150.4 Y140.875 E.26718
G1 X150.4 Y141.523 E.02343
G1 X145.103 Y136.226 E.27102
G1 X144.952 Y136.722 E.01877
G1 X150.4 Y142.171 E.27877
G1 X150.4 Y142.818 E.02343
G1 X144.727 Y137.145 E.29025
G1 X144.608 Y137.347 E.00846
M73 P6 R14
M73 P6 R14
G1 X144.466 Y137.532 E.00845
G1 X150.4 Y143.466 E.30361
G1 X150.4 Y144.114 E.02343
G1 X144.147 Y137.861 E.31993
G1 X143.923 Y138.052 E.01067
G1 X143.781 Y138.142 E.00609
G1 X150.4 Y144.761 E.33867
G1 X150.4 Y145.409 E.02343
G1 X143.374 Y138.383 E.35949
G1 X142.898 Y138.554 E.01832
G1 X150.393 Y146.05 E.38352
G1 X150.339 Y146.644 E.02157
G1 X142.356 Y138.661 E.40845
G1 X141.932 Y138.7 E.0154
G1 X141.715 Y138.668 E.00794
G1 X150.375 Y147.327 E.44306
G1 E-.5 F1800
;WIPE_START
G1 F12000
G1 X148.961 Y145.913
;WIPE_END
G1 Z.4 F24000
G1 X142.803 Y132.63 Z.4
G1 Z.2
G1 E.5 F1800
G1 F5895.184
G1 X125.273 Y115.1 E.89692
G1 X124.625 Y115.1 E.02343
G1 X141.831 Y132.307 E.88037
G1 X141.27 Y132.393 E.02055
G1 X123.977 Y115.1 E.88478
G1 X123.329 Y115.1 E.02343
G1 X140.788 Y132.558 E.89325
G1 X140.559 Y132.647 E.00887
G1 X140.348 Y132.766 E.00878
G1 X122.682 Y115.1 E.90386
G1 X122.034 Y115.1 E.02343
G1 X139.97 Y133.036 E.91771
G1 X139.759 Y133.221 E.01017
G1 X139.644 Y133.358 E.00645
G1 X121.386 Y115.1 E.93415
G1 X120.739 Y115.1 E.02343
G1 X127.939 Y122.3 E.3684
G1 X127.291 Y122.3 E.02343
G1 X120.091 Y115.1 E.3684
G1 X119.443 Y115.1 E.02343
G1 X126.643 Y122.3 E.3684
G1 X125.996 Y122.3 E.02343
G1 X118.795 Y115.1 E.3684
G1 X118.148 Y115.1 E.02343
G1 X125.348 Y122.3 E.3684
G1 X124.7 Y122.3 E.02343
G1 X117.5 Y115.1 E.3684
G1 X116.852 Y115.1 E.02343
G1 X124.053 Y122.3 E.3684
G1 X123.405 Y122.3 E.02343
G1 X116.205 Y115.1 E.3684
G1 X115.557 Y115.1 E.02343
G1 X122.757 Y122.3 E.3684
G1 X122.109 Y122.3 E.02343
G1 X114.909 Y115.1 E.3684
G1 X114.261 Y115.1 E.02343
G1 X121.462 Y122.3 E.3684
G1 X120.814 Y122.3 E.02343
G1 X113.614 Y115.1 E.3684
G1 X112.966 Y115.1 E.02343
G1 X120.166 Y122.3 E.3684
G1 X119.519 Y122.3 E.02343
G1 X112.318 Y115.1 E.3684
G1 X111.671 Y115.1 E.02343
G1 X118.871 Y122.3 E.3684
G1 X118.223 Y122.3 E.02343
G1 X111.023 Y115.1 E.3684
G1 X110.375 Y115.1 E.02343
G1 X117.603 Y122.328 E.36982
G1 X117.341 Y122.422 E.01009
G1 X117.174 Y122.546 E.00752
G1 X109.727 Y115.1 E.381
G1 X109.08 Y115.1 E.02343
G1 X116.891 Y122.911 E.39965
G1 X116.804 Y123.235 E.01215
G1 X116.804 Y123.471 E.00854
G1 X108.432 Y115.1 E.42832
G1 X107.784 Y115.1 E.02343
M73 P7 R14
M73 P7 R14
G1 X116.803 Y124.119 E.46145
G1 X116.803 Y124.766 E.02343
G1 X107.137 Y115.1 E.49459
G1 X106.489 Y115.1 E.02343
G1 X116.803 Y125.414 E.52772
G1 X116.803 Y126.062 E.02343
G1 X105.841 Y115.1 E.56085
G1 X105.193 Y115.1 E.02343
G1 X116.803 Y126.709 E.59398
G1 X116.803 Y127.357 E.02343
G1 X104.546 Y115.1 E.62712
G1 X103.898 Y115.1 E.02343
G1 X116.802 Y128.004 E.66025
G1 X116.802 Y128.652 E.02343
G1 X103.25 Y115.1 E.69338
G1 X102.603 Y115.1 E.02343
G1 X116.802 Y129.299 E.72651
G1 X116.802 Y129.947 E.02343
G1 X101.955 Y115.1 E.75965
G1 X101.307 Y115.1 E.02343
G1 X116.802 Y130.595 E.79278
G1 X116.802 Y131.242 E.02343
G1 X100.66 Y115.1 E.82591
G1 X100.012 Y115.1 E.02343
G1 X116.802 Y131.89 E.85904
G1 X116.801 Y132.537 E.02343
G1 X99.364 Y115.1 E.89218
G1 X98.716 Y115.1 E.02343
G1 X116.801 Y133.185 E.92531
G1 X116.801 Y133.832 E.02343
G1 X98.069 Y115.1 E.95844
