; HEADER_BLOCK_START
; generated by OrcaSlicer 2.2.0 on 2024-11-29 at 18:07:48
; total layer number: 10
; filament_density: 1.27
; filament_diameter: 1.75
; max_z_height: 2.00
; HEADER_BLOCK_END

; THUMBNAIL_BLOCK_START

;
; THUMBNAIL_BLOCK_END

; THUMBNAIL_BLOCK_START

;
; THUMBNAIL_BLOCK_END

; external perimeters extrusion width = 0.42mm
; perimeters extrusion width = 0.45mm
; infill extrusion width = 0.45mm
; solid infill extrusion width = 0.45mm
; top infill extrusion width = 0.42mm
; first layer extrusion width = 0.50mm

; EXECUTABLE_BLOCK_START
EXCLUDE_OBJECT_DEFINE NAME=Corps4.stl_id_0_copy_0 CENTER=115,115 POLYGON=[[90,127.224],[90,102.776],[140,102.776],[140,127.224],[90,127.224],[90,127.224]]
M73 P0 R6
;TYPE:Custom
M220 S100
G90 ; use absolute coordinates
M83 ; extruder relative mode
M104 S150 ; set temporary nozzle temp to prevent oozing during homing
M140 S70 ; set final bed temp
G4 S30 ; allow partial nozzle warmup
G28 ; home all axis and restore leveling
BED_MESH_CALIBRATE
G1 Z25 F240
G1 X10.0 Y30 F3000
M73 P1 R6
M104 S245 ; set final nozzle temp
M190 S70 ; wait for bed temp to stabilize
M109 S245 ; wait for nozzle temp to stabilize
M73 P1 R6
G1 Z0.28 F240
G92 E0 ; Move Z Axis up
LINE_PURGE
G92 E0 ; Move Z Axis up
G1 Z2.0 F3000
M73 P3 R6
M117 Start Printing..
G90
G21
M83 ; use relative distances for extrusion
; filament start gcode
M106 S0
;LAYER_CHANGE
;Z:0.2
;HEIGHT:0.2
;BEFORE_LAYER_CHANGE
;0.2
G92 E0

M73 P3 R6
G1 E-.5 F1800
;_SET_FAN_SPEED_CHANGING_LAYER
SET_VELOCITY_LIMIT ACCEL=1000
SET_VELOCITY_LIMIT SQUARE_CORNER_VELOCITY=7
; printing object Corps4.stl id:0 copy 0
EXCLUDE_OBJECT_START NAME=Corps4.stl_id_0_copy_0
G1 Z.4 F24000
G1 X145.872 Y145.096
G1 Z.4
G1 Z.2
G1 E.5 F1800
;TYPE:Inner wall
;WIDTH:0.499999
G1 F3000
G1 X100.128 Y145.096 E1.65161
G1 X100.128 Y124.904 E.72904
M73 P4 R6
M73 P4 R6
G1 X145.872 Y124.904 E1.65161
G1 X145.872 Y145.056 E.72759
G1 X146.329 Y145.553 F24000
G1 F3000
G1 X99.671 Y145.553 E1.68461
G1 X99.671 Y124.447 E.76204
G1 X146.329 Y124.447 E1.68461
G1 X146.329 Y145.513 E.7606
M73 P5 R5
M73 P5 R5
G1 X146.786 Y146.01 F24000
G1 F3000
G1 X99.214 Y146.01 E1.71762
G1 X99.214 Y123.99 E.79505
G1 X146.786 Y123.99 E1.71762
G1 X146.786 Y145.97 E.79361
G1 X147.243 Y146.467 F24000
M73 P6 R5
M73 P6 R5
G1 F3000
G1 X98.757 Y146.467 E1.75063
G1 X98.757 Y123.533 E.82806
G1 X147.243 Y123.533 E1.75063
G1 X147.243 Y146.427 E.82661
G1 X147.7 Y146.924 F24000
;TYPE:Outer wall
G1 F3000
G1 X98.3 Y146.924 E1.78363
G1 X98.3 Y123.076 E.86106
M73 P7 R5
M73 P7 R5
G1 X147.7 Y123.076 E1.78363
G1 X147.7 Y146.884 E.85962
G1 E-.5 F1800
;WIPE_START
G1 F12000
G1 X145.7 Y146.886
;WIPE_END
G1 Z.4 F24000
G1 X138.615 Y137.94 Z.4
G1 Z.2
G1 E.5 F1800
;TYPE:Inner wall
G1 F3000
G1 X138.295 Y138.173 E.01428
G1 X137.856 Y138.403 E.0179
G1 X137.244 Y138.62 E.02344
G1 X136.598 Y138.714 E.02358
G1 X136.102 Y138.714 E.0179
G1 X135.456 Y138.62 E.02358
G1 X134.844 Y138.403 E.02344
G1 X134.321 Y138.112 E.0216
G1 X133.879 Y137.773 E.0201
G1 X133.46 Y137.341 E.02174
G1 X133.096 Y136.819 E.02296
G1 X132.804 Y136.129 E.02706
G1 X132.685 Y135.648 E.0179
G1 X132.623 Y135.081 E.02058
G1 X132.685 Y134.352 E.02643
G1 X132.804 Y133.871 E.0179
G1 X133.044 Y133.275 E.02318
G1 X133.406 Y132.723 E.02384
G1 X133.735 Y132.352 E.0179
G1 X134.228 Y131.934 E.02334
G1 X134.801 Y131.616 E.02368
G1 X135.366 Y131.418 E.0216
G1 X135.913 Y131.312 E.0201
G1 X136.304 Y131.274 E.01419
G1 X136.96 Y131.331 E.02379
G1 X137.479 Y131.454 E.01926
G1 X138.086 Y131.7 E.02364
G1 X138.627 Y132.056 E.02338
G1 X138.998 Y132.385 E.0179
G1 X139.416 Y132.878 E.02334
G1 X139.734 Y133.451 E.02368
G1 X139.91 Y133.915 E.0179
G1 X140.036 Y134.443 E.0196
G1 X140.066 Y135.202 E.02741
G1 X140.007 Y135.694 E.0179
G1 X139.835 Y136.325 E.02361
G1 X139.547 Y136.906 E.02341
G1 X139.265 Y137.314 E.0179
G1 X138.84 Y137.775 E.02265
G1 X138.647 Y137.916 E.00865
G1 X138.466 Y137.481 F24000
G1 F3000
G1 X138.367 Y137.568 E.00475
G1 X137.873 Y137.895 E.02141
G1 X137.317 Y138.119 E.02162
G1 X136.943 Y138.211 E.01392
G1 X136.35 Y138.272 E.02152
G1 X135.757 Y138.211 E.02152
G1 X135.383 Y138.119 E.01392
G1 X134.79 Y137.876 E.02312
G1 X134.158 Y137.411 E.02835
G1 X133.832 Y137.074 E.01691
G1 X133.491 Y136.588 E.02146
G1 X133.231 Y135.967 E.02427
G1 X133.139 Y135.593 E.01392
G1 X133.08 Y135.063 E.01924
G1 X133.139 Y134.407 E.02379
G1 X133.231 Y134.033 E.01392
M73 P8 R5
M73 P8 R5
G1 X133.45 Y133.486 E.02126
G1 X133.782 Y132.983 E.02177
G1 X134.038 Y132.694 E.01392
G1 X134.489 Y132.31 E.02139
G1 X135.014 Y132.02 E.02165
G1 X135.453 Y131.866 E.0168
G1 X136 Y131.76 E.0201
G1 X136.467 Y131.74 E.01691
G1 X137.12 Y131.82 E.02375
G1 X137.694 Y132.024 E.02199
G1 X138.036 Y132.203 E.01392
G1 X138.533 Y132.564 E.02219
G1 X138.923 Y132.989 E.02085
G1 X139.142 Y133.307 E.01392
G1 X139.408 Y133.838 E.02144
G1 X139.563 Y134.416 E.0216
G1 X139.609 Y134.798 E.01392
G1 X139.598 Y135.395 E.02154
G1 X139.466 Y135.976 E.02149
G1 X139.33 Y136.336 E.01393
G1 X139.04 Y136.861 E.02165
G1 X138.656 Y137.312 E.02139
G1 X138.496 Y137.454 E.00773
G1 X138.091 Y137.18 F24000
G1 F3000
G1 X137.776 Y137.421 E.01431
G1 X137.155 Y137.692 E.02445
G1 X136.488 Y137.806 E.02445
G1 X135.812 Y137.758 E.02445
G1 X135.168 Y137.549 E.02445
G1 X134.878 Y137.387 E.012
G1 X134.436 Y137.048 E.0201
G1 X134.203 Y136.808 E.01208
G1 X133.885 Y136.356 E.01996
G1 X133.658 Y135.805 E.02149
G1 X133.544 Y135.138 E.02445
G1 X133.592 Y134.462 E.02446
G1 X133.801 Y133.818 E.02445
G1 X134.158 Y133.242 E.02445
G1 X134.643 Y132.769 E.02445
G1 X135.226 Y132.425 E.02445
G1 X135.54 Y132.315 E.012
G1 X136.086 Y132.209 E.0201
G1 X136.421 Y132.194 E.01208
G1 X137.014 Y132.265 E.02159
G1 X137.532 Y132.451 E.01986
G1 X138.108 Y132.808 E.02445
G1 X138.581 Y133.293 E.02446
G1 X138.925 Y133.876 E.02445
G1 X139.119 Y134.525 E.02445
G1 X139.152 Y135.202 E.02445
G1 X139.023 Y135.866 E.02445
G1 X138.738 Y136.481 E.02446
G1 X138.314 Y137.009 E.02445
G1 X138.123 Y137.156 E.0087
G1 X137.809 Y136.827 F24000
G1 F3000
G1 X137.516 Y137.045 E.01316
G1 X136.993 Y137.264 E.02049
G1 X136.433 Y137.352 E.02049
G1 X135.867 Y137.304 E.02049
G1 X135.33 Y137.121 E.02049
G1 X134.714 Y136.685 E.02725
G1 X134.313 Y136.177 E.02339
G1 X134.086 Y135.643 E.02093
G1 X133.998 Y135.083 E.02049
G1 X134.054 Y134.466 E.02235
G1 X134.229 Y133.98 E.01865
G1 X134.534 Y133.502 E.02049
G1 X134.946 Y133.111 E.02049
G1 X135.439 Y132.83 E.02049
G1 X136.173 Y132.658 E.02725
G1 X136.82 Y132.695 E.02339
G1 X137.37 Y132.879 E.02093
G1 X137.848 Y133.184 E.02049
G1 X138.239 Y133.596 E.02049
G1 X138.52 Y134.089 E.02049
G1 X138.675 Y134.634 E.02049
G1 X138.695 Y135.202 E.02049
G1 X138.579 Y135.757 E.02049
G1 X138.333 Y136.268 E.02049
G1 X137.972 Y136.706 E.02049
G1 X137.841 Y136.803 E.00588
G1 X137.533 Y136.476 F24000
;TYPE:Outer wall
G1 F3000
G1 X137.208 Y136.694 E.01414
G1 X136.778 Y136.85 E.01653
G1 X136.322 Y136.899 E.01653
G1 X135.869 Y136.837 E.01653
G1 X135.434 Y136.662 E.01693
G1 X134.992 Y136.323 E.0201
G1 X134.684 Y135.91 E.01859
G1 X134.5 Y135.428 E.01865
G1 X134.45 Y135 E.01555
G1 X134.513 Y134.519 E.01752
G1 X134.682 Y134.093 E.01653
G1 X134.947 Y133.72 E.01653
G1 X135.294 Y133.422 E.01653
G1 X135.714 Y133.212 E.01693
G1 X136.26 Y133.107 E.0201
G1 X136.773 Y133.149 E.01859
G1 X137.257 Y133.332 E.01865
G1 X137.63 Y133.597 E.01653
G1 X137.928 Y133.944 E.01653
G1 X138.135 Y134.352 E.01653
G1 X138.238 Y134.798 E.01653
G1 X138.231 Y135.256 E.01653
G1 X138.115 Y135.699 E.01653
G1 X137.897 Y136.101 E.01653
G1 X137.588 Y136.439 E.01653
G1 X137.567 Y136.454 E.00094
G1 E-.5 F1800
;WIPE_START
G1 F12000
G1 X137.208 Y136.694
G1 X136.778 Y136.85
G1 X136.322 Y136.899
G1 X135.869 Y136.837
G1 X135.688 Y136.764
;WIPE_END
G1 Z.4 F24000
G1 X110.076 Y131.315 Z.4
G1 Z.2
G1 E.5 F1800
;TYPE:Inner wall
G1 F3000
G1 X110.26 Y131.331 E.00669
G1 X110.779 Y131.454 E.01926
G1 X111.386 Y131.7 E.02364
G1 X111.927 Y132.056 E.02338
G1 X112.298 Y132.385 E.0179
G1 X112.723 Y132.888 E.02379
G1 X113.034 Y133.451 E.02323
G1 X113.21 Y133.915 E.0179
G1 X113.339 Y134.463 E.02033
G1 X113.366 Y135 E.01941
G1 X113.339 Y135.537 E.01941
G1 X113.21 Y136.085 E.02033
G1 X113.034 Y136.549 E.0179
G1 X112.723 Y137.112 E.02323
G1 X112.298 Y137.615 E.02379
G1 X111.927 Y137.944 E.0179
G1 X111.386 Y138.3 E.02338
G1 X110.779 Y138.546 E.02364
G1 X110.298 Y138.665 E.0179
G1 X109.65 Y138.729 E.02351
G1 X109.002 Y138.665 E.02351
G1 X108.521 Y138.546 E.0179
G1 X107.867 Y138.274 E.02557
G1 X107.179 Y137.773 E.03071
G1 X106.917 Y137.534 E.01282
G1 X106.499 Y136.976 E.02516
G1 X106.247 Y136.506 E.01926
G1 X106.03 Y135.894 E.02344
G1 X105.936 Y135.248 E.02357
G1 X105.936 Y134.752 E.0179
G1 X106.03 Y134.106 E.02358
G1 X106.247 Y133.494 E.02344
G1 X106.477 Y133.055 E.0179
G1 X106.863 Y132.523 E.02371
G1 X107.336 Y132.085 E.0233
G1 X107.744 Y131.803 E.0179
G1 X108.373 Y131.497 E.02523
G1 X109.213 Y131.312 E.03105
G1 X109.604 Y131.274 E.01419
G1 X110.036 Y131.311 E.01565
G1 X110.095 Y131.78 F24000
G1 F3000
G1 X110.42 Y131.82 E.01184
G1 X110.994 Y132.024 E.02199
G1 X111.336 Y132.203 E.01392
G1 X111.823 Y132.554 E.02168
G1 X112.223 Y132.989 E.02136
G1 X112.442 Y133.307 E.01392
G1 X112.688 Y133.787 E.01946
G1 X112.863 Y134.416 E.02357
G1 X112.909 Y134.798 E.01393
G1 X112.903 Y135.347 E.01979
G1 X112.766 Y135.976 E.02324
G1 X112.63 Y136.336 E.01392
G1 X112.346 Y136.853 E.0213
G1 X111.956 Y137.312 E.02174
G1 X111.667 Y137.568 E.01392
G1 X111.173 Y137.895 E.02141
G1 X110.617 Y138.119 E.02162
G1 X110.243 Y138.211 E.01393
G1 X109.65 Y138.272 E.02152
G1 X109.057 Y138.211 E.02152
G1 X108.683 Y138.119 E.01393
G1 X108.09 Y137.876 E.02312
G1 X107.458 Y137.411 E.02835
G1 X107.132 Y137.074 E.01691
G1 X106.762 Y136.536 E.02357
G1 X106.531 Y135.967 E.02217
G1 X106.439 Y135.593 E.01392
G1 X106.39 Y134.807 E.02842
G1 X106.474 Y134.216 E.02157
G1 X106.674 Y133.656 E.02147
G1 X106.853 Y133.314 E.01392
G1 X107.204 Y132.827 E.02168
G1 X107.639 Y132.427 E.02136
G1 X107.957 Y132.208 E.01392
G1 X108.525 Y131.928 E.02286
G1 X109.299 Y131.76 E.02862
G1 X109.767 Y131.74 E.01691
G1 X110.055 Y131.775 E.01047
G1 X110.034 Y132.232 F24000
G1 F3000
G1 X110.314 Y132.265 E.01021
G1 X110.832 Y132.451 E.01986
G1 X111.408 Y132.808 E.02445
G1 X111.881 Y133.293 E.02445
G1 X112.225 Y133.876 E.02445
G1 X112.419 Y134.525 E.02445
G1 X112.452 Y135.202 E.02445
G1 X112.323 Y135.866 E.02445
G1 X112.038 Y136.481 E.02445
G1 X111.614 Y137.009 E.02445
G1 X111.076 Y137.421 E.02445
G1 X110.455 Y137.692 E.02445
G1 X109.788 Y137.806 E.02445
G1 X109.112 Y137.758 E.02445
G1 X108.468 Y137.549 E.02446
G1 X108.178 Y137.387 E.012
G1 X107.736 Y137.048 E.0201
G1 X107.503 Y136.808 E.01208
G1 X107.164 Y136.319 E.02146
G1 X106.958 Y135.805 E.01999
G1 X106.844 Y135.138 E.02445
G1 X106.892 Y134.462 E.02445
G1 X107.101 Y133.818 E.02445
G1 X107.458 Y133.242 E.02445
G1 X107.943 Y132.769 E.02445
G1 X108.526 Y132.425 E.02445
G1 X108.84 Y132.315 E.012
G1 X109.386 Y132.209 E.0201
G1 X109.721 Y132.194 E.01208
G1 X109.994 Y132.227 E.00994
G1 X109.938 Y132.684 F24000
M73 P9 R5
M73 P9 R5
G1 F3000
G1 X110.12 Y132.695 E.00659
G1 X110.67 Y132.879 E.02093
G1 X111.148 Y133.184 E.02049
G1 X111.539 Y133.596 E.02049
G1 X111.82 Y134.089 E.02049
G1 X111.975 Y134.634 E.02049
G1 X111.995 Y135.202 E.02049
G1 X111.879 Y135.757 E.02049
G1 X111.633 Y136.268 E.02049
G1 X111.272 Y136.706 E.02049
G1 X110.816 Y137.045 E.02049
G1 X110.293 Y137.264 E.02049
G1 X109.733 Y137.352 E.02049
G1 X109.167 Y137.304 E.02049
G1 X108.63 Y137.121 E.02049
G1 X108.014 Y136.685 E.02725
G1 X107.613 Y136.177 E.02339
G1 X107.386 Y135.643 E.02093
G1 X107.298 Y135.083 E.02049
G1 X107.346 Y134.517 E.02049
G1 X107.529 Y133.98 E.02049
G1 X107.834 Y133.502 E.02049
G1 X108.246 Y133.111 E.02049
G1 X108.739 Y132.83 E.02049
G1 X109.473 Y132.658 E.02725
G1 X109.898 Y132.682 E.01535
G1 X109.918 Y133.136 F24000
;TYPE:Outer wall
G1 F3000
G1 X110.073 Y133.149 E.00564
G1 X110.557 Y133.332 E.01865
G1 X110.93 Y133.597 E.01653
G1 X111.228 Y133.944 E.01653
G1 X111.435 Y134.352 E.01653
G1 X111.538 Y134.798 E.01653
G1 X111.531 Y135.256 E.01653
G1 X111.415 Y135.699 E.01653
G1 X111.197 Y136.101 E.01653
G1 X110.888 Y136.439 E.01653
G1 X110.508 Y136.694 E.01653
G1 X110.078 Y136.85 E.01653
G1 X109.622 Y136.899 E.01653
G1 X109.169 Y136.837 E.01653
G1 X108.734 Y136.662 E.01693
G1 X108.292 Y136.323 E.0201
G1 X107.984 Y135.91 E.01859
G1 X107.802 Y135.44 E.01822
G1 X107.751 Y135.028 E.01499
G1 X107.813 Y134.519 E.0185
G1 X107.982 Y134.093 E.01653
G1 X108.247 Y133.72 E.01653
G1 X108.594 Y133.422 E.01653
G1 X109.014 Y133.212 E.01693
G1 X109.56 Y133.107 E.0201
G1 X109.878 Y133.133 E.01151
G1 E-.5 F1800
;WIPE_START
G1 F12000
G1 X110.073 Y133.149
G1 X110.557 Y133.332
G1 X110.93 Y133.597
G1 X111.228 Y133.944
G1 X111.396 Y134.276
;WIPE_END
G1 Z.4 F24000
G1 X144.808 Y125.041
G1 Z.4
G1 Z.2
G1 E.5 F1800
;TYPE:Bottom surface
;WIDTH:0.501334
G1 F5889.873
G1 X145.529 Y125.762 E.03693
G1 X145.529 Y126.411 E.02348
G1 X144.365 Y125.247 E.0596
G1 X143.717 Y125.247 E.02348
G1 X145.529 Y127.059 E.09279
G1 X145.529 Y127.707 E.02348
G1 X143.069 Y125.247 E.12599
G1 X142.42 Y125.247 E.02348
G1 X145.529 Y128.356 E.15919
G1 X145.529 Y129.004 E.02348
G1 X141.772 Y125.247 E.19239
G1 X141.124 Y125.247 E.02348
G1 X145.529 Y129.652 E.22559
G1 X145.529 Y130.301 E.02348
G1 X140.475 Y125.247 E.25879
G1 X139.827 Y125.247 E.02348
G1 X145.529 Y130.949 E.29199
G1 X145.529 Y131.597 E.02348
G1 X139.179 Y125.247 E.32519
G1 X138.53 Y125.247 E.02348
G1 X145.529 Y132.245 E.35839
G1 X145.529 Y132.894 E.02348
G1 X137.882 Y125.247 E.39159
G1 X137.234 Y125.247 E.02348
G1 X145.529 Y133.542 E.42479
G1 X145.529 Y134.19 E.02348
G1 X136.586 Y125.247 E.45799
G1 X135.937 Y125.247 E.02348
M73 P10 R5
M73 P10 R5
G1 X145.529 Y134.839 E.49119
G1 X145.529 Y135.487 E.02348
G1 X135.289 Y125.247 E.52439
G1 X134.641 Y125.247 E.02348
G1 X145.529 Y136.135 E.55759
G1 X145.529 Y136.783 E.02348
G1 X133.992 Y125.247 E.59079
G1 X133.344 Y125.247 E.02348
G1 X145.529 Y137.432 E.62399
G1 X145.529 Y138.08 E.02348
G1 X132.696 Y125.247 E.65719
G1 X132.048 Y125.247 E.02348
G1 X138.163 Y131.362 E.31318
G1 X138.246 Y131.396 E.00325
G1 X138.824 Y131.775 E.02501
G1 X139.072 Y131.972 E.01147
G1 X139.524 Y132.461 E.0241
G1 X139.699 Y132.684 E.0103
G1 X139.969 Y133.169 E.02008
G1 X145.529 Y138.728 E.28471
G1 X145.529 Y139.377 E.02348
G1 X140.323 Y134.171 E.2666
G1 X140.374 Y134.385 E.00799
G1 X140.409 Y134.905 E.01887
G1 X145.529 Y140.025 E.26218
G1 X145.529 Y140.673 E.02348
G1 X140.381 Y135.526 E.2636
G1 X140.268 Y136.061 E.0198
G1 X145.529 Y141.322 E.2694
G1 X145.529 Y141.97 E.02348
G1 X140.107 Y136.547 E.27768
G1 X139.892 Y136.981 E.01752
G1 X145.529 Y142.618 E.28867
G1 X145.529 Y143.266 E.02348
G1 X139.644 Y137.382 E.30137
G1 X139.347 Y137.733 E.01666
G1 X145.529 Y143.915 E.31656
G1 X145.529 Y144.563 E.02348
M73 P11 R5
M73 P11 R5
G1 X139.028 Y138.063 E.33289
G1 X138.654 Y138.336 E.0168
G1 X145.071 Y144.753 E.3286
G1 X144.422 Y144.753 E.02348
G1 X138.262 Y138.593 E.31546
G1 X137.806 Y138.785 E.01793
G1 X143.774 Y144.753 E.30564
G1 X143.126 Y144.753 E.02348
G1 X137.326 Y138.953 E.29702
G1 X137.041 Y139.005 E.01047
G1 X136.757 Y139.033 E.01034
G1 X142.477 Y144.753 E.29294
G1 X141.829 Y144.753 E.02348
G1 X136.126 Y139.05 E.29203
G1 X135.659 Y139.005 E.01702
G1 X135.382 Y138.954 E.01018
G1 X141.386 Y144.959 E.30748
G1 E-.5 F1800
;WIPE_START
G1 F12000
G1 X139.972 Y143.544
;WIPE_END
G1 Z.4 F24000
G1 X131.194 Y125.041 Z.4
G1 Z.2
G1 E.5 F1800
G1 F5889.873
G1 X137.172 Y131.019 E.30614
G1 X136.444 Y130.941 E.02648
G1 X130.751 Y125.247 E.29157
G1 X130.103 Y125.247 E.02348
G1 X135.834 Y130.978 E.29349
G1 X135.291 Y131.083 E.02003
G1 X129.454 Y125.247 E.29889
G1 X128.806 Y125.247 E.02348
G1 X134.801 Y131.242 E.30702
G1 X134.373 Y131.462 E.01744
G1 X128.158 Y125.247 E.31828
G1 X127.509 Y125.247 E.02348
G1 X133.968 Y131.706 E.33077
G1 X133.617 Y132.003 E.01666
G1 X126.861 Y125.247 E.34597
G1 X126.213 Y125.247 E.02348
G1 X133.286 Y132.32 E.36223
M73 P12 R5
M73 P12 R5
G1 X133.014 Y132.696 E.01681
G1 X125.565 Y125.247 E.38147
G1 X124.916 Y125.247 E.02348
G1 X132.757 Y133.088 E.40155
