; HEADER_BLOCK_START
; generated by OrcaSlicer 2.1.1 on 2024-10-23 at 10:12:58
; total layer number: 110
; filament_density: 1.24
; filament_diameter: 1.75
; max_z_height: 22.00
; HEADER_BLOCK_END

; THUMBNAIL_BLOCK_START

;
; THUMBNAIL_BLOCK_END

; THUMBNAIL_BLOCK_START

;
; THUMBNAIL_BLOCK_END

; external perimeters extrusion width = 0.42mm
; perimeters extrusion width = 0.45mm
; infill extrusion width = 0.45mm
; solid infill extrusion width = 0.45mm
; top infill extrusion width = 0.42mm
; support material extrusion width = 0.42mm
; first layer extrusion width = 0.50mm

; EXECUTABLE_BLOCK_START
EXCLUDE_OBJECT_DEFINE NAME=Corps1.stl_id_0_copy_0 CENTER=115,115 POLYGON=[[63,94.15],[63.0213,93.6887],[63.0851,93.2313],[63.1909,92.7817],[63.3376,92.3438],[63.5242,91.9213],[63.7489,91.5178],[64.0099,91.1368],[64.305,90.7815],[64.6315,90.455],[64.9868,90.1599],[65.3678,89.8989],[65.7713,89.6742],[66.1938,89.4876],[66.6317,89.3409],[67.0813,89.2351],[67.5387,89.1713],[68,89.15],[162,89.15],[162.461,89.1713],[162.919,89.2351],[163.368,89.3409],[163.806,89.4876],[164.229,89.6742],[164.632,89.8989],[165.013,90.1599],[165.368,90.455],[165.695,90.7815],[165.99,91.1368],[166.251,91.5178],[166.476,91.9213],[166.662,92.3438],[166.809,92.7817],[166.915,93.2313],[166.979,93.6887],[167,94.15],[167,135.85],[166.979,136.311],[166.915,136.769],[166.809,137.218],[166.662,137.656],[166.476,138.079],[166.251,138.482],[165.99,138.863],[165.695,139.218],[165.368,139.545],[165.013,139.84],[164.632,140.101],[164.229,140.326],[163.806,140.512],[163.368,140.659],[162.919,140.765],[162.461,140.829],[162,140.85],[68,140.85],[67.5387,140.829],[67.0813,140.765],[66.6317,140.659],[66.1938,140.512],[65.7713,140.326],[65.3678,140.101],[64.9868,139.84],[64.6315,139.545],[64.305,139.218],[64.0099,138.863],[63.7489,138.482],[63.5242,138.079],[63.3376,137.656],[63.1909,137.218],[63.0851,136.769],[63.0213,136.311],[63,135.85],[63,94.15]]
M73 P0 R55
;TYPE:Custom
M220 S100
G90 ; use absolute coordinates
M83 ; extruder relative mode
M104 S150 ; set temporary nozzle temp to prevent oozing during homing
M140 S95 ; set final bed temp
G4 S30 ; allow partial nozzle warmup
G28 ; home all axis and restore leveling
BED_MESH_CALIBRATE PROFILE=adaptive ADAPTIVE=1 ADAPTIVE_MARGIN=0
G1 Z25 F240
G1 X10.0 Y30 F3000
M104 S285 ; set final nozzle temp
M190 S95 ; wait for bed temp to stabilize
M109 S285 ; wait for nozzle temp to stabilize
G1 Z0.28 F240
G92 E0 ; Move Z Axis up
G1 Z2.0 F5000 ; Move to start position
G1 X5 Y30 Z0.28 F300 ; Draw the first line
G1 X5 Y200 Z0.28 F1500 E15 ; Move to side a little
G1 X5.4 Y200 Z0.28 F5000.0 ; Draw the second line
G1 X5.4 Y50 Z0.28 F1500.0 E30 ; Reset Extruder
G92 E0 ; Move Z Axis up
G1 Z2.0 F3000
M117 Start Printing..
G90
G21
M83 ; use relative distances for extrusion
; filament start gcode
SET_PRESSURE_ADVANCE ADVANCE=0.024; Override pressure advance value
M106 S0
;LAYER_CHANGE
;Z:0.2
;HEIGHT:0.2
;BEFORE_LAYER_CHANGE
;0.2
G92 E0

G1 E-1.5 F1800
;_SET_FAN_SPEED_CHANGING_LAYER
SET_VELOCITY_LIMIT ACCEL=1000
SET_VELOCITY_LIMIT SQUARE_CORNER_VELOCITY=7
; printing object Corps1.stl id:0 copy 0
EXCLUDE_OBJECT_START NAME=Corps1.stl_id_0_copy_0
G1 Z.2 F24000
G1 X67.215 Y110.511
G1 Z.2
G1 E1.5 F1800
;TYPE:Support
;WIDTH:0.5
G1 X67.605 Y110.529 E.01334
G1 X68.535 Y110.741 E.03265
G1 X69.413 Y111.116 E.03265
G1 X70.209 Y111.642 E.03265
G1 X70.763 Y112.171 E.02619
G1 X70.612 Y112.624 E.01634
G1 X70.498 Y113.107 E.01696
G1 X70.423 Y113.647 E.01866
G1 X70.4 Y114.143 E.01698
G1 X70.4 Y119.785 E.19297
G1 X70.209 Y119.967 E.00902
G1 X69.413 Y120.493 E.03265
G1 X68.535 Y120.868 E.03265
G1 X67.605 Y121.08 E.03265
G1 X66.651 Y121.123 E.03265
G1 X65.705 Y120.995 E.03265
G1 X64.798 Y120.7 E.03265
G1 X64.301 Y120.432 E.01931
G1 X63.957 Y120.248 E.01334
G1 X63.211 Y119.653 E.03265
G1 X62.583 Y118.934 E.03265
G1 X62.093 Y118.114 E.03265
G1 X61.758 Y117.221 E.03265
G1 X61.588 Y116.282 E.03265
G1 X61.588 Y115.327 E.03265
G1 X61.758 Y114.388 E.03265
G1 X62.093 Y113.495 E.03265
G1 X62.583 Y112.675 E.03265
G1 X63.211 Y111.956 E.03265
G1 X63.957 Y111.361 E.03265
G1 X64.798 Y110.909 E.03265
G1 X65.705 Y110.614 E.03265
G1 X66.651 Y110.486 E.03265
G1 X67.147 Y110.508 E.01696
G1 X70.182 Y119.709 F24000
G1 F1800
G1 X70.182 Y112.185 E.25735
G1 X69.952 Y111.965 E.01089
G1 X69.674 Y111.782 E.01139
G1 X69.674 Y119.827 E.27521
G1 X69.166 Y120.151 E.02059
G1 X69.166 Y111.458 E.29733
G1 X68.658 Y111.241 E.01889
G1 X68.658 Y120.368 E.31218
G1 X68.408 Y120.475 E.00933
G1 X68.15 Y120.534 E.00902
G1 X68.15 Y111.075 E.32353
G1 X67.643 Y110.959 E.01782
G1 X67.643 Y120.65 E.33146
G1 X67.549 Y120.671 E.00328
G1 X67.135 Y120.689 E.01419
G1 X67.135 Y110.919 E.33419
G1 X66.627 Y110.904 E.01738
G1 X66.627 Y120.705 E.33522
G1 X66.119 Y120.636 E.01753
G1 X66.119 Y110.973 E.33052
G1 X65.797 Y111.017 E.01111
G1 X65.611 Y111.077 E.00669
G1 X65.611 Y120.532 E.3234
G1 X65.103 Y120.367 E.01827
G1 X65.103 Y111.242 E.31211
G1 X64.96 Y111.289 E.00516
G1 X64.595 Y111.485 E.01416
G1 X64.595 Y120.124 E.2955
G1 X64.185 Y119.903 E.01596
M73 P1 R55
G1 X64.088 Y119.826 E.00425
G1 X64.088 Y111.783 E.27508
G1 X63.58 Y112.188 E.02222
G1 X63.58 Y119.42 E.24738
G1 X63.496 Y119.354 E.00365
G1 X63.072 Y118.868 E.02207
G1 X63.072 Y112.741 E.20959
G1 X62.917 Y112.918 E.00805
G1 X62.564 Y113.509 E.02355
G1 X62.564 Y118.1 E.15704
G1 X62.465 Y117.935 E.00657
G1 X62.156 Y117.111 E.03011
G1 X62.056 Y116.56 E.01917
G1 X62.056 Y114.179 E.08142
G1 E-1.5
;WIPE_START
G1 X62.056 Y116.179
;WIPE_END
G1 Z.4 F24000
G1 X69.055 Y137.591 Z.4
G1 Z.2
G1 E1.5 F1800
G1 X69.441 Y137.654 E.01337
G1 X70.284 Y137.989 E.03103
G1 X70.4 Y138.067 E.00479
G1 X70.4 Y145.322 E.24814
G1 X70.282 Y145.402 E.00487
G1 X69.44 Y145.736 E.03099
G1 X68.546 Y145.881 E.03099
G1 X67.641 Y145.831 E.03098
G1 X66.769 Y145.588 E.03097
G1 X66.368 Y145.375 E.01553
G1 X65.969 Y145.163 E.01545
G1 X65.28 Y144.577 E.03096
G1 X64.732 Y143.856 E.03096
G1 X64.352 Y143.035 E.03096
G1 X64.157 Y142.151 E.03096
G1 X64.156 Y141.246 E.03097
G1 X64.35 Y140.361 E.03097
G1 X64.729 Y139.539 E.03098
G1 X65.276 Y138.817 E.03099
G1 X65.966 Y138.229 E.031
G1 X66.766 Y137.803 E.03101
G1 X67.639 Y137.559 E.03102
G1 X68.544 Y137.509 E.03102
G1 X68.987 Y137.58 E.01535
G1 X69.674 Y145.421 F24000
G1 F1800
G1 X69.674 Y138.189 E.24738
G1 X69.331 Y138.053 E.01264
G1 X69.166 Y138.026 E.0057
G1 X69.166 Y145.363 E.25097
G1 X68.658 Y145.446 E.0176
G1 X68.658 Y137.944 E.25662
G1 X68.523 Y137.922 E.0047
G1 X68.15 Y137.943 E.01275
G1 X68.15 Y145.447 E.2567
G1 X67.709 Y145.423 E.01513
G1 X67.643 Y145.404 E.00235
G1 X67.643 Y137.985 E.25377
G1 X67.135 Y138.127 E.01804
G1 X67.135 Y145.263 E.24408
G1 X66.923 Y145.204 E.00753
G1 X66.627 Y145.047 E.01145
G1 X66.627 Y138.343 E.2293
G1 X66.198 Y138.571 E.0166
G1 X66.119 Y138.639 E.00357
G1 X66.119 Y144.751 E.20905
G1 X65.611 Y144.319 E.0228
G1 X65.611 Y139.072 E.17948
G1 X65.103 Y139.726 E.02833
G1 X65.103 Y143.665 E.13474
G1 X64.744 Y142.903 E.02883
G1 X64.595 Y142.23 E.02356
G1 X64.595 Y140.32 E.06536
G1 E-1.5
;WIPE_START
G1 X64.595 Y142.23
G1 X64.615 Y142.317
;WIPE_END
G1 Z.4 F24000
G1 X178.307 Y137.565 Z.4
G1 Z.2
G1 E1.5 F1800
G1 X178.804 Y137.648 E.01723
G1 X179.645 Y137.985 E.031
G1 X180.394 Y138.495 E.031
G1 X181.016 Y139.153 E.03099
G1 X181.482 Y139.93 E.03098
G1 X181.77 Y140.788 E.03097
G1 X181.867 Y141.689 E.03097
G1 X181.769 Y142.589 E.03096
G1 X181.48 Y143.446 E.03096
G1 X181.013 Y144.222 E.03096
G1 X180.391 Y144.879 E.03096
G1 X179.642 Y145.388 E.03097
G1 X178.801 Y145.723 E.03096
G1 X178.346 Y145.798 E.01579
G1 X177.907 Y145.871 E.01521
G1 X177.003 Y145.823 E.03097
G1 X176.129 Y145.582 E.03099
G1 X175.6 Y145.302 E.02047
G1 X175.6 Y138.068 E.24745
G1 X176.128 Y137.789 E.02043
G1 X177.003 Y137.547 E.03104
G1 X177.908 Y137.499 E.03101
G1 X178.239 Y137.554 E.01148
G1 X181.405 Y143.025 F24000
G1 F1800
G1 X181.405 Y141.233 E.0613
G1 X181.366 Y140.877 E.01226
G1 X181.106 Y140.103 E.02792
G1 X180.897 Y139.754 E.01395
G1 X180.897 Y143.617 E.13216
G1 X180.684 Y143.971 E.01414
G1 X180.389 Y144.283 E.01466
G1 X180.389 Y139.088 E.17769
G1 X180.126 Y138.809 E.0131
G1 X179.881 Y138.643 E.01013
G1 X179.881 Y144.728 E.20814
G1 X179.448 Y145.022 E.01792
G1 X179.373 Y145.052 E.00274
G1 X179.373 Y138.319 E.2303
G1 X178.865 Y138.116 E.01871
G1 X178.865 Y145.255 E.24419
G1 X178.69 Y145.325 E.00646
G1 X178.357 Y145.38 E.01153
G1 X178.357 Y137.991 E.25274
G1 X177.85 Y137.915 E.01757
G1 X177.85 Y145.456 E.25795
G1 X177.342 Y145.429 E.0174
G1 X177.342 Y137.941 E.25612
G1 X177.069 Y137.956 E.00934
G1 X176.834 Y138.021 E.00835
G1 X176.834 Y145.349 E.25069
G1 X176.326 Y145.209 E.01802
G1 X176.326 Y137.947 E.24839
G1 E-1.5
;WIPE_START
G1 X176.326 Y139.947
;WIPE_END
G1 Z.4 F24000
G1 X179.435 Y112.677 Z.4
G1 Z.2
G1 E1.5 F1800
G1 X179.825 Y112.694 E.01334
G1 X180.755 Y112.907 E.03265
G1 X181.633 Y113.282 E.03265
G1 X182.429 Y113.808 E.03265
G1 X183.119 Y114.467 E.03265
G1 X183.68 Y115.239 E.03265
G1 X184.094 Y116.099 E.03265
G1 X184.348 Y117.019 E.03265
G1 X184.434 Y117.97 E.03265
G1 X184.348 Y118.921 E.03265
G1 X184.094 Y119.841 E.03265
G1 X183.68 Y120.701 E.03265
G1 X183.119 Y121.473 E.03265
G1 X182.429 Y122.132 E.03265
G1 X181.633 Y122.658 E.03265
G1 X180.755 Y123.033 E.03265
G1 X179.825 Y123.246 E.03265
G1 X178.871 Y123.289 E.03265
G1 X177.925 Y123.16 E.03265
G1 X177.018 Y122.865 E.03265
G1 X176.177 Y122.413 E.03265
G1 X175.6 Y121.953 E.02525
G1 X175.593 Y113.992 E.2723
G1 X176.177 Y113.527 E.02554
G1 X177.018 Y113.075 E.03265
G1 X177.925 Y112.78 E.03265
G1 X178.871 Y112.651 E.03265
G1 X179.367 Y112.674 E.01696
G1 X183.944 Y119.613 F24000
G1 F1800
G1 X183.942 Y117.093 E.08619
G1 X183.708 Y116.244 E.03011
G1 X183.436 Y115.68 E.02142
G1 X183.436 Y120.26 E.15664
G1 X183.326 Y120.489 E.0087
G1 X182.928 Y121.036 E.02313
G1 X182.928 Y114.904 E.20974
G1 X182.808 Y114.739 E.00698
G1 X182.42 Y114.368 E.01836
G1 X182.42 Y121.572 E.24641
G1 X182.172 Y121.809 E.01176
G1 X181.912 Y121.981 E.01063
G1 X181.912 Y113.959 E.27438
G1 X181.405 Y113.632 E.02067
G1 X181.405 Y122.308 E.29679
G1 X180.897 Y122.525 E.01889
G1 X180.897 Y113.415 E.31164
G1 X180.628 Y113.3 E.01001
G1 X180.389 Y113.245 E.00837
G1 X180.389 Y122.695 E.32324
G1 X179.881 Y122.811 E.01782
G1 X179.881 Y113.129 E.33117
G1 X179.769 Y113.104 E.00392
G1 X179.373 Y113.086 E.01356
G1 X179.373 Y122.854 E.33413
G1 X178.865 Y122.873 E.01738
G1 X178.865 Y113.067 E.33539
G1 X178.357 Y113.136 E.01753
G1 X178.357 Y122.804 E.33069
G1 X178.017 Y122.758 E.01174
G1 X177.85 Y122.703 E.00603
G1 X177.85 Y113.237 E.32381
G1 X177.342 Y113.402 E.01827
G1 X177.342 Y122.538 E.31252
G1 X177.18 Y122.486 E.00582
G1 X176.834 Y122.299 E.01344
G1 X176.834 Y113.641 E.29618
G1 X176.405 Y113.872 E.01667
G1 X176.326 Y113.934 E.00344
G1 X176.326 Y122.26 E.28478
G1 E-1.5
;WIPE_START
G1 F12000
G1 X176.326 Y120.26
;WIPE_END
G1 Z.4 F24000
G1 X73.545 Y111.913 Z.4
G1 Z.2
G1 E1.5 F1800
;TYPE:Inner wall
;WIDTH:0.499999
G1 X74.002 Y111.496 E.02117
G1 X74.519 Y111.177 E.02078
G1 X75.091 Y110.955 E.02098
G1 X75.711 Y110.839 E.02157
G1 X76.515 Y110.821 E.02753
G1 X169.93 Y110.822 E3.19532
G1 X170.61 Y110.885 E.02336
M73 P1 R54
G1 X171.2 Y111.052 E.02097
G1 X171.749 Y111.326 E.02097
G1 X172.238 Y111.695 E.02097
G1 X172.651 Y112.148 E.02097
G1 X172.974 Y112.669 E.02097
G1 X173.195 Y113.241 E.02097
G1 X173.272 Y113.652 E.01431
G1 X173.329 Y114.266 E.02108
G1 X173.329 Y155.774 E1.41983
G1 X173.265 Y156.46 E.02357
G1 X173.098 Y157.05 E.02096
G1 X172.824 Y157.599 E.02097
G1 X172.455 Y158.088 E.02097
G1 X172.002 Y158.501 E.02097
G1 X171.481 Y158.824 E.02097
G1 X170.909 Y159.045 E.02097
G1 X170.498 Y159.122 E.01431
G1 X169.961 Y159.179 E.01845
G1 X76.076 Y159.179 E3.21142
G1 X75.39 Y159.115 E.02357
G1 X74.8 Y158.948 E.02097
G1 X74.251 Y158.674 E.02097
G1 X73.762 Y158.305 E.02097
G1 X73.349 Y157.852 E.02097
G1 X73.026 Y157.331 E.02097
G1 X72.805 Y156.759 E.02097
G1 X72.728 Y156.348 E.01431
G1 X72.671 Y155.811 E.01845
G1 X72.671 Y114.226 E1.42247
G1 X72.735 Y113.54 E.02356
G1 X72.902 Y112.95 E.02097
G1 X73.176 Y112.401 E.02097
G1 X73.521 Y111.945 E.01958
G1 X73.206 Y111.603 F24000
G1 F1800
G1 X73.726 Y111.13 E.02407
G1 X74.315 Y110.766 E.02367
G1 X74.965 Y110.513 E.02387
G1 X75.663 Y110.383 E.02429
G1 X76.51 Y110.364 E.02897
G1 X169.951 Y110.364 E3.19622
G1 X170.695 Y110.433 E.02553
G1 X171.366 Y110.624 E.02387
G1 X171.99 Y110.935 E.02386
G1 X172.547 Y111.356 E.02387
G1 X173.017 Y111.872 E.02386
G1 X173.384 Y112.465 E.02387
G1 X173.637 Y113.115 E.02387
G1 X173.77 Y113.827 E.02477
G1 X173.786 Y114.266 E.01501
G1 X173.786 Y155.796 E1.42055
G1 X173.716 Y156.545 E.02574
G1 X173.526 Y157.216 E.02386
G1 X173.215 Y157.84 E.02387
G1 X172.794 Y158.397 E.02387
G1 X172.278 Y158.867 E.02386
G1 X171.685 Y159.234 E.02387
G1 X171.035 Y159.487 E.02386
G1 X170.582 Y159.571 E.01576
G1 X169.972 Y159.636 E.02098
G1 X76.054 Y159.636 E3.21251
G1 X75.305 Y159.566 E.02574
M73 P2 R54
G1 X74.634 Y159.376 E.02386
G1 X74.01 Y159.065 E.02386
G1 X73.453 Y158.644 E.02387
G1 X72.983 Y158.128 E.02387
G1 X72.616 Y157.535 E.02387
G1 X72.363 Y156.885 E.02387
G1 X72.279 Y156.432 E.01576
G1 X72.214 Y155.822 E.02098
G1 X72.214 Y114.204 E1.42355
G1 X72.284 Y113.455 E.02574
G1 X72.474 Y112.784 E.02387
G1 X72.785 Y112.16 E.02386
G1 X73.181 Y111.635 E.02248
G1 X72.866 Y111.294 F24000
G1 F1800
G1 X73.45 Y110.763 E.02697
G1 X74.11 Y110.355 E.02657
G1 X74.84 Y110.072 E.02677
G1 X75.616 Y109.927 E.02702
G1 X76.505 Y109.907 E.03042
G1 X169.973 Y109.907 E3.19711
G1 X170.779 Y109.982 E.0277
G1 X171.532 Y110.196 E.02677
G1 X172.232 Y110.545 E.02676
G1 X172.856 Y111.017 E.02676
G1 X173.384 Y111.595 E.02676
G1 X173.795 Y112.26 E.02676
G1 X174.078 Y112.99 E.02676
G1 X174.225 Y113.774 E.02731
G1 X174.243 Y114.266 E.01682
G1 X174.243 Y155.817 E1.42127
G1 X174.168 Y156.629 E.02791
G1 X173.954 Y157.382 E.02676
G1 X173.605 Y158.082 E.02676
G1 X173.133 Y158.706 E.02676
G1 X172.555 Y159.234 E.02676
G1 X171.89 Y159.645 E.02676
G1 X171.16 Y159.928 E.02676
G1 X170.666 Y160.02 E.01721
G1 X169.982 Y160.093 E.0235
G1 X76.033 Y160.093 E3.21359
G1 X75.221 Y160.018 E.02791
G1 X74.468 Y159.804 E.02676
G1 X73.768 Y159.455 E.02676
G1 X73.144 Y158.983 E.02676
G1 X72.616 Y158.405 E.02676
G1 X72.205 Y157.74 E.02676
G1 X71.922 Y157.01 E.02676
G1 X71.83 Y156.516 E.01721
G1 X71.757 Y155.832 E.0235
G1 X71.757 Y114.183 E1.42463
G1 X71.832 Y113.371 E.02791
G1 X72.046 Y112.618 E.02676
G1 X72.395 Y111.918 E.02676
G1 X72.842 Y111.326 E.02539
G1 X72.537 Y110.975 F24000
;TYPE:Outer wall
G1 F1800
G1 X73.173 Y110.397 E.0294
G1 X73.905 Y109.944 E.02946
G1 X74.714 Y109.63 E.02966
G1 X75.569 Y109.471 E.02974
G1 X76.5 Y109.45 E.03187
G1 X169.994 Y109.45 E3.19801
G1 X170.863 Y109.531 E.02987
G1 X171.697 Y109.768 E.02966
G1 X172.474 Y110.155 E.02966
G1 X173.166 Y110.677 E.02966
G1 X173.75 Y111.318 E.02966
G1 X174.206 Y112.055 E.02966
G1 X174.52 Y112.864 E.02966
G1 X174.68 Y113.722 E.02984
G1 X174.7 Y114.266 E.01863
G1 X174.7 Y155.838 E1.42199
G1 X174.619 Y156.713 E.03008
G1 X174.382 Y157.547 E.02966
G1 X173.995 Y158.324 E.02966
G1 X173.473 Y159.016 E.02966
G1 X172.832 Y159.6 E.02966
G1 X172.095 Y160.056 E.02966
G1 X171.286 Y160.37 E.02966
G1 X170.428 Y160.53 E.02984
G1 X169.993 Y160.55 E.01491
G1 X76.012 Y160.55 E3.21467
G1 X75.137 Y160.469 E.03008
G1 X74.303 Y160.232 E.02966
G1 X73.526 Y159.845 E.02966
G1 X72.834 Y159.323 E.02966
G1 X72.25 Y158.682 E.02966
G1 X71.794 Y157.945 E.02966
G1 X71.48 Y157.136 E.02966
G1 X71.32 Y156.278 E.02984
G1 X71.3 Y155.843 E.01491
G1 X71.3 Y114.162 E1.42572
G1 X71.381 Y113.287 E.03008
G1 X71.618 Y112.453 E.02966
G1 X72.005 Y111.676 E.02966
G1 X72.511 Y111.006 E.02875
G1 E-1.5
;WIPE_START
G1 F12000
G1 X73.173 Y110.397
G1 X73.905 Y109.944
G1 X74.129 Y109.857
;WIPE_END
G1 Z.4 F24000
G1 X87.712 Y156.519 Z.4
G1 Z.2
G1 E1.5 F1800
;TYPE:Inner wall
G1 X87.456 Y156.482 E.00884
G1 X87.058 Y156.305 E.01488
G1 X86.745 Y156.05 E.01382
G1 X86.525 Y155.759 E.01248
G1 X86.39 Y155.465 E.01105
G1 X86.304 Y154.946 E.01799
G1 X86.304 Y115.054 E1.36456
G1 X86.39 Y114.535 E.01799
G1 X86.525 Y114.241 E.01105
G1 X86.745 Y113.95 E.01248
