; HEADER_BLOCK_START
; generated by OrcaSlicer 2.2.0 on 2024-11-26 at 13:49:32
; total layer number: 100
; filament_density: 1.27
; filament_diameter: 1.75
; max_z_height: 20.00
; HEADER_BLOCK_END

; THUMBNAIL_BLOCK_START

;
; THUMBNAIL_BLOCK_END

; THUMBNAIL_BLOCK_START

;
; THUMBNAIL_BLOCK_END

; external perimeters extrusion width = 0.42mm
; perimeters extrusion width = 0.45mm
; infill extrusion width = 0.45mm
; solid infill extrusion width = 0.45mm
; top infill extrusion width = 0.42mm
; first layer extrusion width = 0.50mm

; external perimeters extrusion width = 0.42mm
; perimeters extrusion width = 0.45mm
; infill extrusion width = 0.45mm
; solid infill extrusion width = 0.45mm
; top infill extrusion width = 0.42mm
; first layer extrusion width = 0.50mm

; external perimeters extrusion width = 0.42mm
; perimeters extrusion width = 0.45mm
; infill extrusion width = 0.45mm
; solid infill extrusion width = 0.45mm
; top infill extrusion width = 0.42mm
; first layer extrusion width = 0.50mm

; EXECUTABLE_BLOCK_START
EXCLUDE_OBJECT_DEFINE NAME=Corps7.stl_id_0_copy_0 CENTER=119.999,119.33 POLYGON=[[116,119.281],[116.007,119.089],[116.023,118.898],[116.048,118.708],[116.082,118.519],[116.126,118.332],[116.178,118.148],[116.239,117.966],[116.309,117.787],[116.387,117.612],[116.473,117.441],[116.568,117.274],[116.67,117.112],[116.78,116.955],[116.898,116.803],[117.023,116.657],[117.154,116.518],[117.292,116.384],[117.436,116.258],[117.587,116.139],[117.742,116.027],[117.903,115.922],[118.069,115.826],[118.239,115.737],[118.414,115.657],[118.591,115.585],[118.773,115.522],[118.956,115.467],[119.143,115.422],[119.331,115.385],[119.521,115.358],[119.712,115.339],[119.904,115.33],[120.095,115.33],[120.287,115.339],[120.478,115.358],[120.668,115.385],[120.856,115.422],[121.042,115.467],[121.226,115.522],[121.408,115.585],[121.585,115.657],[121.76,115.737],[121.93,115.826],[122.096,115.922],[122.257,116.027],[122.412,116.139],[122.562,116.258],[122.707,116.384],[122.845,116.518],[122.976,116.657],[123.101,116.803],[123.219,116.955],[123.329,117.112],[123.431,117.274],[123.526,117.441],[123.612,117.612],[123.69,117.787],[123.76,117.966],[123.821,118.148],[123.873,118.332],[123.917,118.519],[123.951,118.708],[123.976,118.898],[123.992,119.089],[123.999,119.281],[123.997,119.473],[123.985,119.664],[123.965,119.855],[123.935,120.045],[123.896,120.233],[123.848,120.418],[123.792,120.602],[123.726,120.782],[123.652,120.959],[123.57,121.132],[123.479,121.301],[123.381,121.466],[123.275,121.626],[123.161,121.78],[123.04,121.929],[122.911,122.071],[122.777,122.208],[122.635,122.338],[122.488,122.461],[122.335,122.576],[122.177,122.685],[122.013,122.785],[121.845,122.878],[121.673,122.962],[121.497,123.038],[121.317,123.106],[121.135,123.165],[120.95,123.215],[120.762,123.256],[120.573,123.288],[120.383,123.311],[120.191,123.324],[119.999,123.329],[119.808,123.324],[119.616,123.311],[119.426,123.288],[119.237,123.256],[119.049,123.215],[118.864,123.165],[118.682,123.106],[118.502,123.038],[118.326,122.962],[118.154,122.878],[117.986,122.785],[117.822,122.685],[117.664,122.576],[117.511,122.461],[117.364,122.338],[117.222,122.208],[117.088,122.071],[116.959,121.929],[116.838,121.78],[116.724,121.626],[116.618,121.466],[116.519,121.301],[116.429,121.132],[116.347,120.959],[116.273,120.782],[116.207,120.602],[116.151,120.418],[116.103,120.233],[116.064,120.045],[116.034,119.855],[116.014,119.664],[116.002,119.473],[116,119.281]]
EXCLUDE_OBJECT_DEFINE NAME=Corps7.stl_id_1_copy_0 CENTER=110,119.329 POLYGON=[[106.001,119.329],[106.005,119.138],[106.019,118.946],[106.042,118.756],[106.074,118.567],[106.115,118.379],[106.165,118.194],[106.224,118.011],[106.292,117.832],[106.368,117.656],[106.452,117.483],[106.545,117.315],[106.645,117.152],[106.754,116.994],[106.869,116.841],[106.992,116.693],[107.122,116.552],[107.258,116.417],[107.401,116.289],[107.55,116.168],[107.704,116.054],[107.864,115.948],[108.029,115.849],[108.198,115.759],[108.371,115.676],[108.548,115.602],[108.728,115.537],[108.912,115.48],[109.097,115.433],[109.285,115.394],[109.475,115.364],[109.665,115.343],[109.857,115.332],[110.049,115.33],[110.24,115.336],[110.432,115.353],[110.622,115.378],[110.811,115.412],[110.997,115.455],[111.182,115.508],[111.364,115.569],[111.543,115.638],[111.718,115.717],[111.889,115.803],[112.056,115.898],[112.218,116],[112.375,116.11],[112.527,116.228],[112.673,116.352],[112.812,116.484],[112.945,116.622],[113.072,116.766],[113.191,116.917],[113.303,117.072],[113.408,117.233],[113.504,117.399],[113.593,117.569],[113.673,117.743],[113.745,117.921],[113.808,118.102],[113.862,118.286],[113.908,118.473],[113.945,118.661],[113.972,118.851],[113.99,119.042],[114,119.233],[114,119.425],[113.99,119.617],[113.972,119.808],[113.945,119.998],[113.908,120.186],[113.862,120.372],[113.808,120.556],[113.745,120.737],[113.673,120.915],[113.593,121.089],[113.504,121.26],[113.408,121.425],[113.303,121.586],[113.191,121.742],[113.072,121.892],[112.945,122.037],[112.812,122.175],[112.673,122.306],[112.527,122.431],[112.375,122.548],[112.218,122.659],[112.056,122.761],[111.889,122.856],[111.718,122.942],[111.543,123.02],[111.364,123.09],[111.182,123.151],[110.997,123.203],[110.811,123.246],[110.622,123.281],[110.432,123.306],[110.241,123.322],[110.049,123.329],[109.857,123.327],[109.665,123.315],[109.475,123.295],[109.285,123.265],[109.097,123.226],[108.912,123.178],[108.728,123.122],[108.548,123.056],[108.371,122.982],[108.198,122.9],[108.029,122.809],[107.864,122.711],[107.704,122.604],[107.55,122.491],[107.401,122.369],[107.258,122.241],[107.122,122.106],[106.992,121.965],[106.869,121.818],[106.754,121.665],[106.645,121.507],[106.545,121.343],[106.452,121.175],[106.368,121.003],[106.292,120.827],[106.224,120.647],[106.165,120.465],[106.115,120.279],[106.074,120.092],[106.042,119.903],[106.019,119.712],[106.005,119.521],[106.001,119.329]]
EXCLUDE_OBJECT_DEFINE NAME=Corps7.stl_id_2_copy_0 CENTER=115,110.67 POLYGON=[[111,110.622],[111.007,110.43],[111.023,110.239],[111.048,110.049],[111.083,109.86],[111.126,109.673],[111.178,109.489],[111.239,109.307],[111.309,109.128],[111.387,108.953],[111.474,108.782],[111.568,108.615],[111.671,108.452],[111.781,108.295],[111.898,108.144],[112.023,107.998],[112.155,107.858],[112.293,107.725],[112.437,107.599],[112.587,107.479],[112.743,107.367],[112.904,107.263],[113.07,107.166],[113.24,107.078],[113.414,106.998],[113.592,106.926],[113.773,106.863],[113.957,106.808],[114.143,106.763],[114.332,106.726],[114.521,106.698],[114.712,106.68],[114.904,106.671],[115.096,106.671],[115.287,106.68],[115.478,106.698],[115.668,106.726],[115.857,106.763],[116.043,106.808],[116.227,106.863],[116.408,106.926],[116.586,106.998],[116.76,107.078],[116.93,107.166],[117.096,107.263],[117.257,107.367],[117.413,107.479],[117.563,107.599],[117.707,107.725],[117.845,107.858],[117.977,107.998],[118.101,108.144],[118.219,108.295],[118.329,108.452],[118.432,108.615],[118.526,108.782],[118.613,108.953],[118.691,109.128],[118.761,109.307],[118.822,109.489],[118.874,109.673],[118.917,109.86],[118.951,110.049],[118.977,110.239],[118.993,110.43],[119,110.622],[118.997,110.814],[118.986,111.005],[118.965,111.196],[118.935,111.385],[118.897,111.573],[118.849,111.759],[118.792,111.942],[118.727,112.123],[118.653,112.3],[118.571,112.473],[118.48,112.642],[118.381,112.807],[118.275,112.966],[118.161,113.121],[118.04,113.269],[117.912,113.412],[117.777,113.549],[117.636,113.678],[117.489,113.801],[117.336,113.917],[117.177,114.025],[117.014,114.126],[116.846,114.218],[116.674,114.303],[116.497,114.379],[116.318,114.446],[116.135,114.505],[115.95,114.555],[115.763,114.596],[115.574,114.628],[115.383,114.651],[115.192,114.665],[115,114.67],[114.808,114.665],[114.617,114.651],[114.426,114.628],[114.237,114.596],[114.05,114.555],[113.865,114.505],[113.682,114.446],[113.503,114.379],[113.326,114.303],[113.154,114.218],[112.986,114.126],[112.823,114.025],[112.664,113.917],[112.511,113.801],[112.364,113.678],[112.223,113.549],[112.088,113.412],[111.96,113.269],[111.839,113.121],[111.725,112.966],[111.619,112.807],[111.52,112.642],[111.429,112.473],[111.347,112.3],[111.273,112.123],[111.208,111.942],[111.151,111.759],[111.103,111.573],[111.064,111.385],[111.035,111.196],[111.014,111.005],[111.003,110.814],[111,110.622]]
M73 P0 R11
;TYPE:Custom
M220 S100
G90 ; use absolute coordinates
M83 ; extruder relative mode
M104 S150 ; set temporary nozzle temp to prevent oozing during homing
M140 S70 ; set final bed temp
G4 S30 ; allow partial nozzle warmup
G28 ; home all axis and restore leveling
BED_MESH_CALIBRATE
G1 Z25 F240
G1 X10.0 Y30 F3000
M104 S245 ; set final nozzle temp
M190 S70 ; wait for bed temp to stabilize
M109 S245 ; wait for nozzle temp to stabilize
G1 Z0.28 F240
M73 P1 R11
G92 E0 ; Move Z Axis up
LINE_PURGE
G92 E0 ; Move Z Axis up
M73 P1 R11
G1 Z2.0 F3000
M117 Start Printing..
G90
G21
M83 ; use relative distances for extrusion
; filament start gcode
M106 S0
;LAYER_CHANGE
;Z:0.2
;HEIGHT:0.2
;BEFORE_LAYER_CHANGE
;0.2
G92 E0

G1 E-.5 F1800
;_SET_FAN_SPEED_CHANGING_LAYER
SET_VELOCITY_LIMIT ACCEL=1000
SET_VELOCITY_LIMIT SQUARE_CORNER_VELOCITY=7
; printing object Corps7.stl id:0 copy 0
EXCLUDE_OBJECT_START NAME=Corps7.stl_id_0_copy_0
G1 Z.4 F24000
G1 X130.807 Y137.699
G1 Z.4
M73 P2 R11
M73 P2 R11
G1 Z.2
G1 E.5 F1800
;TYPE:Inner wall
;WIDTH:0.453047
G1 F3000
G1 X130.954 Y137.947 E.00933
;WIDTH:0.451885
G1 X131.164 Y138.538 E.02028
;WIDTH:0.451296
G1 X131.257 Y139.189 E.0212
;WIDTH:0.449682
G1 X131.219 Y139.832 E.02071
;WIDTH:0.44901
G1 X131.051 Y140.468 E.02109
;WIDTH:0.449951
G1 X130.829 Y140.955 E.01722
G1 X130.51 Y141.41 E.01787
;WIDTH:0.456006
G1 X130.259 Y141.683 E.0121
G1 X129.869 Y142.001 E.0164
;WIDTH:0.450287
G1 X129.301 Y142.317 E.02094
;WIDTH:0.449168
G1 X128.682 Y142.515 E.02085
;WIDTH:0.448166
G1 X128.042 Y142.586 E.02059
;WIDTH:0.450102
G1 X127.512 Y142.555 E.01708
;WIDTH:0.450477
G1 X126.962 Y142.421 E.01824
;WIDTH:0.455783
G1 X126.627 Y142.289 E.01174
G1 X126.185 Y142.038 E.01656
;WIDTH:0.450168
G1 X125.68 Y141.618 E.02113
;WIDTH:0.448684
G1 X125.276 Y141.116 E.02065
;WIDTH:0.448094
G1 X124.974 Y140.533 E.02103
;WIDTH:0.446903
G1 X124.796 Y139.908 E.02074
;WIDTH:0.446185
G1 X124.744 Y139.286 E.01986
;WIDTH:0.450385
G1 X124.784 Y138.783 E.01625
;WIDTH:0.450566
G1 X124.946 Y138.184 E.01997
G1 X125.231 Y137.607 E.02075
;WIDTH:0.449832
G1 X125.634 Y137.088 E.02111
;WIDTH:0.448393
G1 X126.122 Y136.667 E.02063
;WIDTH:0.44783
G1 X126.694 Y136.346 E.02099
;WIDTH:0.450477
G1 X127.168 Y136.174 E.01621
;WIDTH:0.451419
G1 X127.746 Y136.077 E.01894
;WIDTH:0.455514
G1 X128.086 Y136.067 E.01108
G1 X128.617 Y136.129 E.01743
;WIDTH:0.448925
G1 X129.214 Y136.304 E.01993
;WIDTH:0.454017
G1 X129.725 Y136.562 E.0186
G1 X130.221 Y136.942 E.02029
;WIDTH:0.453395
G1 X130.636 Y137.409 E.02026
;WIDTH:0.453047
G1 X130.787 Y137.664 E.00962
G1 X131.176 Y137.479 F24000
;TYPE:Outer wall
;WIDTH:0.499999
G1 F3000
G1 X131.361 Y137.799 E.01335
G1 X131.592 Y138.471 E.02565
G1 X131.69 Y139.169 E.02543
G1 X131.666 Y139.816 E.02337
G1 X131.506 Y140.506 E.02558
G1 X131.217 Y141.153 E.02558
G1 X130.863 Y141.658 E.02227
G1 X130.567 Y141.993 E.01615
G1 X130.161 Y142.331 E.01905
G1 X129.547 Y142.689 E.02568
G1 X128.878 Y142.922 E.02558
G1 X128.177 Y143.024 E.02558
G1 X127.469 Y142.99 E.02558
G1 X126.859 Y142.841 E.02267
G1 X126.45 Y142.689 E.01575
G1 X125.988 Y142.434 E.01905
G1 X125.431 Y141.991 E.02567
G1 X124.971 Y141.453 E.02558
G1 X124.622 Y140.836 E.02558
G1 X124.396 Y140.165 E.02558
G1 X124.303 Y139.462 E.02558
G1 X124.345 Y138.755 E.02558
G1 X124.522 Y138.069 E.02558
G1 X124.826 Y137.429 E.02558
G1 X125.247 Y136.858 E.02558
G1 X125.768 Y136.379 E.02558
G1 X126.372 Y136.008 E.02558
G1 X127.035 Y135.758 E.02558
G1 X127.674 Y135.65 E.0234
G1 X128.128 Y135.634 E.0164
G1 X128.73 Y135.713 E.02192
G1 X129.404 Y135.917 E.02542
G1 X129.987 Y136.216 E.02367
G1 X130.544 Y136.652 E.02554
G1 X131.008 Y137.186 E.02554
G1 X131.156 Y137.444 E.01075
G1 E-.5 F1800
;WIPE_START
G1 F12000
G1 X131.361 Y137.799
G1 X131.592 Y138.471
G1 X131.69 Y139.169
G1 X131.683 Y139.344
;WIPE_END
G1 Z.4 F24000
G1 X125.349 Y140.353 Z.4
G1 Z.2
G1 E.5 F1800
;TYPE:Inner wall
;WIDTH:0.449877
G1 F3000
G1 X125.222 Y139.989 E.0124
;WIDTH:0.451052
G1 X125.146 Y139.422 E.01842
;WIDTH:0.445585
G1 X125.205 Y138.748 E.02152
;WIDTH:0.450566
G1 X125.315 Y138.356 E.01313
G1 X125.544 Y137.869 E.01732
;WIDTH:0.450411
G1 X125.871 Y137.423 E.0178
;WIDTH:0.449861
G1 X126.276 Y137.05 E.01769
G1 X126.713 Y136.781 E.0165
;WIDTH:0.449974
G1 X127.242 Y136.577 E.01821
;WIDTH:0.451419
G1 X127.81 Y136.48 E.0186
G1 X128.382 Y136.501 E.01848
;WIDTH:0.449118
G1 X128.937 Y136.634 E.01832
;WIDTH:0.447622
G1 X129.405 Y136.846 E.01642
;WIDTH:0.448321
G1 X129.871 Y137.175 E.01826
;WIDTH:0.44924
G1 X130.259 Y137.586 E.01814
;WIDTH:0.450493
G1 X130.565 Y138.076 E.0186
;WIDTH:0.451332
G1 X130.761 Y138.604 E.01817
G1 X130.85 Y139.149 E.01784
;WIDTH:0.450286
G1 X130.832 Y139.7 E.01771
;WIDTH:0.450062
G1 X130.708 Y140.239 E.01779
;WIDTH:0.44977
G1 X130.501 Y140.703 E.01633
;WIDTH:0.449943
G1 X130.178 Y141.174 E.01837
G1 X129.766 Y141.57 E.01837
;WIDTH:0.448662
G1 X129.284 Y141.877 E.01831
;WIDTH:0.447428
G1 X128.751 Y142.082 E.01825
;WIDTH:0.448142
G1 X128.194 Y142.176 E.01809
;WIDTH:0.44913
G1 X127.624 Y142.158 E.0183
;WIDTH:0.450477
G1 X127.062 Y142.026 E.01859
G1 X126.548 Y141.787 E.01824
;WIDTH:0.448772
G1 X126.085 Y141.444 E.01848
;WIDTH:0.447666
G1 X125.704 Y141.025 E.0181
;WIDTH:0.448797
G1 X125.41 Y140.529 E.01848
;WIDTH:0.449877
G1 X125.362 Y140.391 E.00472
G1 X125.745 Y140.203 F24000
;TYPE:Outer wall
;WIDTH:0.499999
G1 F3000
G1 X125.624 Y139.812 E.01478
G1 X125.575 Y139.329 E.01751
G1 X125.622 Y138.854 E.01724
G1 X125.709 Y138.534 E.01199
G1 X125.911 Y138.099 E.0173
G1 X126.201 Y137.703 E.01773
G1 X126.557 Y137.381 E.01731
G1 X126.979 Y137.13 E.01773
G1 X127.432 Y136.973 E.01731
G1 X128.029 Y136.913 E.02169
G1 X128.403 Y136.939 E.01351
G1 X128.863 Y137.063 E.01723
G1 X129.244 Y137.257 E.01542
G1 X129.614 Y137.528 E.01655
G1 X129.925 Y137.864 E.01655
G1 X130.169 Y138.252 E.01653
G1 X130.336 Y138.683 E.01669
G1 X130.418 Y139.167 E.01773
G1 X130.403 Y139.646 E.01731
G1 X130.289 Y140.124 E.01774
G1 X130.085 Y140.564 E.01752
G1 X129.692 Y141.053 E.02265
G1 X129.437 Y141.281 E.01232
G1 X129.02 Y141.528 E.01752
G1 X128.562 Y141.687 E.01751
G1 X128.087 Y141.751 E.01731
G1 X127.602 Y141.72 E.01753
G1 X127.01 Y141.533 E.02244
G1 X126.7 Y141.375 E.01254
G1 X126.314 Y141.072 E.01773
G1 X126.004 Y140.706 E.01731
G1 X125.768 Y140.275 E.01774
G1 X125.757 Y140.241 E.0013
; stop printing object Corps7.stl id:0 copy 0
; printing object Corps7.stl id:2 copy 0
G1 E-.5 F1800
;WIPE_START
G1 F12000
G1 X125.624 Y139.812
G1 X125.575 Y139.329
G1 X125.622 Y138.854
G1 X125.709 Y138.534
G1 X125.817 Y138.301
;WIPE_END
EXCLUDE_OBJECT_END NAME=Corps7.stl_id_0_copy_0
EXCLUDE_OBJECT_START NAME=Corps7.stl_id_2_copy_0
G1 Z.4 F24000
G1 X125.808 Y129.039 Z.4
G1 Z.2
G1 E.5 F1800
;TYPE:Inner wall
;WIDTH:0.453047
G1 F3000
G1 X125.955 Y129.287 E.00933
;WIDTH:0.451885
G1 X126.165 Y129.879 E.02028
;WIDTH:0.451296
G1 X126.257 Y130.53 E.0212
;WIDTH:0.449682
G1 X126.22 Y131.173 E.02071
;WIDTH:0.44901
G1 X126.052 Y131.809 E.02109
;WIDTH:0.449951
G1 X125.829 Y132.296 E.01722
G1 X125.51 Y132.751 E.01787
;WIDTH:0.456006
G1 X125.259 Y133.024 E.0121
G1 X124.87 Y133.341 E.0164
;WIDTH:0.450287
G1 X124.301 Y133.658 E.02094
;WIDTH:0.449168
G1 X123.682 Y133.856 E.02085
;WIDTH:0.448166
G1 X123.043 Y133.927 E.02059
;WIDTH:0.450102
G1 X122.513 Y133.896 E.01708
;WIDTH:0.450477
G1 X121.962 Y133.761 E.01824
;WIDTH:0.455783
G1 X121.627 Y133.63 E.01174
G1 X121.186 Y133.379 E.01656
;WIDTH:0.450168
G1 X120.681 Y132.959 E.02113
;WIDTH:0.448684
G1 X120.276 Y132.457 E.02065
;WIDTH:0.448094
G1 X119.974 Y131.874 E.02103
;WIDTH:0.446903
G1 X119.797 Y131.248 E.02074
;WIDTH:0.446185
G1 X119.745 Y130.627 E.01986
;WIDTH:0.450385
G1 X119.785 Y130.124 E.01625
;WIDTH:0.450566
G1 X119.946 Y129.525 E.01997
