; HEADER_BLOCK_START
; generated by OrcaSlicer 2.2.0 on 2024-10-29 at 18:59:27
; total layer number: 30
; filament_density: 1.24
; filament_diameter: 1.75
; max_z_height: 6.00
; HEADER_BLOCK_END

; THUMBNAIL_BLOCK_START

;
; THUMBNAIL_BLOCK_END

; THUMBNAIL_BLOCK_START

;
; THUMBNAIL_BLOCK_END

; external perimeters extrusion width = 0.42mm
; perimeters extrusion width = 0.45mm
; infill extrusion width = 0.45mm
; solid infill extrusion width = 0.45mm
; top infill extrusion width = 0.42mm
; first layer extrusion width = 0.50mm

; EXECUTABLE_BLOCK_START
EXCLUDE_OBJECT_DEFINE NAME=Corps1.stl_id_0_copy_0 CENTER=115,115 POLYGON=[[91,101.5],[91.0128,100.994],[91.0513,100.488],[91.1153,99.9857],[91.2047,99.487],[91.3192,98.9935],[91.4586,98.5064],[91.6225,98.0269],[91.8104,97.5564],[92.022,97.0961],[92.2565,96.647],[92.5136,96.2104],[92.7924,95.7873],[93.0922,95.3789],[93.4124,94.9863],[93.7521,94.6103],[94.1103,94.2521],[94.4863,93.9124],[94.8789,93.5922],[95.2873,93.2924],[95.7104,93.0136],[96.147,92.7565],[96.5961,92.522],[97.0564,92.3104],[97.5269,92.1225],[98.0064,91.9586],[98.4935,91.8192],[98.987,91.7047],[99.4857,91.6153],[99.9883,91.5513],[100.494,91.5128],[101,91.5],[139,91.5],[139,138.5],[101,138.5],[100.494,138.487],[99.9883,138.449],[99.4857,138.385],[98.987,138.295],[98.4935,138.181],[98.0064,138.041],[97.5269,137.878],[97.0564,137.69],[96.5961,137.478],[96.147,137.243],[95.7104,136.986],[95.2873,136.708],[94.8789,136.408],[94.4863,136.088],[94.1103,135.748],[93.7521,135.39],[93.4124,135.014],[93.0922,134.621],[92.7924,134.213],[92.5136,133.79],[92.2565,133.353],[92.022,132.904],[91.8104,132.444],[91.6225,131.973],[91.4586,131.494],[91.3192,131.007],[91.2047,130.513],[91.1153,130.014],[91.0513,129.512],[91.0128,129.006],[91,128.5],[91,101.5]]
M73 P0 R8
;TYPE:Custom
M220 S100
G90 ; use absolute coordinates
M83 ; extruder relative mode
M104 S150 ; set temporary nozzle temp to prevent oozing during homing
M140 S55 ; set final bed temp
G4 S30 ; allow partial nozzle warmup
G28 ; home all axis and restore leveling
BED_MESH_CALIBRATE PROFILE=adaptive ADAPTIVE=1 ADAPTIVE_MARGIN=0
G1 Z25 F240
G1 X10.0 Y30 F3000
M73 P1 R7
M104 S210 ; set final nozzle temp
M190 S55 ; wait for bed temp to stabilize
M109 S210 ; wait for nozzle temp to stabilize
M73 P1 R7
G1 Z0.28 F240
G92 E0 ; Move Z Axis up
G1 Z2.0 F5000 ; Move to start position
M73 P2 R7
M73 P2 R7
G1 X5 Y30 Z0.28 F300 ; Draw the first line
G1 X5 Y200 Z0.28 F1500 E15 ; Move to side a little
G1 X5.4 Y200 Z0.28 F5000.0 ; Draw the second line
M73 P4 R7
M73 P4 R7
G1 X5.4 Y50 Z0.28 F1500.0 E30 ; Reset Extruder
G92 E0 ; Move Z Axis up
G1 Z2.0 F3000
M73 P5 R7
M117 Start Printing..
G90
G21
M83 ; use relative distances for extrusion
; filament start gcode
M106 S0
;LAYER_CHANGE
;Z:0.2
;HEIGHT:0.2
;BEFORE_LAYER_CHANGE
;0.2
G92 E0

M73 P5 R7
G1 E-.5 F1800
;_SET_FAN_SPEED_CHANGING_LAYER
SET_VELOCITY_LIMIT ACCEL=1000
SET_VELOCITY_LIMIT SQUARE_CORNER_VELOCITY=7
; printing object Corps1.stl id:0 copy 0
EXCLUDE_OBJECT_START NAME=Corps1.stl_id_0_copy_0
G1 Z.4 F24000
G1 X146.243 Y157.743
G1 Z.4
G1 Z.2
G1 E.5 F1800
;TYPE:Inner wall
;WIDTH:0.499999
G1 F3000
G1 X108.918 Y157.743 E1.25546
G1 X108.31 Y157.714 E.02045
M73 P6 R7
M73 P6 R7
G1 X107.789 Y157.66 E.01762
G1 X107.14 Y157.553 E.02212
G1 X106.225 Y157.316 E.0318
G1 X105.619 Y157.099 E.02165
G1 X105.132 Y156.891 E.01783
G1 X104.514 Y156.581 E.02322
G1 X103.912 Y156.213 E.02375
G1 X103.342 Y155.809 E.02349
G1 X102.804 Y155.355 E.02368
G1 X102.301 Y154.868 E.02356
G1 X101.838 Y154.338 E.02366
G1 X101.414 Y153.78 E.02358
G1 X101.037 Y153.187 E.02364
G1 X100.702 Y152.57 E.0236
G1 X100.419 Y151.927 E.02364
G1 X100.181 Y151.267 E.0236
G1 X99.999 Y150.588 E.02364
G1 X99.864 Y149.9 E.02361
G1 X99.787 Y149.201 E.02363
G1 X99.757 Y148.49 E.02393
G1 X99.769 Y121.032 E.92358
G1 X99.835 Y120.328 E.0238
G1 X99.947 Y119.639 E.02345
G1 X100.114 Y118.97 E.02322
G1 X100.271 Y118.47 E.01762
G1 X100.506 Y117.856 E.02212
G1 X101.063 Y116.77 E.04105
G1 X101.414 Y116.22 E.02194
G1 X101.844 Y115.655 E.02388
G1 X102.301 Y115.132 E.02336
G1 X102.808 Y114.642 E.02372
G1 X103.342 Y114.191 E.02352
G1 X103.917 Y113.784 E.0237
G1 X104.514 Y113.419 E.02354
G1 X105.147 Y113.102 E.0238
G1 X105.79 Y112.833 E.02344
G1 X106.447 Y112.62 E.02322
G1 X106.954 Y112.49 E.01762
G1 X107.6 Y112.364 E.02212
G1 X108.191 Y112.304 E.01997
G1 X109.01 Y112.257 E.0276
G1 X146.243 Y112.257 E1.25236
G1 X146.243 Y157.703 E1.5286
G1 X146.7 Y158.2 F24000
;TYPE:Outer wall
G1 F3000
G1 X108.869 Y158.2 E1.27247
G1 X108.242 Y158.167 E.0211
G1 X107.731 Y158.114 E.01729
G1 X107.042 Y158 E.02349
G1 X106.093 Y157.754 E.03297
G1 X105.383 Y157.497 E.02541
G1 X104.728 Y157.209 E.02407
G1 X104.087 Y156.86 E.02453
G1 X103.661 Y156.594 E.01691
G1 X103.063 Y156.17 E.02466
G1 X102.498 Y155.694 E.02485
G1 X101.97 Y155.183 E.02472
G1 X101.484 Y154.627 E.02483
G1 X101.039 Y154.041 E.02475
G1 X100.643 Y153.419 E.02481
G1 X100.291 Y152.772 E.02477
G1 X99.995 Y152.097 E.02481
G1 X99.745 Y151.404 E.02477
G1 X99.554 Y150.692 E.0248
G1 X99.412 Y149.969 E.02477
G1 X99.331 Y149.236 E.0248
G1 X99.3 Y148.496 E.02491
G1 X99.3 Y121.359 E.91276
G1 X99.35 Y120.519 E.02832
G1 X99.454 Y119.794 E.02461
G1 X99.557 Y119.297 E.0171
G1 X99.683 Y118.812 E.01685
G1 X99.839 Y118.322 E.01728
G1 X100.089 Y117.67 E.02349
G1 X100.52 Y116.79 E.03297
G1 X100.876 Y116.206 E.02301
G1 X101.171 Y115.778 E.01749
G1 X101.477 Y115.381 E.01684
G1 X101.808 Y114.996 E.0171
G1 X102.317 Y114.47 E.02461
G1 X102.874 Y113.983 E.02487
G1 X103.459 Y113.539 E.02471
G1 X104.083 Y113.142 E.02488
M73 P7 R7
M73 P7 R7
G1 X104.728 Y112.791 E.02469
G1 X105.398 Y112.497 E.02461
G1 X105.875 Y112.321 E.0171
G1 X106.353 Y112.171 E.01685
G1 X106.851 Y112.044 E.01728
G1 X107.537 Y111.911 E.02349
G1 X108.144 Y111.85 E.02055
G1 X109.004 Y111.8 E.02896
G1 X146.7 Y111.8 E1.26793
G1 X146.7 Y158.16 E1.55934
G1 E-.5 F1800
;WIPE_START
G1 F12000
G1 X144.7 Y158.162
;WIPE_END
G1 Z.4 F24000
G1 X145.18 Y112.394
G1 Z.4
G1 Z.2
G1 E.5 F1800
;TYPE:Bottom surface
;WIDTH:0.501012
G1 F6300
G1 X145.9 Y113.115 E.03433
G1 X145.9 Y113.762 E.02184
G1 X144.738 Y112.6 E.0554
G1 X144.09 Y112.6 E.02183
G1 X145.9 Y114.41 E.08628
G1 X145.9 Y115.058 E.02184
G1 X143.443 Y112.601 E.11715
G1 X142.795 Y112.601 E.02183
G1 X145.9 Y115.706 E.14803
G1 X145.9 Y116.354 E.02184
G1 X142.147 Y112.601 E.1789
G1 X141.5 Y112.601 E.02183
G1 X145.9 Y117.002 E.20978
G1 X145.9 Y117.649 E.02184
G1 X140.852 Y112.601 E.24065
G1 X140.204 Y112.602 E.02183
G1 X145.9 Y118.297 E.27153
G1 X145.9 Y118.945 E.02184
G1 X139.557 Y112.602 E.3024
G1 X138.909 Y112.602 E.02183
G1 X145.9 Y119.593 E.33328
G1 X145.9 Y120.241 E.02184
G1 X138.262 Y112.602 E.36415
G1 X137.614 Y112.602 E.02183
G1 X145.9 Y120.889 E.39503
G1 X145.9 Y121.537 E.02184
G1 X136.966 Y112.603 E.42591
G1 X136.319 Y112.603 E.02183
M73 P8 R7
M73 P8 R7
G1 X145.9 Y122.184 E.45678
G1 X145.9 Y122.832 E.02184
G1 X135.671 Y112.603 E.48766
G1 X135.023 Y112.603 E.02183
G1 X145.9 Y123.48 E.51853
G1 X145.9 Y124.128 E.02184
G1 X134.376 Y112.603 E.54941
G1 X133.728 Y112.604 E.02183
G1 X145.9 Y124.776 E.58028
G1 X145.9 Y125.424 E.02184
G1 X133.08 Y112.604 E.61116
G1 X132.433 Y112.604 E.02183
G1 X145.9 Y126.071 E.64203
G1 X145.9 Y126.719 E.02184
G1 X131.785 Y112.604 E.67291
G1 X131.138 Y112.604 E.02183
G1 X145.9 Y127.367 E.70378
G1 X145.9 Y128.015 E.02184
G1 X130.49 Y112.605 E.73466
G1 X129.842 Y112.605 E.02183
G1 X145.9 Y128.663 E.76553
G1 X145.9 Y129.311 E.02184
G1 X129.195 Y112.605 E.79641
G1 X128.547 Y112.605 E.02183
G1 X145.9 Y129.958 E.82728
G1 X145.9 Y130.606 E.02184
G1 X127.899 Y112.605 E.85816
G1 X127.252 Y112.606 E.02183
G1 X145.9 Y131.254 E.88903
G1 X145.9 Y131.902 E.02184
M73 P9 R7
M73 P9 R7
G1 X126.604 Y112.606 E.91991
G1 X125.956 Y112.606 E.02183
G1 X145.9 Y132.55 E.95078
G1 X145.9 Y133.198 E.02184
G1 X125.309 Y112.606 E.98166
G1 X124.661 Y112.606 E.02183
G1 X145.9 Y133.845 E1.01253
G1 X145.9 Y134.493 E.02184
G1 X124.013 Y112.607 E1.04341
G1 X123.366 Y112.607 E.02183
G1 X145.9 Y135.141 E1.07428
G1 X145.9 Y135.789 E.02184
G1 X122.718 Y112.607 E1.10516
G1 X122.071 Y112.607 E.02183
G1 X145.9 Y136.437 E1.13603
G1 X145.9 Y137.085 E.02184
G1 X121.423 Y112.607 E1.16691
G1 X120.775 Y112.608 E.02183
G1 X145.9 Y137.733 E1.19778
G1 X145.9 Y138.38 E.02184
G1 X120.128 Y112.608 E1.22866
G1 X119.48 Y112.608 E.02183
G1 X145.9 Y139.028 E1.25953
G1 X145.9 Y139.676 E.02184
M73 P10 R7
M73 P10 R7
G1 X118.832 Y112.608 E1.29041
G1 X118.185 Y112.608 E.02183
G1 X145.9 Y140.324 E1.32128
G1 X145.9 Y140.972 E.02184
G1 X117.537 Y112.609 E1.35216
G1 X116.889 Y112.609 E.02183
G1 X145.9 Y141.62 E1.38303
G1 X145.9 Y142.267 E.02184
G1 X116.242 Y112.609 E1.41391
G1 X115.594 Y112.609 E.02183
G1 X145.9 Y142.915 E1.44478
G1 X145.9 Y143.563 E.02184
G1 X114.947 Y112.61 E1.47566
G1 X114.299 Y112.61 E.02183
G1 X145.9 Y144.211 E1.50653
G1 X145.9 Y144.859 E.02184
G1 X113.651 Y112.61 E1.53741
G1 X113.004 Y112.61 E.02183
M73 P11 R7
M73 P11 R7
G1 X145.9 Y145.507 E1.56828
G1 X145.9 Y146.154 E.02184
G1 X112.356 Y112.61 E1.59916
G1 X111.708 Y112.611 E.02183
G1 X145.9 Y146.802 E1.63003
G1 X145.9 Y147.45 E.02184
G1 X111.061 Y112.611 E1.66091
G1 X110.413 Y112.611 E.02183
G1 X145.9 Y148.098 E1.69178
G1 X145.9 Y148.746 E.02184
G1 X109.765 Y112.611 E1.72266
G1 X109.118 Y112.611 E.02183
G1 X145.9 Y149.394 E1.75353
G1 X145.9 Y150.041 E.02184
G1 X108.478 Y112.62 E1.78401
G1 X107.89 Y112.68 E.01993
M73 P12 R7
M73 P12 R7
G1 X145.9 Y150.689 E1.81205
G1 X145.9 Y151.337 E.02184
G1 X107.325 Y112.762 E1.83902
G1 X106.803 Y112.888 E.0181
G1 X145.9 Y151.985 E1.8639
G1 X145.9 Y152.633 E.02184
G1 X106.292 Y113.025 E1.88825
G1 X105.819 Y113.2 E.01699
G1 X145.9 Y153.281 E1.91079
G1 X145.9 Y153.929 E.02184
G1 X105.358 Y113.386 E1.93277
G1 X104.923 Y113.6 E.01632
G1 X145.9 Y154.576 E1.95349
G1 X145.9 Y155.224 E.02184
M73 P13 R7
M73 P13 R7
G1 X104.505 Y113.829 E1.97346
G1 X104.105 Y114.077 E.01585
M73 P13 R6
M73 P13 R6
G1 X145.9 Y155.872 E1.99249
G1 X145.9 Y156.52 E.02184
G1 X103.724 Y114.344 E2.01067
G1 X103.359 Y114.627 E.01557
G1 X145.9 Y157.168 E2.02807
G1 X145.9 Y157.4 E.00783
G1 X145.485 Y157.4 E.01401
G1 X103.013 Y114.928 E2.02477
G1 X102.681 Y115.244 E.01545
G1 X144.836 Y157.4 E2.00971
G1 X144.188 Y157.4 E.02185
G1 X102.368 Y115.58 E1.9937
G1 X102.069 Y115.928 E.01549
M73 P14 R6
M73 P14 R6
G1 X143.54 Y157.399 E1.97707
G1 X142.892 Y157.399 E.02185
G1 X101.791 Y116.298 E1.95942
G1 X101.526 Y116.68 E.01569
G1 X142.244 Y157.399 E1.9412
G1 X141.596 Y157.399 E.02185
G1 X101.278 Y117.08 E1.92211
G1 X101.059 Y117.509 E.01623
G1 X140.948 Y157.399 E1.90167
G1 X140.3 Y157.398 E.02185
G1 X100.845 Y117.944 E1.88094
G1 X100.666 Y118.412 E.0169
G1 X139.652 Y157.398 E1.85861
G1 X139.004 Y157.398 E.02185
G1 X100.495 Y118.889 E1.83586
G1 X100.362 Y119.403 E.01792
M73 P15 R6
M73 P15 R6
G1 X138.356 Y157.398 E1.81132
G1 X137.708 Y157.397 E.02185
G1 X100.242 Y119.932 E1.78611
G1 X100.167 Y120.505 E.01947
G1 X137.06 Y157.397 E1.7588
G1 X136.412 Y157.397 E.02185
G1 X100.112 Y121.097 E1.73055
G1 X100.111 Y121.745 E.02183
G1 X135.764 Y157.397 E1.69966
G1 X135.116 Y157.397 E.02185
G1 X100.111 Y122.392 E1.66878
G1 X100.111 Y123.04 E.02183
G1 X134.468 Y157.396 E1.6379
G1 X133.82 Y157.396 E.02185
M73 P16 R6
M73 P16 R6
G1 X100.111 Y123.687 E1.60702
G1 X100.11 Y124.335 E.02183
G1 X133.172 Y157.396 E1.57614
G1 X132.524 Y157.396 E.02185
G1 X100.11 Y124.982 E1.54526
G1 X100.11 Y125.63 E.02183
G1 X131.876 Y157.396 E1.51438
G1 X131.227 Y157.395 E.02185
G1 X100.11 Y126.277 E1.4835
G1 X100.109 Y126.925 E.02183
G1 X130.579 Y157.395 E1.45262
G1 X129.931 Y157.395 E.02185
G1 X100.109 Y127.573 E1.42173
G1 X100.109 Y128.22 E.02183
G1 X129.283 Y157.395 E1.39085
G1 X128.635 Y157.395 E.02185
G1 X100.108 Y128.868 E1.35997
G1 X100.108 Y129.515 E.02183
M73 P17 R6
M73 P17 R6
G1 X127.987 Y157.394 E1.32909
G1 X127.339 Y157.394 E.02185
G1 X100.108 Y130.163 E1.29821
G1 X100.108 Y130.81 E.02183
G1 X126.691 Y157.394 E1.26733
G1 X126.043 Y157.394 E.02185
G1 X100.107 Y131.458 E1.23645
G1 X100.107 Y132.105 E.02183
G1 X125.395 Y157.394 E1.20557
G1 X124.747 Y157.393 E.02185
G1 X100.107 Y132.753 E1.17469
G1 X100.106 Y133.401 E.02183
G1 X124.099 Y157.393 E1.1438
G1 X123.451 Y157.393 E.02185
G1 X100.106 Y134.048 E1.11292
G1 X100.106 Y134.696 E.02183
G1 X122.803 Y157.393 E1.08204
G1 X122.155 Y157.393 E.02185
G1 X100.106 Y135.343 E1.05116
G1 X100.105 Y135.991 E.02183
G1 X121.507 Y157.392 E1.02028
G1 X120.859 Y157.392 E.02185
M73 P18 R6
M73 P18 R6
G1 X100.105 Y136.638 E.9894
G1 X100.105 Y137.286 E.02183
G1 X120.211 Y157.392 E.95852
G1 X119.563 Y157.392 E.02185
G1 X100.104 Y137.933 E.92764
G1 X100.104 Y138.581 E.02183
G1 X118.915 Y157.392 E.89676
G1 X118.267 Y157.391 E.02185
G1 X100.104 Y139.229 E.86587
G1 X100.104 Y139.876 E.02183
G1 X117.619 Y157.391 E.83499
G1 X116.97 Y157.391 E.02185
G1 X100.103 Y140.524 E.80411
G1 X100.103 Y141.171 E.02183
G1 X116.322 Y157.391 E.77323
G1 X115.674 Y157.39 E.02185
G1 X100.103 Y141.819 E.74235
G1 X100.102 Y142.466 E.02183
G1 X115.026 Y157.39 E.71147
G1 X114.378 Y157.39 E.02185
G1 X100.102 Y143.114 E.68059
G1 X100.102 Y143.762 E.02183
G1 X113.73 Y157.39 E.64971
G1 X113.082 Y157.39 E.02185
G1 X100.102 Y144.409 E.61883
G1 X100.101 Y145.057 E.02183
M73 P19 R6
M73 P19 R6
G1 X112.434 Y157.389 E.58795
G1 X111.786 Y157.389 E.02185
G1 X100.101 Y145.704 E.55706
G1 X100.101 Y146.352 E.02183
G1 X111.138 Y157.389 E.52618
G1 X110.49 Y157.389 E.02185
G1 X100.101 Y146.999 E.4953
G1 X100.1 Y147.647 E.02183
G1 X109.842 Y157.389 E.46442
G1 X109.194 Y157.388 E.02185
G1 X100.1 Y148.294 E.43354
G1 X100.124 Y148.966 E.02267
G1 X108.546 Y157.388 E.40147
G1 X107.824 Y157.315 E.02444
G1 X100.189 Y149.679 E.36402
G1 X100.283 Y150.291 E.02089
G1 X100.328 Y150.466 E.00606
G1 X107.033 Y157.171 E.31969
G1 X106.325 Y156.988 E.02467
G1 X106.13 Y156.915 E.00702
G1 X100.585 Y151.371 E.26432
G1 X100.822 Y152.01 E.02296
G1 X101.058 Y152.492 E.0181
G1 X105.026 Y156.46 E.18918
G1 X104.292 Y156.053 E.0283
G1 X103.552 Y155.538 E.03039
G1 X102.872 Y154.953 E.03025
G1 X101.371 Y153.453 E.07152
; stop printing object Corps1.stl id:0 copy 0
M106 S255
;LAYER_CHANGE
;Z:0.4
;HEIGHT:0.2
;BEFORE_LAYER_CHANGE
;0.4
G92 E0

G1 E-.5 F1800
;WIPE_START
G1 F12000
G1 X102.786 Y154.867
;WIPE_END
EXCLUDE_OBJECT_END NAME=Corps1.stl_id_0_copy_0
;_SET_FAN_SPEED_CHANGING_LAYER
SET_VELOCITY_LIMIT ACCEL=5000
M104 S205 ; set nozzle temperature
M140 S55 ; set bed temperature
; printing object Corps1.stl id:0 copy 0
EXCLUDE_OBJECT_START NAME=Corps1.stl_id_0_copy_0
G1 Z.6 F24000
G1 X146.398 Y157.898 Z.6
G1 Z.4
G1 E.5 F1800
;TYPE:Inner wall
;WIDTH:0.449999
G1 F10317.406
G1 X109.128 Y157.898 E1.11645
G1 X108.524 Y157.886 E.01811
G1 X107.813 Y157.819 E.02139
G1 X107.108 Y157.705 E.02139
G1 X106.416 Y157.532 E.02139
G1 X105.736 Y157.313 E.02139
G1 X105.078 Y157.037 E.02139
G1 X104.439 Y156.717 E.02139
G1 X103.83 Y156.344 E.02139
G1 X103.248 Y155.931 E.02139
G1 X102.702 Y155.471 E.02139
G1 X102.189 Y154.975 E.02139
G1 X101.719 Y154.437 E.02139
G1 X101.287 Y153.869 E.02139
G1 X100.904 Y153.266 E.02139
G1 X100.563 Y152.639 E.02139
G1 X100.276 Y151.985 E.02139
G1 X100.033 Y151.313 E.02139
G1 X99.848 Y150.624 E.02139
G1 X99.711 Y149.923 E.02139
G1 X99.632 Y149.213 E.02139
G1 X99.602 Y148.492 E.02162
G1 X99.602 Y121.628 E.80475
G1 X99.614 Y121.024 E.01811
G1 X99.681 Y120.308 E.02154
G1 X99.795 Y119.608 E.02124
G1 X99.965 Y118.927 E.02104
G1 X100.12 Y118.432 E.01555
G1 X100.371 Y117.779 E.02096
G1 X100.787 Y116.933 E.02822
G1 X101.167 Y116.313 E.02181
G1 X101.569 Y115.748 E.02076
G1 X102.032 Y115.198 E.02154
G1 X102.525 Y114.689 E.02123
G1 X103.065 Y114.217 E.02146
G1 X103.631 Y113.787 E.02132
G1 X104.235 Y113.403 E.02143
G1 X104.861 Y113.063 E.02135
G1 X105.516 Y112.775 E.02141
G1 X106.187 Y112.533 E.02136
G1 X106.877 Y112.348 E.02141
G1 X107.577 Y112.211 E.02137
G1 X108.287 Y112.132 E.0214
G1 X109.008 Y112.102 E.0216
G1 X146.398 Y112.102 E1.12007
G1 X146.398 Y157.858 E1.37067
G1 X146.79 Y158.29 F24000
SET_VELOCITY_LIMIT ACCEL=2000
;TYPE:Outer wall
;WIDTH:0.419999
G1 F11138.25
G1 X109.128 Y158.29 E1.04506
