; HEADER_BLOCK_START
; generated by OrcaSlicer 2.1.1 on 2024-09-22 at 13:10:48
; total layer number: 98
; filament_density: 1.24
; filament_diameter: 1.75
; max_z_height: 16.00
; HEADER_BLOCK_END

; THUMBNAIL_BLOCK_START

;
; THUMBNAIL_BLOCK_END

; THUMBNAIL_BLOCK_START

;
; THUMBNAIL_BLOCK_END

; external perimeters extrusion width = 0.42mm
; perimeters extrusion width = 0.45mm
; infill extrusion width = 0.45mm
; solid infill extrusion width = 0.45mm
; top infill extrusion width = 0.42mm
; support material extrusion width = 0.42mm
; first layer extrusion width = 0.50mm

; EXECUTABLE_BLOCK_START
EXCLUDE_OBJECT_DEFINE NAME=Corps1.stl_id_0_copy_0 CENTER=115,115 POLYGON=[[100.5,105],[100.508,104.826],[100.53,104.653],[100.568,104.482],[100.621,104.316],[100.636,104.277],[100.687,104.155],[100.768,104],[100.812,103.929],[100.862,103.853],[100.968,103.714],[101.052,103.622],[101.086,103.586],[101.214,103.468],[101.353,103.362],[101.5,103.268],[101.655,103.187],[101.672,103.18],[101.816,103.121],[101.879,103.099],[101.982,103.068],[102.09,103.043],[102.153,103.03],[102.299,103.011],[102.326,103.008],[102.5,103],[127.5,103],[127.663,103.007],[127.674,103.008],[127.847,103.03],[128.018,103.068],[128.152,103.11],[128.184,103.121],[128.289,103.164],[128.345,103.187],[128.5,103.268],[128.647,103.362],[128.786,103.468],[128.914,103.586],[129.032,103.714],[129.138,103.853],[129.232,104],[129.313,104.155],[129.336,104.211],[129.379,104.316],[129.39,104.348],[129.432,104.482],[129.47,104.653],[129.492,104.826],[129.493,104.837],[129.5,105],[129.5,125],[129.498,125.098],[129.492,125.174],[129.49,125.196],[129.478,125.293],[129.47,125.347],[129.462,125.39],[129.44,125.486],[129.432,125.518],[129.414,125.581],[129.383,125.674],[129.379,125.684],[129.348,125.765],[129.313,125.845],[129.308,125.855],[129.264,125.943],[129.232,126],[129.215,126.028],[129.163,126.111],[129.138,126.147],[129.106,126.191],[129.046,126.269],[129.032,126.286],[128.982,126.343],[128.914,126.414],[128.843,126.482],[128.786,126.532],[128.769,126.546],[128.691,126.606],[128.647,126.638],[128.611,126.663],[128.528,126.715],[128.5,126.732],[128.443,126.764],[128.355,126.808],[128.345,126.813],[128.265,126.848],[128.184,126.879],[128.174,126.883],[128.081,126.914],[128.018,126.932],[127.986,126.94],[127.89,126.962],[127.847,126.97],[127.793,126.978],[127.696,126.99],[127.674,126.992],[127.598,126.998],[127.5,127],[100.5,127],[100.5,105]]
M73 P0 R19
;TYPE:Custom
M220 S100
G90 ; use absolute coordinates
M83 ; extruder relative mode
M104 S150 ; set temporary nozzle temp to prevent oozing during homing
M140 S95 ; set final bed temp
G4 S30 ; allow partial nozzle warmup
G28 ; home all axis and restore leveling
BED_MESH_CALIBRATE PROFILE=adaptive ADAPTIVE=1 ADAPTIVE_MARGIN=0
G1 Z25 F240
G1 X10.0 Y30 F3000
M104 S285 ; set final nozzle temp
M190 S95 ; wait for bed temp to stabilize
M109 S285 ; wait for nozzle temp to stabilize
G1 Z0.28 F240
G92 E0 ; Move Z Axis up
G1 Z2.0 F5000 ; Move to start position
M73 P1 R18
G1 X5 Y30 Z0.28 F300 ; Draw the first line
G1 X5 Y200 Z0.28 F1500 E15 ; Move to side a little
G1 X5.4 Y200 Z0.28 F5000.0 ; Draw the second line
G1 X5.4 Y50 Z0.28 F1500.0 E30 ; Reset Extruder
G92 E0 ; Move Z Axis up
G1 Z2.0 F3000
M117 Start Printing..
G90
G21
M83 ; use relative distances for extrusion
; filament start gcode
SET_PRESSURE_ADVANCE ADVANCE=0.024; Override pressure advance value
M106 S0
;LAYER_CHANGE
;Z:0.2
;HEIGHT:0.2
;BEFORE_LAYER_CHANGE
;0.2
G92 E0

M73 P2 R18
G1 E-1.5 F1800
;_SET_FAN_SPEED_CHANGING_LAYER
SET_VELOCITY_LIMIT ACCEL=1000
SET_VELOCITY_LIMIT SQUARE_CORNER_VELOCITY=7
; printing object Corps1.stl id:0 copy 0
EXCLUDE_OBJECT_START NAME=Corps1.stl_id_0_copy_0
G1 Z.2 F24000
G1 X119.184 Y142.693
G1 Z.2
G1 E1.5 F1800
;TYPE:Support
;WIDTH:0.5
G1 X113.35 Y142.693 E.19957
G1 X113.35 Y133.062 E.32944
G1 X119.184 Y133.062 E.19957
G1 X119.184 Y142.624 E.32709
G1 X118.773 Y133.473 F24000
G1 F1800
G1 X118.773 Y142.281 E.30129
G1 X113.761 Y142.281 E.17142
G1 X113.761 Y133.473 E.30129
G1 X118.773 Y133.473 E.17142
G1 X118.265 Y133.981 F24000
G1 F1800
G1 X118.265 Y141.773 E.26655
G1 X114.269 Y141.773 E.13668
G1 X114.269 Y133.981 E.26655
G1 X118.265 Y133.981 E.13668
G1 X117.757 Y134.489 F24000
G1 F1800
G1 X117.757 Y141.266 E.23181
G1 X114.777 Y141.266 E.10194
G1 X114.777 Y134.489 E.23181
G1 X117.757 Y134.489 E.10194
G1 X117.249 Y134.997 F24000
G1 F1800
G1 X117.249 Y140.758 E.19706
G1 X115.285 Y140.758 E.06719
G1 X115.285 Y134.997 E.19706
G1 X117.249 Y134.997 E.06719
G1 X116.741 Y135.504 F24000
G1 F1800
G1 X116.741 Y140.25 E.16232
G1 X115.793 Y140.25 E.03245
G1 X115.793 Y135.504 E.16232
G1 X116.741 Y135.504 E.03245
G1 E-1.5
;WIPE_START
G1 X115.793 Y135.504
G1 X115.793 Y136.556
;WIPE_END
G1 Z.4 F24000
G1 X132.65 Y142.693 Z.4
G1 Z.2
G1 E1.5 F1800
G1 X126.816 Y142.693 E.19957
G1 X126.816 Y133.062 E.32944
G1 X132.65 Y133.062 E.19957
G1 X132.65 Y142.624 E.32709
M73 P3 R18
G1 X127.227 Y133.473 F24000
G1 F1800
G1 X132.239 Y133.473 E.17142
G1 X132.239 Y142.281 E.30129
G1 X127.227 Y142.281 E.17142
G1 X127.227 Y133.473 E.30129
G1 X127.735 Y133.981 F24000
G1 F1800
G1 X131.731 Y133.981 E.13668
G1 X131.731 Y141.773 E.26655
G1 X127.735 Y141.773 E.13668
G1 X127.735 Y133.981 E.26655
G1 X128.243 Y134.489 F24000
G1 F1800
G1 X131.223 Y134.489 E.10194
G1 X131.223 Y141.266 E.23181
G1 X128.243 Y141.266 E.10194
G1 X128.243 Y134.489 E.23181
G1 X128.751 Y134.997 F24000
G1 F1800
G1 X130.715 Y134.997 E.06719
G1 X130.715 Y140.758 E.19706
G1 X128.751 Y140.758 E.06719
G1 X128.751 Y134.997 E.19706
G1 X129.259 Y135.504 F24000
G1 F1800
G1 X130.207 Y135.504 E.03245
G1 X130.207 Y140.25 E.16232
G1 X129.259 Y140.25 E.03245
G1 X129.259 Y135.504 E.16232
G1 E-1.5
;WIPE_START
G1 F12000
G1 X129.259 Y137.504
;WIPE_END
G1 Z.4 F24000
G1 X112.411 Y126.491 Z.4
G1 Z.2
G1 E1.5 F1800
;TYPE:Inner wall
;WIDTH:0.499999
G1 X112.379 Y126.519 E.00143
G1 X112.28 Y126.707 E.00728
G1 X112.243 Y126.928 E.00767
G1 X112.243 Y146.243 E.66067
G1 X109.257 Y146.243 E.10212
G1 X109.264 Y125.048 E.725
G1 X109.341 Y124.563 E.01679
G1 X109.479 Y124.315 E.00971
G1 X109.752 Y124.028 E.01354
G1 X110.076 Y123.835 E.0129
G1 X110.532 Y123.757 E.01582
G1 X135.47 Y123.757 E.85304
G1 X135.924 Y123.835 E.01574
G1 X136.285 Y124.041 E.01422
G1 X136.57 Y124.382 E.0152
G1 X136.723 Y124.799 E.01519
G1 X136.743 Y125.09 E.00997
G1 X136.743 Y145.156 E.68637
G1 X136.574 Y145.62 E.01689
G1 X136.297 Y145.95 E.01473
G1 X135.924 Y146.165 E.01473
G1 X135.468 Y146.243 E.01582
G1 X133.757 Y146.243 E.05853
G1 X133.757 Y126.929 E.66066
G1 X133.721 Y126.708 E.00765
G1 X133.622 Y126.52 E.00726
G1 X133.396 Y126.325 E.01022
G1 X133.071 Y126.243 E.01144
G1 X112.929 Y126.243 E.689
G1 X112.605 Y126.324 E.01142
G1 X112.441 Y126.465 E.0074
G1 X112.745 Y126.792 F24000
;TYPE:Outer wall
G1 F1800
G1 X112.7 Y126.928 E.00492
G1 X112.7 Y146.7 E.6763
G1 X108.8 Y146.7 E.1334
G1 X108.807 Y124.857 E.74717
G1 X108.968 Y124.282 E.0204
G1 X109.299 Y123.8 E.02001
G1 X109.655 Y123.527 E.01534
G1 X110.044 Y123.37 E.01435
G1 X110.512 Y123.3 E.01619
G1 X135.012 Y123.3 E.83804
G1 X135.795 Y123.327 E.0268
M73 P4 R18
G1 X136.209 Y123.463 E.0149
G1 X136.588 Y123.696 E.01522
G1 X136.966 Y124.154 E.02031
G1 X137.174 Y124.71 E.0203
G1 X137.2 Y125.09 E.01305
G1 X137.2 Y144.911 E.67797
G1 X137.135 Y145.438 E.01818
G1 X136.971 Y145.849 E.01514
G1 X136.697 Y146.197 E.01515
G1 X136.35 Y146.471 E.01514
G1 X135.938 Y146.635 E.01514
G1 X135.488 Y146.7 E.01556
G1 X133.3 Y146.7 E.07484
G1 X133.3 Y126.929 E.6763
G1 X133.255 Y126.792 E.00491
G1 X133.071 Y126.7 E.00703
G1 X112.895 Y126.7 E.69016
G1 X112.779 Y126.771 E.00463
G1 E-1.5
;WIPE_START
G1 F12000
G1 X112.7 Y126.928
G1 X112.7 Y128.752
;WIPE_END
G1 Z.4 F24000
G1 X136.588 Y124.832
G1 Z.4
G1 Z.2
G1 E1.5 F1800
;TYPE:Bottom surface
;WIDTH:0.503372
G1 F3600
G1 X136.053 Y124.298 E.02604
G1 X135.948 Y124.224 E.00443
G1 X135.806 Y124.158 E.00538
G1 X135.656 Y124.118 E.00539
G1 X135.204 Y124.1 E.01555
G1 X136.4 Y125.296 E.05827
G1 X136.4 Y125.947 E.02244
G1 X134.553 Y124.1 E.09
G1 X133.902 Y124.1 E.02244
G1 X136.4 Y126.598 E.12173
G1 X136.4 Y127.249 E.02244
G1 X133.251 Y124.1 E.15346
G1 X132.6 Y124.1 E.02244
G1 X136.4 Y127.9 E.1852
G1 X136.4 Y128.552 E.02244
G1 X131.949 Y124.1 E.21693
G1 X131.297 Y124.1 E.02244
G1 X133.101 Y125.904 E.08792
G1 X133.558 Y126.019 E.01623
G1 X133.897 Y126.311 E.01541
G1 X134.047 Y126.598 E.01114
G1 X134.097 Y126.899 E.01053
G1 X136.4 Y129.203 E.11225
G1 X136.4 Y129.854 E.02244
G1 X134.1 Y127.554 E.11209
G1 X134.1 Y128.205 E.02244
G1 X136.4 Y130.505 E.11209
G1 X136.4 Y131.156 E.02244
G1 X134.1 Y128.856 E.11209
G1 X134.1 Y129.507 E.02244
G1 X136.4 Y131.807 E.11209
G1 X136.4 Y132.459 E.02244
G1 X134.1 Y130.158 E.11209
G1 X134.1 Y130.81 E.02244
G1 X136.4 Y133.11 E.11209
G1 X136.4 Y133.761 E.02244
G1 X134.1 Y131.461 E.11209
G1 X134.1 Y132.112 E.02244
G1 X136.4 Y134.412 E.11209
G1 X136.4 Y135.063 E.02244
G1 X134.1 Y132.763 E.11209
G1 X134.1 Y133.414 E.02244
G1 X136.4 Y135.714 E.11209
G1 X136.4 Y136.366 E.02244
G1 X134.1 Y134.065 E.11209
G1 X134.1 Y134.717 E.02244
G1 X136.4 Y137.017 E.11209
G1 X136.4 Y137.668 E.02244
G1 X134.1 Y135.368 E.11209
G1 X134.1 Y136.019 E.02244
G1 X136.4 Y138.319 E.11209
G1 X136.4 Y138.97 E.02244
G1 X134.1 Y136.67 E.11209
G1 X134.1 Y137.321 E.02244
G1 X136.4 Y139.622 E.11209
G1 X136.4 Y140.273 E.02244
G1 X134.1 Y137.973 E.11209
G1 X134.1 Y138.624 E.02244
G1 X136.4 Y140.924 E.11209
G1 X136.4 Y141.575 E.02244
G1 X134.1 Y139.275 E.11209
G1 X134.1 Y139.926 E.02244
G1 X136.4 Y142.226 E.11209
G1 X136.4 Y142.877 E.02244
G1 X134.1 Y140.577 E.11209
G1 X134.1 Y141.228 E.02244
G1 X136.4 Y143.529 E.11209
G1 X136.4 Y144.18 E.02244
G1 X134.1 Y141.88 E.11209
G1 X134.1 Y142.531 E.02244
G1 X136.4 Y144.831 E.11209
G1 X136.4 Y144.954 E.00423
G1 X136.382 Y145.156 E.00698
G1 X136.305 Y145.387 E.0084
G1 X134.1 Y143.182 E.10744
G1 X134.1 Y143.833 E.02244
G1 X136.004 Y145.737 E.09278
G1 X135.806 Y145.842 E.0077
G1 X135.656 Y145.882 E.00538
G1 X135.511 Y145.895 E.00501
G1 X134.1 Y144.484 E.06875
G1 X134.1 Y145.135 E.02244
G1 X134.865 Y145.9 E.03726
G1 X134.213 Y145.9 E.02244
G1 X133.894 Y145.581 E.01555
G1 E-1.5 F1800
;WIPE_START
G1 F12000
G1 X134.213 Y145.9
G1 X134.865 Y145.9
G1 X134.23 Y145.265
;WIPE_END
G1 Z.4 F24000
G1 X132.652 Y126.106 Z.4
G1 Z.2
G1 E1.5 F1800
G1 F3600
G1 X130.646 Y124.1 E.09775
G1 X129.995 Y124.1 E.02244
G1 X131.795 Y125.9 E.08772
G1 X131.144 Y125.9 E.02244
G1 X129.344 Y124.1 E.08772
G1 X128.693 Y124.1 E.02244
G1 X130.493 Y125.9 E.08772
G1 X129.842 Y125.9 E.02244
G1 X128.041 Y124.1 E.08772
G1 X127.39 Y124.1 E.02244
G1 X129.19 Y125.9 E.08772
G1 X128.539 Y125.9 E.02244
G1 X126.739 Y124.1 E.08772
G1 X126.088 Y124.1 E.02244
G1 X127.888 Y125.9 E.08772
G1 X127.237 Y125.9 E.02244
G1 X125.437 Y124.1 E.08772
G1 X124.786 Y124.1 E.02244
G1 X126.586 Y125.9 E.08772
G1 X125.935 Y125.9 E.02244
G1 X124.134 Y124.1 E.08772
G1 X123.483 Y124.1 E.02244
G1 X125.283 Y125.9 E.08772
G1 X124.632 Y125.9 E.02244
G1 X122.832 Y124.1 E.08772
G1 X122.181 Y124.1 E.02244
G1 X123.981 Y125.9 E.08772
G1 X123.33 Y125.9 E.02244
G1 X121.53 Y124.1 E.08772
G1 X120.878 Y124.1 E.02244
G1 X122.679 Y125.9 E.08772
G1 X122.027 Y125.9 E.02244
G1 X120.227 Y124.1 E.08772
G1 X119.576 Y124.1 E.02244
G1 X121.376 Y125.9 E.08772
G1 X120.725 Y125.9 E.02244
G1 X118.925 Y124.1 E.08772
G1 X118.274 Y124.1 E.02244
G1 X120.074 Y125.9 E.08773
G1 X119.423 Y125.9 E.02244
M73 P5 R18
G1 X117.623 Y124.1 E.08773
G1 X116.971 Y124.1 E.02244
G1 X118.772 Y125.9 E.08773
G1 X118.12 Y125.9 E.02244
G1 X116.32 Y124.1 E.08773
G1 X115.669 Y124.1 E.02244
G1 X117.469 Y125.9 E.08773
G1 X116.818 Y125.9 E.02244
G1 X115.018 Y124.1 E.08773
G1 X114.367 Y124.1 E.02244
G1 X116.167 Y125.9 E.08773
G1 X115.516 Y125.9 E.02244
G1 X113.715 Y124.1 E.08773
G1 X113.064 Y124.1 E.02244
G1 X114.865 Y125.9 E.08773
G1 X114.213 Y125.9 E.02244
G1 X112.413 Y124.1 E.08773
G1 X111.762 Y124.1 E.02244
G1 X113.562 Y125.9 E.08773
G1 X112.912 Y125.901 E.0224
G1 X111.111 Y124.1 E.08778
G1 X110.467 Y124.107 E.0222
G1 X112.408 Y126.048 E.09461
G1 X112.105 Y126.31 E.0138
G1 X112.075 Y126.366 E.0022
G1 X109.988 Y124.279 E.1017
G1 X109.869 Y124.37 E.00515
G1 X109.688 Y124.63 E.01093
G1 X111.911 Y126.854 E.10834
G1 X111.9 Y127.494 E.02207
G1 X109.607 Y125.201 E.11173
G1 X109.607 Y125.852 E.02243
G1 X111.9 Y128.145 E.11175
G1 X111.9 Y128.796 E.02244
G1 X109.607 Y126.503 E.11176
G1 X109.607 Y127.154 E.02243
G1 X111.9 Y129.447 E.11177
G1 X111.9 Y130.099 E.02244
G1 X109.606 Y127.805 E.11178
G1 X109.606 Y128.456 E.02243
G1 X111.9 Y130.75 E.11179
G1 X111.9 Y131.401 E.02244
G1 X109.606 Y129.107 E.1118
G1 X109.606 Y129.758 E.02243
G1 X111.9 Y132.052 E.11181
G1 X111.9 Y132.703 E.02244
G1 X109.605 Y130.409 E.11182
G1 X109.605 Y131.06 E.02243
G1 X111.9 Y133.355 E.11183
G1 X111.9 Y134.006 E.02244
G1 X109.605 Y131.711 E.11184
G1 X109.605 Y132.362 E.02243
G1 X111.9 Y134.657 E.11185
G1 X111.9 Y135.308 E.02244
G1 X109.605 Y133.013 E.11186
G1 X109.604 Y133.664 E.02243
G1 X111.9 Y135.959 E.11187
G1 X111.9 Y136.61 E.02244
G1 X109.604 Y134.314 E.11188
G1 X109.604 Y134.965 E.02243
G1 X111.9 Y137.262 E.1119
G1 X111.9 Y137.913 E.02244
G1 X109.604 Y135.616 E.11191
G1 X109.603 Y136.267 E.02243
G1 X111.9 Y138.564 E.11192
G1 X111.9 Y139.215 E.02244
G1 X109.603 Y136.918 E.11193
G1 X109.603 Y137.569 E.02243
G1 X111.9 Y139.866 E.11194
G1 X111.9 Y140.517 E.02244
G1 X109.603 Y138.22 E.11195
G1 X109.603 Y138.871 E.02243
G1 X111.9 Y141.169 E.11196
G1 X111.9 Y141.82 E.02244
G1 X109.602 Y139.522 E.11197
G1 X109.602 Y140.173 E.02243
G1 X111.9 Y142.471 E.11198
G1 X111.9 Y143.122 E.02244
G1 X109.602 Y140.824 E.11199
G1 X109.602 Y141.475 E.02243
G1 X111.9 Y143.773 E.112
G1 X111.9 Y144.425 E.02244
G1 X109.602 Y142.126 E.11201
G1 X109.601 Y142.777 E.02243
G1 X111.9 Y145.076 E.11202
G1 X111.9 Y145.727 E.02244
G1 X109.601 Y143.428 E.11203
G1 X109.601 Y144.079 E.02243
G1 X111.422 Y145.9 E.08875
G1 X110.771 Y145.9 E.02244
G1 X109.601 Y144.73 E.05703
G1 X109.6 Y145.381 E.02243
G1 X110.325 Y146.106 E.03533
; stop printing object Corps1.stl id:0 copy 0
M106 S48
;LAYER_CHANGE
;Z:0.4
;HEIGHT:0.2
;BEFORE_LAYER_CHANGE
;0.4
G92 E0

G1 E-1.5 F1800
;WIPE_START
G1 F12000
G1 X109.6 Y145.381
G1 X109.601 Y144.73
G1 X109.83 Y144.959
;WIPE_END
EXCLUDE_OBJECT_END NAME=Corps1.stl_id_0_copy_0
;_SET_FAN_SPEED_CHANGING_LAYER
SET_VELOCITY_LIMIT ACCEL=5000
M140 S95 ; set bed temperature
; printing object Corps1.stl id:0 copy 0
EXCLUDE_OBJECT_START NAME=Corps1.stl_id_0_copy_0
G1 Z.4 F24000
G1 X112.546 Y126.603 Z.4
G1 E1.5 F1800
;TYPE:Inner wall
;WIDTH:0.449999
G1 F3600
G1 X112.514 Y126.631 E.00129
G1 X112.429 Y126.791 E.00551
G1 X112.398 Y126.979 E.0058
G1 X112.398 Y146.398 E.59159
G1 X109.102 Y146.398 E.1004
G1 X109.102 Y125.139 E.64762
G1 X109.156 Y124.627 E.0157
G1 X109.292 Y124.313 E.01043
G1 X109.612 Y123.924 E.01533
G1 X110.023 Y123.689 E.01441
G1 X110.526 Y123.602 E.01557
G1 X135.368 Y123.602 E.75676
G1 X135.873 Y123.656 E.01547
G1 X136.301 Y123.857 E.0144
G1 X136.643 Y124.2 E.01477
G1 X136.848 Y124.639 E.01477
G1 X136.89 Y124.999 E.01105
G1 X136.898 Y144.743 E.60148
G1 X136.846 Y145.359 E.01882
G1 X136.694 Y145.72 E.01194
G1 X136.498 Y145.969 E.00965
G1 X136.065 Y146.274 E.01614
G1 X135.621 Y146.39 E.01399
G1 X133.602 Y146.396 E.0615
G1 X133.602 Y126.979 E.59154
G1 X133.571 Y126.79 E.00582
G1 X133.486 Y126.63 E.00552
G1 X133.295 Y126.466 E.00767
G1 X133.021 Y126.398 E.00858
G1 X112.979 Y126.398 E.61059
G1 X112.705 Y126.466 E.00859
G1 X112.576 Y126.577 E.00518
G1 X112.828 Y126.866 F24000
SET_VELOCITY_LIMIT ACCEL=2000
;TYPE:Outer wall
;WIDTH:0.419999
G1 F3600
G1 X112.79 Y126.979 E.00336
G1 X112.79 Y146.79 E.55906
G1 X108.71 Y146.79 E.11513
G1 X108.71 Y125.139 E.61096
G1 X108.773 Y124.533 E.0172
G1 X108.948 Y124.125 E.01254
G1 X109.237 Y123.753 E.01329
G1 X109.605 Y123.451 E.01345
G1 X110.032 Y123.28 E.01296
G1 X110.509 Y123.21 E.01361
G1 X135.368 Y123.21 E.70148
G1 X135.966 Y123.273 E.01699
G1 X136.375 Y123.447 E.01253
G1 X136.765 Y123.735 E.01368
G1 X137.042 Y124.107 E.01309
G1 X137.228 Y124.537 E.01323
G1 X137.282 Y124.999 E.01312
G1 X137.29 Y144.862 E.56053
