; HEADER_BLOCK_START
; generated by OrcaSlicer 2.1.1 on 2024-09-22 at 10:53:28
; total layer number: 180
; filament_density: 1.24
; filament_diameter: 1.75
; max_z_height: 36.00
; HEADER_BLOCK_END

; THUMBNAIL_BLOCK_START

;
; THUMBNAIL_BLOCK_END

; THUMBNAIL_BLOCK_START

;
; THUMBNAIL_BLOCK_END

; external perimeters extrusion width = 0.42mm
; perimeters extrusion width = 0.45mm
; infill extrusion width = 0.45mm
; solid infill extrusion width = 0.45mm
; top infill extrusion width = 0.42mm
; first layer extrusion width = 0.50mm

; EXECUTABLE_BLOCK_START
EXCLUDE_OBJECT_DEFINE NAME=Corps1.stl_id_0_copy_0 CENTER=115,115 POLYGON=[[102.251,115],[102.261,114.49],[102.292,113.981],[102.343,113.473],[102.414,112.968],[102.506,112.466],[102.617,111.968],[102.748,111.475],[102.899,110.987],[103.069,110.506],[103.259,110.033],[103.467,109.567],[103.694,109.11],[103.938,108.662],[104.201,108.224],[104.48,107.798],[104.777,107.382],[105.09,106.979],[105.419,106.589],[105.763,106.213],[106.122,105.85],[106.495,105.502],[106.882,105.169],[107.282,104.852],[107.694,104.552],[108.118,104.268],[108.553,104.001],[108.998,103.752],[109.453,103.521],[109.917,103.308],[110.388,103.114],[110.868,102.939],[111.354,102.783],[111.845,102.647],[112.342,102.53],[112.843,102.434],[113.348,102.358],[113.855,102.302],[114.364,102.266],[114.874,102.251],[115.384,102.256],[115.893,102.281],[116.402,102.327],[116.908,102.393],[117.41,102.48],[117.909,102.586],[118.404,102.712],[118.893,102.858],[119.375,103.024],[119.851,103.208],[120.319,103.412],[120.778,103.634],[121.228,103.874],[121.669,104.132],[122.098,104.408],[122.516,104.7],[122.922,105.009],[123.316,105.334],[123.696,105.674],[124.062,106.03],[124.414,106.399],[124.75,106.783],[125.071,107.179],[125.376,107.589],[125.664,108.01],[125.935,108.442],[126.189,108.884],[126.425,109.337],[126.642,109.799],[126.841,110.268],[127.021,110.746],[127.181,111.23],[127.322,111.721],[127.444,112.216],[127.545,112.716],[127.626,113.22],[127.688,113.726],[127.728,114.235],[127.749,114.745],[127.749,115.255],[127.728,115.765],[127.688,116.274],[127.626,116.78],[127.545,117.284],[127.444,117.784],[127.322,118.279],[127.181,118.77],[127.021,119.254],[126.841,119.732],[126.642,120.201],[126.425,120.663],[126.189,121.116],[125.935,121.558],[125.664,121.99],[125.376,122.411],[125.071,122.821],[124.75,123.217],[124.414,123.601],[124.062,123.97],[123.696,124.326],[123.316,124.666],[122.922,124.991],[122.516,125.3],[122.098,125.592],[121.669,125.868],[121.228,126.126],[120.778,126.366],[120.319,126.588],[119.851,126.792],[119.375,126.976],[118.893,127.142],[118.404,127.288],[117.909,127.414],[117.41,127.52],[116.908,127.607],[116.402,127.673],[115.893,127.719],[115.384,127.744],[114.874,127.749],[114.364,127.734],[113.855,127.698],[113.348,127.642],[112.843,127.566],[112.342,127.47],[111.845,127.353],[111.354,127.217],[110.868,127.061],[110.388,126.886],[109.917,126.692],[109.453,126.479],[108.998,126.248],[108.553,125.999],[108.118,125.732],[107.694,125.448],[107.282,125.148],[106.882,124.831],[106.495,124.498],[106.122,124.15],[105.763,123.787],[105.419,123.411],[105.09,123.021],[104.777,122.618],[104.48,122.202],[104.201,121.776],[103.938,121.338],[103.694,120.89],[103.467,120.433],[103.259,119.967],[103.069,119.494],[102.899,119.013],[102.748,118.525],[102.617,118.032],[102.506,117.534],[102.414,117.032],[102.343,116.527],[102.292,116.019],[102.261,115.51],[102.251,115]]
M73 P0 R32
;TYPE:Custom
M220 S100
G90 ; use absolute coordinates
M83 ; extruder relative mode
M104 S150 ; set temporary nozzle temp to prevent oozing during homing
M140 S75 ; set final bed temp
G4 S30 ; allow partial nozzle warmup
G28 ; home all axis and restore leveling
BED_MESH_CALIBRATE PROFILE=adaptive ADAPTIVE=1 ADAPTIVE_MARGIN=0
G1 Z25 F240
G1 X10.0 Y30 F3000
M104 S257 ; set final nozzle temp
M190 S75 ; wait for bed temp to stabilize
M109 S257 ; wait for nozzle temp to stabilize
G1 Z0.28 F240
G92 E0 ; Move Z Axis up
G1 Z2.0 F5000 ; Move to start position
G1 X5 Y30 Z0.28 F300 ; Draw the first line
G1 X5 Y200 Z0.28 F1500 E15 ; Move to side a little
G1 X5.4 Y200 Z0.28 F5000.0 ; Draw the second line
M73 P1 R32
G1 X5.4 Y50 Z0.28 F1500.0 E30 ; Reset Extruder
G92 E0 ; Move Z Axis up
G1 Z2.0 F3000
M117 Start Printing..
G90
G21
M83 ; use relative distances for extrusion
; filament start gcode
M106 S0
;LAYER_CHANGE
;Z:0.2
;HEIGHT:0.2
;BEFORE_LAYER_CHANGE
;0.2
G92 E0

G1 E-.5 F1800
;_SET_FAN_SPEED_CHANGING_LAYER
SET_VELOCITY_LIMIT ACCEL=1000
SET_VELOCITY_LIMIT SQUARE_CORNER_VELOCITY=7
;CUSTOM_GCODE
M220 S75
; printing object Corps1.stl id:0 copy 0
EXCLUDE_OBJECT_START NAME=Corps1.stl_id_0_copy_0
G1 Z.2 F24000
G1 X134.973 Y135.669
G1 Z.2
G1 E.5 F1800
;TYPE:Inner wall
;WIDTH:0.499999
G1 X134.973 Y135.712 E.00161
G1 X134.876 Y136.674 E.036
G1 X134.704 Y137.618 E.03574
G1 X134.488 Y138.431 E.03131
G1 X134.309 Y138.995 E.02204
G1 X133.951 Y139.892 E.03598
G1 X133.509 Y140.779 E.03692
G1 X133.091 Y141.475 E.03025
G1 X132.764 Y141.965 E.02195
G1 X132.243 Y142.636 E.03164
G1 X131.859 Y143.085 E.02197
G1 X131.179 Y143.772 E.03601
G1 X130.54 Y144.321 E.03141
G1 X130.075 Y144.684 E.02194
G1 X129.373 Y145.154 E.03148
G1 X128.838 Y145.476 E.02328
G1 X128.003 Y145.899 E.03485
G1 X127.222 Y146.221 E.03147
G1 X126.668 Y146.418 E.02189
G1 X125.737 Y146.676 E.03601
G1 X124.794 Y146.858 E.03574
G1 X123.84 Y146.963 E.03574
G1 X122.882 Y146.992 E.03572
G1 X121.892 Y146.94 E.03692
G1 X121.085 Y146.834 E.03034
G1 X120.58 Y146.744 E.01908
G1 X120.04 Y146.621 E.02065
G1 X119.113 Y146.345 E.03601
G1 X118.326 Y146.039 E.03145
G1 X117.789 Y145.801 E.0219
G1 X116.936 Y145.345 E.03601
G1 X116.225 Y144.89 E.03145
G1 X115.746 Y144.549 E.02189
G1 X115.001 Y143.933 E.03601
G1 X114.395 Y143.345 E.03145
G1 X113.993 Y142.916 E.0219
G1 X113.385 Y142.165 E.03601
G1 X112.843 Y141.374 E.03572
G1 X112.352 Y140.513 E.03692
G1 X112.005 Y139.775 E.03034
G1 X111.808 Y139.303 E.01908
G1 X111.62 Y138.781 E.02065
G1 X111.353 Y137.852 E.036
G1 X111.162 Y136.912 E.03574
G1 X111.061 Y136.073 E.03145
G1 X111.019 Y135.487 E.0219
G1 X111.019 Y134.52 E.036
G1 X111.095 Y133.564 E.03575
G1 X111.248 Y132.617 E.03572
G1 X111.486 Y131.655 E.03692
G1 X111.742 Y130.883 E.03029
G1 X111.953 Y130.335 E.02188
G1 X112.38 Y129.432 E.03718
G1 X112.785 Y128.728 E.03025
G1 X113.101 Y128.231 E.02194
G1 X113.609 Y127.551 E.03162
G1 X113.983 Y127.094 E.022
G1 X114.649 Y126.394 E.03598
G1 X115.389 Y125.734 E.03692
G1 X116.034 Y125.244 E.0302
G1 X116.457 Y124.952 E.01913
G1 X116.93 Y124.658 E.02074
G1 X117.783 Y124.203 E.03601
G1 X118.663 Y123.82 E.03574
G1 X119.457 Y123.548 E.03126
G1 X120.026 Y123.382 E.02208
G1 X120.971 Y123.181 E.03601
G1 X121.803 Y123.072 E.03124
G1 X122.394 Y123.023 E.02211
G1 X123.361 Y123.013 E.03601
G1 X124.197 Y123.072 E.0312
G1 X124.787 Y123.141 E.02215
G1 X125.617 Y123.301 E.03147
G1 X126.195 Y123.44 E.02214
G1 X127.115 Y123.735 E.03598
G1 X128.031 Y124.114 E.03692
G1 X128.751 Y124.48 E.03009
G1 X129.267 Y124.774 E.02211
G1 X130.07 Y125.312 E.03601
G1 X130.726 Y125.832 E.03119
G1 X131.174 Y126.223 E.02215
G1 X131.854 Y126.91 E.03601
G1 X132.473 Y127.644 E.03574
G1 X133.03 Y128.424 E.03572
G1 X133.538 Y129.275 E.03692
G1 X133.897 Y130 E.0301
G1 X134.135 Y130.543 E.02209
G1 X134.496 Y131.589 E.0412
G1 X134.674 Y132.288 E.0269
G1 X134.855 Y133.193 E.03434
G1 X134.922 Y133.787 E.02226
G1 X134.978 Y134.561 E.02891
G1 X134.973 Y135.629 E.0398
G1 X135.429 Y135.671 F24000
;TYPE:Outer wall
G1 F1800
G1 X135.429 Y135.744 E.00273
G1 X135.329 Y136.738 E.0372
G1 X135.151 Y137.718 E.03711
G1 X134.93 Y138.548 E.03199
G1 X134.739 Y139.152 E.02357
G1 X134.368 Y140.079 E.03719
G1 X133.91 Y140.999 E.03829
G1 X133.482 Y141.711 E.03092
G1 X133.133 Y142.235 E.02347
G1 X132.604 Y142.917 E.03215
G1 X132.194 Y143.396 E.0235
G1 X131.491 Y144.106 E.0372
G1 X130.838 Y144.668 E.03209
G1 X130.341 Y145.056 E.02347
G1 X129.51 Y145.613 E.03728
G1 X129.056 Y145.878 E.01955
G1 X128.194 Y146.315 E.03602
G1 X127.396 Y146.644 E.03214
G1 X126.803 Y146.855 E.02342
G1 X125.841 Y147.122 E.0372
G1 X124.863 Y147.31 E.03711
G1 X123.873 Y147.419 E.0371
G1 X122.877 Y147.449 E.0371
G1 X121.85 Y147.396 E.03829
G1 X121.025 Y147.287 E.03101
G1 X120.494 Y147.193 E.02009
G1 X119.922 Y147.063 E.02184
G1 X118.965 Y146.777 E.0372
G1 X118.161 Y146.465 E.03213
G1 X117.586 Y146.21 E.02343
G1 X116.705 Y145.74 E.0372
G1 X115.978 Y145.274 E.03214
G1 X115.465 Y144.91 E.02343
G1 X114.695 Y144.274 E.0372
G1 X114.076 Y143.673 E.03213
G1 X113.646 Y143.215 E.02343
G1 X113.018 Y142.438 E.0372
G1 X112.455 Y141.616 E.0371
G1 X111.946 Y140.723 E.03829
G1 X111.591 Y139.97 E.03102
G1 X111.384 Y139.472 E.02009
G1 X111.185 Y138.921 E.02184
G1 X110.909 Y137.961 E.0372
G1 X110.711 Y136.984 E.03711
G1 X110.607 Y136.128 E.03213
G1 X110.561 Y135.501 E.02343
G1 X110.561 Y134.502 E.0372
G1 X110.641 Y133.509 E.03711
G1 X110.8 Y132.526 E.0371
G1 X111.046 Y131.528 E.03829
G1 X111.308 Y130.739 E.03097
G1 X111.534 Y130.152 E.02341
G1 X111.975 Y129.221 E.03838
G1 X112.388 Y128.5 E.03093
G1 X112.727 Y127.969 E.02346
G1 X113.242 Y127.278 E.03213
G1 X113.643 Y126.789 E.02353
G1 X114.331 Y126.066 E.03719
G1 X115.098 Y125.381 E.03829
G1 X115.758 Y124.88 E.03087
G1 X116.202 Y124.572 E.02014
G1 X116.702 Y124.261 E.02193
G1 X117.583 Y123.791 E.0372
G1 X118.497 Y123.394 E.03711
G1 X119.308 Y123.116 E.03195
G1 X119.917 Y122.938 E.02362
G1 X120.894 Y122.73 E.0372
G1 X121.744 Y122.619 E.03192
G1 X122.376 Y122.566 E.02364
G1 X123.375 Y122.556 E.0372
G1 X124.229 Y122.616 E.03188
G1 X124.86 Y122.69 E.02368
G1 X125.703 Y122.852 E.03198
G1 X126.321 Y123.001 E.02367
G1 X127.272 Y123.306 E.03719
G1 X128.222 Y123.698 E.03829
G1 X128.958 Y124.073 E.03076
G1 X129.51 Y124.387 E.02363
G1 X130.339 Y124.943 E.0372
G1 X131.01 Y125.474 E.03188
G1 X131.489 Y125.892 E.02368
G1 X132.192 Y126.602 E.0372
G1 X132.834 Y127.364 E.0371
G1 X133.413 Y128.174 E.0371
G1 X133.94 Y129.056 E.03828
G1 X134.307 Y129.797 E.03077
G1 X134.561 Y130.378 E.02361
G1 X134.895 Y131.321 E.03728
G1 X135.039 Y131.826 E.01956
G1 X135.216 Y132.618 E.03024
G1 X135.306 Y133.12 E.01898
G1 X135.377 Y133.741 E.02329
G1 X135.435 Y134.552 E.03027
G1 X135.429 Y135.631 E.04021
G1 E-.5
;WIPE_START
G1 F12000
G1 X135.429 Y135.744
G1 X135.329 Y136.738
G1 X135.17 Y137.612
;WIPE_END
G1 Z.4 F24000
G1 X125.705 Y132.973 Z.4
G1 Z.2
G1 E.5 F1800
;TYPE:Inner wall
G1 X125.853 Y133.156 E.00876
G1 X126.198 Y133.775 E.0264
G1 X126.374 Y134.289 E.02024
G1 X126.474 Y134.65 E.01392
G1 X126.522 Y135.162 E.01917
G1 X126.497 Y135.632 E.01754
G1 X126.342 Y136.371 E.02811
G1 X126.071 Y136.99 E.02519
G1 X125.937 Y137.244 E.01068
G1 X125.601 Y137.693 E.02088
G1 X125.079 Y138.173 E.02643
G1 X124.47 Y138.553 E.02675
G1 X123.848 Y138.735 E.02411
G1 X123.34 Y138.837 E.01929
G1 X122.626 Y138.834 E.02659
G1 X122.028 Y138.71 E.02275
G1 X121.617 Y138.594 E.01591
G1 X120.961 Y138.267 E.0273
G1 X120.524 Y137.952 E.02006
G1 X119.904 Y137.29 E.0338
G1 X119.538 Y136.686 E.02631
G1 X119.253 Y135.89 E.03147
G1 X119.161 Y135.162 E.02735
G1 X119.152 Y134.885 E.01032
G1 X119.228 Y134.373 E.01929
G1 X119.477 Y133.678 E.02749
G1 X119.868 Y133.042 E.02778
G1 X120.432 Y132.431 E.03099
G1 X120.864 Y132.103 E.02021
G1 X121.4 Y131.839 E.02225
G1 X121.748 Y131.699 E.01397
G1 X122.375 Y131.573 E.02379
G1 X122.943 Y131.563 E.02117
G1 X123.751 Y131.686 E.03045
G1 X124.396 Y131.903 E.02533
G1 X124.941 Y132.211 E.02332
G1 X125.392 Y132.588 E.02189
G1 X125.68 Y132.942 E.01701
G1 X125.351 Y133.258 F24000
;TYPE:Outer wall
G1 F1800
G1 X125.492 Y133.436 E.00846
G1 X125.795 Y133.992 E.02359
G1 X126.009 Y134.651 E.0258
G1 X126.065 Y135.15 E.01871
G1 X126.007 Y135.739 E.02202
G1 X125.895 Y136.277 E.02049
G1 X125.657 Y136.795 E.02123
G1 X125.298 Y137.345 E.02444
G1 X124.77 Y137.836 E.02688
G1 X124.236 Y138.161 E.02327
G1 X123.741 Y138.291 E.01906
G1 X123.342 Y138.38 E.01521
G1 X122.628 Y138.377 E.02659
G1 X121.821 Y138.186 E.0309
G1 X121.166 Y137.858 E.0273
G1 X120.833 Y137.615 E.01533
G1 X120.326 Y137.094 E.02708
G1 X119.929 Y136.449 E.02822
G1 X119.687 Y135.745 E.02772
G1 X119.615 Y135.114 E.02364
G1 X119.642 Y134.692 E.01576
G1 X119.714 Y134.363 E.01256
G1 X119.907 Y133.835 E.02093
G1 X120.252 Y133.29 E.02402
G1 X120.758 Y132.751 E.02756
G1 X121.165 Y132.453 E.01877
G1 X121.787 Y132.164 E.02557
G1 X122.465 Y132.021 E.02579
G1 X122.974 Y132.023 E.01896
G1 X123.679 Y132.137 E.0266
G1 X124.243 Y132.334 E.02225
G1 X124.708 Y132.605 E.02005
G1 X125.092 Y132.933 E.01884
G1 X125.326 Y133.227 E.01398
G1 E-.5
;WIPE_START
G1 F12000
G1 X125.492 Y133.436
G1 X125.795 Y133.992
G1 X126.009 Y134.651
G1 X126.055 Y135.055
;WIPE_END
G1 Z.4 F24000
G1 X129.668 Y125.208
G1 Z.4
G1 Z.2
G1 E.5 F1800
;TYPE:Bottom surface
;WIDTH:0.50851
G1 F3600
G1 X131.601 Y127.142 E.10375
G1 X132.202 Y127.855 E.03537
G1 X132.743 Y128.612 E.03533
G1 X133.232 Y129.43 E.03615
G1 X128.579 Y124.778 E.24964
G1 X127.887 Y124.426 E.02945
G1 X127.344 Y124.201 E.02232
G1 X133.818 Y130.675 E.34738
G1 X134.166 Y131.682 E.04041
G1 X126.327 Y123.843 E.4206
G1 X126.1 Y123.77 E.00906
G1 X125.442 Y123.616 E.02563
G1 X134.383 Y132.557 E.4797
G1 X134.464 Y132.923 E.01425
G1 X134.536 Y133.368 E.0171
G1 X124.634 Y123.467 E.53127
G1 X123.904 Y123.395 E.02785
M73 P1 R31
G1 X134.609 Y134.1 E.5744
G1 X134.639 Y134.789 E.02614
G1 X123.217 Y123.367 E.61284
G1 X122.558 Y123.366 E.02502
G1 X134.64 Y135.448 E.64827
G1 X134.593 Y136.06 E.02327
G1 X121.934 Y123.4 E.67922
G1 X121.352 Y123.477 E.02228
G1 X134.531 Y136.656 E.70712
G1 X134.43 Y137.213 E.02148
G1 X120.787 Y123.57 E.73198
G1 X120.245 Y123.686 E.02105
M73 P2 R31
G1 X134.313 Y137.755 E.75485
G1 X134.175 Y138.275 E.02042
G1 X119.722 Y123.822 E.77546
G1 X119.23 Y123.988 E.01972
G1 X134.02 Y138.778 E.79356
G1 X133.836 Y139.253 E.01932
G1 X118.742 Y124.159 E.80988
G1 X118.283 Y124.359 E.01899
G1 X133.648 Y139.724 E.82441
G1 X133.431 Y140.165 E.01866
G1 X117.831 Y124.565 E.83701
G1 X117.402 Y124.794 E.01846
G1 X124.013 Y131.405 E.35471
G1 X123.921 Y131.372 E.0037
G1 X123.204 Y131.254 E.02759
G1 X116.979 Y125.03 E.33398
G1 X116.576 Y125.285 E.01811
G1 X122.508 Y131.217 E.31831
G1 X121.951 Y131.319 E.02149
G1 X116.189 Y125.557 E.30915
G1 X115.815 Y125.841 E.01783
G1 X121.428 Y131.454 E.30114
G1 X120.976 Y131.66 E.01885
G1 X115.452 Y126.137 E.29636
G1 X115.105 Y126.447 E.01769
G1 X120.565 Y131.908 E.29297
G1 X120.19 Y132.191 E.01783
G1 X114.767 Y126.768 E.29099
G1 X114.446 Y127.106 E.01767
G1 X119.867 Y132.526 E.29085
G1 X119.651 Y132.749 E.01174
G1 X119.566 Y132.884 E.00607
G1 X114.132 Y127.45 E.29155
G1 X113.839 Y127.815 E.01777
G1 X119.31 Y133.286 E.29355
G1 X119.192 Y133.472 E.00834
G1 X119.097 Y133.732 E.01051
G1 X113.558 Y128.193 E.29722
G1 X113.284 Y128.578 E.01792
G1 X118.921 Y134.215 E.30247
G1 X118.896 Y134.284 E.00278
G1 X118.829 Y134.781 E.01903
G1 X113.033 Y128.985 E.31101
G1 X112.792 Y129.403 E.0183
G1 X119.079 Y135.689 E.33728
G1 E-.5 F1800
;WIPE_START
G1 F12000
G1 X117.664 Y134.275
;WIPE_END
G1 Z.4 F24000
G1 X126.313 Y133.705 Z.4
G1 Z.2
G1 E.5 F1800
G1 F3600
G1 X133.213 Y140.605 E.37021
G1 X132.966 Y141.017 E.01821
G1 X126.842 Y134.892 E.3286
G1 X126.865 Y135.133 E.00917
G1 X126.85 Y135.559 E.01619
G1 X132.717 Y141.426 E.31479
G1 X132.447 Y141.814 E.01794
G1 X126.743 Y136.111 E.30604
G1 X126.66 Y136.514 E.01564
G1 X126.606 Y136.632 E.00491
G1 X132.159 Y142.185 E.29796
G1 X131.869 Y142.554 E.01779
G1 X126.398 Y137.083 E.29355
G1 X126.266 Y137.369 E.01197
G1 X126.166 Y137.509 E.00652
G1 X131.558 Y142.901 E.28934
G1 X131.231 Y143.232 E.01766
G1 X125.884 Y137.885 E.28689
G1 X125.547 Y138.207 E.01767
G1 X130.9 Y143.56 E.28718
G1 X130.546 Y143.864 E.01771
G1 X125.192 Y138.51 E.28727
G1 X124.784 Y138.76 E.01817
G1 X130.19 Y144.166 E.29006
G1 X129.812 Y144.448 E.01785
G1 X124.334 Y138.969 E.29393
G1 X123.801 Y139.094 E.02079
G1 X129.418 Y144.712 E.30141
G1 X129.02 Y144.973 E.01804
G1 X123.221 Y139.173 E.31117
G1 X122.559 Y139.169 E.02513
G1 X128.601 Y145.212 E.32421
G1 X128.164 Y145.433 E.01858
G1 X121.719 Y138.988 E.34584
G1 X121.624 Y138.965 E.0037
G1 X120.773 Y138.555 E.03583
