; HEADER_BLOCK_START
; generated by OrcaSlicer 2.1.0-beta on 2024-06-07 at 08:40:52
; total layer number: 225
; filament_density: 1.27
; filament_diameter: 1.75
; max_z_height: 45.00
; HEADER_BLOCK_END

; THUMBNAIL_BLOCK_START

;
; THUMBNAIL_BLOCK_END

; THUMBNAIL_BLOCK_START

;
; THUMBNAIL_BLOCK_END

; external perimeters extrusion width = 0.42mm
; perimeters extrusion width = 0.45mm
; infill extrusion width = 0.45mm
; solid infill extrusion width = 0.42mm
; top infill extrusion width = 0.42mm
; support material extrusion width = 0.42mm
; first layer extrusion width = 0.50mm

; EXECUTABLE_BLOCK_START
EXCLUDE_OBJECT_DEFINE NAME=Corps1.stl_id_0_copy_0 CENTER=115,115 POLYGON=[[92.5,98.5894],[92.551,97.7457],[92.7034,96.9142],[92.9549,96.1072],[93.3018,95.3364],[93.7391,94.613],[94.2604,93.9476],[94.8581,93.3498],[102.055,87.1041],[102.219,87.003],[105.183,85.2385],[105.369,85.1528],[105.603,85.0583],[105.884,84.9769],[106.263,84.8986],[106.736,84.8243],[107.296,84.7548],[107.936,84.6911],[108.121,84.6729],[108.842,84.615],[109.632,84.5644],[110.481,84.5217],[111.379,84.4873],[112.315,84.4618],[113.278,84.4454],[114.255,84.4384],[115.235,84.4407],[116.206,84.4525],[117.157,84.4735],[118.075,84.5034],[118.95,84.542],[119.771,84.5888],[120.528,84.6431],[121.062,84.6908],[121.212,84.7043],[121.704,84.7548],[122.264,84.8243],[122.737,84.8986],[123.116,84.9769],[123.397,85.0583],[123.631,85.1528],[123.817,85.2385],[126.877,87.0534],[134.476,92.8285],[135.142,93.3498],[135.74,93.9476],[136.261,94.613],[136.698,95.3364],[137.045,96.1072],[137.297,96.9142],[137.449,97.7457],[137.5,98.5894],[137.5,131.589],[137.449,132.433],[137.297,133.265],[137.045,134.072],[136.698,134.842],[136.261,135.566],[135.74,136.231],[135.142,136.829],[134.476,137.35],[126.877,142.947],[123.817,144.761],[123.631,144.847],[123.397,144.942],[123.116,145.023],[122.737,145.101],[122.264,145.176],[121.704,145.245],[121.212,145.296],[121.062,145.309],[120.528,145.357],[119.771,145.411],[118.95,145.458],[118.075,145.497],[117.157,145.527],[116.206,145.548],[115.235,145.559],[114.255,145.562],[113.278,145.555],[112.315,145.538],[111.379,145.513],[110.481,145.478],[109.632,145.436],[108.842,145.385],[108.121,145.327],[107.936,145.309],[107.296,145.245],[106.736,145.176],[106.263,145.101],[105.884,145.023],[105.603,144.942],[105.369,144.847],[105.183,144.761],[102.219,142.997],[102.055,142.896],[94.8581,136.829],[94.2604,136.231],[93.7391,135.566],[93.3018,134.842],[92.9549,134.072],[92.7034,133.265],[92.551,132.433],[92.5,131.589],[92.5,98.5894]]
M73 P0 R65
;TYPE:Custom
M220 S100
G90 ; use absolute coordinates
M83 ; extruder relative mode
M104 S150 ; set temporary nozzle temp to prevent oozing during homing
M140 S70 ; set final bed temp
G4 S30 ; allow partial nozzle warmup
G28 ; home all axis and restore leveling
BED_MESH_CALIBRATE PROFILE=adaptive ADAPTIVE=1 ADAPTIVE_MARGIN=0
G1 Z25 F240
G1 X10.0 Y30 F3000
M104 S245 ; set final nozzle temp
M190 S70 ; wait for bed temp to stabilize
M109 S245 ; wait for nozzle temp to stabilize
G1 Z0.28 F240
G92 E0 ; Move Z Axis up
G1 Z2.0 F5000 ; Move to start position
G1 X5 Y30 Z0.28 F300 ; Draw the first line
G1 X5 Y200 Z0.28 F1500 E15 ; Move to side a little
G1 X5.4 Y200 Z0.28 F5000.0 ; Draw the second line
G1 X5.4 Y50 Z0.28 F1500.0 E30 ; Reset Extruder
G92 E0 ; Move Z Axis up
G1 Z2.0 F3000
M117 Start Printing..
G90
G21
M83 ; use relative distances for extrusion
; filament start gcode
M106 S0
;LAYER_CHANGE
;Z:0.2
;HEIGHT:0.2
;BEFORE_LAYER_CHANGE
;0.2
G92 E0

M73 P0 R64
G1 E-.5 F1800
;_SET_FAN_SPEED_CHANGING_LAYER
SET_VELOCITY_LIMIT ACCEL=1000
SET_VELOCITY_LIMIT SQUARE_CORNER_VELOCITY=7
; printing object Corps1.stl id:0 copy 0
EXCLUDE_OBJECT_START NAME=Corps1.stl_id_0_copy_0
G1 Z.2 F24000
G1 X122.907 Y102.177
G1 Z.2
G1 E.5 F1800
;TYPE:Support
;WIDTH:0.5
G1 X123.321 Y102.196 E.01578
G1 X124.253 Y102.409 E.03632
G1 X125.131 Y102.786 E.03631
G1 X125.928 Y103.313 E.0363
G1 X126.617 Y103.974 E.03629
G1 X127.177 Y104.747 E.03629
G1 X127.59 Y105.607 E.03628
G1 X127.843 Y106.528 E.03627
G1 X127.927 Y107.478 E.03626
G1 X127.84 Y108.428 E.03625
G1 X127.585 Y109.347 E.03624
G1 X127.171 Y110.205 E.03623
G1 X126.596 Y110.99 E.03696
G1 X118.636 Y110.989 E.30252
G1 X118.3 Y110.606 E.01937
G1 X117.809 Y109.788 E.03627
G1 X117.473 Y108.894 E.03628
G1 X117.301 Y107.955 E.03629
G1 X117.3 Y107 E.0363
G1 X117.469 Y106.06 E.03631
G1 X117.804 Y105.165 E.03631
G1 X118.294 Y104.344 E.03632
G1 X118.922 Y103.624 E.03632
G1 X119.669 Y103.028 E.03632
G1 X120.511 Y102.575 E.03633
G1 X121.42 Y102.28 E.03632
G1 X122.367 Y102.152 E.03633
G1 X122.838 Y102.174 E.01792
G1 X127.063 Y109.956 F24000
G1 F1800
G1 X127.063 Y105.46 E.17086
G1 X126.822 Y104.958 E.02115
G1 X126.555 Y104.589 E.01731
G1 X126.555 Y110.352 E.21903
G1 X126.391 Y110.578 E.01062
G1 X126.047 Y110.578 E.01306
G1 X126.047 Y103.997 E.25011
G1 X125.67 Y103.635 E.01988
G1 X125.539 Y103.549 E.00594
G1 X125.539 Y110.578 E.26715
G1 X125.031 Y110.578 E.0193
G1 X125.031 Y103.213 E.27992
G1 X124.935 Y103.149 E.0044
G1 X124.524 Y102.973 E.01701
G1 X124.524 Y110.578 E.28905
G1 X124.016 Y110.578 E.0193
G1 X124.016 Y102.777 E.2965
G1 X123.508 Y102.661 E.0198
G1 X123.508 Y110.578 E.30092
G1 X123 Y110.578 E.0193
G1 X123 Y102.593 E.30349
G1 X122.492 Y102.57 E.01932
G1 X122.492 Y110.578 E.30437
G1 X121.984 Y110.578 E.0193
G1 X121.984 Y102.619 E.30249
G1 X121.476 Y102.694 E.01951
G1 X121.476 Y110.578 E.29963
G1 X120.969 Y110.578 E.0193
G1 X120.969 Y102.859 E.29337
G1 X120.673 Y102.955 E.0118
G1 X120.461 Y103.07 E.00917
G1 X120.461 Y110.578 E.28537
G1 X119.953 Y110.578 E.0193
G1 X119.953 Y103.343 E.27499
G1 X119.445 Y103.734 E.02435
G1 X119.445 Y110.578 E.26014
G1 X118.937 Y110.578 E.0193
G1 X118.937 Y104.233 E.24116
G1 X118.628 Y104.587 E.01786
G1 X118.429 Y104.92 E.01476
G1 X118.429 Y110.021 E.19387
G1 X118.181 Y109.608 E.01832
G1 X117.921 Y108.918 E.02802
G1 X117.921 Y105.439 E.13221
G1 E-.5
;WIPE_START
G1 X117.921 Y107.439
;WIPE_END
G1 Z.4 F24000
G1 X130.484 Y159.779 Z.4
G1 Z.2
G1 E.5 F1800
G1 X130.929 Y160.613 E.03596
G1 X131.205 Y161.518 E.03595
G1 X131.3 Y162.459 E.03593
G1 X131.213 Y163.399 E.03591
G1 X130.946 Y164.305 E.03589
G1 X130.51 Y165.142 E.03588
G1 X129.928 Y165.871 E.03543
G1 X129.577 Y166.176 E.01769
G1 X129.192 Y166.495 E.01899
G1 X128.377 Y166.95 E.03548
G1 X127.479 Y167.242 E.03588
G1 X126.563 Y167.354 E.03506
G1 X126.067 Y167.33 E.01888
G1 X125.576 Y167.282 E.01874
G1 X124.685 Y167.038 E.03512
G1 X123.865 Y166.63 E.03481
G1 X123.371 Y166.267 E.0233
G1 X122.723 Y166.392 E.0251
G1 X121.869 Y166.373 E.03245
G1 X121.543 Y166.672 E.01681
G1 X120.728 Y167.178 E.03644
G1 X119.834 Y167.525 E.03645
G1 X118.891 Y167.701 E.03645
G1 X117.932 Y167.7 E.03645
G1 X116.99 Y167.522 E.03644
G1 X116.097 Y167.174 E.03643
G1 X115.284 Y166.667 E.03642
G1 X114.578 Y166.019 E.0364
G1 X114.004 Y165.253 E.03638
G1 X113.582 Y164.395 E.03635
G1 X113.325 Y163.475 E.03632
G1 X113.241 Y162.523 E.03629
G1 X113.334 Y161.574 E.03626
G1 X113.599 Y160.658 E.03623
G1 X114.027 Y159.807 E.0362
G1 X114.497 Y159.189 E.02951
G1 X130.003 Y159.189 E.58933
G1 X130.44 Y159.726 E.0263
G1 X130.618 Y164.49 F24000
G1 F1800
G1 X130.618 Y161.004 E.13249
G1 X130.547 Y160.772 E.00923
G1 X130.11 Y159.972 E.03465
G1 X130.11 Y164.984 E.1905
G1 X129.602 Y165.609 E.03061
G1 X129.602 Y159.601 E.22834
G1 X129.094 Y159.601 E.0193
G1 X129.094 Y166.041 E.24478
G1 X128.958 Y166.154 E.00671
G1 X128.587 Y166.361 E.01619
G1 X128.587 Y159.601 E.25694
G1 X128.079 Y159.601 E.0193
G1 X128.079 Y166.614 E.26655
G1 X127.571 Y166.78 E.0203
G1 X127.571 Y159.601 E.27284
G1 X127.063 Y159.601 E.0193
G1 X127.063 Y166.878 E.2766
G1 X126.555 Y166.94 E.01944
M73 P1 R64
G1 X126.555 Y159.601 E.27895
G1 X126.047 Y159.601 E.0193
G1 X126.047 Y166.915 E.27798
G1 X125.651 Y166.876 E.01512
G1 X125.539 Y166.845 E.00441
G1 X125.539 Y159.601 E.27533
G1 X125.031 Y159.601 E.0193
G1 X125.031 Y166.706 E.27005
G1 X124.832 Y166.652 E.00785
G1 X124.524 Y166.498 E.0131
G1 X124.524 Y159.601 E.26214
G1 X124.016 Y159.601 E.0193
G1 X124.016 Y166.232 E.25203
G1 X123.508 Y165.847 E.02424
G1 X123.508 Y159.601 E.23738
G1 X123 Y159.601 E.0193
G1 X123 Y165.92 E.24016
G1 X122.688 Y165.98 E.01208
G1 X122.492 Y165.976 E.00744
G1 X122.492 Y159.601 E.24229
G1 X121.984 Y159.601 E.0193
G1 X121.984 Y165.964 E.24185
G1 X121.713 Y165.958 E.01031
G1 X121.476 Y166.175 E.0122
G1 X121.476 Y159.601 E.24985
G1 X120.969 Y159.601 E.0193
G1 X120.969 Y166.544 E.26389
G1 X120.544 Y166.808 E.01901
G1 X120.461 Y166.84 E.00338
G1 X120.461 Y159.601 E.27514
G1 X119.953 Y159.601 E.0193
G1 X119.953 Y167.037 E.28263
G1 X119.721 Y167.127 E.00946
G1 X119.445 Y167.179 E.01067
G1 X119.445 Y159.601 E.28801
G1 X118.937 Y159.601 E.0193
G1 X118.937 Y167.274 E.29162
G1 X118.853 Y167.289 E.00324
G1 X118.429 Y167.289 E.01612
G1 X118.429 Y159.601 E.2922
G1 X117.921 Y159.601 E.0193
G1 X117.921 Y167.279 E.29183
G1 X117.413 Y167.183 E.01964
G1 X117.413 Y159.601 E.28819
G1 X116.906 Y159.601 E.0193
G1 X116.906 Y167.048 E.28303
G1 X116.398 Y166.85 E.02072
G1 X116.398 Y159.601 E.2755
G1 X115.89 Y159.601 E.0193
G1 X115.89 Y166.56 E.2645
G1 X115.534 Y166.338 E.01595
G1 X115.382 Y166.199 E.00782
G1 X115.382 Y159.601 E.25077
G1 X114.874 Y159.601 E.0193
G1 X114.874 Y165.728 E.23288
G1 X114.366 Y165.05 E.0322
G1 X114.366 Y160.048 E.19011
G1 X113.983 Y160.809 E.03238
G1 X113.858 Y161.24 E.01707
G1 X113.858 Y164.491 E.12355
G1 E-.5
;WIPE_START
G1 F12000
G1 X113.858 Y162.491
;WIPE_END
G1 Z.4 F24000
G1 X107.53 Y112.335 Z.4
G1 Z.2
G1 E.5 F1800
;TYPE:Inner wall
;WIDTH:0.564295
G1 X138.447 Y112.329 E1.34032
G1 X138.909 Y112.347 E.02004
;WIDTH:0.532147
G1 X139.371 Y112.364 E.0188
;WIDTH:0.499999
G1 X140.041 Y112.492 E.02593
G1 X140.774 Y112.726 E.02925
G1 X141.475 Y113.049 E.02933
G1 X142.121 Y113.448 E.02885
G1 X142.716 Y113.924 E.02895
G1 X143.247 Y114.466 E.02886
G1 X143.709 Y115.066 E.02877
G1 X144.093 Y115.715 E.02868
G1 X144.398 Y116.408 E.02877
G1 X144.616 Y117.12 E.02829
G1 X144.747 Y117.855 E.02837
;WIDTH:0.53219
G1 X144.754 Y118.237 E.01555
;WIDTH:0.56438
G1 X144.761 Y118.62 E.01658
G1 X144.761 Y151.559 E1.42825
;WIDTH:0.569704
G1 X144.733 Y152.152 E.02597
;WIDTH:0.534852
G1 X144.725 Y152.461 E.01265
;WIDTH:0.499999
G1 X144.596 Y153.136 E.02611
G1 X144.363 Y153.864 E.02905
G1 X144.043 Y154.56 E.02914
G1 X143.641 Y155.21 E.02904
G1 X143.166 Y155.805 E.02895
G1 X142.624 Y156.337 E.02886
G1 X142.023 Y156.798 E.02877
G1 X141.374 Y157.183 E.02868
G1 X140.686 Y157.486 E.02859
G1 X139.969 Y157.705 E.02848
G1 X139.234 Y157.837 E.02837
;WIDTH:0.532189
G1 X138.852 Y157.843 E.01555
;WIDTH:0.56438
G1 X107.555 Y157.85 E1.35701
G1 X107.092 Y157.832 E.0201
;WIDTH:0.53219
G1 X106.629 Y157.814 E.01886
;WIDTH:0.499999
G1 X105.954 Y157.686 E.02611
G1 X105.226 Y157.453 E.02905
G1 X104.529 Y157.132 E.02914
G1 X103.879 Y156.731 E.02904
G1 X103.284 Y156.255 E.02895
G1 X102.753 Y155.713 E.02886
G1 X102.291 Y155.113 E.02877
G1 X101.907 Y154.464 E.02868
G1 X101.603 Y153.775 E.02859
G1 X101.384 Y153.059 E.02848
G1 X101.253 Y152.324 E.02837
;WIDTH:0.53219
G1 X101.246 Y151.941 E.01555
;WIDTH:0.564381
G1 X101.239 Y118.646 E1.4437
G1 X101.257 Y118.182 E.02011
;WIDTH:0.53219
G1 X101.275 Y117.718 E.01887
;WIDTH:0.499999
G1 X101.402 Y117.048 E.02593
G1 X101.637 Y116.315 E.02925
G1 X101.957 Y115.619 E.02914
G1 X102.359 Y114.969 E.02904
G1 X102.834 Y114.374 E.02895
G1 X103.376 Y113.842 E.02886
G1 X103.977 Y113.381 E.02877
G1 X104.626 Y112.996 E.02868
G1 X105.314 Y112.693 E.02859
G1 X106.031 Y112.474 E.02848
G1 X106.766 Y112.342 E.02837
;WIDTH:0.53219
G1 X107.148 Y112.335 E.01555
;WIDTH:0.564295
G1 X107.49 Y112.335 E.01484
G1 X107.53 Y111.839 F24000
;TYPE:Outer wall
;WIDTH:0.499999
G1 F1800
G1 X138.525 Y111.84 E1.178
G1 X139.453 Y111.915 E.0354
G1 X140.177 Y112.055 E.02802
G1 X140.962 Y112.309 E.03136
G1 X141.711 Y112.658 E.03141
G1 X142.403 Y113.088 E.03094
G1 X143.039 Y113.6 E.03104
G1 X143.607 Y114.184 E.03096
G1 X144.1 Y114.83 E.03087
G1 X144.51 Y115.528 E.03079
G1 X144.835 Y116.272 E.03085
G1 X145.065 Y117.038 E.03039
G1 X145.203 Y117.828 E.03047
G1 X145.25 Y118.62 E.03016
G1 X145.25 Y151.669 E1.25608
G1 X145.174 Y152.543 E.03336
G1 X145.033 Y153.272 E.02819
G1 X144.78 Y154.051 E.03114
G1 X144.434 Y154.796 E.03123
G1 X144.001 Y155.492 E.03113
G1 X143.489 Y156.128 E.03104
G1 X142.905 Y156.697 E.03096
G1 X142.26 Y157.189 E.03087
G1 X141.562 Y157.6 E.03078
G1 X140.822 Y157.923 E.03068
G1 X140.051 Y158.155 E.03058
G1 X139.262 Y158.293 E.03047
G1 X138.47 Y158.339 E.03016
G1 X107.477 Y158.339 E1.17792
G1 X106.546 Y158.264 E.0355
G1 X105.818 Y158.122 E.02819
G1 X105.038 Y157.87 E.03114
G1 X104.293 Y157.523 E.03123
G1 X103.597 Y157.091 E.03113
G1 X102.961 Y156.578 E.03104
G1 X102.393 Y155.995 E.03096
G1 X101.9 Y155.349 E.03087
G1 X101.49 Y154.651 E.03078
G1 X101.167 Y153.911 E.03068
G1 X100.935 Y153.141 E.03058
G1 X100.797 Y152.351 E.03047
G1 X100.75 Y151.559 E.03016
G1 X100.75 Y118.567 E1.25393
G1 X100.825 Y117.636 E.03548
G1 X100.966 Y116.912 E.02802
G1 X101.22 Y116.128 E.03134
G1 X101.566 Y115.382 E.03123
G1 X101.999 Y114.687 E.03113
G1 X102.511 Y114.051 E.03104
G1 X103.095 Y113.482 E.03096
G1 X103.74 Y112.99 E.03087
G1 X104.438 Y112.579 E.03078
G1 X105.178 Y112.256 E.03068
G1 X105.948 Y112.024 E.03058
G1 X106.738 Y111.886 E.03047
G1 X107.49 Y111.842 E.02864
G1 E-.5
;WIPE_START
G1 F12000
G1 X109.49 Y111.842
;WIPE_END
G1 Z.4 F24000
G1 X107.132 Y157.161 Z.4
G1 Z.2
G1 E.5 F1800
;TYPE:Inner wall
;WIDTH:0.531153
G1 X107.006 Y157.096 E.00574
;WIDTH:0.499999
G1 X101.994 Y152.083 E.26942
;WIDTH:0.53219
G1 X101.877 Y151.912 E.00843
;WIDTH:0.564381
G1 X101.761 Y151.74 E.00898
G1 X101.763 Y118.537 E1.43968
;WIDTH:0.562307
G1 X101.878 Y118.316 E.01076
;WIDTH:0.531153
G1 X101.994 Y118.096 E.01011
;WIDTH:0.499999
G1 X107.006 Y113.083 E.26942
;WIDTH:0.53219
G1 X107.178 Y112.967 E.00845
;WIDTH:0.56438
G1 X107.35 Y112.85 E.00901
G1 X138.552 Y112.852 E1.3529
;WIDTH:0.562307
G1 X138.773 Y112.968 E.01076
;WIDTH:0.531153
G1 X138.994 Y113.083 E.01011
;WIDTH:0.499999
G1 X144.006 Y118.096 E.26942
;WIDTH:0.53219
G1 X144.123 Y118.319 E.01024
;WIDTH:0.56438
G1 X144.239 Y118.542 E.01091
G1 X144.239 Y151.559 E1.43162
;WIDTH:0.569704
G1 X144.222 Y151.765 E.00906
G1 X144.114 Y151.924 E.00841
;WIDTH:0.534852
G1 X144.006 Y152.083 E.00786
;WIDTH:0.499999
G1 X138.994 Y157.096 E.26942
;WIDTH:0.532189
G1 X138.822 Y157.212 E.00843
;WIDTH:0.564379
G1 X138.651 Y157.329 E.00898
G1 X107.448 Y157.326 E1.35295
;WIDTH:0.562307
G1 X107.227 Y157.211 E.01076
;WIDTH:0.531153
G1 X107.167 Y157.18 E.00275
G1 X107.335 Y156.775 F24000
;TYPE:Outer wall
;WIDTH:0.499999
G1 F1800
G1 X107.33 Y156.772 E.00023
G1 X102.317 Y151.76 E.26942
G1 X102.25 Y151.598 E.00665
G1 X102.25 Y118.581 E1.25488
G1 X102.317 Y118.419 E.00665
G1 X107.33 Y113.406 E.26942
G1 X107.53 Y113.339 E.00804
G1 X138.509 Y113.339 E1.17738
G1 X138.67 Y113.406 E.00665
G1 X143.683 Y118.419 E.26942
G1 X143.75 Y118.62 E.00804
G1 X143.75 Y151.598 E1.2534
G1 X143.683 Y151.76 E.00665
G1 X138.67 Y156.772 E.26942
G1 X138.509 Y156.839 E.00665
G1 X107.491 Y156.839 E1.17887
G1 X107.372 Y156.79 E.0049
G1 E-.5
;WIPE_START
G1 F12000
G1 X107.33 Y156.772
G1 X105.948 Y155.391
;WIPE_END
G1 Z.4 F24000
G1 X101.426 Y152.526
G1 Z.4
G1 Z.2
G1 E.5 F1800
;TYPE:Bottom surface
;WIDTH:0.526568
G1 F3600
G1 X106.307 Y157.407 E.2776
G1 X106.072 Y157.363 E.00964
G1 X105.349 Y157.132 E.03051
G1 X101.957 Y153.741 E.19289
G1 X102.233 Y154.354 E.02704
G1 X102.605 Y154.968 E.02888
G1 X102.98 Y155.447 E.02447
G1 X104.467 Y156.934 E.08455
G1 E-.5 F1800
;WIPE_START
G1 F12000
G1 X103.052 Y155.52
;WIPE_END
G1 Z.4 F24000
G1 X144.17 Y152.088 Z.4
G1 Z.2
G1 E.5 F1800
;WIDTH:0.500068
G1 F3600
G1 X144.401 Y152.32 E.01242
G1 X144.301 Y152.866 E.02113
G1 X144.005 Y152.57 E.01596
G1 X143.681 Y152.893 E.01738
G1 X144.163 Y153.374 E.02588
G1 X144.062 Y153.699 E.01292
G1 X143.993 Y153.851 E.00635
G1 X143.358 Y153.216 E.03413
G1 X143.035 Y153.539 E.01738
G1 X143.792 Y154.297 E.04073
G1 X143.554 Y154.705 E.01797
G1 X142.712 Y153.863 E.0453
G1 X142.388 Y154.186 E.01738
G1 X143.297 Y155.094 E.04883
