; HEADER_BLOCK_START
; generated by OrcaSlicer 2.1.1 on 2024-08-11 at 07:07:39
; total layer number: 50
; filament_density: 1.24
; filament_diameter: 1.75
; max_z_height: 10.00
; HEADER_BLOCK_END

; THUMBNAIL_BLOCK_START

;
; THUMBNAIL_BLOCK_END

; THUMBNAIL_BLOCK_START

;
; THUMBNAIL_BLOCK_END

; external perimeters extrusion width = 0.42mm
; perimeters extrusion width = 0.45mm
; infill extrusion width = 0.45mm
; solid infill extrusion width = 0.45mm
; top infill extrusion width = 0.42mm
; first layer extrusion width = 0.50mm

; EXECUTABLE_BLOCK_START
EXCLUDE_OBJECT_DEFINE NAME=Coupe_tube_66.stl_id_0_copy_0 CENTER=115,115 POLYGON=[[105,79.5],[125,79.5],[125,150.5],[105,150.5],[105,79.5]]
M73 P0 R15
;TYPE:Custom
M220 S100
G90 ; use absolute coordinates
M83 ; extruder relative mode
M104 S150 ; set temporary nozzle temp to prevent oozing during homing
M140 S55 ; set final bed temp
G4 S30 ; allow partial nozzle warmup
G28 ; home all axis and restore leveling
BED_MESH_CALIBRATE PROFILE=adaptive ADAPTIVE=1 ADAPTIVE_MARGIN=0
G1 Z25 F240
G1 X10.0 Y30 F3000
M104 S210 ; set final nozzle temp
M190 S55 ; wait for bed temp to stabilize
M109 S210 ; wait for nozzle temp to stabilize
G1 Z0.28 F240
G92 E0 ; Move Z Axis up
G1 Z2.0 F5000 ; Move to start position
M73 P1 R15
G1 X5 Y30 Z0.28 F300 ; Draw the first line
G1 X5 Y200 Z0.28 F1500 E15 ; Move to side a little
G1 X5.4 Y200 Z0.28 F5000.0 ; Draw the second line
M73 P2 R15
G1 X5.4 Y50 Z0.28 F1500.0 E30 ; Reset Extruder
G92 E0 ; Move Z Axis up
G1 Z2.0 F3000
M117 Start Printing..
G90
G21
M83 ; use relative distances for extrusion
; filament start gcode
M106 S0
;LAYER_CHANGE
;Z:0.2
;HEIGHT:0.2
;BEFORE_LAYER_CHANGE
;0.2
G92 E0

M73 P2 R14
G1 E-.5 F1800
;_SET_FAN_SPEED_CHANGING_LAYER
SET_VELOCITY_LIMIT ACCEL=1000
SET_VELOCITY_LIMIT SQUARE_CORNER_VELOCITY=7
; printing object Coupe tube 66.stl id:0 copy 0
EXCLUDE_OBJECT_START NAME=Coupe_tube_66.stl_id_0_copy_0
G1 Z.2 F24000
G1 X132.243 Y169.743
G1 Z.2
M73 P3 R14
G1 E.5 F1800
;TYPE:Inner wall
;WIDTH:0.499999
G1 X113.757 Y169.743 E.62178
G1 X113.757 Y100.257 E2.33719
G1 X132.243 Y100.257 E.62178
G1 X132.243 Y169.703 E2.33585
G1 X132.7 Y170.2 F24000
;TYPE:Outer wall
G1 F1800
G1 X113.3 Y170.2 E.65253
G1 X113.3 Y99.8 E2.36794
G1 X132.7 Y99.8 E.65253
M73 P4 R14
G1 X132.7 Y170.16 E2.3666
G1 E-.5
;WIPE_START
G1 F12000
G1 X130.7 Y170.164
;WIPE_END
G1 Z.4 F24000
G1 X132.106 Y101.321
G1 Z.4
G1 Z.2
G1 E.5 F1800
;TYPE:Bottom surface
;WIDTH:0.501306
G1 F3600
G1 X131.385 Y100.6 E.0344
G1 X130.736 Y100.6 E.02187
G1 X131.9 Y101.764 E.05551
G1 X131.9 Y102.412 E.02187
G1 X130.088 Y100.6 E.08643
G1 X129.44 Y100.6 E.02187
G1 X131.9 Y103.06 E.11736
G1 X131.9 Y103.708 E.02187
G1 X128.792 Y100.6 E.14828
G1 X128.143 Y100.6 E.02187
G1 X131.9 Y104.357 E.17921
G1 X131.9 Y105.005 E.02187
G1 X127.495 Y100.6 E.21013
G1 X126.847 Y100.6 E.02187
G1 X131.9 Y105.653 E.24106
G1 X131.9 Y106.301 E.02187
G1 X126.199 Y100.6 E.27198
G1 X125.55 Y100.6 E.02187
G1 X131.9 Y106.95 E.3029
G1 X131.9 Y107.598 E.02187
G1 X124.902 Y100.6 E.33383
G1 X124.254 Y100.6 E.02187
G1 X131.9 Y108.246 E.36475
G1 X131.9 Y108.894 E.02187
G1 X123.606 Y100.6 E.39568
G1 X122.957 Y100.6 E.02187
G1 X131.9 Y109.543 E.4266
G1 X131.9 Y110.191 E.02187
G1 X122.309 Y100.6 E.45753
G1 X121.661 Y100.6 E.02187
G1 X131.9 Y110.839 E.48845
G1 X131.9 Y111.487 E.02187
G1 X121.013 Y100.6 E.51937
G1 X120.364 Y100.6 E.02187
G1 X131.9 Y112.136 E.5503
G1 X131.9 Y112.784 E.02187
G1 X119.716 Y100.6 E.58122
G1 X119.068 Y100.6 E.02187
G1 X131.9 Y113.432 E.61215
G1 X131.9 Y114.08 E.02187
G1 X118.42 Y100.6 E.64307
G1 X117.771 Y100.6 E.02187
M73 P5 R14
G1 X131.9 Y114.729 E.674
G1 X131.9 Y115.377 E.02187
G1 X117.123 Y100.6 E.70492
G1 X116.475 Y100.6 E.02187
G1 X131.9 Y116.025 E.73584
G1 X131.9 Y116.673 E.02187
G1 X115.827 Y100.6 E.76677
G1 X115.178 Y100.6 E.02187
G1 X131.9 Y117.322 E.79769
G1 X131.9 Y117.97 E.02187
G1 X114.53 Y100.6 E.82862
G1 X114.1 Y100.6 E.01451
G1 X114.1 Y100.818 E.00736
G1 X131.9 Y118.618 E.84914
G1 X131.9 Y119.266 E.02187
G1 X114.1 Y101.466 E.84914
G1 X114.1 Y102.114 E.02187
G1 X131.9 Y119.915 E.84914
G1 X131.9 Y120.563 E.02187
G1 X114.1 Y102.763 E.84914
G1 X114.1 Y103.411 E.02187
G1 X131.9 Y121.211 E.84914
G1 X131.9 Y121.859 E.02187
G1 X114.1 Y104.059 E.84914
G1 X114.1 Y104.707 E.02187
G1 X131.9 Y122.508 E.84914
G1 X131.9 Y123.156 E.02187
G1 X114.1 Y105.356 E.84914
G1 X114.1 Y106.004 E.02187
G1 X131.9 Y123.804 E.84914
G1 X131.9 Y124.452 E.02187
G1 X114.1 Y106.652 E.84914
G1 X114.1 Y107.3 E.02187
G1 X131.9 Y125.101 E.84914
G1 X131.9 Y125.749 E.02187
G1 X114.1 Y107.949 E.84914
G1 X114.1 Y108.597 E.02187
G1 X131.9 Y126.397 E.84914
G1 X131.9 Y127.045 E.02187
M73 P6 R14
G1 X114.1 Y109.245 E.84914
G1 X114.1 Y109.894 E.02187
G1 X131.9 Y127.694 E.84914
G1 X131.9 Y128.342 E.02187
G1 X114.1 Y110.542 E.84914
G1 X114.1 Y111.19 E.02187
G1 X131.9 Y128.99 E.84914
G1 X131.9 Y129.639 E.02187
G1 X114.1 Y111.838 E.84914
G1 X114.1 Y112.487 E.02187
G1 X131.9 Y130.287 E.84914
G1 X131.9 Y130.935 E.02187
G1 X114.1 Y113.135 E.84914
G1 X114.1 Y113.783 E.02187
G1 X131.9 Y131.583 E.84914
G1 X131.9 Y132.232 E.02187
G1 X114.1 Y114.431 E.84914
G1 X114.1 Y115.08 E.02187
G1 X131.9 Y132.88 E.84914
G1 X131.9 Y133.528 E.02187
G1 X114.1 Y115.728 E.84914
G1 X114.1 Y116.376 E.02187
G1 X131.9 Y134.176 E.84914
G1 X131.9 Y134.825 E.02187
G1 X114.1 Y117.024 E.84914
G1 X114.1 Y117.673 E.02187
G1 X131.9 Y135.473 E.84914
G1 X131.9 Y136.121 E.02187
G1 X114.1 Y118.321 E.84914
G1 X114.1 Y118.969 E.02187
G1 X131.9 Y136.769 E.84914
G1 X131.9 Y137.418 E.02187
G1 X114.1 Y119.617 E.84914
G1 X114.1 Y120.266 E.02187
G1 X131.9 Y138.066 E.84914
G1 X131.9 Y138.714 E.02187
G1 X114.1 Y120.914 E.84914
G1 X114.1 Y121.562 E.02187
M73 P7 R14
G1 X131.9 Y139.362 E.84914
G1 X131.9 Y140.011 E.02187
G1 X114.1 Y122.21 E.84914
G1 X114.1 Y122.859 E.02187
G1 X131.9 Y140.659 E.84914
G1 X131.9 Y141.307 E.02187
G1 X114.1 Y123.507 E.84914
G1 X114.1 Y124.155 E.02187
G1 X131.9 Y141.955 E.84914
G1 X131.9 Y142.604 E.02187
G1 X114.1 Y124.803 E.84914
G1 X114.1 Y125.452 E.02187
G1 X131.9 Y143.252 E.84914
G1 X131.9 Y143.9 E.02187
G1 X114.1 Y126.1 E.84914
G1 X114.1 Y126.748 E.02187
G1 X131.9 Y144.548 E.84914
G1 X131.9 Y145.197 E.02187
G1 X114.1 Y127.396 E.84914
G1 X114.1 Y128.045 E.02187
G1 X131.9 Y145.845 E.84914
G1 X131.9 Y146.493 E.02187
G1 X114.1 Y128.693 E.84914
G1 X114.1 Y129.341 E.02187
G1 X131.9 Y147.141 E.84914
G1 X131.9 Y147.79 E.02187
G1 X114.1 Y129.989 E.84914
G1 X114.1 Y130.638 E.02187
G1 X131.9 Y148.438 E.84914
G1 X131.9 Y149.086 E.02187
G1 X114.1 Y131.286 E.84914
G1 X114.1 Y131.934 E.02187
G1 X131.9 Y149.734 E.84914
G1 X131.9 Y150.383 E.02187
G1 X114.1 Y132.582 E.84914
G1 X114.1 Y133.231 E.02187
M73 P8 R14
G1 X131.9 Y151.031 E.84914
G1 X131.9 Y151.679 E.02187
G1 X114.1 Y133.879 E.84914
G1 X114.1 Y134.527 E.02187
G1 X131.9 Y152.327 E.84914
G1 X131.9 Y152.976 E.02187
G1 X114.1 Y135.175 E.84914
G1 X114.1 Y135.824 E.02187
G1 X131.9 Y153.624 E.84914
G1 X131.9 Y154.272 E.02187
G1 X114.1 Y136.472 E.84914
G1 X114.1 Y137.12 E.02187
G1 X131.9 Y154.92 E.84914
G1 X131.9 Y155.569 E.02187
G1 X114.1 Y137.769 E.84914
G1 X114.1 Y138.417 E.02187
G1 X131.9 Y156.217 E.84914
G1 X131.9 Y156.865 E.02187
G1 X114.1 Y139.065 E.84914
G1 X114.1 Y139.713 E.02187
G1 X131.9 Y157.514 E.84914
G1 X131.9 Y158.162 E.02187
G1 X114.1 Y140.362 E.84914
G1 X114.1 Y141.01 E.02187
G1 X131.9 Y158.81 E.84914
G1 X131.9 Y159.458 E.02187
G1 X114.1 Y141.658 E.84914
G1 X114.1 Y142.306 E.02187
G1 X131.9 Y160.107 E.84914
G1 X131.9 Y160.755 E.02187
G1 X114.1 Y142.955 E.84914
G1 X114.1 Y143.603 E.02187
G1 X131.9 Y161.403 E.84914
G1 X131.9 Y162.051 E.02187
G1 X114.1 Y144.251 E.84914
G1 X114.1 Y144.899 E.02187
G1 X131.9 Y162.7 E.84914
G1 X131.9 Y163.348 E.02187
M73 P9 R14
G1 X114.1 Y145.548 E.84914
G1 X114.1 Y146.196 E.02187
M73 P9 R13
G1 X131.9 Y163.996 E.84914
G1 X131.9 Y164.644 E.02187
G1 X114.1 Y146.844 E.84914
G1 X114.1 Y147.492 E.02187
G1 X131.9 Y165.293 E.84914
G1 X131.9 Y165.941 E.02187
G1 X114.1 Y148.141 E.84914
G1 X114.1 Y148.789 E.02187
G1 X131.9 Y166.589 E.84914
G1 X131.9 Y167.237 E.02187
G1 X114.1 Y149.437 E.84914
G1 X114.1 Y150.085 E.02187
G1 X131.9 Y167.886 E.84914
G1 X131.9 Y168.534 E.02187
G1 X114.1 Y150.734 E.84914
G1 X114.1 Y151.382 E.02187
G1 X131.9 Y169.182 E.84914
G1 X131.9 Y169.4 E.00735
G1 X131.47 Y169.4 E.01451
G1 X114.1 Y152.03 E.82862
G1 X114.1 Y152.678 E.02187
G1 X130.822 Y169.4 E.79769
G1 X130.173 Y169.4 E.02187
G1 X114.1 Y153.327 E.76677
G1 X114.1 Y153.975 E.02187
G1 X129.525 Y169.4 E.73584
G1 X128.877 Y169.4 E.02187
G1 X114.1 Y154.623 E.70492
G1 X114.1 Y155.271 E.02187
G1 X128.229 Y169.4 E.67399
G1 X127.58 Y169.4 E.02187
G1 X114.1 Y155.92 E.64307
G1 X114.1 Y156.568 E.02187
G1 X126.932 Y169.4 E.61214
G1 X126.284 Y169.4 E.02187
G1 X114.1 Y157.216 E.58122
G1 X114.1 Y157.864 E.02187
M73 P10 R13
G1 X125.636 Y169.4 E.5503
G1 X124.987 Y169.4 E.02187
G1 X114.1 Y158.513 E.51937
G1 X114.1 Y159.161 E.02187
G1 X124.339 Y169.4 E.48845
G1 X123.691 Y169.4 E.02187
G1 X114.1 Y159.809 E.45752
G1 X114.1 Y160.457 E.02187
G1 X123.043 Y169.4 E.4266
G1 X122.394 Y169.4 E.02187
G1 X114.1 Y161.106 E.39567
G1 X114.1 Y161.754 E.02187
G1 X121.746 Y169.4 E.36475
G1 X121.098 Y169.4 E.02187
G1 X114.1 Y162.402 E.33383
G1 X114.1 Y163.05 E.02187
G1 X120.45 Y169.4 E.3029
G1 X119.801 Y169.4 E.02187
G1 X114.1 Y163.699 E.27198
G1 X114.1 Y164.347 E.02187
G1 X119.153 Y169.4 E.24105
G1 X118.505 Y169.4 E.02187
G1 X114.1 Y164.995 E.21013
G1 X114.1 Y165.644 E.02187
G1 X117.856 Y169.4 E.1792
G1 X117.208 Y169.4 E.02187
G1 X114.1 Y166.292 E.14828
G1 X114.1 Y166.94 E.02187
G1 X116.56 Y169.4 E.11736
G1 X115.912 Y169.4 E.02187
G1 X114.1 Y167.588 E.08643
G1 X114.1 Y168.237 E.02187
G1 X115.263 Y169.4 E.05551
G1 X114.615 Y169.4 E.02187
G1 X113.894 Y168.679 E.0344
; stop printing object Coupe tube 66.stl id:0 copy 0
M106 S255
;LAYER_CHANGE
;Z:0.4
;HEIGHT:0.2
;BEFORE_LAYER_CHANGE
;0.4
G92 E0

G1 E-.5 F1800
;WIPE_START
G1 F12000
G1 X114.615 Y169.4
G1 X115.263 Y169.4
G1 X115.029 Y169.165
;WIPE_END
EXCLUDE_OBJECT_END NAME=Coupe_tube_66.stl_id_0_copy_0
;_SET_FAN_SPEED_CHANGING_LAYER
SET_VELOCITY_LIMIT ACCEL=5000
M104 S205 ; set nozzle temperature
M140 S55 ; set bed temperature
; printing object Coupe tube 66.stl id:0 copy 0
EXCLUDE_OBJECT_START NAME=Coupe_tube_66.stl_id_0_copy_0
G1 Z.4 F24000
G1 X132.398 Y169.898 Z.4
G1 E.5 F1800
;TYPE:Inner wall
;WIDTH:0.449999
G1 F3600
G1 X113.602 Y169.898 E.56305
G1 X113.602 Y100.102 E2.09081
G1 X132.398 Y100.102 E.56305
G1 X132.398 Y169.858 E2.08962
G1 X132.79 Y170.29 F24000
SET_VELOCITY_LIMIT ACCEL=2000
;TYPE:Outer wall
;WIDTH:0.419999
G1 F3600
G1 X113.21 Y170.29 E.54332
G1 X113.21 Y99.71 E1.95849
G1 X132.79 Y99.71 E.54332
G1 X132.79 Y170.25 E1.95738
M73 P11 R13
G1 E-.5 F1800
;WIPE_START
G1 F12000
G1 X130.79 Y170.254
;WIPE_END
SET_VELOCITY_LIMIT ACCEL=5000
G1 Z.6 F24000
G1 X131.119 Y169.776
G1 Z.6
G1 Z.4
G1 E.5 F1800
;TYPE:Internal solid infill
;WIDTH:0.450541
G1 F6000
G1 X132.093 Y168.802 E.04129
G1 X132.093 Y168.226 E.01729
G1 X130.726 Y169.593 E.05798
G1 X130.149 Y169.593 E.01729
G1 X132.093 Y167.649 E.08243
G1 X132.093 Y167.073 E.01729
G1 X129.573 Y169.593 E.10688
G1 X128.997 Y169.593 E.01729
G1 X132.093 Y166.497 E.13134
G1 X132.093 Y165.92 E.01729
G1 X128.42 Y169.593 E.15579
G1 X127.844 Y169.593 E.01729
G1 X132.093 Y165.344 E.18025
G1 X132.093 Y164.767 E.01729
G1 X127.267 Y169.593 E.2047
G1 X126.691 Y169.593 E.01729
G1 X132.093 Y164.191 E.22915
G1 X132.093 Y163.614 E.01729
G1 X126.114 Y169.593 E.25361
G1 X125.538 Y169.593 E.01729
G1 X132.093 Y163.038 E.27806
G1 X132.093 Y162.461 E.01729
G1 X124.961 Y169.593 E.30252
G1 X124.385 Y169.593 E.01729
G1 X132.093 Y161.885 E.32697
G1 X132.093 Y161.308 E.01729
G1 X123.808 Y169.593 E.35142
G1 X123.232 Y169.593 E.01729
G1 X132.093 Y160.732 E.37588
G1 X132.093 Y160.155 E.01729
G1 X122.655 Y169.593 E.40033
G1 X122.079 Y169.593 E.01729
G1 X132.093 Y159.579 E.42479
G1 X132.093 Y159.003 E.01729
G1 X121.503 Y169.593 E.44924
G1 X120.926 Y169.593 E.01729
G1 X132.093 Y158.426 E.47369
G1 X132.093 Y157.85 E.01729
G1 X120.35 Y169.593 E.49815
G1 X119.773 Y169.593 E.01729
G1 X132.093 Y157.273 E.5226
G1 X132.093 Y156.697 E.01729
G1 X119.197 Y169.593 E.54706
G1 X118.62 Y169.593 E.01729
G1 X132.093 Y156.12 E.57151
G1 X132.093 Y155.544 E.01729
G1 X118.044 Y169.593 E.59596
G1 X117.467 Y169.593 E.01729
G1 X132.093 Y154.967 E.62042
G1 X132.093 Y154.391 E.01729
G1 X116.891 Y169.593 E.64487
G1 X116.314 Y169.593 E.01729
G1 X132.093 Y153.814 E.66933
G1 X132.093 Y153.238 E.01729
G1 X115.738 Y169.593 E.69378
G1 X115.161 Y169.593 E.01729
G1 X132.093 Y152.661 E.71823
G1 X132.093 Y152.085 E.01729
G1 X114.585 Y169.593 E.74269
G1 X114.009 Y169.593 E.01729
G1 X132.093 Y151.509 E.76714
G1 X132.093 Y150.932 E.01729
G1 X113.907 Y169.117 E.77143
G1 X113.907 Y168.541 E.01729
G1 X132.093 Y150.356 E.77143
G1 X132.093 Y149.779 E.01729
G1 X113.907 Y167.964 E.77143
G1 X113.907 Y167.388 E.01729
G1 X132.093 Y149.203 E.77143
G1 X132.093 Y148.626 E.01729
G1 X113.907 Y166.811 E.77143
G1 X113.907 Y166.235 E.01729
G1 X132.093 Y148.05 E.77143
G1 X132.093 Y147.473 E.01729
G1 X113.907 Y165.658 E.77143
G1 X113.907 Y165.082 E.01729
G1 X132.093 Y146.897 E.77143
G1 X132.093 Y146.32 E.01729
G1 X113.907 Y164.506 E.77143
G1 X113.907 Y163.929 E.01729
M73 P12 R13
G1 X132.093 Y145.744 E.77143
G1 X132.093 Y145.167 E.01729
G1 X113.907 Y163.353 E.77143
G1 X113.907 Y162.776 E.01729
G1 X132.093 Y144.591 E.77143
G1 X132.093 Y144.014 E.01729
G1 X113.907 Y162.2 E.77143
G1 X113.907 Y161.623 E.01729
G1 X132.093 Y143.438 E.77143
G1 X132.093 Y142.862 E.01729
G1 X113.907 Y161.047 E.77143
G1 X113.907 Y160.47 E.01729
G1 X132.093 Y142.285 E.77143
G1 X132.093 Y141.709 E.01729
G1 X113.907 Y159.894 E.77143
G1 X113.907 Y159.317 E.01729
G1 X132.093 Y141.132 E.77143
G1 X132.093 Y140.556 E.01729
G1 X113.907 Y158.741 E.77143
G1 X113.907 Y158.164 E.01729
G1 X132.093 Y139.979 E.77143
G1 X132.093 Y139.403 E.01729
G1 X113.907 Y157.588 E.77143
G1 X113.907 Y157.012 E.01729
G1 X132.093 Y138.826 E.77143
G1 X132.093 Y138.25 E.01729
G1 X113.907 Y156.435 E.77143
G1 X113.907 Y155.859 E.01729
G1 X132.093 Y137.673 E.77143
G1 X132.093 Y137.097 E.01729
G1 X113.907 Y155.282 E.77143
G1 X113.907 Y154.706 E.01729
G1 X132.093 Y136.52 E.77143
G1 X132.093 Y135.944 E.01729
G1 X113.907 Y154.129 E.77143
G1 X113.907 Y153.553 E.01729
G1 X132.093 Y135.368 E.77143
G1 X132.093 Y134.791 E.01729
G1 X113.907 Y152.976 E.77143
G1 X113.907 Y152.4 E.01729
G1 X132.093 Y134.215 E.77143
G1 X132.093 Y133.638 E.01729
G1 X113.907 Y151.823 E.77143
G1 X113.907 Y151.247 E.01729
G1 X132.093 Y133.062 E.77143
G1 X132.093 Y132.485 E.01729
G1 X113.907 Y150.67 E.77143
G1 X113.907 Y150.094 E.01729
G1 X132.093 Y131.909 E.77143
G1 X132.093 Y131.332 E.01729
G1 X113.907 Y149.518 E.77143
G1 X113.907 Y148.941 E.01729
G1 X132.093 Y130.756 E.77143
G1 X132.093 Y130.179 E.01729
G1 X113.907 Y148.365 E.77143
G1 X113.907 Y147.788 E.01729
G1 X132.093 Y129.603 E.77143
G1 X132.093 Y129.026 E.01729
G1 X113.907 Y147.212 E.77143
G1 X113.907 Y146.635 E.01729
G1 X132.093 Y128.45 E.77143
G1 X132.093 Y127.874 E.01729
G1 X113.907 Y146.059 E.77143
G1 X113.907 Y145.482 E.01729
M73 P13 R13
G1 X132.093 Y127.297 E.77143
G1 X132.093 Y126.721 E.01729
G1 X113.907 Y144.906 E.77143
G1 X113.907 Y144.329 E.01729
G1 X132.093 Y126.144 E.77143
G1 X132.093 Y125.568 E.01729
G1 X113.907 Y143.753 E.77143
G1 X113.907 Y143.176 E.01729
G1 X132.093 Y124.991 E.77143
G1 X132.093 Y124.415 E.01729
G1 X113.907 Y142.6 E.77143
G1 X113.907 Y142.024 E.01729
G1 X132.093 Y123.838 E.77143
G1 X132.093 Y123.262 E.01729
G1 X113.907 Y141.447 E.77143
G1 X113.907 Y140.871 E.01729
G1 X132.093 Y122.685 E.77143
G1 X132.093 Y122.109 E.01729
G1 X113.907 Y140.294 E.77143
G1 X113.907 Y139.718 E.01729
G1 X132.093 Y121.532 E.77143
G1 X132.093 Y120.956 E.01729
G1 X113.907 Y139.141 E.77143
G1 X113.907 Y138.565 E.01729
G1 X132.093 Y120.38 E.77143
G1 X132.093 Y119.803 E.01729
G1 X113.907 Y137.988 E.77143
G1 X113.907 Y137.412 E.01729
G1 X132.093 Y119.227 E.77143
G1 X132.093 Y118.65 E.01729
G1 X113.907 Y136.835 E.77143
G1 X113.907 Y136.259 E.01729
