; HEADER_BLOCK_START
; generated by OrcaSlicer 2.0.0 on 2024-06-07 at 17:06:12
; total layer number: 35
; filament_density: 1.27
; filament_diameter: 1.75
; max_z_height: 7.00
; HEADER_BLOCK_END

; THUMBNAIL_BLOCK_START

;
; THUMBNAIL_BLOCK_END

; THUMBNAIL_BLOCK_START

;
; THUMBNAIL_BLOCK_END

; external perimeters extrusion width = 0.40mm
; perimeters extrusion width = 0.42mm
; infill extrusion width = 0.45mm
; solid infill extrusion width = 0.42mm
; top infill extrusion width = 0.40mm
; first layer extrusion width = 0.50mm

; EXECUTABLE_BLOCK_START
EXCLUDE_OBJECT_DEFINE NAME=Corps24.stl_id_0_copy_0 CENTER=115,115 POLYGON=[[88.815,149.31],[88.9902,80.6901],[141.185,80.6901],[141.01,149.31],[88.815,149.31]]
M73 P0 R22
;TYPE:Custom
M220 S100
G90 ; use absolute coordinates
M83 ; extruder relative mode
M104 S150 ; set temporary nozzle temp to prevent oozing during homing
M140 S70 ; set final bed temp
G4 S30 ; allow partial nozzle warmup
G28 ; home all axis and restore leveling
BED_MESH_CALIBRATE PROFILE=adaptive ADAPTIVE=1 ADAPTIVE_MARGIN=0
G1 Z25 F240
G1 X10.0 Y30 F3000
M104 S245 ; set final nozzle temp
M190 S70 ; wait for bed temp to stabilize
M109 S245 ; wait for nozzle temp to stabilize
G1 Z0.28 F240
G92 E0 ; Move Z Axis up
G1 Z2.0 F5000 ; Move to start position
G1 X5 Y30 Z0.28 F300 ; Draw the first line
G1 X5 Y200 Z0.28 F1500 E15 ; Move to side a little
M73 P1 R22
G1 X5.4 Y200 Z0.28 F5000.0 ; Draw the second line
G1 X5.4 Y50 Z0.28 F1500.0 E30 ; Reset Extruder
G92 E0 ; Move Z Axis up
G1 Z2.0 F3000
M117 Start Printing..
G90
G21
M83 ; use relative distances for extrusion
; filament start gcode
M106 S0
;LAYER_CHANGE
;Z:0.2
;HEIGHT:0.2
;BEFORE_LAYER_CHANGE
;0.2
G92 E0

M73 P2 R22
G1 E-.5 F2400
;_SET_FAN_SPEED_CHANGING_LAYER
SET_VELOCITY_LIMIT ACCEL=500 ACCEL_TO_DECEL=250
SET_VELOCITY_LIMIT SQUARE_CORNER_VELOCITY=7
; printing object Corps24.stl id:0 copy 0
EXCLUDE_OBJECT_START NAME=Corps24.stl_id_0_copy_0
G1 Z.2 F18000
G1 X98.426 Y167.703
G1 Z.2
G1 E.5 F2400
;TYPE:Inner wall
;WIDTH:0.499999
G1 F1800
G1 X98.593 Y102.297 E2.48584
G1 X147.574 Y102.297 E1.86157
M73 P2 R21
G1 X147.407 Y167.703 E2.48584
G1 X98.466 Y167.703 E1.86005
G1 X97.968 Y168.16 F18000
;TYPE:Outer wall
G1 F1800
G1 X98.137 Y101.84 E2.52058
G1 X148.032 Y101.84 E1.89632
G1 X147.863 Y168.16 E2.52058
G1 X98.008 Y168.16 E1.8948
M73 P3 R21
G1 E-.35 F2400
;WIPE_START
G1 F1800
G1 X98.01 Y167.16 E-.15
;WIPE_END
G1 Z.4 F18000
G1 X146.51 Y102.434
G1 Z.4
G1 Z.2
G1 E.5 F2400
;TYPE:Bottom surface
;WIDTH:0.501317
G1 F3600
G1 X147.229 Y103.153 E.03877
G1 X147.227 Y103.8 E.02465
G1 X146.067 Y102.64 E.06254
G1 X145.419 Y102.64 E.02471
G1 X147.226 Y104.447 E.09739
G1 X147.224 Y105.093 E.02465
G1 X144.771 Y102.64 E.13225
G1 X144.122 Y102.64 E.02471
G1 X147.222 Y105.74 E.1671
G1 X147.221 Y106.387 E.02465
G1 X143.474 Y102.64 E.20196
G1 X142.826 Y102.64 E.02471
G1 X147.219 Y107.033 E.23681
G1 X147.217 Y107.68 E.02465
G1 X142.177 Y102.64 E.27167
G1 X141.529 Y102.64 E.02471
G1 X147.216 Y108.326 E.30652
G1 X147.214 Y108.973 E.02465
G1 X140.881 Y102.64 E.34138
G1 X140.233 Y102.64 E.02471
G1 X147.212 Y109.62 E.37623
G1 X147.211 Y110.266 E.02465
G1 X139.584 Y102.64 E.41109
G1 X138.936 Y102.64 E.02471
G1 X147.209 Y110.913 E.44594
G1 X147.207 Y111.56 E.02465
G1 X138.288 Y102.64 E.4808
G1 X137.64 Y102.64 E.02471
G1 X147.206 Y112.206 E.51566
G1 X147.204 Y112.853 E.02465
G1 X136.991 Y102.64 E.55051
G1 X136.343 Y102.64 E.02471
G1 X147.202 Y113.499 E.58537
G1 X147.201 Y114.146 E.02465
G1 X135.695 Y102.64 E.62022
G1 X135.046 Y102.64 E.02471
G1 X147.199 Y114.793 E.65508
G1 X147.197 Y115.439 E.02465
G1 X134.398 Y102.64 E.68993
G1 X133.75 Y102.64 E.02471
G1 X147.196 Y116.086 E.72479
G1 X147.194 Y116.732 E.02465
G1 X133.102 Y102.64 E.75964
G1 X132.453 Y102.64 E.02471
G1 X147.193 Y117.379 E.7945
G1 X147.191 Y118.026 E.02465
G1 X131.805 Y102.64 E.82935
G1 X131.157 Y102.64 E.02471
G1 X147.189 Y118.672 E.86421
G1 X147.188 Y119.319 E.02465
G1 X130.509 Y102.64 E.89907
G1 X129.86 Y102.64 E.02471
G1 X147.186 Y119.966 E.93392
G1 X147.184 Y120.612 E.02465
M73 P4 R21
G1 X129.212 Y102.64 E.96878
G1 X128.564 Y102.64 E.02471
G1 X147.183 Y121.259 E1.00363
G1 X147.181 Y121.905 E.02465
G1 X127.915 Y102.64 E1.03849
G1 X127.267 Y102.64 E.02471
G1 X147.179 Y122.552 E1.07334
G1 X147.178 Y123.199 E.02465
G1 X126.619 Y102.64 E1.1082
G1 X125.971 Y102.64 E.02471
G1 X147.176 Y123.845 E1.14305
G1 X147.174 Y124.492 E.02465
G1 X125.322 Y102.64 E1.17791
G1 X124.674 Y102.64 E.02471
G1 X147.173 Y125.139 E1.21276
G1 X147.171 Y125.785 E.02465
G1 X124.026 Y102.64 E1.24762
G1 X123.378 Y102.64 E.02471
G1 X147.169 Y126.432 E1.28247
G1 X147.168 Y127.078 E.02465
G1 X122.729 Y102.64 E1.31733
G1 X122.081 Y102.64 E.02471
G1 X147.166 Y127.725 E1.35219
G1 X147.164 Y128.372 E.02465
G1 X121.433 Y102.64 E1.38704
G1 X120.785 Y102.64 E.02471
G1 X147.163 Y129.018 E1.4219
G1 X147.161 Y129.665 E.02465
G1 X120.136 Y102.64 E1.45675
G1 X119.488 Y102.64 E.02471
G1 X147.16 Y130.312 E1.49161
G1 X147.158 Y130.958 E.02465
G1 X118.84 Y102.64 E1.52646
G1 X118.191 Y102.64 E.02471
G1 X147.156 Y131.605 E1.56132
G1 X147.155 Y132.251 E.02465
G1 X117.543 Y102.64 E1.59617
G1 X116.895 Y102.64 E.02471
M73 P5 R21
G1 X147.153 Y132.898 E1.63103
G1 X147.151 Y133.545 E.02465
G1 X116.247 Y102.64 E1.66588
G1 X115.598 Y102.64 E.02471
G1 X147.15 Y134.191 E1.70074
G1 X147.148 Y134.838 E.02465
G1 X114.95 Y102.64 E1.7356
G1 X114.302 Y102.64 E.02471
G1 X147.146 Y135.484 E1.77045
G1 X147.145 Y136.131 E.02465
G1 X113.654 Y102.64 E1.80531
G1 X113.005 Y102.64 E.02471
G1 X147.143 Y136.778 E1.84016
G1 X147.141 Y137.424 E.02465
G1 X112.357 Y102.64 E1.87502
G1 X111.709 Y102.64 E.02471
G1 X147.14 Y138.071 E1.90987
G1 X147.138 Y138.718 E.02465
G1 X111.06 Y102.64 E1.94473
G1 X110.412 Y102.64 E.02471
G1 X147.136 Y139.364 E1.97958
G1 X147.135 Y140.011 E.02465
G1 X109.764 Y102.64 E2.01444
G1 X109.116 Y102.64 E.02471
G1 X147.133 Y140.657 E2.04929
G1 X147.131 Y141.304 E.02465
G1 X108.467 Y102.64 E2.08415
G1 X107.819 Y102.64 E.02471
G1 X147.13 Y141.951 E2.119
G1 X147.128 Y142.597 E.02465
M73 P6 R21
G1 X107.171 Y102.64 E2.15386
G1 X106.523 Y102.64 E.02471
G1 X147.127 Y143.244 E2.18872
G1 X147.125 Y143.891 E.02465
G1 X105.874 Y102.64 E2.22357
G1 X105.226 Y102.64 E.02471
G1 X147.123 Y144.537 E2.25843
G1 X147.122 Y145.184 E.02465
G1 X104.578 Y102.64 E2.29328
G1 X103.929 Y102.64 E.02471
G1 X147.12 Y145.83 E2.32814
G1 X147.118 Y146.477 E.02465
G1 X103.281 Y102.64 E2.36299
G1 X102.633 Y102.64 E.02471
M73 P6 R20
G1 X147.117 Y147.124 E2.39785
G1 X147.115 Y147.77 E.02465
G1 X101.985 Y102.64 E2.4327
G1 X101.336 Y102.64 E.02471
G1 X147.113 Y148.417 E2.46756
G1 X147.112 Y149.064 E.02465
G1 X100.688 Y102.64 E2.50241
G1 X100.04 Y102.64 E.02471
M73 P7 R20
G1 X147.11 Y149.71 E2.53727
G1 X147.108 Y150.357 E.02465
G1 X99.392 Y102.64 E2.57213
G1 X98.935 Y102.64 E.0174
G1 X98.935 Y102.831 E.00729
G1 X147.107 Y151.003 E2.59667
G1 X147.105 Y151.65 E.02465
G1 X98.933 Y103.478 E2.59667
G1 X98.931 Y104.124 E.02465
G1 X147.103 Y152.297 E2.59667
G1 X147.102 Y152.943 E.02465
G1 X98.93 Y104.771 E2.59667
G1 X98.928 Y105.418 E.02465
G1 X147.1 Y153.59 E2.59667
G1 X147.098 Y154.236 E.02465
G1 X98.926 Y106.064 E2.59667
G1 X98.925 Y106.711 E.02465
G1 X147.097 Y154.883 E2.59667
G1 X147.095 Y155.53 E.02465
G1 X98.923 Y107.358 E2.59667
G1 X98.921 Y108.004 E.02465
G1 X147.093 Y156.176 E2.59667
G1 X147.092 Y156.823 E.02465
M73 P8 R20
G1 X98.92 Y108.651 E2.59667
G1 X98.918 Y109.297 E.02465
G1 X147.09 Y157.47 E2.59667
G1 X147.089 Y158.116 E.02465
G1 X98.916 Y109.944 E2.59667
G1 X98.915 Y110.591 E.02465
G1 X147.087 Y158.763 E2.59667
G1 X147.085 Y159.409 E.02465
G1 X98.913 Y111.237 E2.59667
G1 X98.911 Y111.884 E.02465
G1 X147.084 Y160.056 E2.59667
G1 X147.082 Y160.703 E.02465
G1 X98.91 Y112.531 E2.59667
G1 X98.908 Y113.177 E.02465
G1 X147.08 Y161.349 E2.59667
G1 X147.079 Y161.996 E.02465
G1 X98.907 Y113.824 E2.59667
G1 X98.905 Y114.47 E.02465
G1 X147.077 Y162.643 E2.59667
G1 X147.075 Y163.289 E.02465
G1 X98.903 Y115.117 E2.59667
G1 X98.902 Y115.764 E.02465
M73 P9 R20
G1 X147.074 Y163.936 E2.59667
G1 X147.072 Y164.582 E.02465
G1 X98.9 Y116.41 E2.59667
G1 X98.898 Y117.057 E.02465
G1 X147.07 Y165.229 E2.59667
G1 X147.069 Y165.876 E.02465
G1 X98.897 Y117.704 E2.59667
G1 X98.895 Y118.35 E.02465
G1 X147.067 Y166.522 E2.59667
G1 X147.065 Y167.169 E.02465
G1 X98.893 Y118.997 E2.59667
G1 X98.892 Y119.643 E.02465
G1 X146.608 Y167.36 E2.57212
G1 X145.96 Y167.36 E.02471
G1 X98.89 Y120.29 E2.53726
G1 X98.888 Y120.937 E.02465
G1 X145.312 Y167.36 E2.50241
G1 X144.664 Y167.36 E.02471
G1 X98.887 Y121.583 E2.46755
G1 X98.885 Y122.23 E.02465
M73 P10 R20
G1 X144.015 Y167.36 E2.4327
G1 X143.367 Y167.36 E.02471
G1 X98.883 Y122.876 E2.39784
G1 X98.882 Y123.523 E.02465
G1 X142.719 Y167.36 E2.36299
G1 X142.07 Y167.36 E.02471
G1 X98.88 Y124.17 E2.32813
G1 X98.878 Y124.816 E.02465
G1 X141.422 Y167.36 E2.29328
G1 X140.774 Y167.36 E.02471
G1 X98.877 Y125.463 E2.25842
G1 X98.875 Y126.11 E.02465
G1 X140.126 Y167.36 E2.22356
G1 X139.477 Y167.36 E.02471
G1 X98.874 Y126.756 E2.18871
G1 X98.872 Y127.403 E.02465
G1 X138.829 Y167.36 E2.15385
G1 X138.181 Y167.36 E.02471
G1 X98.87 Y128.049 E2.119
G1 X98.869 Y128.696 E.02465
G1 X137.533 Y167.36 E2.08414
G1 X136.884 Y167.36 E.02471
G1 X98.867 Y129.343 E2.04929
G1 X98.865 Y129.989 E.02465
M73 P11 R20
G1 X136.236 Y167.36 E2.01443
G1 X135.588 Y167.36 E.02471
M73 P11 R19
G1 X98.864 Y130.636 E1.97958
G1 X98.862 Y131.283 E.02465
G1 X134.939 Y167.36 E1.94472
G1 X134.291 Y167.36 E.02471
G1 X98.86 Y131.929 E1.90987
G1 X98.859 Y132.576 E.02465
G1 X133.643 Y167.36 E1.87501
G1 X132.995 Y167.36 E.02471
G1 X98.857 Y133.222 E1.84016
G1 X98.855 Y133.869 E.02465
G1 X132.346 Y167.36 E1.8053
G1 X131.698 Y167.36 E.02471
G1 X98.854 Y134.516 E1.77044
G1 X98.852 Y135.162 E.02465
G1 X131.05 Y167.36 E1.73559
G1 X130.402 Y167.36 E.02471
G1 X98.85 Y135.809 E1.70073
G1 X98.849 Y136.456 E.02465
G1 X129.753 Y167.36 E1.66588
G1 X129.105 Y167.36 E.02471
G1 X98.847 Y137.102 E1.63102
G1 X98.845 Y137.749 E.02465
G1 X128.457 Y167.36 E1.59617
G1 X127.808 Y167.36 E.02471
G1 X98.844 Y138.395 E1.56131
G1 X98.842 Y139.042 E.02465
G1 X127.16 Y167.36 E1.52646
G1 X126.512 Y167.36 E.02471
M73 P12 R19
G1 X98.84 Y139.689 E1.4916
G1 X98.839 Y140.335 E.02465
G1 X125.864 Y167.36 E1.45675
G1 X125.215 Y167.36 E.02471
G1 X98.837 Y140.982 E1.42189
G1 X98.836 Y141.628 E.02465
G1 X124.567 Y167.36 E1.38703
G1 X123.919 Y167.36 E.02471
G1 X98.834 Y142.275 E1.35218
G1 X98.832 Y142.922 E.02465
G1 X123.271 Y167.36 E1.31732
G1 X122.622 Y167.36 E.02471
G1 X98.831 Y143.568 E1.28247
G1 X98.829 Y144.215 E.02465
G1 X121.974 Y167.36 E1.24761
G1 X121.326 Y167.36 E.02471
G1 X98.827 Y144.862 E1.21276
G1 X98.826 Y145.508 E.02465
G1 X120.677 Y167.36 E1.1779
G1 X120.029 Y167.36 E.02471
G1 X98.824 Y146.155 E1.14305
G1 X98.822 Y146.801 E.02465
G1 X119.381 Y167.36 E1.10819
G1 X118.733 Y167.36 E.02471
G1 X98.821 Y147.448 E1.07334
G1 X98.819 Y148.095 E.02465
G1 X118.084 Y167.36 E1.03848
G1 X117.436 Y167.36 E.02471
G1 X98.817 Y148.741 E1.00363
G1 X98.816 Y149.388 E.02465
G1 X116.788 Y167.36 E.96877
G1 X116.14 Y167.36 E.02471
G1 X98.814 Y150.035 E.93391
G1 X98.812 Y150.681 E.02465
G1 X115.491 Y167.36 E.89906
G1 X114.843 Y167.36 E.02471
G1 X98.811 Y151.328 E.8642
G1 X98.809 Y151.974 E.02465
G1 X114.195 Y167.36 E.82935
G1 X113.547 Y167.36 E.02471
G1 X98.807 Y152.621 E.79449
G1 X98.806 Y153.268 E.02465
M73 P13 R19
G1 X112.898 Y167.36 E.75964
G1 X112.25 Y167.36 E.02471
G1 X98.804 Y153.914 E.72478
G1 X98.803 Y154.561 E.02465
G1 X111.602 Y167.36 E.68993
G1 X110.953 Y167.36 E.02471
G1 X98.801 Y155.208 E.65507
G1 X98.799 Y155.854 E.02465
G1 X110.305 Y167.36 E.62022
G1 X109.657 Y167.36 E.02471
G1 X98.798 Y156.501 E.58536
G1 X98.796 Y157.147 E.02465
G1 X109.009 Y167.36 E.5505
G1 X108.36 Y167.36 E.02471
G1 X98.794 Y157.794 E.51565
G1 X98.793 Y158.441 E.02465
G1 X107.712 Y167.36 E.48079
G1 X107.064 Y167.36 E.02471
G1 X98.791 Y159.087 E.44594
G1 X98.789 Y159.734 E.02465
G1 X106.416 Y167.36 E.41108
G1 X105.767 Y167.36 E.02471
G1 X98.788 Y160.38 E.37623
G1 X98.786 Y161.027 E.02465
G1 X105.119 Y167.36 E.34137
G1 X104.471 Y167.36 E.02471
G1 X98.784 Y161.674 E.30652
G1 X98.783 Y162.32 E.02465
G1 X103.822 Y167.36 E.27166
G1 X103.174 Y167.36 E.02471
G1 X98.781 Y162.967 E.23681
G1 X98.779 Y163.614 E.02465
G1 X102.526 Y167.36 E.20195
G1 X101.878 Y167.36 E.02471
G1 X98.778 Y164.26 E.1671
G1 X98.776 Y164.907 E.02465
G1 X101.229 Y167.36 E.13224
G1 X100.581 Y167.36 E.02471
G1 X98.774 Y165.553 E.09738
G1 X98.773 Y166.2 E.02465
G1 X99.933 Y167.36 E.06253
G1 X99.285 Y167.36 E.02471
G1 X98.566 Y166.642 E.03873
; stop printing object Corps24.stl id:0 copy 0
;LAYER_CHANGE
;Z:0.4
;HEIGHT:0.2
;BEFORE_LAYER_CHANGE
;0.4
G92 E0

G1 E-.35 F2400
;WIPE_START
G1 F3600
G1 X99.273 Y167.349 E-.15
;WIPE_END
EXCLUDE_OBJECT_END NAME=Corps24.stl_id_0_copy_0
;_SET_FAN_SPEED_CHANGING_LAYER
SET_VELOCITY_LIMIT ACCEL=5000 ACCEL_TO_DECEL=2500
M104 S240 ; set nozzle temperature
M140 S70 ; set bed temperature
; printing object Corps24.stl id:0 copy 0
SET_VELOCITY_LIMIT SQUARE_CORNER_VELOCITY=8
EXCLUDE_OBJECT_START NAME=Corps24.stl_id_0_copy_0
G1 Z.4 F18000
G1 X98.085 Y168.043 Z.4
G1 E.5 F2400
SET_VELOCITY_LIMIT SQUARE_CORNER_VELOCITY=7
;TYPE:Inner wall
;WIDTH:0.419999
G1 F3600
G1 X98.254 Y101.957 E2.07208
G1 X147.915 Y101.957 E1.55707
G1 X147.746 Y168.043 E2.07208
G1 X98.125 Y168.043 E1.55582
SET_VELOCITY_LIMIT SQUARE_CORNER_VELOCITY=8
G1 X97.717 Y168.41 F18000
SET_VELOCITY_LIMIT ACCEL=2000 ACCEL_TO_DECEL=1000
;TYPE:Outer wall
;WIDTH:0.399999
G1 F1200
G1 X97.719 Y167.61 E.02375
G1 F1199.994
G1 X97.886 Y102.39 E1.93647
G1 X97.888 Y101.59 E.02375
M73 P14 R19
G1 X98.688 Y101.59 E.02375
G1 X147.483 Y101.59 E1.44878
G1 X148.283 Y101.59 E.02375
G1 X148.281 Y102.39 E.02375
G1 X148.114 Y167.61 E1.93647
G1 X148.112 Y168.41 E.02375
G1 X147.312 Y168.41 E.02375
G1 F1200.024
G1 X98.557 Y168.41 E1.4476
G1 X97.757 Y168.41 E.02375
G1 E-.35 F2400
;WIPE_START
G1 F1200.024
G1 X97.759 Y167.41 E-.15
;WIPE_END
SET_VELOCITY_LIMIT ACCEL=5000 ACCEL_TO_DECEL=2500
G1 Z.6 F18000
G1 X147.398 Y167.631
G1 Z.6
G1 Z.4
G1 E.5 F2400
;TYPE:Internal solid infill
;WIDTH:0.41012
G1 F6000
M106 S0
G1 X147.329 Y167.671 E.00243
G1 X147.401 Y167.705 E.00243
G1 X147.636 Y166.937 F18000
;WIDTH:0.420353
G1 F6000
G1 X146.812 Y167.76 E.03655
G1 X146.278 Y167.76 E.01675
G1 X147.467 Y166.572 E.05275
G1 X147.468 Y166.036 E.01679
G1 X145.745 Y167.76 E.0765
G1 X145.211 Y167.76 E.01675
G1 X147.47 Y165.501 E.10025
G1 X147.471 Y164.966 E.01679
G1 X144.677 Y167.76 E.124
G1 X144.143 Y167.76 E.01675
G1 X147.472 Y164.431 E.14775
G1 X147.474 Y163.896 E.01679
G1 X143.61 Y167.76 E.17151
G1 X143.076 Y167.76 E.01675
G1 X147.475 Y163.361 E.19526
G1 X147.477 Y162.826 E.01679
G1 X142.542 Y167.76 E.21901
G1 X142.008 Y167.76 E.01675
G1 X147.478 Y162.29 E.24276
G1 X147.479 Y161.755 E.01679
G1 X141.475 Y167.76 E.26651
G1 X140.941 Y167.76 E.01675
G1 X147.481 Y161.22 E.29026
G1 X147.482 Y160.685 E.01679
G1 X140.407 Y167.76 E.31401
G1 X139.873 Y167.76 E.01675
G1 X147.483 Y160.15 E.33776
G1 X147.485 Y159.615 E.01679
G1 X139.339 Y167.76 E.36151
G1 X138.806 Y167.76 E.01675
G1 X147.486 Y159.08 E.38527
G1 X147.487 Y158.544 E.01679
G1 X138.272 Y167.76 E.40902
G1 X137.738 Y167.76 E.01675
G1 X147.489 Y158.009 E.43277
G1 X147.49 Y157.474 E.01679
G1 X137.204 Y167.76 E.45652
G1 X136.671 Y167.76 E.01675
G1 X147.492 Y156.939 E.48027
G1 X147.493 Y156.404 E.01679
G1 X136.137 Y167.76 E.50402
G1 X135.603 Y167.76 E.01675
G1 X147.494 Y155.869 E.52777
G1 X147.496 Y155.334 E.01679
G1 X135.069 Y167.76 E.55152
G1 X134.535 Y167.76 E.01675
G1 X147.497 Y154.799 E.57527
G1 X147.498 Y154.263 E.01679
G1 X134.002 Y167.76 E.59903
G1 X133.468 Y167.76 E.01675
G1 X147.5 Y153.728 E.62278
G1 X147.501 Y153.193 E.01679
G1 X132.934 Y167.76 E.64653
G1 X132.4 Y167.76 E.01675
G1 X147.502 Y152.658 E.67028
G1 X147.504 Y152.123 E.01679
M73 P15 R19
G1 X131.867 Y167.76 E.69403
G1 X131.333 Y167.76 E.01675
G1 X147.505 Y151.588 E.71778
G1 X147.507 Y151.053 E.01679
G1 X130.799 Y167.76 E.74153
G1 X130.265 Y167.76 E.01675
G1 X147.508 Y150.517 E.76528
