; HEADER_BLOCK_START
; generated by OrcaSlicer 2.0.0 on 2024-05-31 at 13:37:54
; total layer number: 55
; filament_density: 1.27
; filament_diameter: 1.75
; max_z_height: 11.00
; HEADER_BLOCK_END

; THUMBNAIL_BLOCK_START

;
; THUMBNAIL_BLOCK_END

; THUMBNAIL_BLOCK_START

;
; THUMBNAIL_BLOCK_END

; external perimeters extrusion width = 0.40mm
; perimeters extrusion width = 0.42mm
; infill extrusion width = 0.45mm
; solid infill extrusion width = 0.42mm
; top infill extrusion width = 0.40mm
; first layer extrusion width = 0.50mm

; EXECUTABLE_BLOCK_START
EXCLUDE_OBJECT_DEFINE NAME=Couvercle.stl_id_0_copy_0 CENTER=115,115 POLYGON=[[95,90.5],[135,90.5],[135,139.5],[95,139.5],[95,90.5]]
M73 P0 R17
;TYPE:Custom
M220 S100
G90 ; use absolute coordinates
M83 ; extruder relative mode
M104 S150 ; set temporary nozzle temp to prevent oozing during homing
M140 S70 ; set final bed temp
G4 S30 ; allow partial nozzle warmup
G28 ; home all axis and restore leveling
BED_MESH_CALIBRATE PROFILE=adaptive ADAPTIVE=1 ADAPTIVE_MARGIN=0
G1 Z25 F240
G1 X10.0 Y30 F3000
M104 S245 ; set final nozzle temp
M190 S70 ; wait for bed temp to stabilize
M109 S245 ; wait for nozzle temp to stabilize
G1 Z0.28 F240
G92 E0 ; Move Z Axis up
G1 Z2.0 F5000 ; Move to start position
M73 P1 R17
G1 X5 Y30 Z0.28 F300 ; Draw the first line
G1 X5 Y200 Z0.28 F1500 E15 ; Move to side a little
G1 X5.4 Y200 Z0.28 F5000.0 ; Draw the second line
G1 X5.4 Y50 Z0.28 F1500.0 E30 ; Reset Extruder
G92 E0 ; Move Z Axis up
G1 Z2.0 F3000
M117 Start Printing..
G90
G21
M83 ; use relative distances for extrusion
; filament start gcode
M106 S0
;LAYER_CHANGE
;Z:0.2
;HEIGHT:0.2
;BEFORE_LAYER_CHANGE
;0.2
G92 E0

M73 P2 R17
G1 E-.5 F2400
;_SET_FAN_SPEED_CHANGING_LAYER
SET_VELOCITY_LIMIT ACCEL=500 ACCEL_TO_DECEL=250
SET_VELOCITY_LIMIT SQUARE_CORNER_VELOCITY=7
; printing object Couvercle.stl id:0 copy 0
EXCLUDE_OBJECT_START NAME=Couvercle.stl_id_0_copy_0
G1 Z.2 F18000
G1 X108.707 Y117.449
G1 Z.2
G1 E.5 F2400
;TYPE:Inner wall
;WIDTH:0.499999
G1 F1800
G1 X108.707 Y117.349 E.0036
G1 X108.53 Y117.019 E.01352
G1 X108.312 Y116.857 E.00981
G1 X108.021 Y116.793 E.01074
G1 X104.607 Y116.793 E.12328
G1 X104.607 Y111.207 E.20168
G1 X141.393 Y111.207 E1.32819
G1 X141.393 Y116.793 E.20168
G1 X137.979 Y116.793 E.12328
G1 X137.688 Y116.857 E.01074
G1 X137.47 Y117.019 E.00981
G1 X137.346 Y117.215 E.00837
G1 X137.293 Y117.479 E.00971
G1 X137.293 Y121.626 E.14974
G1 X137.437 Y121.942 E.01253
G1 X137.668 Y122.133 E.01083
G1 X137.979 Y122.207 E.01153
G1 X141.393 Y122.207 E.12328
G1 X141.393 Y130.793 E.31
G1 X137.979 Y130.793 E.12328
G1 X137.751 Y130.832 E.00833
G1 X137.544 Y130.949 E.0086
G1 X137.361 Y131.18 E.01065
G1 X137.293 Y131.479 E.01104
G1 X137.293 Y135.635 E.15008
G1 X137.437 Y135.942 E.01222
G1 X137.668 Y136.133 E.01083
G1 X137.979 Y136.207 E.01153
G1 X141.393 Y136.207 E.12328
G1 X141.393 Y144.793 E.31
G1 X137.979 Y144.793 E.12328
G1 X137.751 Y144.832 E.00833
G1 X137.544 Y144.949 E.0086
G1 X137.361 Y145.18 E.01065
G1 X137.293 Y145.479 E.01104
G1 X137.293 Y149.521 E.14597
G1 X137.344 Y149.782 E.0096
M73 P3 R17
G1 X137.487 Y149.999 E.00938
G1 X137.746 Y150.166 E.01112
G1 X137.979 Y150.207 E.00854
G1 X141.393 Y150.207 E.12328
G1 X141.393 Y158.793 E.31
G1 X104.607 Y158.793 E1.32819
G1 X104.607 Y150.207 E.31
G1 X108.021 Y150.207 E.12328
G1 X108.254 Y150.166 E.00854
G1 X108.513 Y149.999 E.01112
G1 X108.656 Y149.782 E.00938
G1 X108.707 Y149.521 E.0096
G1 X108.707 Y145.373 E.14978
G1 X108.563 Y145.058 E.0125
G1 X108.332 Y144.867 E.01083
G1 X108.021 Y144.793 E.01153
G1 X104.607 Y144.793 E.12328
G1 X104.607 Y136.207 E.31
G1 X108.021 Y136.207 E.12328
G1 X108.249 Y136.168 E.00833
G1 X108.456 Y136.051 E.0086
G1 X108.639 Y135.82 E.01065
G1 X108.707 Y135.521 E.01104
G1 X108.707 Y131.365 E.15008
G1 X108.563 Y131.058 E.01222
G1 X108.332 Y130.867 E.01083
G1 X108.021 Y130.793 E.01153
G1 X104.607 Y130.793 E.12328
G1 X104.607 Y122.207 E.31
G1 X108.021 Y122.207 E.12328
G1 X108.249 Y122.168 E.00833
G1 X108.456 Y122.051 E.0086
G1 X108.639 Y121.82 E.01065
G1 X108.707 Y121.521 E.01104
G1 X108.707 Y117.489 E.1456
G1 X108.25 Y117.479 F18000
;TYPE:Outer wall
G1 F1800
G1 X108.191 Y117.325 E.00592
G1 X108.021 Y117.25 E.0067
G1 X104.15 Y117.25 E.13978
G1 X104.15 Y110.75 E.23469
G1 X141.85 Y110.75 E1.36119
G1 X141.85 Y117.25 E.23469
G1 X137.939 Y117.253 E.14121
G1 X137.809 Y117.325 E.00537
G1 X137.75 Y117.479 E.00592
G1 X137.75 Y121.521 E.14597
G1 X137.819 Y121.685 E.0064
G1 X137.979 Y121.75 E.00623
G1 X141.85 Y121.75 E.13978
G1 X141.85 Y131.25 E.34301
G1 X137.979 Y131.25 E.13978
G1 X137.819 Y131.315 E.00623
G1 X137.75 Y131.479 E.0064
G1 X137.75 Y135.521 E.14597
G1 X137.819 Y135.685 E.0064
G1 X137.979 Y135.75 E.00623
G1 X141.85 Y135.75 E.13978
G1 X141.85 Y145.25 E.34301
G1 X137.979 Y145.25 E.13978
G1 X137.819 Y145.315 E.00623
G1 X137.75 Y145.479 E.0064
G1 X137.75 Y149.521 E.14597
G1 X137.815 Y149.681 E.00621
G1 X137.979 Y149.75 E.00642
G1 X141.85 Y149.75 E.13978
G1 X141.85 Y159.25 E.34301
G1 X104.15 Y159.25 E1.36119
G1 X104.15 Y149.75 E.34301
G1 X108.021 Y149.75 E.13978
G1 X108.185 Y149.681 E.00642
G1 X108.25 Y149.521 E.00621
G1 X108.25 Y145.479 E.14597
G1 X108.181 Y145.315 E.0064
M73 P4 R17
G1 X108.021 Y145.25 E.00623
G1 X104.15 Y145.25 E.13978
G1 X104.15 Y135.75 E.34301
G1 X108.021 Y135.75 E.13978
G1 X108.181 Y135.685 E.00623
G1 X108.25 Y135.521 E.0064
G1 X108.25 Y131.479 E.14597
G1 X108.181 Y131.315 E.0064
G1 X108.021 Y131.25 E.00623
G1 X104.15 Y131.25 E.13978
G1 X104.15 Y121.75 E.34301
G1 X108.021 Y121.75 E.13978
G1 X108.181 Y121.685 E.00623
G1 X108.25 Y121.521 E.0064
G1 X108.25 Y117.519 E.14453
G1 E-.35 F2400
;WIPE_START
G1 F1800
G1 X108.191 Y117.325 E-.03029
G1 X108.021 Y117.25 E-.02785
G1 X107.409 Y117.25 E-.09187
;WIPE_END
G1 Z.4 F18000
G1 X141.256 Y136.993
G1 Z.4
G1 Z.2
G1 E.5 F2400
;TYPE:Bottom surface
;WIDTH:0.502893
G1 F3600
G1 X140.812 Y136.55 E.02279
G1 X140.162 Y136.55 E.02364
G1 X141.05 Y137.438 E.04564
G1 X141.05 Y138.089 E.02364
G1 X139.511 Y136.55 E.07907
G1 X138.861 Y136.55 E.02364
G1 X141.05 Y138.739 E.11249
G1 X141.05 Y139.39 E.02364
G1 X138.005 Y136.344 E.15649
G1 E-.35 F2400
;WIPE_START
G1 F3600
G1 X138.712 Y137.051 E-.15
;WIPE_END
G1 Z.4 F18000
G1 X141.256 Y123.333 Z.4
G1 Z.2
G1 E.5 F2400
G1 F3600
G1 X140.473 Y122.55 E.04023
G1 X139.822 Y122.55 E.02364
G1 X141.05 Y123.778 E.06309
G1 X141.05 Y124.428 E.02364
G1 X139.172 Y122.55 E.09651
G1 X138.521 Y122.55 E.02364
G1 X141.256 Y125.284 E.14051
G1 E-.35 F2400
;WIPE_START
G1 F3600
G1 X140.549 Y124.577 E-.15
;WIPE_END
G1 Z.4 F18000
G1 X141.256 Y112.274 Z.4
G1 Z.2
G1 E.5 F2400
G1 F3600
G1 X140.531 Y111.55 E.03722
G1 X139.881 Y111.55 E.02364
G1 X141.05 Y112.719 E.06008
G1 X141.05 Y113.37 E.02364
G1 X139.23 Y111.55 E.09351
G1 X138.58 Y111.55 E.02364
G1 X141.05 Y114.02 E.12693
G1 X141.05 Y114.671 E.02364
G1 X137.929 Y111.55 E.16036
G1 X137.279 Y111.55 E.02364
G1 X141.05 Y115.321 E.19378
G1 X141.05 Y115.972 E.02364
G1 X136.628 Y111.55 E.22721
G1 X135.978 Y111.55 E.02364
G1 X140.878 Y116.45 E.2518
G1 X140.228 Y116.45 E.02364
G1 X135.327 Y111.55 E.2518
G1 X134.677 Y111.55 E.02364
G1 X139.577 Y116.45 E.2518
G1 X138.927 Y116.45 E.02364
G1 X134.026 Y111.55 E.2518
G1 X133.376 Y111.55 E.02364
G1 X138.276 Y116.45 E.2518
G1 X137.972 Y116.45 E.01104
G1 X137.753 Y116.474 E.00802
G1 X137.676 Y116.501 E.00294
G1 X132.725 Y111.55 E.2544
G1 X132.075 Y111.55 E.02364
G1 X137.267 Y116.742 E.26678
G1 X137.105 Y116.935 E.00914
G1 X137.011 Y117.137 E.0081
G1 X131.424 Y111.55 E.28707
G1 X130.774 Y111.55 E.02364
G1 X136.95 Y117.726 E.31737
G1 X136.951 Y118.377 E.02365
G1 X130.123 Y111.55 E.35082
G1 X129.473 Y111.55 E.02364
G1 X136.951 Y119.028 E.38426
G1 X136.951 Y119.679 E.02365
G1 X128.822 Y111.55 E.4177
G1 X128.172 Y111.55 E.02364
G1 X136.952 Y120.33 E.45115
G1 X136.952 Y120.981 E.02365
G1 X127.521 Y111.55 E.48459
G1 X126.871 Y111.55 E.02364
G1 X136.962 Y121.641 E.51851
G1 X137.013 Y121.88 E.0089
G1 X137.164 Y122.15 E.01124
G1 X137.326 Y122.317 E.00844
G1 X137.514 Y122.44 E.00817
G1 X137.779 Y122.531 E.01018
G1 X137.86 Y122.539 E.00296
G1 X141.05 Y125.729 E.16393
G1 X141.05 Y126.38 E.02364
G1 X126.22 Y111.55 E.76202
G1 X125.57 Y111.55 E.02364
M73 P5 R17
G1 X141.05 Y127.03 E.79545
G1 X141.05 Y127.681 E.02364
G1 X124.919 Y111.55 E.82888
G1 X124.269 Y111.55 E.02364
G1 X141.05 Y128.331 E.8623
G1 X141.05 Y128.982 E.02364
M73 P5 R16
G1 X123.618 Y111.55 E.89573
G1 X122.968 Y111.55 E.02364
G1 X141.05 Y129.632 E.92915
G1 X141.05 Y130.283 E.02364
G1 X122.317 Y111.55 E.96258
G1 X121.667 Y111.55 E.02364
G1 X140.567 Y130.45 E.97118
G1 X139.917 Y130.45 E.02364
G1 X121.016 Y111.55 E.97118
G1 X120.366 Y111.55 E.02364
G1 X139.266 Y130.45 E.97118
G1 X138.616 Y130.45 E.02364
G1 X119.715 Y111.55 E.97118
G1 X119.065 Y111.55 E.02364
G1 X137.966 Y130.451 E.97122
G1 X137.783 Y130.469 E.00669
G1 X137.634 Y130.509 E.00558
G1 X137.46 Y130.596 E.00707
G1 X118.414 Y111.55 E.97866
G1 X117.764 Y111.55 E.02364
G1 X137.128 Y130.914 E.99504
G1 X137.009 Y131.134 E.00909
G1 X136.957 Y131.393 E.00961
G1 X117.113 Y111.55 E1.01965
G1 X116.463 Y111.55 E.02364
G1 X136.95 Y132.037 E1.05274
G1 X136.951 Y132.688 E.02364
G1 X115.812 Y111.55 E1.08618
G1 X115.162 Y111.55 E.02364
G1 X136.951 Y133.339 E1.11962
G1 X136.951 Y133.989 E.02364
G1 X114.511 Y111.55 E1.15305
G1 X113.861 Y111.55 E.02364
M73 P6 R16
G1 X136.951 Y134.64 E1.18649
G1 X136.951 Y135.291 E.02364
G1 X113.21 Y111.55 E1.21993
G1 X112.56 Y111.55 E.02364
G1 X141.05 Y140.04 E1.46397
G1 X141.05 Y140.691 E.02364
G1 X111.909 Y111.55 E1.49739
G1 X111.259 Y111.55 E.02364
G1 X141.05 Y141.341 E1.53082
G1 X141.05 Y141.992 E.02364
G1 X110.608 Y111.55 E1.56424
G1 X109.958 Y111.55 E.02364
G1 X141.05 Y142.642 E1.59767
G1 X141.05 Y143.293 E.02364
G1 X109.307 Y111.55 E1.6311
G1 X108.657 Y111.55 E.02364
G1 X141.05 Y143.943 E1.66452
G1 X141.05 Y144.45 E.01842
G1 X140.907 Y144.45 E.00521
G1 X108.006 Y111.55 E1.69057
G1 X107.356 Y111.55 E.02364
G1 X140.256 Y144.45 E1.69057
G1 X139.606 Y144.45 E.02364
G1 X106.705 Y111.55 E1.69057
G1 X106.055 Y111.55 E.02364
G1 X138.955 Y144.45 E1.69057
G1 X138.305 Y144.45 E.02364
M73 P7 R16
G1 X105.404 Y111.55 E1.69057
G1 X104.95 Y111.55 E.01651
G1 X104.95 Y111.746 E.00712
G1 X137.696 Y144.492 E1.68266
G1 X137.407 Y144.622 E.01152
G1 X137.287 Y144.734 E.00595
G1 X104.95 Y112.396 E1.66164
G1 X104.95 Y113.047 E.02364
G1 X137.019 Y145.116 E1.64785
G1 X136.962 Y145.319 E.00768
G1 X136.95 Y145.698 E.01375
G1 X109.05 Y117.797 E1.43365
G1 X109.05 Y118.448 E.02364
G1 X136.95 Y146.348 E1.43365
G1 X136.95 Y146.999 E.02364
G1 X109.05 Y119.098 E1.43365
G1 X109.05 Y119.749 E.02364
G1 X136.95 Y147.649 E1.43365
G1 X136.95 Y148.3 E.02364
G1 X109.05 Y120.399 E1.43365
G1 X109.05 Y121.05 E.02364
G1 X137.156 Y149.156 E1.44422
G1 E-.35 F2400
;WIPE_START
G1 F3600
G1 X136.449 Y148.449 E-.15
;WIPE_END
G1 Z.4 F18000
G1 X141.256 Y151.304 Z.4
G1 Z.2
G1 E.5 F2400
G1 F3600
G1 X140.501 Y150.55 E.03877
G1 X139.851 Y150.55 E.02364
G1 X141.05 Y151.749 E.06162
G1 X141.05 Y152.4 E.02364
G1 X139.2 Y150.55 E.09505
G1 X138.55 Y150.55 E.02364
G1 X141.05 Y153.05 E.12847
G1 X141.05 Y153.701 E.02364
G1 X137.892 Y150.542 E.16229
G1 X137.786 Y150.533 E.00387
G1 X137.486 Y150.425 E.01159
G1 X137.348 Y150.335 E.00597
G1 X137.153 Y150.136 E.01014
G1 X137.078 Y150.02 E.00501
G1 X136.989 Y149.805 E.00845
G1 X136.962 Y149.612 E.00707
G1 X109.034 Y121.685 E1.43504
G1 X108.991 Y121.867 E.0068
G1 X108.841 Y122.142 E.01139
G1 X141.05 Y154.351 E1.65506
G1 X141.05 Y155.002 E.02364
M73 P8 R16
G1 X108.482 Y122.433 E1.67352
G1 X108.366 Y122.491 E.00472
G1 X108.217 Y122.531 E.00558
G1 X107.948 Y122.55 E.00982
G1 X141.05 Y155.652 E1.70095
G1 X141.05 Y156.303 E.02364
G1 X107.297 Y122.55 E1.73438
G1 X106.647 Y122.55 E.02364
G1 X141.05 Y156.953 E1.7678
G1 X141.05 Y157.604 E.02364
G1 X105.996 Y122.55 E1.80123
G1 X105.346 Y122.55 E.02364
G1 X141.05 Y158.254 E1.83466
G1 X141.05 Y158.45 E.00712
G1 X140.596 Y158.45 E.01651
G1 X104.95 Y122.804 E1.83165
G1 X104.95 Y123.455 E.02364
G1 X139.945 Y158.45 E1.79822
G1 X139.295 Y158.45 E.02364
G1 X104.95 Y124.105 E1.7648
G1 X104.95 Y124.756 E.02364
G1 X138.644 Y158.45 E1.73137
G1 X137.994 Y158.45 E.02364
G1 X104.95 Y125.406 E1.69795
G1 X104.95 Y126.057 E.02364
M73 P9 R16
G1 X137.343 Y158.45 E1.66452
G1 X136.693 Y158.45 E.02364
G1 X104.95 Y126.707 E1.63109
G1 X104.95 Y127.358 E.02364
G1 X108.044 Y130.452 E.15898
G1 X108.221 Y130.469 E.00648
G1 X108.486 Y130.56 E.01018
G1 X108.674 Y130.683 E.00817
G1 X108.836 Y130.85 E.00844
G1 X108.987 Y131.12 E.01126
G1 X109.048 Y131.457 E.01242
G1 X136.042 Y158.45 E1.38706
G1 X135.392 Y158.45 E.02364
G1 X109.049 Y132.107 E1.35362
G1 X109.049 Y132.758 E.02364
G1 X134.741 Y158.45 E1.32019
G1 X134.091 Y158.45 E.02364
G1 X109.049 Y133.409 E1.28675
G1 X109.049 Y134.059 E.02364
G1 X133.44 Y158.45 E1.25331
G1 X132.79 Y158.45 E.02364
G1 X109.05 Y134.71 E1.21988
G1 X109.05 Y135.361 E.02364
G1 X132.139 Y158.45 E1.18644
G1 X131.489 Y158.45 E.02364
G1 X108.961 Y135.922 E1.15759
G1 X108.835 Y136.153 E.00953
G1 X108.683 Y136.295 E.00757
G1 X130.838 Y158.45 E1.13846
G1 X130.188 Y158.45 E.02364
G1 X108.258 Y136.52 E1.12685
G1 X108.027 Y136.55 E.00846
G1 X107.637 Y136.55 E.01417
G1 X129.537 Y158.45 E1.12534
G1 X128.887 Y158.45 E.02364
G1 X106.986 Y136.55 E1.12534
G1 X106.336 Y136.55 E.02364
G1 X128.236 Y158.45 E1.12534
M73 P10 R16
G1 X127.586 Y158.45 E.02364
G1 X105.685 Y136.55 E1.12534
G1 X105.035 Y136.55 E.02364
G1 X126.935 Y158.45 E1.12534
G1 X126.285 Y158.45 E.02364
G1 X104.95 Y137.115 E1.09628
G1 X104.95 Y137.766 E.02364
G1 X125.634 Y158.45 E1.06285
G1 X124.984 Y158.45 E.02364
G1 X104.95 Y138.416 E1.02943
G1 X104.95 Y139.067 E.02364
G1 X124.333 Y158.45 E.996
G1 X123.683 Y158.45 E.02364
G1 X104.95 Y139.717 E.96258
G1 X104.95 Y140.368 E.02364
G1 X123.032 Y158.45 E.92915
G1 X122.382 Y158.45 E.02364
G1 X104.95 Y141.018 E.89573
G1 X104.95 Y141.669 E.02364
G1 X107.731 Y144.45 E.14291
G1 X107.081 Y144.45 E.02364
G1 X104.95 Y142.319 E.10949
G1 X104.95 Y142.97 E.02364
G1 X106.43 Y144.45 E.07606
G1 X105.78 Y144.45 E.02364
G1 X104.95 Y143.62 E.04263
G1 X104.95 Y144.271 E.02364
G1 X105.335 Y144.656 E.01978
G1 E-.35 F2400
;WIPE_START
G1 F3600
G1 X104.95 Y144.271 E-.08165
G1 X104.95 Y143.815 E-.06835
;WIPE_END
G1 Z.4 F18000
G1 X108.842 Y145.561 Z.4
G1 Z.2
G1 E.5 F2400
G1 F3600
G1 X121.731 Y158.45 E.66229
G1 X121.081 Y158.45 E.02364
G1 X109.048 Y146.418 E.61828
G1 X109.049 Y147.069 E.02365
G1 X120.43 Y158.45 E.58483
M73 P10 R15
G1 X119.78 Y158.45 E.02364
G1 X109.049 Y147.719 E.55139
G1 X109.049 Y148.37 E.02365
G1 X119.129 Y158.45 E.51795
G1 X118.479 Y158.45 E.02364
G1 X109.05 Y149.021 E.48451
G1 X109.05 Y149.529 E.01847
G1 X109.032 Y149.654 E.00458
G1 X117.828 Y158.45 E.45197
G1 X117.178 Y158.45 E.02364
G1 X108.853 Y150.126 E.42774
G1 X108.652 Y150.335 E.01056
G1 X108.505 Y150.428 E.00631
G1 X116.527 Y158.45 E.41221
G1 X115.877 Y158.45 E.02364
G1 X107.976 Y150.55 E.40595
G1 X107.326 Y150.55 E.02364
M73 P11 R15
G1 X115.226 Y158.45 E.40595
G1 X114.576 Y158.45 E.02364
G1 X106.675 Y150.55 E.40595
G1 X106.025 Y150.55 E.02364
G1 X113.925 Y158.45 E.40595
G1 X113.275 Y158.45 E.02364
G1 X105.374 Y150.55 E.40595
G1 X104.95 Y150.55 E.01542
G1 X104.95 Y150.776 E.00821
G1 X112.624 Y158.45 E.39434
G1 X111.974 Y158.45 E.02364
G1 X104.95 Y151.426 E.36091
G1 X104.95 Y152.077 E.02364
G1 X111.323 Y158.45 E.32749
G1 X110.673 Y158.45 E.02364
G1 X104.95 Y152.727 E.29406
G1 X104.95 Y153.378 E.02364
G1 X110.022 Y158.45 E.26063
G1 X109.372 Y158.45 E.02364
G1 X104.95 Y154.028 E.22721
G1 X104.95 Y154.679 E.02364
G1 X108.721 Y158.45 E.19378
G1 X108.071 Y158.45 E.02364
G1 X104.95 Y155.329 E.16036
G1 X104.95 Y155.98 E.02364
G1 X107.42 Y158.45 E.12693
G1 X106.77 Y158.45 E.02364
G1 X104.95 Y156.63 E.09351
G1 X104.95 Y157.281 E.02364
G1 X106.119 Y158.45 E.06008
G1 X105.469 Y158.45 E.02364
G1 X104.744 Y157.726 E.03722
G1 E-.35 F2400
;WIPE_START
G1 F3600
G1 X105.451 Y158.433 E-.15
;WIPE_END
G1 Z.4 F18000
G1 X104.744 Y127.803 Z.4
G1 Z.2
G1 E.5 F2400
G1 F3600
G1 X107.392 Y130.45 E.13604
G1 X106.741 Y130.45 E.02364
G1 X104.95 Y128.659 E.09204
G1 X104.95 Y129.309 E.02364
