; HEADER_BLOCK_START
; generated by OrcaSlicer 2.0.0 on 2024-06-05 at 17:57:44
; total layer number: 30
; filament_density: 1.27
; filament_diameter: 1.75
; max_z_height: 6.00
; HEADER_BLOCK_END

; THUMBNAIL_BLOCK_START

;
; THUMBNAIL_BLOCK_END

; THUMBNAIL_BLOCK_START

;
; THUMBNAIL_BLOCK_END

; external perimeters extrusion width = 0.40mm
; perimeters extrusion width = 0.42mm
; infill extrusion width = 0.45mm
; solid infill extrusion width = 0.42mm
; top infill extrusion width = 0.40mm
; first layer extrusion width = 0.50mm

; external perimeters extrusion width = 0.40mm
; perimeters extrusion width = 0.42mm
; infill extrusion width = 0.45mm
; solid infill extrusion width = 0.42mm
; top infill extrusion width = 0.40mm
; first layer extrusion width = 0.50mm

; EXECUTABLE_BLOCK_START
EXCLUDE_OBJECT_DEFINE NAME=couvercle.stl_id_0_copy_0 CENTER=154.616,158.116 POLYGON=[[112.616,123.116],[196.616,123.116],[196.616,193.116],[112.616,193.116],[112.616,123.116]]
EXCLUDE_OBJECT_DEFINE NAME=Cale.stl_id_1_copy_0 CENTER=109.398,112.898 POLYGON=[[33.3844,178.305],[174.806,36.8841],[185.412,47.4907],[43.991,188.912],[33.3844,178.305]]
M73 P0 R58
;TYPE:Custom
M220 S100
G90 ; use absolute coordinates
M83 ; extruder relative mode
M104 S150 ; set temporary nozzle temp to prevent oozing during homing
M140 S70 ; set final bed temp
G4 S30 ; allow partial nozzle warmup
G28 ; home all axis and restore leveling
BED_MESH_CALIBRATE PROFILE=adaptive ADAPTIVE=1 ADAPTIVE_MARGIN=0
G1 Z25 F240
G1 X10.0 Y30 F3000
M104 S245 ; set final nozzle temp
M190 S70 ; wait for bed temp to stabilize
M109 S245 ; wait for nozzle temp to stabilize
G1 Z0.28 F240
G92 E0 ; Move Z Axis up
G1 Z2.0 F5000 ; Move to start position
G1 X5 Y30 Z0.28 F300 ; Draw the first line
G1 X5 Y200 Z0.28 F1500 E15 ; Move to side a little
G1 X5.4 Y200 Z0.28 F5000.0 ; Draw the second line
G1 X5.4 Y50 Z0.28 F1500.0 E30 ; Reset Extruder
G92 E0 ; Move Z Axis up
G1 Z2.0 F3000
M117 Start Printing..
G90
G21
M83 ; use relative distances for extrusion
; filament start gcode
M106 S0
;LAYER_CHANGE
;Z:0.2
;HEIGHT:0.2
;BEFORE_LAYER_CHANGE
;0.2
G92 E0

G1 E-.5 F2400
;_SET_FAN_SPEED_CHANGING_LAYER
SET_VELOCITY_LIMIT ACCEL=500 ACCEL_TO_DECEL=250
SET_VELOCITY_LIMIT SQUARE_CORNER_VELOCITY=7
; printing object couvercle.stl id:0 copy 0
EXCLUDE_OBJECT_START NAME=couvercle.stl_id_0_copy_0
G1 Z.2 F18000
G1 X202.528 Y145.204
G1 Z.2
G1 E.5 F2400
;TYPE:Inner wall
;WIDTH:0.499999
G1 F1800
G1 X202.528 Y211.028 E2.50175
G1 X122.703 Y211.028 E3.03383
G1 X122.703 Y145.204 E2.50175
G1 X202.488 Y145.204 E3.03231
M73 P1 R58
G1 X202.985 Y144.747 F18000
;TYPE:Outer wall
G1 F1800
G1 X202.985 Y211.485 E2.53649
G1 X122.246 Y211.485 E3.06858
G1 X122.246 Y144.747 E2.53649
G1 X202.945 Y144.747 E3.06706
M73 P1 R57
G1 E-.35 F2400
;WIPE_START
G1 F1800
G1 X202.946 Y145.747 E-.15
;WIPE_END
G1 Z.4 F18000
G1 X202.391 Y146.267
G1 Z.4
G1 Z.2
G1 E.5 F2400
;TYPE:Bottom surface
;WIDTH:0.501251
G1 F3600
G1 X201.67 Y145.546 E.03886
G1 X201.022 Y145.546 E.0247
G1 X202.185 Y146.71 E.0627
G1 X202.185 Y147.358 E.0247
G1 X200.373 Y145.546 E.09764
G1 X199.725 Y145.546 E.0247
G1 X202.185 Y148.006 E.13257
G1 X202.185 Y148.654 E.0247
G1 X199.077 Y145.546 E.16751
G1 X198.429 Y145.546 E.0247
G1 X202.185 Y149.303 E.20244
G1 X202.185 Y149.951 E.0247
G1 X197.781 Y145.546 E.23738
G1 X197.133 Y145.546 E.0247
G1 X202.185 Y150.599 E.27231
G1 X202.185 Y151.247 E.0247
G1 X196.484 Y145.546 E.30725
G1 X195.836 Y145.546 E.0247
G1 X202.185 Y151.895 E.34218
G1 X202.185 Y152.543 E.0247
G1 X195.188 Y145.546 E.37711
G1 X194.54 Y145.546 E.0247
G1 X202.185 Y153.192 E.41205
G1 X202.185 Y153.84 E.0247
G1 X193.892 Y145.546 E.44698
G1 X193.244 Y145.546 E.0247
G1 X202.185 Y154.488 E.48192
G1 X202.185 Y155.136 E.0247
G1 X192.595 Y145.546 E.51685
G1 X191.947 Y145.546 E.0247
G1 X202.185 Y155.784 E.55179
G1 X202.185 Y156.432 E.0247
G1 X191.299 Y145.546 E.58672
G1 X190.651 Y145.546 E.0247
G1 X202.185 Y157.081 E.62165
G1 X202.185 Y157.729 E.0247
G1 X190.003 Y145.546 E.65659
G1 X189.354 Y145.546 E.0247
G1 X202.185 Y158.377 E.69152
G1 X202.185 Y159.025 E.0247
G1 X188.706 Y145.546 E.72646
G1 X188.058 Y145.546 E.0247
G1 X202.185 Y159.673 E.76139
G1 X202.185 Y160.322 E.0247
G1 X187.41 Y145.546 E.79633
G1 X186.762 Y145.546 E.0247
G1 X202.185 Y160.97 E.83126
G1 X202.185 Y161.618 E.0247
G1 X186.114 Y145.546 E.86619
G1 X185.465 Y145.546 E.0247
G1 X202.185 Y162.266 E.90113
G1 X202.185 Y162.914 E.0247
G1 X184.817 Y145.546 E.93606
G1 X184.169 Y145.546 E.0247
G1 X202.185 Y163.562 E.971
G1 X202.185 Y164.211 E.0247
G1 X183.521 Y145.546 E1.00593
G1 X182.873 Y145.546 E.0247
G1 X202.185 Y164.859 E1.04087
G1 X202.185 Y165.507 E.0247
G1 X182.224 Y145.546 E1.0758
G1 X181.576 Y145.546 E.0247
G1 X202.185 Y166.155 E1.11074
G1 X202.185 Y166.803 E.0247
G1 X180.928 Y145.546 E1.14567
G1 X180.28 Y145.546 E.0247
G1 X202.185 Y167.452 E1.1806
G1 X202.185 Y168.1 E.0247
G1 X179.632 Y145.546 E1.21554
G1 X178.984 Y145.546 E.0247
G1 X202.185 Y168.748 E1.25047
G1 X202.185 Y169.396 E.0247
G1 X178.335 Y145.546 E1.28541
G1 X177.687 Y145.546 E.0247
G1 X202.185 Y170.044 E1.32034
G1 X202.185 Y170.692 E.0247
G1 X177.039 Y145.546 E1.35528
G1 X176.391 Y145.546 E.0247
G1 X202.185 Y171.341 E1.39021
G1 X202.185 Y171.989 E.0247
G1 X175.743 Y145.546 E1.42514
G1 X175.095 Y145.546 E.0247
G1 X202.185 Y172.637 E1.46008
G1 X202.185 Y173.285 E.0247
G1 X174.446 Y145.546 E1.49501
G1 X173.798 Y145.546 E.0247
G1 X202.185 Y173.933 E1.52995
G1 X202.185 Y174.581 E.0247
G1 X173.15 Y145.546 E1.56488
G1 X172.502 Y145.546 E.0247
G1 X202.185 Y175.23 E1.59982
G1 X202.185 Y175.878 E.0247
M73 P2 R57
G1 X171.854 Y145.546 E1.63475
G1 X171.205 Y145.546 E.0247
G1 X202.185 Y176.526 E1.66968
G1 X202.185 Y177.174 E.0247
G1 X170.557 Y145.546 E1.70462
G1 X169.909 Y145.546 E.0247
G1 X202.185 Y177.822 E1.73955
G1 X202.185 Y178.471 E.0247
G1 X169.261 Y145.546 E1.77449
G1 X168.613 Y145.546 E.0247
G1 X202.185 Y179.119 E1.80942
G1 X202.185 Y179.767 E.0247
G1 X167.965 Y145.546 E1.84436
G1 X167.316 Y145.546 E.0247
G1 X202.185 Y180.415 E1.87929
G1 X202.185 Y181.063 E.0247
G1 X166.668 Y145.546 E1.91422
G1 X166.02 Y145.546 E.0247
G1 X202.185 Y181.711 E1.94916
G1 X202.185 Y182.36 E.0247
G1 X165.372 Y145.546 E1.98409
G1 X164.724 Y145.546 E.0247
G1 X202.185 Y183.008 E2.01903
G1 X202.185 Y183.656 E.0247
G1 X164.076 Y145.546 E2.05396
G1 X163.427 Y145.546 E.0247
G1 X202.185 Y184.304 E2.0889
G1 X202.185 Y184.952 E.0247
G1 X162.779 Y145.546 E2.12383
G1 X162.131 Y145.546 E.0247
G1 X202.185 Y185.601 E2.15877
G1 X202.185 Y186.249 E.0247
G1 X161.483 Y145.546 E2.1937
G1 X160.835 Y145.546 E.0247
G1 X202.185 Y186.897 E2.22863
G1 X202.185 Y187.545 E.0247
G1 X160.186 Y145.546 E2.26357
G1 X159.538 Y145.546 E.0247
G1 X202.185 Y188.193 E2.2985
G1 X202.185 Y188.841 E.0247
G1 X158.89 Y145.546 E2.33344
G1 X158.242 Y145.546 E.0247
G1 X202.185 Y189.49 E2.36837
G1 X202.185 Y190.138 E.0247
G1 X157.594 Y145.546 E2.40331
G1 X156.946 Y145.546 E.0247
G1 X202.185 Y190.786 E2.43824
G1 X202.185 Y191.434 E.0247
G1 X156.297 Y145.546 E2.47317
G1 X155.649 Y145.546 E.0247
G1 X202.185 Y192.082 E2.50811
G1 X202.185 Y192.73 E.0247
G1 X155.001 Y145.546 E2.54304
G1 X154.353 Y145.546 E.0247
G1 X202.185 Y193.379 E2.57798
G1 X202.185 Y194.027 E.0247
G1 X153.705 Y145.546 E2.61291
G1 X153.056 Y145.546 E.0247
G1 X202.185 Y194.675 E2.64785
G1 X202.185 Y195.323 E.0247
G1 X152.408 Y145.546 E2.68278
G1 X151.76 Y145.546 E.0247
G1 X202.185 Y195.971 E2.71771
G1 X202.185 Y196.62 E.0247
M73 P3 R56
G1 X151.112 Y145.546 E2.75265
G1 X150.464 Y145.546 E.0247
G1 X202.185 Y197.268 E2.78758
G1 X202.185 Y197.916 E.0247
G1 X149.816 Y145.546 E2.82252
G1 X149.167 Y145.546 E.0247
G1 X202.185 Y198.564 E2.85745
G1 X202.185 Y199.212 E.0247
G1 X148.519 Y145.546 E2.89239
G1 X147.871 Y145.546 E.0247
G1 X202.185 Y199.86 E2.92732
G1 X202.185 Y200.509 E.0247
G1 X147.223 Y145.546 E2.96226
G1 X146.575 Y145.546 E.0247
G1 X202.185 Y201.157 E2.99719
G1 X202.185 Y201.805 E.0247
G1 X145.927 Y145.546 E3.03212
G1 X145.278 Y145.546 E.0247
G1 X202.185 Y202.453 E3.06706
G1 X202.185 Y203.101 E.0247
G1 X144.63 Y145.546 E3.10199
G1 X143.982 Y145.546 E.0247
G1 X202.185 Y203.749 E3.13693
G1 X202.185 Y204.398 E.0247
G1 X143.334 Y145.546 E3.17186
G1 X142.686 Y145.546 E.0247
G1 X202.185 Y205.046 E3.2068
G1 X202.185 Y205.694 E.0247
G1 X142.037 Y145.546 E3.24173
G1 X141.389 Y145.546 E.0247
G1 X202.185 Y206.342 E3.27666
G1 X202.185 Y206.99 E.0247
G1 X140.741 Y145.546 E3.3116
G1 X140.093 Y145.546 E.0247
G1 X202.185 Y207.639 E3.34653
G1 X202.185 Y208.287 E.0247
G1 X139.445 Y145.546 E3.38147
G1 X138.797 Y145.546 E.0247
G1 X202.185 Y208.935 E3.4164
G1 X202.185 Y209.583 E.0247
G1 X138.148 Y145.546 E3.45134
G1 X137.5 Y145.546 E.0247
G1 X202.185 Y210.231 E3.48627
G1 X202.185 Y210.685 E.0173
G1 X201.991 Y210.685 E.0074
G1 X136.852 Y145.546 E3.51074
G1 X136.204 Y145.546 E.0247
G1 X201.343 Y210.685 E3.51074
G1 X200.695 Y210.685 E.0247
M73 P4 R56
G1 X135.556 Y145.546 E3.51074
G1 X134.908 Y145.546 E.0247
G1 X200.046 Y210.685 E3.51074
G1 X199.398 Y210.685 E.0247
G1 X134.259 Y145.546 E3.51074
G1 X133.611 Y145.546 E.0247
G1 X198.75 Y210.685 E3.51074
G1 X198.102 Y210.685 E.0247
G1 X132.963 Y145.546 E3.51074
G1 X132.315 Y145.546 E.0247
G1 X197.454 Y210.685 E3.51074
G1 X196.806 Y210.685 E.0247
G1 X131.667 Y145.546 E3.51074
G1 X131.018 Y145.546 E.0247
G1 X196.157 Y210.685 E3.51074
G1 X195.509 Y210.685 E.0247
G1 X130.37 Y145.546 E3.51074
G1 X129.722 Y145.546 E.0247
G1 X194.861 Y210.685 E3.51074
G1 X194.213 Y210.685 E.0247
G1 X129.074 Y145.546 E3.51074
G1 X128.426 Y145.546 E.0247
G1 X193.565 Y210.685 E3.51074
G1 X192.917 Y210.685 E.0247
G1 X127.778 Y145.546 E3.51074
G1 X127.129 Y145.546 E.0247
G1 X192.268 Y210.685 E3.51074
G1 X191.62 Y210.685 E.0247
G1 X126.481 Y145.546 E3.51074
G1 X125.833 Y145.546 E.0247
M73 P4 R55
G1 X190.972 Y210.685 E3.51074
G1 X190.324 Y210.685 E.0247
G1 X125.185 Y145.546 E3.51074
G1 X124.537 Y145.546 E.0247
G1 X189.676 Y210.685 E3.51074
G1 X189.027 Y210.685 E.0247
G1 X123.888 Y145.546 E3.51074
G1 X123.24 Y145.546 E.0247
G1 X188.379 Y210.685 E3.51074
G1 X187.731 Y210.685 E.0247
G1 X123.046 Y146 E3.48627
G1 X123.046 Y146.649 E.0247
M73 P5 R55
G1 X187.083 Y210.685 E3.45134
G1 X186.435 Y210.685 E.0247
G1 X123.046 Y147.297 E3.4164
G1 X123.046 Y147.945 E.0247
G1 X185.787 Y210.685 E3.38147
G1 X185.138 Y210.685 E.0247
G1 X123.046 Y148.593 E3.34654
G1 X123.046 Y149.241 E.0247
G1 X184.49 Y210.685 E3.3116
G1 X183.842 Y210.685 E.0247
G1 X123.046 Y149.889 E3.27667
G1 X123.046 Y150.538 E.0247
G1 X183.194 Y210.685 E3.24173
G1 X182.546 Y210.685 E.0247
G1 X123.046 Y151.186 E3.2068
G1 X123.046 Y151.834 E.0247
G1 X181.897 Y210.685 E3.17186
G1 X181.249 Y210.685 E.0247
G1 X123.046 Y152.482 E3.13693
G1 X123.046 Y153.13 E.0247
G1 X180.601 Y210.685 E3.10199
G1 X179.953 Y210.685 E.0247
G1 X123.046 Y153.779 E3.06706
G1 X123.046 Y154.427 E.0247
G1 X179.305 Y210.685 E3.03213
G1 X178.657 Y210.685 E.0247
G1 X123.046 Y155.075 E2.99719
G1 X123.046 Y155.723 E.0247
G1 X178.008 Y210.685 E2.96226
G1 X177.36 Y210.685 E.0247
G1 X123.046 Y156.371 E2.92732
G1 X123.046 Y157.019 E.0247
G1 X176.712 Y210.685 E2.89239
G1 X176.064 Y210.685 E.0247
G1 X123.046 Y157.668 E2.85745
G1 X123.046 Y158.316 E.0247
G1 X175.416 Y210.685 E2.82252
G1 X174.768 Y210.685 E.0247
G1 X123.046 Y158.964 E2.78759
G1 X123.046 Y159.612 E.0247
G1 X174.119 Y210.685 E2.75265
G1 X173.471 Y210.685 E.0247
G1 X123.046 Y160.26 E2.71772
G1 X123.046 Y160.909 E.0247
G1 X172.823 Y210.685 E2.68278
G1 X172.175 Y210.685 E.0247
G1 X123.046 Y161.557 E2.64785
G1 X123.046 Y162.205 E.0247
M73 P6 R55
G1 X171.527 Y210.685 E2.61291
G1 X170.878 Y210.685 E.0247
G1 X123.046 Y162.853 E2.57798
G1 X123.046 Y163.501 E.0247
G1 X170.23 Y210.685 E2.54305
G1 X169.582 Y210.685 E.0247
G1 X123.046 Y164.149 E2.50811
G1 X123.046 Y164.798 E.0247
G1 X168.934 Y210.685 E2.47318
G1 X168.286 Y210.685 E.0247
G1 X123.046 Y165.446 E2.43824
G1 X123.046 Y166.094 E.0247
G1 X167.638 Y210.685 E2.40331
G1 X166.989 Y210.685 E.0247
G1 X123.046 Y166.742 E2.36837
G1 X123.046 Y167.39 E.0247
G1 X166.341 Y210.685 E2.33344
G1 X165.693 Y210.685 E.0247
G1 X123.046 Y168.038 E2.29851
G1 X123.046 Y168.687 E.0247
G1 X165.045 Y210.685 E2.26357
G1 X164.397 Y210.685 E.0247
M73 P6 R54
G1 X123.046 Y169.335 E2.22864
G1 X123.046 Y169.983 E.0247
G1 X163.748 Y210.685 E2.1937
G1 X163.1 Y210.685 E.0247
G1 X123.046 Y170.631 E2.15877
G1 X123.046 Y171.279 E.0247
G1 X162.452 Y210.685 E2.12383
G1 X161.804 Y210.685 E.0247
G1 X123.046 Y171.928 E2.0889
G1 X123.046 Y172.576 E.0247
G1 X161.156 Y210.685 E2.05396
G1 X160.508 Y210.685 E.0247
G1 X123.046 Y173.224 E2.01903
G1 X123.046 Y173.872 E.0247
G1 X159.859 Y210.685 E1.9841
G1 X159.211 Y210.685 E.0247
G1 X123.046 Y174.52 E1.94916
G1 X123.046 Y175.168 E.0247
G1 X158.563 Y210.685 E1.91423
G1 X157.915 Y210.685 E.0247
G1 X123.046 Y175.817 E1.87929
G1 X123.046 Y176.465 E.0247
G1 X157.267 Y210.685 E1.84436
G1 X156.619 Y210.685 E.0247
G1 X123.046 Y177.113 E1.80942
G1 X123.046 Y177.761 E.0247
G1 X155.97 Y210.685 E1.77449
G1 X155.322 Y210.685 E.0247
G1 X123.046 Y178.409 E1.73956
G1 X123.046 Y179.057 E.0247
G1 X154.674 Y210.685 E1.70462
G1 X154.026 Y210.685 E.0247
G1 X123.046 Y179.706 E1.66969
G1 X123.046 Y180.354 E.0247
G1 X153.378 Y210.685 E1.63475
G1 X152.729 Y210.685 E.0247
G1 X123.046 Y181.002 E1.59982
G1 X123.046 Y181.65 E.0247
G1 X152.081 Y210.685 E1.56488
G1 X151.433 Y210.685 E.0247
G1 X123.046 Y182.298 E1.52995
G1 X123.046 Y182.947 E.0247
G1 X150.785 Y210.685 E1.49502
G1 X150.137 Y210.685 E.0247
G1 X123.046 Y183.595 E1.46008
G1 X123.046 Y184.243 E.0247
M73 P7 R54
G1 X149.489 Y210.685 E1.42515
G1 X148.84 Y210.685 E.0247
G1 X123.046 Y184.891 E1.39021
G1 X123.046 Y185.539 E.0247
G1 X148.192 Y210.685 E1.35528
G1 X147.544 Y210.685 E.0247
G1 X123.046 Y186.187 E1.32034
G1 X123.046 Y186.836 E.0247
G1 X146.896 Y210.685 E1.28541
G1 X146.248 Y210.685 E.0247
G1 X123.046 Y187.484 E1.25048
G1 X123.046 Y188.132 E.0247
G1 X145.6 Y210.685 E1.21554
G1 X144.951 Y210.685 E.0247
G1 X123.046 Y188.78 E1.18061
G1 X123.046 Y189.428 E.0247
G1 X144.303 Y210.685 E1.14567
G1 X143.655 Y210.685 E.0247
G1 X123.046 Y190.077 E1.11074
G1 X123.046 Y190.725 E.0247
G1 X143.007 Y210.685 E1.0758
G1 X142.359 Y210.685 E.0247
G1 X123.046 Y191.373 E1.04087
G1 X123.046 Y192.021 E.0247
G1 X141.71 Y210.685 E1.00593
G1 X141.062 Y210.685 E.0247
G1 X123.046 Y192.669 E.971
G1 X123.046 Y193.317 E.0247
G1 X140.414 Y210.685 E.93607
G1 X139.766 Y210.685 E.0247
G1 X123.046 Y193.966 E.90113
G1 X123.046 Y194.614 E.0247
G1 X139.118 Y210.685 E.8662
G1 X138.47 Y210.685 E.0247
G1 X123.046 Y195.262 E.83126
G1 X123.046 Y195.91 E.0247
G1 X137.821 Y210.685 E.79633
G1 X137.173 Y210.685 E.0247
G1 X123.046 Y196.558 E.76139
G1 X123.046 Y197.206 E.0247
G1 X136.525 Y210.685 E.72646
G1 X135.877 Y210.685 E.0247
G1 X123.046 Y197.855 E.69153
G1 X123.046 Y198.503 E.0247
G1 X135.229 Y210.685 E.65659
G1 X134.58 Y210.685 E.0247
G1 X123.046 Y199.151 E.62166
G1 X123.046 Y199.799 E.0247
G1 X133.932 Y210.685 E.58672
G1 X133.284 Y210.685 E.0247
G1 X123.046 Y200.447 E.55179
G1 X123.046 Y201.096 E.0247
G1 X132.636 Y210.685 E.51685
G1 X131.988 Y210.685 E.0247
G1 X123.046 Y201.744 E.48192
G1 X123.046 Y202.392 E.0247
G1 X131.34 Y210.685 E.44699
G1 X130.691 Y210.685 E.0247
G1 X123.046 Y203.04 E.41205
G1 X123.046 Y203.688 E.0247
G1 X130.043 Y210.685 E.37712
G1 X129.395 Y210.685 E.0247
G1 X123.046 Y204.336 E.34218
G1 X123.046 Y204.985 E.0247
G1 X128.747 Y210.685 E.30725
G1 X128.099 Y210.685 E.0247
G1 X123.046 Y205.633 E.27231
G1 X123.046 Y206.281 E.0247
G1 X127.451 Y210.685 E.23738
G1 X126.802 Y210.685 E.0247
G1 X123.046 Y206.929 E.20245
G1 X123.046 Y207.577 E.0247
G1 X126.154 Y210.685 E.16751
G1 X125.506 Y210.685 E.0247
G1 X123.046 Y208.225 E.13258
G1 X123.046 Y208.874 E.0247
G1 X124.858 Y210.685 E.09764
G1 X124.21 Y210.685 E.0247
G1 X123.046 Y209.522 E.06271
G1 X123.046 Y210.17 E.0247
G1 X123.767 Y210.891 E.03886
; stop printing object couvercle.stl id:0 copy 0
; printing object Cale.stl id:1 copy 0
G1 E-.35 F2400
;WIPE_START
G1 F3600
G1 X123.06 Y210.184 E-.15
;WIPE_END
EXCLUDE_OBJECT_END NAME=couvercle.stl_id_0_copy_0
