; HEADER_BLOCK_START
; generated by OrcaSlicer 2.0.0 on 2024-06-03 at 10:13:05
; total layer number: 114
; filament_density: 1.24
; filament_diameter: 1.75
; max_z_height: 23.00
; HEADER_BLOCK_END

; THUMBNAIL_BLOCK_START

;
; THUMBNAIL_BLOCK_END

; THUMBNAIL_BLOCK_START

;
; THUMBNAIL_BLOCK_END

; external perimeters extrusion width = 0.40mm
; perimeters extrusion width = 0.40mm
; infill extrusion width = 0.45mm
; solid infill extrusion width = 0.42mm
; top infill extrusion width = 0.40mm
; first layer extrusion width = 0.50mm

; EXECUTABLE_BLOCK_START
EXCLUDE_OBJECT_DEFINE NAME=Cube_id_0_copy_0 CENTER=115,115 POLYGON=[[103.5,103.5],[126.5,103.5],[126.5,126.5],[103.5,126.5],[103.5,103.5]]
M73 P0 R16
;TYPE:Custom
M220 S100
G90 ; use absolute coordinates
M83 ; extruder relative mode
M104 S150 ; set temporary nozzle temp to prevent oozing during homing
M140 S55 ; set final bed temp
G4 S30 ; allow partial nozzle warmup
G28 ; home all axis and restore leveling
BED_MESH_CALIBRATE PROFILE=adaptive ADAPTIVE=1 ADAPTIVE_MARGIN=0
G1 Z25 F240
G1 X10.0 Y30 F3000
M104 S210 ; set final nozzle temp
M190 S55 ; wait for bed temp to stabilize
M109 S210 ; wait for nozzle temp to stabilize
G1 Z0.28 F240
G92 E0 ; Move Z Axis up
G1 Z2.0 F5000 ; Move to start position
M73 P1 R16
G1 X5 Y30 Z0.28 F300 ; Draw the first line
G1 X5 Y200 Z0.28 F1500 E15 ; Move to side a little
G1 X5.4 Y200 Z0.28 F5000.0 ; Draw the second line
M73 P2 R16
G1 X5.4 Y50 Z0.28 F1500.0 E30 ; Reset Extruder
G92 E0 ; Move Z Axis up
G1 Z2.0 F3000
M117 Start Printing..
G90
G21
M83 ; use relative distances for extrusion
; filament start gcode
M106 S0
;LAYER_CHANGE
;Z:0.4
;HEIGHT:0.4
;BEFORE_LAYER_CHANGE
;0.4
G92 E0

G1 E-.5 F2400
;_SET_FAN_SPEED_CHANGING_LAYER
SET_VELOCITY_LIMIT ACCEL=500 ACCEL_TO_DECEL=250
SET_VELOCITY_LIMIT SQUARE_CORNER_VELOCITY=7
; printing object Cube id:0 copy 0
EXCLUDE_OBJECT_START NAME=Cube_id_0_copy_0
G1 Z.4 F18000
G1 X133.836 Y145.836
G1 Z.4
M73 P2 R15
G1 E.5 F2400
;TYPE:Inner wall
;WIDTH:0.5
G1 F1800
G1 X112.164 Y145.836 E1.49264
G1 X112.164 Y124.164 E1.49264
G1 X133.836 Y124.164 E1.49264
M73 P3 R15
G1 X133.836 Y145.796 E1.48988
G1 X134.25 Y146.25 F18000
;TYPE:Outer wall
G1 F1800
G1 X111.75 Y146.25 E1.54969
G1 X111.75 Y123.75 E1.54969
G1 X134.25 Y123.75 E1.54969
G1 X134.25 Y146.21 E1.54693
G1 E-.35 F2400
;WIPE_START
G1 F1800
G1 X133.25 Y146.212 E-.15
;WIPE_END
G1 Z.6 F18000
G1 X133.712 Y125.129
G1 Z.6
G1 Z.4
G1 E.5 F2400
;TYPE:Bottom surface
;WIDTH:0.50167
G1 F3600
G1 X133.057 Y124.475 E.064
G1 X132.469 Y124.475 E.04067
G1 X133.525 Y125.531 E.10328
G1 X133.525 Y126.119 E.04067
G1 X131.881 Y124.475 E.16079
G1 X131.293 Y124.475 E.04067
G1 X133.525 Y126.707 E.2183
G1 X133.525 Y127.295 E.04067
G1 X130.705 Y124.475 E.27582
G1 X130.117 Y124.475 E.04067
G1 X133.525 Y127.883 E.33333
G1 X133.525 Y128.471 E.04067
G1 X129.529 Y124.475 E.39084
G1 X128.941 Y124.475 E.04067
G1 X133.525 Y129.059 E.44835
G1 X133.525 Y129.647 E.04067
G1 X128.353 Y124.475 E.50586
G1 X127.765 Y124.475 E.04067
G1 X133.525 Y130.235 E.56337
G1 X133.525 Y130.824 E.04067
G1 X127.176 Y124.475 E.62088
G1 X126.588 Y124.475 E.04067
G1 X133.525 Y131.412 E.6784
G1 X133.525 Y132 E.04067
G1 X126 Y124.475 E.73591
G1 X125.412 Y124.475 E.04067
G1 X133.525 Y132.588 E.79342
G1 X133.525 Y133.176 E.04067
G1 X124.824 Y124.475 E.85093
G1 X124.236 Y124.475 E.04067
G1 X133.525 Y133.764 E.90844
G1 X133.525 Y134.352 E.04067
G1 X123.648 Y124.475 E.96595
G1 X123.06 Y124.475 E.04067
G1 X133.525 Y134.94 E1.02346
G1 X133.525 Y135.528 E.04067
M73 P4 R15
G1 X122.472 Y124.475 E1.08098
G1 X121.884 Y124.475 E.04067
G1 X133.525 Y136.116 E1.13849
G1 X133.525 Y136.704 E.04067
G1 X121.296 Y124.475 E1.196
G1 X120.708 Y124.475 E.04067
G1 X133.525 Y137.292 E1.25351
G1 X133.525 Y137.88 E.04067
G1 X120.12 Y124.475 E1.31102
G1 X119.532 Y124.475 E.04067
G1 X133.525 Y138.468 E1.36853
G1 X133.525 Y139.056 E.04067
G1 X118.944 Y124.475 E1.42604
G1 X118.355 Y124.475 E.04067
G1 X133.525 Y139.645 E1.48355
G1 X133.525 Y140.233 E.04067
G1 X117.767 Y124.475 E1.54107
G1 X117.179 Y124.475 E.04067
G1 X133.525 Y140.821 E1.59858
G1 X133.525 Y141.409 E.04067
G1 X116.591 Y124.475 E1.65609
G1 X116.003 Y124.475 E.04067
G1 X133.525 Y141.997 E1.7136
G1 X133.525 Y142.585 E.04067
G1 X115.415 Y124.475 E1.77111
G1 X114.827 Y124.475 E.04067
G1 X133.525 Y143.173 E1.82862
G1 X133.525 Y143.761 E.04067
G1 X114.239 Y124.475 E1.88613
G1 X113.651 Y124.475 E.04067
G1 X133.525 Y144.349 E1.94365
G1 X133.525 Y144.937 E.04067
G1 X113.063 Y124.475 E2.00116
G1 X112.475 Y124.475 E.04066
G1 X133.525 Y145.525 E2.05866
G1 X132.937 Y145.525 E.04067
G1 X112.475 Y125.063 E2.00115
G1 X112.475 Y125.651 E.04067
M73 P5 R15
G1 X132.349 Y145.525 E1.94363
G1 X131.761 Y145.525 E.04067
G1 X112.475 Y126.239 E1.88612
G1 X112.475 Y126.827 E.04067
G1 X131.173 Y145.525 E1.82861
G1 X130.585 Y145.525 E.04067
G1 X112.475 Y127.415 E1.7711
G1 X112.475 Y128.003 E.04067
G1 X129.997 Y145.525 E1.71359
G1 X129.409 Y145.525 E.04067
G1 X112.475 Y128.591 E1.65608
G1 X112.475 Y129.179 E.04067
G1 X128.821 Y145.525 E1.59857
G1 X128.233 Y145.525 E.04067
G1 X112.475 Y129.767 E1.54105
G1 X112.475 Y130.356 E.04067
G1 X127.644 Y145.525 E1.48354
G1 X127.056 Y145.525 E.04067
G1 X112.475 Y130.944 E1.42603
G1 X112.475 Y131.532 E.04067
G1 X126.468 Y145.525 E1.36852
G1 X125.88 Y145.525 E.04067
G1 X112.475 Y132.12 E1.31101
G1 X112.475 Y132.708 E.04067
G1 X125.292 Y145.525 E1.2535
G1 X124.704 Y145.525 E.04067
G1 X112.475 Y133.296 E1.19599
G1 X112.475 Y133.884 E.04067
G1 X124.116 Y145.525 E1.13848
G1 X123.528 Y145.525 E.04067
G1 X112.475 Y134.472 E1.08096
G1 X112.475 Y135.06 E.04067
G1 X122.94 Y145.525 E1.02345
G1 X122.352 Y145.525 E.04067
G1 X112.475 Y135.648 E.96594
G1 X112.475 Y136.236 E.04067
G1 X121.764 Y145.525 E.90843
G1 X121.176 Y145.525 E.04067
G1 X112.475 Y136.824 E.85092
G1 X112.475 Y137.412 E.04067
G1 X120.588 Y145.525 E.79341
G1 X120 Y145.525 E.04067
M73 P6 R15
G1 X112.475 Y138 E.7359
G1 X112.475 Y138.589 E.04067
G1 X119.411 Y145.525 E.67838
G1 X118.823 Y145.525 E.04067
G1 X112.475 Y139.177 E.62087
G1 X112.475 Y139.765 E.04067
G1 X118.235 Y145.525 E.56336
G1 X117.647 Y145.525 E.04067
G1 X112.475 Y140.353 E.50585
G1 X112.475 Y140.941 E.04067
G1 X117.059 Y145.525 E.44834
G1 X116.471 Y145.525 E.04067
G1 X112.475 Y141.529 E.39083
G1 X112.475 Y142.117 E.04067
G1 X115.883 Y145.525 E.33332
G1 X115.295 Y145.525 E.04067
G1 X112.475 Y142.705 E.27581
G1 X112.475 Y143.293 E.04067
G1 X114.707 Y145.525 E.21829
G1 X114.119 Y145.525 E.04067
G1 X112.475 Y143.881 E.16078
G1 X112.475 Y144.469 E.04067
G1 X113.531 Y145.525 E.10327
G1 X112.943 Y145.525 E.04067
G1 X112.288 Y144.871 E.06399
; stop printing object Cube id:0 copy 0
M106 S255
;LAYER_CHANGE
;Z:0.6
;HEIGHT:0.2
;BEFORE_LAYER_CHANGE
;0.6
G92 E0

G1 E-.35 F2400
;WIPE_START
G1 F3600
G1 X112.943 Y145.525 E-.13879
G1 X113.017 Y145.525 E-.01121
;WIPE_END
EXCLUDE_OBJECT_END NAME=Cube_id_0_copy_0
;_SET_FAN_SPEED_CHANGING_LAYER
SET_VELOCITY_LIMIT ACCEL=5000 ACCEL_TO_DECEL=2500
M104 S205 ; set nozzle temperature
M140 S55 ; set bed temperature
; printing object Cube id:0 copy 0
SET_VELOCITY_LIMIT SQUARE_CORNER_VELOCITY=8
EXCLUDE_OBJECT_START NAME=Cube_id_0_copy_0
G1 Z.6 F18000
G1 X133.943 Y145.943 Z.6
G1 E.5 F2400
SET_VELOCITY_LIMIT SQUARE_CORNER_VELOCITY=7
;TYPE:Inner wall
;WIDTH:0.399999
G1 F1367
G1 X112.057 Y145.943 E.64982
G1 X112.057 Y124.057 E.64982
G1 X133.943 Y124.057 E.64982
G1 X133.943 Y145.903 E.64863
SET_VELOCITY_LIMIT SQUARE_CORNER_VELOCITY=8
G1 X134.3 Y146.3 F18000
SET_VELOCITY_LIMIT ACCEL=2000 ACCEL_TO_DECEL=1000
;TYPE:Outer wall
G1 F1367
G1 X111.7 Y146.3 E.67102
G1 X111.7 Y123.7 E.67102
G1 X134.3 Y123.7 E.67102
G1 X134.3 Y146.26 E.66983
; stop printing object Cube id:0 copy 0
M73 P7 R15
G1 E-.35 F2400
;WIPE_START
G1 F3000
G1 X133.3 Y146.262 E-.15
;WIPE_END
EXCLUDE_OBJECT_END NAME=Cube_id_0_copy_0
;LAYER_CHANGE
;Z:0.8
;HEIGHT:0.2
;BEFORE_LAYER_CHANGE
;0.8
G92 E0

;_SET_FAN_SPEED_CHANGING_LAYER
; printing object Cube id:0 copy 0
SET_VELOCITY_LIMIT ACCEL=5000 ACCEL_TO_DECEL=2500
EXCLUDE_OBJECT_START NAME=Cube_id_0_copy_0
G1 Z.8 F18000
G1 X133.943 Y145.943
G1 E.5 F2400
SET_VELOCITY_LIMIT SQUARE_CORNER_VELOCITY=7
;TYPE:Inner wall
G1 F1350
G1 X112.057 Y145.943 E.64982
G1 X112.057 Y124.057 E.64982
G1 X133.943 Y124.057 E.64982
G1 X133.943 Y145.903 E.64863
SET_VELOCITY_LIMIT SQUARE_CORNER_VELOCITY=8
G1 X134.3 Y146.3 F18000
SET_VELOCITY_LIMIT ACCEL=2000 ACCEL_TO_DECEL=1000
;TYPE:Outer wall
G1 F1350
G1 X111.7 Y146.3 E.67102
G1 X111.7 Y123.7 E.67102
G1 X134.3 Y123.7 E.67102
G1 X134.3 Y146.26 E.66983
; stop printing object Cube id:0 copy 0
G1 E-.35 F2400
;WIPE_START
G1 F3000
G1 X133.3 Y146.262 E-.15
;WIPE_END
EXCLUDE_OBJECT_END NAME=Cube_id_0_copy_0
;LAYER_CHANGE
;Z:1
;HEIGHT:0.2
;BEFORE_LAYER_CHANGE
;1
G92 E0

;_SET_FAN_SPEED_CHANGING_LAYER
; printing object Cube id:0 copy 0
SET_VELOCITY_LIMIT ACCEL=5000 ACCEL_TO_DECEL=2500
EXCLUDE_OBJECT_START NAME=Cube_id_0_copy_0
G1 Z1 F18000
G1 X133.943 Y145.943
G1 E.5 F2400
SET_VELOCITY_LIMIT SQUARE_CORNER_VELOCITY=7
;TYPE:Inner wall
G1 F1350
G1 X112.057 Y145.943 E.64982
G1 X112.057 Y124.057 E.64982
M73 P8 R15
G1 X133.943 Y124.057 E.64982
G1 X133.943 Y145.903 E.64863
SET_VELOCITY_LIMIT SQUARE_CORNER_VELOCITY=8
G1 X134.3 Y146.3 F18000
SET_VELOCITY_LIMIT ACCEL=2000 ACCEL_TO_DECEL=1000
;TYPE:Outer wall
G1 F1350
G1 X111.7 Y146.3 E.67102
G1 X111.7 Y123.7 E.67102
G1 X134.3 Y123.7 E.67102
G1 X134.3 Y146.26 E.66983
; stop printing object Cube id:0 copy 0
G1 E-.35 F2400
;WIPE_START
G1 F3000
G1 X133.3 Y146.262 E-.15
;WIPE_END
EXCLUDE_OBJECT_END NAME=Cube_id_0_copy_0
;LAYER_CHANGE
;Z:1.2
;HEIGHT:0.2
;BEFORE_LAYER_CHANGE
;1.2
G92 E0

;_SET_FAN_SPEED_CHANGING_LAYER
; printing object Cube id:0 copy 0
SET_VELOCITY_LIMIT ACCEL=5000 ACCEL_TO_DECEL=2500
EXCLUDE_OBJECT_START NAME=Cube_id_0_copy_0
G1 Z1.2 F18000
G1 X133.943 Y145.943
G1 E.5 F2400
SET_VELOCITY_LIMIT SQUARE_CORNER_VELOCITY=7
;TYPE:Inner wall
G1 F1350
G1 X112.057 Y145.943 E.64982
G1 X112.057 Y124.057 E.64982
G1 X133.943 Y124.057 E.64982
M73 P8 R14
G1 X133.943 Y145.903 E.64863
SET_VELOCITY_LIMIT SQUARE_CORNER_VELOCITY=8
M73 P9 R14
G1 X134.3 Y146.3 F18000
SET_VELOCITY_LIMIT ACCEL=2000 ACCEL_TO_DECEL=1000
;TYPE:Outer wall
G1 F1350
G1 X111.7 Y146.3 E.67102
G1 X111.7 Y123.7 E.67102
G1 X134.3 Y123.7 E.67102
G1 X134.3 Y146.26 E.66983
; stop printing object Cube id:0 copy 0
G1 E-.35 F2400
;WIPE_START
G1 F3000
G1 X133.3 Y146.262 E-.15
;WIPE_END
EXCLUDE_OBJECT_END NAME=Cube_id_0_copy_0
;LAYER_CHANGE
;Z:1.4
;HEIGHT:0.2
;BEFORE_LAYER_CHANGE
;1.4
G92 E0

;_SET_FAN_SPEED_CHANGING_LAYER
; printing object Cube id:0 copy 0
SET_VELOCITY_LIMIT ACCEL=5000 ACCEL_TO_DECEL=2500
EXCLUDE_OBJECT_START NAME=Cube_id_0_copy_0
G1 Z1.4 F18000
G1 X133.943 Y145.943
G1 E.5 F2400
SET_VELOCITY_LIMIT SQUARE_CORNER_VELOCITY=7
;TYPE:Inner wall
G1 F1350
G1 X112.057 Y145.943 E.64982
G1 X112.057 Y124.057 E.64982
G1 X133.943 Y124.057 E.64982
G1 X133.943 Y145.903 E.64863
SET_VELOCITY_LIMIT SQUARE_CORNER_VELOCITY=8
G1 X134.3 Y146.3 F18000
SET_VELOCITY_LIMIT ACCEL=2000 ACCEL_TO_DECEL=1000
;TYPE:Outer wall
G1 F1350
G1 X111.7 Y146.3 E.67102
G1 X111.7 Y123.7 E.67102
M73 P10 R14
G1 X134.3 Y123.7 E.67102
G1 X134.3 Y146.26 E.66983
; stop printing object Cube id:0 copy 0
G1 E-.35 F2400
;WIPE_START
G1 F3000
G1 X133.3 Y146.262 E-.15
;WIPE_END
EXCLUDE_OBJECT_END NAME=Cube_id_0_copy_0
;LAYER_CHANGE
;Z:1.6
;HEIGHT:0.2
;BEFORE_LAYER_CHANGE
;1.6
G92 E0

;_SET_FAN_SPEED_CHANGING_LAYER
; printing object Cube id:0 copy 0
SET_VELOCITY_LIMIT ACCEL=5000 ACCEL_TO_DECEL=2500
EXCLUDE_OBJECT_START NAME=Cube_id_0_copy_0
G1 Z1.6 F18000
G1 X133.943 Y145.943
G1 E.5 F2400
SET_VELOCITY_LIMIT SQUARE_CORNER_VELOCITY=7
;TYPE:Inner wall
G1 F1350
G1 X112.057 Y145.943 E.64982
G1 X112.057 Y124.057 E.64982
G1 X133.943 Y124.057 E.64982
G1 X133.943 Y145.903 E.64863
SET_VELOCITY_LIMIT SQUARE_CORNER_VELOCITY=8
G1 X134.3 Y146.3 F18000
SET_VELOCITY_LIMIT ACCEL=2000 ACCEL_TO_DECEL=1000
;TYPE:Outer wall
G1 F1350
G1 X111.7 Y146.3 E.67102
G1 X111.7 Y123.7 E.67102
G1 X134.3 Y123.7 E.67102
M73 P11 R14
G1 X134.3 Y146.26 E.66983
; stop printing object Cube id:0 copy 0
G1 E-.35 F2400
;WIPE_START
G1 F3000
G1 X133.3 Y146.262 E-.15
;WIPE_END
EXCLUDE_OBJECT_END NAME=Cube_id_0_copy_0
;LAYER_CHANGE
;Z:1.8
;HEIGHT:0.2
;BEFORE_LAYER_CHANGE
;1.8
G92 E0

;_SET_FAN_SPEED_CHANGING_LAYER
; printing object Cube id:0 copy 0
SET_VELOCITY_LIMIT ACCEL=5000 ACCEL_TO_DECEL=2500
EXCLUDE_OBJECT_START NAME=Cube_id_0_copy_0
G1 Z1.8 F18000
G1 X133.943 Y145.943
G1 E.5 F2400
SET_VELOCITY_LIMIT SQUARE_CORNER_VELOCITY=7
;TYPE:Inner wall
G1 F1350
G1 X112.057 Y145.943 E.64982
G1 X112.057 Y124.057 E.64982
G1 X133.943 Y124.057 E.64982
G1 X133.943 Y145.903 E.64863
SET_VELOCITY_LIMIT SQUARE_CORNER_VELOCITY=8
G1 X134.3 Y146.3 F18000
SET_VELOCITY_LIMIT ACCEL=2000 ACCEL_TO_DECEL=1000
;TYPE:Outer wall
G1 F1350
G1 X111.7 Y146.3 E.67102
G1 X111.7 Y123.7 E.67102
G1 X134.3 Y123.7 E.67102
G1 X134.3 Y146.26 E.66983
; stop printing object Cube id:0 copy 0
G1 E-.35 F2400
;WIPE_START
M73 P12 R14
G1 F3000
G1 X133.3 Y146.262 E-.15
;WIPE_END
EXCLUDE_OBJECT_END NAME=Cube_id_0_copy_0
;LAYER_CHANGE
;Z:2
;HEIGHT:0.2
;BEFORE_LAYER_CHANGE
;2
G92 E0

;_SET_FAN_SPEED_CHANGING_LAYER
; printing object Cube id:0 copy 0
SET_VELOCITY_LIMIT ACCEL=5000 ACCEL_TO_DECEL=2500
EXCLUDE_OBJECT_START NAME=Cube_id_0_copy_0
G1 Z2 F18000
G1 X133.943 Y145.943
G1 E.5 F2400
SET_VELOCITY_LIMIT SQUARE_CORNER_VELOCITY=7
;TYPE:Inner wall
G1 F1350
G1 X112.057 Y145.943 E.64982
G1 X112.057 Y124.057 E.64982
G1 X133.943 Y124.057 E.64982
G1 X133.943 Y145.903 E.64863
SET_VELOCITY_LIMIT SQUARE_CORNER_VELOCITY=8
G1 X134.3 Y146.3 F18000
SET_VELOCITY_LIMIT ACCEL=2000 ACCEL_TO_DECEL=1000
;TYPE:Outer wall
G1 F1350
G1 X111.7 Y146.3 E.67102
G1 X111.7 Y123.7 E.67102
G1 X134.3 Y123.7 E.67102
G1 X134.3 Y146.26 E.66983
; stop printing object Cube id:0 copy 0
G1 E-.35 F2400
;WIPE_START
G1 F3000
G1 X133.3 Y146.262 E-.15
;WIPE_END
EXCLUDE_OBJECT_END NAME=Cube_id_0_copy_0
;LAYER_CHANGE
;Z:2.2
;HEIGHT:0.2
;BEFORE_LAYER_CHANGE
;2.2
G92 E0

;_SET_FAN_SPEED_CHANGING_LAYER
; printing object Cube id:0 copy 0
SET_VELOCITY_LIMIT ACCEL=5000 ACCEL_TO_DECEL=2500
EXCLUDE_OBJECT_START NAME=Cube_id_0_copy_0
G1 Z2.2 F18000
G1 X133.943 Y145.943
G1 E.5 F2400
SET_VELOCITY_LIMIT SQUARE_CORNER_VELOCITY=7
;TYPE:Inner wall
G1 F1350
G1 X112.057 Y145.943 E.64982
G1 X112.057 Y124.057 E.64982
G1 X133.943 Y124.057 E.64982
M73 P13 R14
G1 X133.943 Y145.903 E.64863
SET_VELOCITY_LIMIT SQUARE_CORNER_VELOCITY=8
G1 X134.3 Y146.3 F18000
SET_VELOCITY_LIMIT ACCEL=2000 ACCEL_TO_DECEL=1000
;TYPE:Outer wall
G1 F1350
G1 X111.7 Y146.3 E.67102
G1 X111.7 Y123.7 E.67102
G1 X134.3 Y123.7 E.67102
G1 X134.3 Y146.26 E.66983
; stop printing object Cube id:0 copy 0
G1 E-.35 F2400
;WIPE_START
G1 F3000
G1 X133.3 Y146.262 E-.15
;WIPE_END
EXCLUDE_OBJECT_END NAME=Cube_id_0_copy_0
;LAYER_CHANGE
;Z:2.4
;HEIGHT:0.2
;BEFORE_LAYER_CHANGE
;2.4
G92 E0

;_SET_FAN_SPEED_CHANGING_LAYER
; printing object Cube id:0 copy 0
SET_VELOCITY_LIMIT ACCEL=5000 ACCEL_TO_DECEL=2500
EXCLUDE_OBJECT_START NAME=Cube_id_0_copy_0
G1 Z2.4 F18000
G1 X133.943 Y145.943
G1 E.5 F2400
SET_VELOCITY_LIMIT SQUARE_CORNER_VELOCITY=7
;TYPE:Inner wall
G1 F1350
G1 X112.057 Y145.943 E.64982
G1 X112.057 Y124.057 E.64982
G1 X133.943 Y124.057 E.64982
G1 X133.943 Y145.903 E.64863
SET_VELOCITY_LIMIT SQUARE_CORNER_VELOCITY=8
G1 X134.3 Y146.3 F18000
SET_VELOCITY_LIMIT ACCEL=2000 ACCEL_TO_DECEL=1000
;TYPE:Outer wall
M73 P14 R14
G1 F1350
G1 X111.7 Y146.3 E.67102
G1 X111.7 Y123.7 E.67102
G1 X134.3 Y123.7 E.67102
G1 X134.3 Y146.26 E.66983
; stop printing object Cube id:0 copy 0
G1 E-.35 F2400
;WIPE_START
G1 F3000
G1 X133.3 Y146.262 E-.15
;WIPE_END
EXCLUDE_OBJECT_END NAME=Cube_id_0_copy_0
;LAYER_CHANGE
;Z:2.6
;HEIGHT:0.2
;BEFORE_LAYER_CHANGE
;2.6
G92 E0

;_SET_FAN_SPEED_CHANGING_LAYER
; printing object Cube id:0 copy 0
SET_VELOCITY_LIMIT ACCEL=5000 ACCEL_TO_DECEL=2500
EXCLUDE_OBJECT_START NAME=Cube_id_0_copy_0
G1 Z2.6 F18000
G1 X133.943 Y145.943
G1 E.5 F2400
SET_VELOCITY_LIMIT SQUARE_CORNER_VELOCITY=7
;TYPE:Inner wall
G1 F1350
G1 X112.057 Y145.943 E.64982
