; HEADER_BLOCK_START
; generated by OrcaSlicer 2.1.1 on 2024-08-16 at 08:16:37
; total layer number: 4
; filament_density: 1.24
; filament_diameter: 1.75
; max_z_height: 0.85
; HEADER_BLOCK_END

; THUMBNAIL_BLOCK_START

;
; THUMBNAIL_BLOCK_END

; THUMBNAIL_BLOCK_START

;
; THUMBNAIL_BLOCK_END

; external perimeters extrusion width = 0.42mm
; perimeters extrusion width = 0.45mm
; infill extrusion width = 0.45mm
; solid infill extrusion width = 0.45mm
; top infill extrusion width = 0.42mm
; first layer extrusion width = 0.56mm

; EXECUTABLE_BLOCK_START
EXCLUDE_OBJECT_DEFINE NAME=Orca-PA-Calibration-Test CENTER=0,0 POLYGON=[[25,25],[205,25],[205,205],[25,205],[25,25]]
M73 P0 R7
;TYPE:Custom
M220 S100
G90 ; use absolute coordinates
M83 ; extruder relative mode
M104 S150 ; set temporary nozzle temp to prevent oozing during homing
M140 S55 ; set final bed temp
G4 S30 ; allow partial nozzle warmup
G28 ; home all axis and restore leveling
BED_MESH_CALIBRATE PROFILE=adaptive ADAPTIVE=1 ADAPTIVE_MARGIN=0
G1 Z25 F240
G1 X10.0 Y30 F3000
M104 S205 ; set final nozzle temp
M190 S55 ; wait for bed temp to stabilize
M109 S205 ; wait for nozzle temp to stabilize
M73 P1 R7
G1 Z0.28 F240
G92 E0 ; Move Z Axis up
G1 Z2.0 F5000 ; Move to start position
M73 P2 R7
G1 X5 Y30 Z0.28 F300 ; Draw the first line
G1 X5 Y200 Z0.28 F1500 E15 ; Move to side a little
M73 P3 R7
G1 X5.4 Y200 Z0.28 F5000.0 ; Draw the second line
M73 P4 R7
G1 X5.4 Y50 Z0.28 F1500.0 E30 ; Reset Extruder
G92 E0 ; Move Z Axis up
G1 Z2.0 F3000
M117 Start Printing..
G90
G21
M83 ; use relative distances for extrusion
; filament start gcode
M106 S0
;LAYER_CHANGE
;Z:0.25
;HEIGHT:0.25
;BEFORE_LAYER_CHANGE
;0.25
G92 E0

;_SET_FAN_SPEED_CHANGING_LAYER
SET_VELOCITY_LIMIT ACCEL=1000
SET_VELOCITY_LIMIT SQUARE_CORNER_VELOCITY=7
;CUSTOM_GCODE
; start pressure advance pattern for layer
M73 P5 R7
G1 E-.5 F1800 ; retract
G1 X70.461 Y89.507 F24000 ; Move to start XY position
G1 E.5 F1800 ;  ; unretract
M73 P6 R7
G1 Z.25 F24000 ; Move to start Z position
SET_PRESSURE_ADVANCE ADVANCE=0; Override pressure advance value
G1 E-.5 F1800 ; retract
G1 X70.461 Y89.507 F24000 ; Move to box start
G1 E.5 F1800 ;  ; unretract

G1 X70.461 Y131.933 E2.1882 ; Draw perimeter (up)

G1 X154.539 Y131.933 E4.33647 ; Draw perimeter (right)

G1 X154.539 Y89.507 E2.1882 ; Draw perimeter (down)

M73 P7 R7
G1 X70.461 Y89.507 E4.33647 ; Draw perimeter (left)
G1 E-.5 ; retract
G1 X70.967 Y90.013 F24000 ; Step inwards to print next perimeter
G1 E.5 F1800 ;  ; unretract

G1 X70.967 Y131.427 E2.13597 ; Draw perimeter (up)

G1 X154.033 Y131.427 E4.28424 ; Draw perimeter (right)

M73 P8 R7
G1 X154.033 Y90.013 E2.13597 ; Draw perimeter (down)

G1 X70.967 Y90.013 E4.28424 ; Draw perimeter (left)
M73 P9 R6
G1 E-.5 ; retract
G1 X71.473 Y90.519 F24000 ; Step inwards to print next perimeter
G1 E.5 F1800 ;  ; unretract

G1 X71.473 Y130.921 E2.08374 ; Draw perimeter (up)

G1 X153.527 Y130.921 E4.23201 ; Draw perimeter (right)

M73 P10 R6
G1 X153.527 Y90.519 E2.08374 ; Draw perimeter (down)

G1 X71.473 Y90.519 E4.23201 ; Draw perimeter (left)
G1 E-.5 ; retract
M73 P11 R6
G1 X70.461 Y132.44 F24000 ; Move to box start
G1 E.5 F1800 ;  ; unretract

G1 X70.461 Y145.946 E.69661 ; Draw perimeter (up)

G1 X134.73 Y145.946 E3.3148 ; Draw perimeter (right)

G1 X134.73 Y132.44 E.69661 ; Draw perimeter (down)

M73 P12 R6
G1 X70.461 Y132.44 E3.3148 ; Draw perimeter (left)
G1 E-.5 ; retract
G1 X70.967 Y132.946 F24000 ; Step inwards to print next perimeter
G1 E.5 F1800 ;  ; unretract

G1 X70.967 Y145.44 E.64438 ; Draw perimeter (up)

G1 X134.224 Y145.44 E3.26257 ; Draw perimeter (right)

G1 X134.224 Y132.946 E.64438 ; Draw perimeter (down)

M73 P13 R6
G1 X70.967 Y132.946 E3.26257 ; Draw perimeter (left)
G1 E-.5 ; retract
G1 X71.473 Y133.452 F24000 ; Step inwards to print next perimeter
G1 E.5 F1800 ;  ; unretract

G1 X71.473 Y144.933 E.59215 ; Draw perimeter (up)

G1 X133.718 Y144.933 E3.21034 ; Draw perimeter (right)

M73 P14 R6
G1 X133.718 Y133.452 E.59215 ; Draw perimeter (down)

G1 X71.473 Y133.452 E3.21034 ; Draw perimeter (left)
G1 E-.5 ; retract
M73 P15 R6
G1 X71.847 Y133.826 F24000 ; Move to fill start
G1 E.5 F1800 ;  ; unretract
G1 E-.5 ; retract
G1 X72.563 Y133.826 F24000 ; Fill: Step right
G1 E.5 F1800 ;  ; unretract

G1 X71.847 Y134.542 E.05223 ; Fill: Print up/left
G1 E-.5 ; retract
G1 X71.847 Y135.258 F24000 ; Fill: Step up
G1 E.5 F1800 ;  ; unretract

G1 X73.279 Y133.826 E.10446 ; Fill: Print down/right
G1 E-.5 ; retract
G1 X73.995 Y133.826 F24000 ; Fill: Step right
G1 E.5 F1800 ;  ; unretract

G1 X71.847 Y135.974 E.15669 ; Fill: Print up/left
G1 E-.5 ; retract
G1 X71.847 Y136.69 F24000 ; Fill: Step up
G1 E.5 F1800 ;  ; unretract

G1 X74.711 Y133.826 E.20893 ; Fill: Print down/right
G1 E-.5 ; retract
G1 X75.427 Y133.826 F24000 ; Fill: Step right
G1 E.5 F1800 ;  ; unretract

G1 X71.847 Y137.406 E.26116 ; Fill: Print up/left
G1 E-.5 ; retract
G1 X71.847 Y138.122 F24000 ; Fill: Step up
G1 E.5 F1800 ;  ; unretract

G1 X76.143 Y133.826 E.31339 ; Fill: Print down/right
G1 E-.5 ; retract
G1 X76.859 Y133.826 F24000 ; Fill: Step right
G1 E.5 F1800 ;  ; unretract

G1 X71.847 Y138.838 E.36562 ; Fill: Print up/left
G1 E-.5 ; retract
G1 X71.847 Y139.554 F24000 ; Fill: Step up
G1 E.5 F1800 ;  ; unretract

G1 X77.575 Y133.826 E.41785 ; Fill: Print down/right
G1 E-.5 ; retract
G1 X78.291 Y133.826 F24000 ; Fill: Step right
G1 E.5 F1800 ;  ; unretract

G1 X71.847 Y140.27 E.47008 ; Fill: Print up/left
G1 E-.5 ; retract
G1 X71.847 Y140.986 F24000 ; Fill: Step up
G1 E.5 F1800 ;  ; unretract

G1 X79.008 Y133.826 E.52231 ; Fill: Print down/right
G1 E-.5 ; retract
G1 X79.724 Y133.826 F24000 ; Fill: Step right
G1 E.5 F1800 ;  ; unretract

G1 X71.847 Y141.703 E.57454 ; Fill: Print up/left
G1 E-.5 ; retract
G1 X71.847 Y142.419 F24000 ; Fill: Step up
G1 E.5 F1800 ;  ; unretract

G1 X80.44 Y133.826 E.62678 ; Fill: Print down/right
G1 E-.5 ; retract
G1 X81.156 Y133.826 F24000 ; Fill: Step right
G1 E.5 F1800 ;  ; unretract

G1 X71.847 Y143.135 E.67901 ; Fill: Print up/left
G1 E-.5 ; retract
M73 P16 R6
G1 X71.847 Y143.851 F24000 ; Fill: Step up
G1 E.5 F1800 ;  ; unretract

G1 X81.872 Y133.826 E.73124 ; Fill: Print down/right
G1 E-.5 ; retract
G1 X82.588 Y133.826 F24000 ; Fill: Step right
G1 E.5 F1800 ;  ; unretract

G1 X71.854 Y144.56 E.78296 ; Fill: Print up/left
G1 E-.5 ; retract
G1 X72.57 Y144.56 F24000 ; Fill: Step right
G1 E.5 F1800 ;  ; unretract

G1 X83.304 Y133.826 E.78296 ; Fill: Print down/right
G1 E-.5 ; retract
G1 X84.02 Y133.826 F24000 ; Fill: Step right
G1 E.5 F1800 ;  ; unretract

G1 X73.286 Y144.56 E.78296 ; Fill: Print up/left
G1 E-.5 ; retract
G1 X74.002 Y144.56 F24000 ; Fill: Step right
G1 E.5 F1800 ;  ; unretract

G1 X84.736 Y133.826 E.78296 ; Fill: Print down/right
G1 E-.5 ; retract
G1 X85.452 Y133.826 F24000 ; Fill: Step right
G1 E.5 F1800 ;  ; unretract

G1 X74.718 Y144.56 E.78296 ; Fill: Print up/left
G1 E-.5 ; retract
G1 X75.434 Y144.56 F24000 ; Fill: Step right
G1 E.5 F1800 ;  ; unretract

G1 X86.168 Y133.826 E.78296 ; Fill: Print down/right
G1 E-.5 ; retract
G1 X86.885 Y133.826 F24000 ; Fill: Step right
G1 E.5 F1800 ;  ; unretract

G1 X76.15 Y144.56 E.78296 ; Fill: Print up/left
G1 E-.5 ; retract
M73 P17 R6
G1 X76.866 Y144.56 F24000 ; Fill: Step right
G1 E.5 F1800 ;  ; unretract

G1 X87.601 Y133.826 E.78296 ; Fill: Print down/right
G1 E-.5 ; retract
G1 X88.317 Y133.826 F24000 ; Fill: Step right
G1 E.5 F1800 ;  ; unretract

G1 X77.582 Y144.56 E.78296 ; Fill: Print up/left
G1 E-.5 ; retract
G1 X78.298 Y144.56 F24000 ; Fill: Step right
G1 E.5 F1800 ;  ; unretract

G1 X89.033 Y133.826 E.78296 ; Fill: Print down/right
G1 E-.5 ; retract
G1 X89.749 Y133.826 F24000 ; Fill: Step right
G1 E.5 F1800 ;  ; unretract

G1 X79.015 Y144.56 E.78296 ; Fill: Print up/left
G1 E-.5 ; retract
G1 X79.731 Y144.56 F24000 ; Fill: Step right
G1 E.5 F1800 ;  ; unretract

G1 X90.465 Y133.826 E.78296 ; Fill: Print down/right
G1 E-.5 ; retract
G1 X91.181 Y133.826 F24000 ; Fill: Step right
G1 E.5 F1800 ;  ; unretract

G1 X80.447 Y144.56 E.78296 ; Fill: Print up/left
G1 E-.5 ; retract
G1 X81.163 Y144.56 F24000 ; Fill: Step right
G1 E.5 F1800 ;  ; unretract

G1 X91.897 Y133.826 E.78296 ; Fill: Print down/right
G1 E-.5 ; retract
M73 P18 R6
G1 X92.613 Y133.826 F24000 ; Fill: Step right
G1 E.5 F1800 ;  ; unretract

G1 X81.879 Y144.56 E.78296 ; Fill: Print up/left
G1 E-.5 ; retract
G1 X82.595 Y144.56 F24000 ; Fill: Step right
G1 E.5 F1800 ;  ; unretract

G1 X93.329 Y133.826 E.78296 ; Fill: Print down/right
G1 E-.5 ; retract
G1 X94.045 Y133.826 F24000 ; Fill: Step right
G1 E.5 F1800 ;  ; unretract

G1 X83.311 Y144.56 E.78296 ; Fill: Print up/left
G1 E-.5 ; retract
G1 X84.027 Y144.56 F24000 ; Fill: Step right
G1 E.5 F1800 ;  ; unretract

G1 X94.761 Y133.826 E.78296 ; Fill: Print down/right
G1 E-.5 ; retract
G1 X95.478 Y133.826 F24000 ; Fill: Step right
G1 E.5 F1800 ;  ; unretract

G1 X84.743 Y144.56 E.78296 ; Fill: Print up/left
G1 E-.5 ; retract
G1 X85.459 Y144.56 F24000 ; Fill: Step right
G1 E.5 F1800 ;  ; unretract

G1 X96.194 Y133.826 E.78296 ; Fill: Print down/right
G1 E-.5 ; retract
G1 X96.91 Y133.826 F24000 ; Fill: Step right
G1 E.5 F1800 ;  ; unretract

G1 X86.175 Y144.56 E.78296 ; Fill: Print up/left
G1 E-.5 ; retract
G1 X86.892 Y144.56 F24000 ; Fill: Step right
G1 E.5 F1800 ;  ; unretract

G1 X97.626 Y133.826 E.78296 ; Fill: Print down/right
G1 E-.5 ; retract
M73 P19 R6
G1 X98.342 Y133.826 F24000 ; Fill: Step right
G1 E.5 F1800 ;  ; unretract

G1 X87.608 Y144.56 E.78296 ; Fill: Print up/left
G1 E-.5 ; retract
G1 X88.324 Y144.56 F24000 ; Fill: Step right
G1 E.5 F1800 ;  ; unretract

G1 X99.058 Y133.826 E.78296 ; Fill: Print down/right
G1 E-.5 ; retract
G1 X99.774 Y133.826 F24000 ; Fill: Step right
G1 E.5 F1800 ;  ; unretract

G1 X89.04 Y144.56 E.78296 ; Fill: Print up/left
G1 E-.5 ; retract
G1 X89.756 Y144.56 F24000 ; Fill: Step right
G1 E.5 F1800 ;  ; unretract

G1 X100.49 Y133.826 E.78296 ; Fill: Print down/right
G1 E-.5 ; retract
G1 X101.206 Y133.826 F24000 ; Fill: Step right
G1 E.5 F1800 ;  ; unretract

G1 X90.472 Y144.56 E.78296 ; Fill: Print up/left
G1 E-.5 ; retract
G1 X91.188 Y144.56 F24000 ; Fill: Step right
G1 E.5 F1800 ;  ; unretract

G1 X101.922 Y133.826 E.78296 ; Fill: Print down/right
G1 E-.5 ; retract
G1 X102.638 Y133.826 F24000 ; Fill: Step right
G1 E.5 F1800 ;  ; unretract

G1 X91.904 Y144.56 E.78296 ; Fill: Print up/left
G1 E-.5 ; retract
M73 P20 R6
G1 X92.62 Y144.56 F24000 ; Fill: Step right
G1 E.5 F1800 ;  ; unretract

G1 X103.354 Y133.826 E.78296 ; Fill: Print down/right
G1 E-.5 ; retract
G1 X104.071 Y133.826 F24000 ; Fill: Step right
G1 E.5 F1800 ;  ; unretract

G1 X93.336 Y144.56 E.78296 ; Fill: Print up/left
G1 E-.5 ; retract
G1 X94.052 Y144.56 F24000 ; Fill: Step right
G1 E.5 F1800 ;  ; unretract

G1 X104.787 Y133.826 E.78296 ; Fill: Print down/right
G1 E-.5 ; retract
G1 X105.503 Y133.826 F24000 ; Fill: Step right
G1 E.5 F1800 ;  ; unretract

G1 X94.768 Y144.56 E.78296 ; Fill: Print up/left
G1 E-.5 ; retract
G1 X95.485 Y144.56 F24000 ; Fill: Step right
G1 E.5 F1800 ;  ; unretract

G1 X106.219 Y133.826 E.78296 ; Fill: Print down/right
G1 E-.5 ; retract
G1 X106.935 Y133.826 F24000 ; Fill: Step right
G1 E.5 F1800 ;  ; unretract

G1 X96.201 Y144.56 E.78296 ; Fill: Print up/left
G1 E-.5 ; retract
G1 X96.917 Y144.56 F24000 ; Fill: Step right
G1 E.5 F1800 ;  ; unretract

G1 X107.651 Y133.826 E.78296 ; Fill: Print down/right
G1 E-.5 ; retract
G1 X108.367 Y133.826 F24000 ; Fill: Step right
G1 E.5 F1800 ;  ; unretract

G1 X97.633 Y144.56 E.78296 ; Fill: Print up/left
G1 E-.5 ; retract
M73 P21 R6
G1 X98.349 Y144.56 F24000 ; Fill: Step right
G1 E.5 F1800 ;  ; unretract

G1 X109.083 Y133.826 E.78296 ; Fill: Print down/right
G1 E-.5 ; retract
G1 X109.799 Y133.826 F24000 ; Fill: Step right
G1 E.5 F1800 ;  ; unretract

G1 X99.065 Y144.56 E.78296 ; Fill: Print up/left
G1 E-.5 ; retract
G1 X99.781 Y144.56 F24000 ; Fill: Step right
G1 E.5 F1800 ;  ; unretract

G1 X110.515 Y133.826 E.78296 ; Fill: Print down/right
G1 E-.5 ; retract
G1 X111.231 Y133.826 F24000 ; Fill: Step right
G1 E.5 F1800 ;  ; unretract

G1 X100.497 Y144.56 E.78296 ; Fill: Print up/left
G1 E-.5 ; retract
G1 X101.213 Y144.56 F24000 ; Fill: Step right
G1 E.5 F1800 ;  ; unretract

G1 X111.948 Y133.826 E.78296 ; Fill: Print down/right
G1 E-.5 ; retract
G1 X112.664 Y133.826 F24000 ; Fill: Step right
G1 E.5 F1800 ;  ; unretract

G1 X101.929 Y144.56 E.78296 ; Fill: Print up/left
G1 E-.5 ; retract
G1 X102.645 Y144.56 F24000 ; Fill: Step right
G1 E.5 F1800 ;  ; unretract

G1 X113.38 Y133.826 E.78296 ; Fill: Print down/right
G1 E-.5 ; retract
M73 P22 R5
G1 X114.096 Y133.826 F24000 ; Fill: Step right
G1 E.5 F1800 ;  ; unretract

G1 X103.362 Y144.56 E.78296 ; Fill: Print up/left
G1 E-.5 ; retract
G1 X104.078 Y144.56 F24000 ; Fill: Step right
G1 E.5 F1800 ;  ; unretract

G1 X114.812 Y133.826 E.78296 ; Fill: Print down/right
G1 E-.5 ; retract
G1 X115.528 Y133.826 F24000 ; Fill: Step right
G1 E.5 F1800 ;  ; unretract

G1 X104.794 Y144.56 E.78296 ; Fill: Print up/left
G1 E-.5 ; retract
G1 X105.51 Y144.56 F24000 ; Fill: Step right
G1 E.5 F1800 ;  ; unretract

G1 X116.244 Y133.826 E.78296 ; Fill: Print down/right
G1 E-.5 ; retract
G1 X116.96 Y133.826 F24000 ; Fill: Step right
G1 E.5 F1800 ;  ; unretract

G1 X106.226 Y144.56 E.78296 ; Fill: Print up/left
G1 E-.5 ; retract
G1 X106.942 Y144.56 F24000 ; Fill: Step right
G1 E.5 F1800 ;  ; unretract

G1 X117.676 Y133.826 E.78296 ; Fill: Print down/right
G1 E-.5 ; retract
G1 X118.392 Y133.826 F24000 ; Fill: Step right
G1 E.5 F1800 ;  ; unretract

G1 X107.658 Y144.56 E.78296 ; Fill: Print up/left
G1 E-.5 ; retract
G1 X108.374 Y144.56 F24000 ; Fill: Step right
G1 E.5 F1800 ;  ; unretract

G1 X119.108 Y133.826 E.78296 ; Fill: Print down/right
G1 E-.5 ; retract
M73 P23 R5
G1 X119.824 Y133.826 F24000 ; Fill: Step right
G1 E.5 F1800 ;  ; unretract

G1 X109.09 Y144.56 E.78296 ; Fill: Print up/left
G1 E-.5 ; retract
G1 X109.806 Y144.56 F24000 ; Fill: Step right
G1 E.5 F1800 ;  ; unretract

G1 X120.541 Y133.826 E.78296 ; Fill: Print down/right
G1 E-.5 ; retract
G1 X121.257 Y133.826 F24000 ; Fill: Step right
G1 E.5 F1800 ;  ; unretract

G1 X110.522 Y144.56 E.78296 ; Fill: Print up/left
G1 E-.5 ; retract
G1 X111.238 Y144.56 F24000 ; Fill: Step right
G1 E.5 F1800 ;  ; unretract

G1 X121.973 Y133.826 E.78296 ; Fill: Print down/right
G1 E-.5 ; retract
G1 X122.689 Y133.826 F24000 ; Fill: Step right
G1 E.5 F1800 ;  ; unretract

G1 X111.955 Y144.56 E.78296 ; Fill: Print up/left
G1 E-.5 ; retract
G1 X112.671 Y144.56 F24000 ; Fill: Step right
G1 E.5 F1800 ;  ; unretract

G1 X123.405 Y133.826 E.78296 ; Fill: Print down/right
G1 E-.5 ; retract
G1 X124.121 Y133.826 F24000 ; Fill: Step right
G1 E.5 F1800 ;  ; unretract

G1 X113.387 Y144.56 E.78296 ; Fill: Print up/left
G1 E-.5 ; retract
M73 P24 R5
G1 X114.103 Y144.56 F24000 ; Fill: Step right
G1 E.5 F1800 ;  ; unretract

G1 X124.837 Y133.826 E.78296 ; Fill: Print down/right
G1 E-.5 ; retract
G1 X125.553 Y133.826 F24000 ; Fill: Step right
G1 E.5 F1800 ;  ; unretract

G1 X114.819 Y144.56 E.78296 ; Fill: Print up/left
G1 E-.5 ; retract
G1 X115.535 Y144.56 F24000 ; Fill: Step right
G1 E.5 F1800 ;  ; unretract

G1 X126.269 Y133.826 E.78296 ; Fill: Print down/right
G1 E-.5 ; retract
G1 X126.985 Y133.826 F24000 ; Fill: Step right
G1 E.5 F1800 ;  ; unretract

G1 X116.251 Y144.56 E.78296 ; Fill: Print up/left
G1 E-.5 ; retract
G1 X116.967 Y144.56 F24000 ; Fill: Step right
G1 E.5 F1800 ;  ; unretract

G1 X127.701 Y133.826 E.78296 ; Fill: Print down/right
G1 E-.5 ; retract
G1 X128.418 Y133.826 F24000 ; Fill: Step right
G1 E.5 F1800 ;  ; unretract

G1 X117.683 Y144.56 E.78296 ; Fill: Print up/left
G1 E-.5 ; retract
G1 X118.399 Y144.56 F24000 ; Fill: Step right
G1 E.5 F1800 ;  ; unretract

G1 X129.134 Y133.826 E.78296 ; Fill: Print down/right
G1 E-.5 ; retract
G1 X129.85 Y133.826 F24000 ; Fill: Step right
G1 E.5 F1800 ;  ; unretract

G1 X119.115 Y144.56 E.78296 ; Fill: Print up/left
M73 P25 R5
G1 E-.5 ; retract
