; HEADER_BLOCK_START
; generated by OrcaSlicer 2.0.0 on 2024-06-03 at 10:42:49
; total layer number: 115
; filament_density: 1.27
; filament_diameter: 1.75
; max_z_height: 23.00
; HEADER_BLOCK_END

; THUMBNAIL_BLOCK_START

;
; THUMBNAIL_BLOCK_END

; THUMBNAIL_BLOCK_START

;
; THUMBNAIL_BLOCK_END

; external perimeters extrusion width = 0.45mm
; perimeters extrusion width = 0.45mm
; infill extrusion width = 0.45mm
; solid infill extrusion width = 0.42mm
; top infill extrusion width = 0.40mm
; first layer extrusion width = 0.60mm

; EXECUTABLE_BLOCK_START
EXCLUDE_OBJECT_DEFINE NAME=Cube_id_0_copy_0 CENTER=115,115 POLYGON=[[103.5,103.5],[126.5,103.5],[126.5,126.5],[103.5,126.5],[103.5,103.5]]
M73 P0 R11
;TYPE:Custom
M220 S100
G90 ; use absolute coordinates
M83 ; extruder relative mode
M104 S150 ; set temporary nozzle temp to prevent oozing during homing
M140 S70 ; set final bed temp
G4 S30 ; allow partial nozzle warmup
G28 ; home all axis and restore leveling
BED_MESH_CALIBRATE PROFILE=adaptive ADAPTIVE=1 ADAPTIVE_MARGIN=0
G1 Z25 F240
G1 X10.0 Y30 F3000
M104 S245 ; set final nozzle temp
M190 S70 ; wait for bed temp to stabilize
M109 S245 ; wait for nozzle temp to stabilize
G1 Z0.28 F240
G92 E0 ; Move Z Axis up
M73 P1 R11
G1 Z2.0 F5000 ; Move to start position
M73 P1 R10
G1 X5 Y30 Z0.28 F300 ; Draw the first line
G1 X5 Y200 Z0.28 F1500 E15 ; Move to side a little
M73 P2 R10
G1 X5.4 Y200 Z0.28 F5000.0 ; Draw the second line
M73 P3 R10
G1 X5.4 Y50 Z0.28 F1500.0 E30 ; Reset Extruder
G92 E0 ; Move Z Axis up
G1 Z2.0 F3000
M117 Start Printing..
G90
G21
M83 ; use relative distances for extrusion
; filament start gcode
M106 S0
;LAYER_CHANGE
;Z:0.2
;HEIGHT:0.2
;BEFORE_LAYER_CHANGE
;0.2
G92 E0

M73 P4 R10
G1 E-.5 F2400
;_SET_FAN_SPEED_CHANGING_LAYER
SET_VELOCITY_LIMIT ACCEL=500 ACCEL_TO_DECEL=250
SET_VELOCITY_LIMIT SQUARE_CORNER_VELOCITY=7
; printing object Cube id:0 copy 0
EXCLUDE_OBJECT_START NAME=Cube_id_0_copy_0
G1 Z.2 F18000
G1 X133.643 Y145.643
G1 Z.2
G1 E.5 F2400
;TYPE:Inner wall
;WIDTH:0.599999
G1 F1800
G1 X112.357 Y145.643 E.98599
G1 X112.357 Y124.357 E.98599
G1 X133.643 Y124.357 E.98599
G1 X133.643 Y145.603 E.98414
G1 X134.2 Y146.2 F18000
;TYPE:Outer wall
G1 F1800
G1 X111.8 Y146.2 E1.0376
G1 X111.8 Y123.8 E1.0376
G1 X134.2 Y123.8 E1.0376
G1 X134.2 Y146.16 E1.03574
M73 P5 R10
G1 E-.35 F2400
;WIPE_START
G1 F1800
G1 X133.2 Y146.162 E-.15
;WIPE_END
G1 Z.4 F18000
G1 X133.476 Y125.658
G1 Z.4
G1 Z.2
G1 E.5 F2400
;TYPE:Bottom surface
;WIDTH:0.603463
G1 F3000
G1 X132.593 Y124.775 E.05819
G1 X131.8 Y124.775 E.03695
G1 X133.225 Y126.2 E.09392
G1 X133.225 Y126.992 E.03695
G1 X131.008 Y124.775 E.14617
G1 X130.215 Y124.775 E.03695
G1 X133.225 Y127.785 E.19842
G1 X133.225 Y128.578 E.03695
G1 X129.422 Y124.775 E.25068
G1 X128.629 Y124.775 E.03695
G1 X133.225 Y129.371 E.30293
G1 X133.225 Y130.163 E.03695
G1 X127.837 Y124.775 E.35518
G1 X127.044 Y124.775 E.03695
G1 X133.225 Y130.956 E.40744
G1 X133.225 Y131.749 E.03695
G1 X126.251 Y124.775 E.45969
G1 X125.458 Y124.775 E.03695
G1 X133.225 Y132.542 E.51194
G1 X133.225 Y133.334 E.03695
G1 X124.666 Y124.775 E.56419
G1 X123.873 Y124.775 E.03695
G1 X133.225 Y134.127 E.61645
G1 X133.225 Y134.92 E.03695
G1 X123.08 Y124.775 E.6687
G1 X122.288 Y124.775 E.03695
G1 X133.225 Y135.712 E.72095
G1 X133.225 Y136.505 E.03695
G1 X121.495 Y124.775 E.77321
G1 X120.702 Y124.775 E.03695
G1 X133.225 Y137.298 E.82546
G1 X133.225 Y138.091 E.03695
M73 P6 R10
G1 X119.909 Y124.775 E.87771
G1 X119.117 Y124.775 E.03695
G1 X133.225 Y138.883 E.92997
G1 X133.225 Y139.676 E.03695
G1 X118.324 Y124.775 E.98222
G1 X117.531 Y124.775 E.03695
G1 X133.225 Y140.469 E1.03447
G1 X133.225 Y141.262 E.03695
G1 X116.738 Y124.775 E1.08673
G1 X115.946 Y124.775 E.03695
G1 X133.225 Y142.054 E1.13898
G1 X133.225 Y142.847 E.03695
G1 X115.153 Y124.775 E1.19123
G1 X114.36 Y124.775 E.03695
G1 X133.225 Y143.64 E1.24348
G1 X133.225 Y144.432 E.03695
G1 X113.568 Y124.775 E1.29574
G1 X112.775 Y124.775 E.03695
G1 X133.225 Y145.225 E1.34799
G1 X132.432 Y145.225 E.03695
G1 X112.775 Y125.568 E1.29573
G1 X112.775 Y126.36 E.03695
M73 P7 R10
G1 X131.64 Y145.225 E1.24348
G1 X130.847 Y145.225 E.03695
G1 X112.775 Y127.153 E1.19123
G1 X112.775 Y127.946 E.03695
G1 X130.054 Y145.225 E1.13897
G1 X129.261 Y145.225 E.03695
G1 X112.775 Y128.739 E1.08672
G1 X112.775 Y129.531 E.03695
G1 X128.469 Y145.225 E1.03447
G1 X127.676 Y145.225 E.03695
G1 X112.775 Y130.324 E.98221
G1 X112.775 Y131.117 E.03695
G1 X126.883 Y145.225 E.92996
G1 X126.091 Y145.225 E.03695
G1 X112.775 Y131.909 E.87771
G1 X112.775 Y132.702 E.03695
G1 X125.298 Y145.225 E.82545
G1 X124.505 Y145.225 E.03695
G1 X112.775 Y133.495 E.7732
G1 X112.775 Y134.288 E.03695
G1 X123.712 Y145.225 E.72095
G1 X122.92 Y145.225 E.03695
G1 X112.775 Y135.08 E.6687
G1 X112.775 Y135.873 E.03695
G1 X122.127 Y145.225 E.61644
G1 X121.334 Y145.225 E.03695
M73 P8 R10
G1 X112.775 Y136.666 E.56419
G1 X112.775 Y137.459 E.03695
G1 X120.541 Y145.225 E.51194
G1 X119.749 Y145.225 E.03695
G1 X112.775 Y138.251 E.45968
G1 X112.775 Y139.044 E.03695
G1 X118.956 Y145.225 E.40743
G1 X118.163 Y145.225 E.03695
G1 X112.775 Y139.837 E.35518
G1 X112.775 Y140.629 E.03695
G1 X117.371 Y145.225 E.30292
G1 X116.578 Y145.225 E.03695
G1 X112.775 Y141.422 E.25067
G1 X112.775 Y142.215 E.03695
G1 X115.785 Y145.225 E.19842
G1 X114.992 Y145.225 E.03695
G1 X112.775 Y143.008 E.14616
G1 X112.775 Y143.8 E.03695
G1 X114.2 Y145.225 E.09391
G1 X113.407 Y145.225 E.03695
G1 X112.524 Y144.342 E.05818
; stop printing object Cube id:0 copy 0
;LAYER_CHANGE
;Z:0.4
;HEIGHT:0.2
;BEFORE_LAYER_CHANGE
;0.4
G92 E0

G1 E-.35 F2400
;WIPE_START
G1 F3000
G1 X113.231 Y145.05 E-.15
;WIPE_END
EXCLUDE_OBJECT_END NAME=Cube_id_0_copy_0
;_SET_FAN_SPEED_CHANGING_LAYER
SET_VELOCITY_LIMIT ACCEL=5000 ACCEL_TO_DECEL=2500
M104 S240 ; set nozzle temperature
M140 S70 ; set bed temperature
; printing object Cube id:0 copy 0
SET_VELOCITY_LIMIT SQUARE_CORNER_VELOCITY=8
EXCLUDE_OBJECT_START NAME=Cube_id_0_copy_0
G1 Z.4 F18000
G1 X133.868 Y145.868 Z.4
G1 E.5 F2400
SET_VELOCITY_LIMIT SQUARE_CORNER_VELOCITY=7
;TYPE:Inner wall
;WIDTH:0.449999
G1 F3600
G1 X112.132 Y145.868 E.73573
G1 X112.132 Y124.132 E.73573
G1 X133.868 Y124.132 E.73573
G1 X133.868 Y145.828 E.73438
SET_VELOCITY_LIMIT SQUARE_CORNER_VELOCITY=8
G1 X134.275 Y146.275 F18000
SET_VELOCITY_LIMIT ACCEL=2000 ACCEL_TO_DECEL=1000
;TYPE:Outer wall
G1 F3600
G1 X111.725 Y146.275 E.76329
G1 X111.725 Y123.725 E.76329
G1 X134.275 Y123.725 E.76329
G1 X134.275 Y146.235 E.76194
G1 E-.35 F2400
;WIPE_START
G1 F3600
G1 X133.275 Y146.237 E-.15
;WIPE_END
SET_VELOCITY_LIMIT ACCEL=5000 ACCEL_TO_DECEL=2500
G1 Z.6 F18000
G1 X132.901 Y145.747
G1 Z.6
G1 Z.4
G1 E.5 F2400
;TYPE:Internal solid infill
;WIDTH:0.420966
G1 F6000
G1 X133.578 Y145.071 E.03006
G1 X133.578 Y144.536 E.01681
G1 X132.536 Y145.578 E.04629
G1 X132.002 Y145.578 E.01681
G1 X133.578 Y144.002 E.07006
G1 X133.578 Y143.467 E.01681
G1 X131.467 Y145.578 E.09382
G1 X130.932 Y145.578 E.01681
G1 X133.578 Y142.932 E.11759
G1 X133.578 Y142.398 E.01681
M73 P9 R10
G1 X130.398 Y145.578 E.14136
G1 X129.863 Y145.578 E.01681
G1 X133.578 Y141.863 E.16513
G1 X133.578 Y141.329 E.01681
G1 X129.329 Y145.578 E.18889
G1 X128.794 Y145.578 E.01681
G1 X133.578 Y140.794 E.21266
G1 X133.578 Y140.259 E.01681
G1 X128.259 Y145.578 E.23643
G1 X127.725 Y145.578 E.01681
G1 X133.578 Y139.725 E.2602
G1 X133.578 Y139.19 E.01681
G1 X127.19 Y145.578 E.28396
G1 X126.655 Y145.578 E.01681
G1 X133.578 Y138.655 E.30773
G1 X133.578 Y138.121 E.01681
G1 X126.121 Y145.578 E.3315
G1 X125.586 Y145.578 E.01681
G1 X133.578 Y137.586 E.35527
G1 X133.578 Y137.051 E.01681
G1 X125.051 Y145.578 E.37903
G1 X124.517 Y145.578 E.01681
G1 X133.578 Y136.517 E.4028
G1 X133.578 Y135.982 E.01681
G1 X123.982 Y145.578 E.42657
G1 X123.448 Y145.578 E.01681
G1 X133.578 Y135.448 E.45034
G1 X133.578 Y134.913 E.01681
G1 X122.913 Y145.578 E.4741
G1 X122.378 Y145.578 E.01681
G1 X133.578 Y134.378 E.49787
G1 X133.578 Y133.844 E.01681
G1 X121.844 Y145.578 E.52164
G1 X121.309 Y145.578 E.01681
G1 X133.578 Y133.309 E.54541
G1 X133.578 Y132.774 E.01681
G1 X120.774 Y145.578 E.56917
G1 X120.24 Y145.578 E.01681
G1 X133.578 Y132.24 E.59294
G1 X133.578 Y131.705 E.01681
G1 X119.705 Y145.578 E.61671
G1 X119.17 Y145.578 E.01681
G1 X133.578 Y131.17 E.64048
G1 X133.578 Y130.636 E.01681
G1 X118.636 Y145.578 E.66424
G1 X118.101 Y145.578 E.01681
G1 X133.578 Y130.101 E.68801
G1 X133.578 Y129.567 E.01681
G1 X117.567 Y145.578 E.71178
G1 X117.032 Y145.578 E.01681
G1 X133.578 Y129.032 E.73555
G1 X133.578 Y128.497 E.01681
G1 X116.497 Y145.578 E.75931
G1 X115.963 Y145.578 E.01681
G1 X133.578 Y127.963 E.78308
G1 X133.578 Y127.428 E.01681
G1 X115.428 Y145.578 E.80685
G1 X114.893 Y145.578 E.01681
G1 X133.578 Y126.893 E.83062
G1 X133.578 Y126.359 E.01681
G1 X114.359 Y145.578 E.85438
G1 X113.824 Y145.578 E.01681
G1 X133.578 Y125.824 E.87815
G1 X133.578 Y125.289 E.01681
G1 X113.289 Y145.578 E.90192
G1 X112.755 Y145.578 E.01681
G1 X133.578 Y124.755 E.92569
G1 X133.578 Y124.422 E.01045
M73 P10 R10
G1 X133.375 Y124.422 E.00636
G1 X112.422 Y145.375 E.93147
G1 X112.422 Y144.841 E.01681
G1 X132.841 Y124.422 E.9077
G1 X132.306 Y124.422 E.01681
G1 X112.422 Y144.306 E.88394
G1 X112.422 Y143.771 E.01681
M73 P10 R9
G1 X131.771 Y124.422 E.86017
G1 X131.237 Y124.422 E.01681
G1 X112.422 Y143.237 E.8364
G1 X112.422 Y142.702 E.01681
G1 X130.702 Y124.422 E.81263
G1 X130.168 Y124.422 E.01681
G1 X112.422 Y142.168 E.78887
G1 X112.422 Y141.633 E.01681
G1 X129.633 Y124.422 E.7651
G1 X129.098 Y124.422 E.01681
G1 X112.422 Y141.098 E.74133
G1 X112.422 Y140.564 E.01681
G1 X128.564 Y124.422 E.71756
G1 X128.029 Y124.422 E.01681
G1 X112.422 Y140.029 E.6938
G1 X112.422 Y139.494 E.01681
G1 X127.494 Y124.422 E.67003
G1 X126.96 Y124.422 E.01681
G1 X112.422 Y138.96 E.64626
G1 X112.422 Y138.425 E.01681
G1 X126.425 Y124.422 E.62249
G1 X125.89 Y124.422 E.01681
G1 X112.422 Y137.89 E.59873
G1 X112.422 Y137.356 E.01681
G1 X125.356 Y124.422 E.57496
G1 X124.821 Y124.422 E.01681
G1 X112.422 Y136.821 E.55119
G1 X112.422 Y136.287 E.01681
G1 X124.287 Y124.422 E.52742
G1 X123.752 Y124.422 E.01681
G1 X112.422 Y135.752 E.50366
G1 X112.422 Y135.217 E.01681
G1 X123.217 Y124.422 E.47989
G1 X122.683 Y124.422 E.01681
G1 X112.422 Y134.683 E.45612
G1 X112.422 Y134.148 E.01681
G1 X122.148 Y124.422 E.43235
G1 X121.613 Y124.422 E.01681
G1 X112.422 Y133.613 E.40859
G1 X112.422 Y133.079 E.01681
G1 X121.079 Y124.422 E.38482
G1 X120.544 Y124.422 E.01681
G1 X112.422 Y132.544 E.36105
G1 X112.422 Y132.009 E.01681
G1 X120.009 Y124.422 E.33728
G1 X119.475 Y124.422 E.01681
G1 X112.422 Y131.475 E.31352
G1 X112.422 Y130.94 E.01681
G1 X118.94 Y124.422 E.28975
G1 X118.406 Y124.422 E.01681
G1 X112.422 Y130.406 E.26598
G1 X112.422 Y129.871 E.01681
M73 P11 R9
G1 X117.871 Y124.422 E.24221
G1 X117.336 Y124.422 E.01681
G1 X112.422 Y129.336 E.21845
G1 X112.422 Y128.802 E.01681
G1 X116.802 Y124.422 E.19468
G1 X116.267 Y124.422 E.01681
G1 X112.422 Y128.267 E.17091
G1 X112.422 Y127.732 E.01681
G1 X115.732 Y124.422 E.14714
G1 X115.198 Y124.422 E.01681
G1 X112.422 Y127.198 E.12338
G1 X112.422 Y126.663 E.01681
G1 X114.663 Y124.422 E.09961
G1 X114.128 Y124.422 E.01681
G1 X112.422 Y126.128 E.07584
G1 X112.422 Y125.594 E.01681
G1 X113.594 Y124.422 E.05207
G1 X113.059 Y124.422 E.01681
G1 X112.253 Y125.229 E.03585
G1 E-.35 F2400
;WIPE_START
G1 F6000
G1 X112.96 Y124.522 E-.15
;WIPE_END
G1 Z.6 F18000
G1 X112.559 Y145.599 Z.6
G1 Z.4
G1 E.5 F2400
SET_VELOCITY_LIMIT SQUARE_CORNER_VELOCITY=7
;TYPE:Gap infill
;WIDTH:0.121052
G1 F6000
G1 X112.454 Y145.63 E.00071
G1 X112.336 Y145.607 E.00078
SET_VELOCITY_LIMIT SQUARE_CORNER_VELOCITY=8
G1 E-.40793 F2400
;WIPE_START
G1 F6000
G1 X112.454 Y145.63 E-.04812
G1 X112.559 Y145.599 E-.04395
;WIPE_END
G1 Z.6 F18000
G1 X112.532 Y124.472 Z.6
G1 Z.4
G1 E.5 F2400
;TYPE:Internal solid infill
;WIDTH:0.392266
G1 F6000
G1 X112.467 Y124.51 E.0022
G1 X112.534 Y124.545 E.0022
G1 E-.43946 F2400
;WIPE_START
G1 F6000
G1 X112.467 Y124.51 E-.03029
G1 X112.532 Y124.472 E-.03025
;WIPE_END
G1 Z.6 F18000
G1 X133.549 Y145.491 Z.6
G1 Z.4
G1 E.5 F2400
;WIDTH:0.38292
G1 F6000
G1 X133.485 Y145.528 E.00208
G1 X133.55 Y145.563 E.00208
; stop printing object Cube id:0 copy 0
;LAYER_CHANGE
;Z:0.6
;HEIGHT:0.2
;BEFORE_LAYER_CHANGE
;0.6
G92 E0

G1 E-.44109 F2400
;WIPE_START
G1 F6000
G1 X133.485 Y145.528 E-.02946
G1 X133.549 Y145.491 E-.02944
;WIPE_END
EXCLUDE_OBJECT_END NAME=Cube_id_0_copy_0
;_SET_FAN_SPEED_CHANGING_LAYER
; printing object Cube id:0 copy 0
EXCLUDE_OBJECT_START NAME=Cube_id_0_copy_0
G1 Z.6 F18000
G1 X133.868 Y145.868 Z.6
G1 E.5 F2400
SET_VELOCITY_LIMIT SQUARE_CORNER_VELOCITY=7
;TYPE:Inner wall
;WIDTH:0.449999
G1 F2166
G1 X112.132 Y145.868 E.73573
G1 X112.132 Y124.132 E.73573
G1 X133.868 Y124.132 E.73573
G1 X133.868 Y145.828 E.73438
SET_VELOCITY_LIMIT SQUARE_CORNER_VELOCITY=8
G1 X134.275 Y146.275 F18000
SET_VELOCITY_LIMIT ACCEL=2000 ACCEL_TO_DECEL=1000
;TYPE:Outer wall
G1 F2166
G1 X111.725 Y146.275 E.76329
G1 X111.725 Y123.725 E.76329
G1 X134.275 Y123.725 E.76329
G1 X134.275 Y146.235 E.76194
; stop printing object Cube id:0 copy 0
G1 E-.35 F2400
;WIPE_START
M73 P12 R9
G1 F3600
G1 X133.275 Y146.237 E-.15
;WIPE_END
EXCLUDE_OBJECT_END NAME=Cube_id_0_copy_0
M106 S227
;LAYER_CHANGE
;Z:0.8
;HEIGHT:0.2
;BEFORE_LAYER_CHANGE
;0.8
G92 E0

;_SET_FAN_SPEED_CHANGING_LAYER
; printing object Cube id:0 copy 0
SET_VELOCITY_LIMIT ACCEL=5000 ACCEL_TO_DECEL=2500
EXCLUDE_OBJECT_START NAME=Cube_id_0_copy_0
G1 Z.8 F18000
G1 X133.868 Y145.868
G1 E.5 F2400
SET_VELOCITY_LIMIT SQUARE_CORNER_VELOCITY=7
;TYPE:Inner wall
G1 F2158
G1 X112.132 Y145.868 E.73573
G1 X112.132 Y124.132 E.73573
G1 X133.868 Y124.132 E.73573
G1 X133.868 Y145.828 E.73438
SET_VELOCITY_LIMIT SQUARE_CORNER_VELOCITY=8
G1 X134.275 Y146.275 F18000
SET_VELOCITY_LIMIT ACCEL=2000 ACCEL_TO_DECEL=1000
;TYPE:Outer wall
G1 F2158
G1 X111.725 Y146.275 E.76329
G1 X111.725 Y123.725 E.76329
G1 X134.275 Y123.725 E.76329
G1 X134.275 Y146.235 E.76194
; stop printing object Cube id:0 copy 0
G1 E-.35 F2400
;WIPE_START
G1 F3600
G1 X133.275 Y146.237 E-.15
;WIPE_END
EXCLUDE_OBJECT_END NAME=Cube_id_0_copy_0
;LAYER_CHANGE
;Z:1
;HEIGHT:0.2
;BEFORE_LAYER_CHANGE
;1
G92 E0

;_SET_FAN_SPEED_CHANGING_LAYER
; printing object Cube id:0 copy 0
SET_VELOCITY_LIMIT ACCEL=5000 ACCEL_TO_DECEL=2500
EXCLUDE_OBJECT_START NAME=Cube_id_0_copy_0
G1 Z1 F18000
G1 X133.868 Y145.868
G1 E.5 F2400
SET_VELOCITY_LIMIT SQUARE_CORNER_VELOCITY=7
;TYPE:Inner wall
G1 F2158
G1 X112.132 Y145.868 E.73573
G1 X112.132 Y124.132 E.73573
G1 X133.868 Y124.132 E.73573
G1 X133.868 Y145.828 E.73438
SET_VELOCITY_LIMIT SQUARE_CORNER_VELOCITY=8
M73 P13 R9
G1 X134.275 Y146.275 F18000
SET_VELOCITY_LIMIT ACCEL=2000 ACCEL_TO_DECEL=1000
;TYPE:Outer wall
G1 F2158
G1 X111.725 Y146.275 E.76329
G1 X111.725 Y123.725 E.76329
G1 X134.275 Y123.725 E.76329
G1 X134.275 Y146.235 E.76194
; stop printing object Cube id:0 copy 0
G1 E-.35 F2400
;WIPE_START
G1 F3600
G1 X133.275 Y146.237 E-.15
;WIPE_END
EXCLUDE_OBJECT_END NAME=Cube_id_0_copy_0
;LAYER_CHANGE
;Z:1.2
;HEIGHT:0.2
;BEFORE_LAYER_CHANGE
;1.2
G92 E0

;_SET_FAN_SPEED_CHANGING_LAYER
; printing object Cube id:0 copy 0
SET_VELOCITY_LIMIT ACCEL=5000 ACCEL_TO_DECEL=2500
EXCLUDE_OBJECT_START NAME=Cube_id_0_copy_0
G1 Z1.2 F18000
G1 X133.868 Y145.868
G1 E.5 F2400
SET_VELOCITY_LIMIT SQUARE_CORNER_VELOCITY=7
;TYPE:Inner wall
G1 F2158
G1 X112.132 Y145.868 E.73573
G1 X112.132 Y124.132 E.73573
G1 X133.868 Y124.132 E.73573
G1 X133.868 Y145.828 E.73438
SET_VELOCITY_LIMIT SQUARE_CORNER_VELOCITY=8
G1 X134.275 Y146.275 F18000
SET_VELOCITY_LIMIT ACCEL=2000 ACCEL_TO_DECEL=1000
;TYPE:Outer wall
G1 F2158
G1 X111.725 Y146.275 E.76329
G1 X111.725 Y123.725 E.76329
M73 P14 R9
G1 X134.275 Y123.725 E.76329
G1 X134.275 Y146.235 E.76194
; stop printing object Cube id:0 copy 0
G1 E-.35 F2400
;WIPE_START
G1 F3600
G1 X133.275 Y146.237 E-.15
;WIPE_END
EXCLUDE_OBJECT_END NAME=Cube_id_0_copy_0
;LAYER_CHANGE
;Z:1.4
;HEIGHT:0.2
;BEFORE_LAYER_CHANGE
;1.4
G92 E0

;_SET_FAN_SPEED_CHANGING_LAYER
; printing object Cube id:0 copy 0
SET_VELOCITY_LIMIT ACCEL=5000 ACCEL_TO_DECEL=2500
