; HEADER_BLOCK_START
; generated by OrcaSlicer 2.1.1 on 2024-07-27 at 17:02:39
; total layer number: 50
; filament_density: 1.24
; filament_diameter: 1.75
; max_z_height: 10.00
; HEADER_BLOCK_END

; THUMBNAIL_BLOCK_START

;
; THUMBNAIL_BLOCK_END

; THUMBNAIL_BLOCK_START

;
; THUMBNAIL_BLOCK_END

; external perimeters extrusion width = 0.42mm
; perimeters extrusion width = 0.45mm
; infill extrusion width = 0.45mm
; solid infill extrusion width = 0.45mm
; top infill extrusion width = 0.42mm
; first layer extrusion width = 0.50mm

; EXECUTABLE_BLOCK_START
EXCLUDE_OBJECT_DEFINE NAME=ecrou_PTFE_v6.stl_id_0_copy_0 CENTER=115,115 POLYGON=[[83.0021,114.898],[83.0187,114.695],[83.0517,114.494],[83.101,114.296],[83.1663,114.103],[86.877,105.145],[86.9673,104.962],[87.0722,104.788],[87.191,104.622],[87.3228,104.467],[87.4669,104.323],[87.6222,104.191],[87.7877,104.072],[87.9624,103.967],[88.145,103.877],[97.1034,100.166],[97.2964,100.101],[97.4941,100.052],[97.6951,100.019],[97.8981,100.002],[132.102,100.002],[132.305,100.019],[132.506,100.052],[132.704,100.101],[132.897,100.166],[141.855,103.877],[142.038,103.967],[142.212,104.072],[142.378,104.191],[142.533,104.323],[142.677,104.467],[142.809,104.622],[142.928,104.788],[143.033,104.962],[143.123,105.145],[146.834,114.103],[146.899,114.296],[146.948,114.494],[146.981,114.695],[146.998,114.898],[146.998,115.102],[146.981,115.305],[146.948,115.506],[146.899,115.704],[146.834,115.897],[143.123,124.855],[143.033,125.038],[142.928,125.212],[142.809,125.378],[142.677,125.533],[142.533,125.677],[142.378,125.809],[142.212,125.928],[142.038,126.033],[141.855,126.123],[132.897,129.834],[132.704,129.899],[132.506,129.948],[132.305,129.981],[132.102,129.998],[97.8981,129.998],[97.6951,129.981],[97.4941,129.948],[97.2964,129.899],[97.1034,129.834],[88.145,126.123],[87.9624,126.033],[87.7877,125.928],[87.6222,125.809],[87.4669,125.677],[87.3228,125.533],[87.191,125.378],[87.0722,125.212],[86.9673,125.038],[86.877,124.855],[83.1663,115.897],[83.101,115.704],[83.0517,115.506],[83.0187,115.305],[83.0021,115.102],[83.0021,114.898]]
M73 P0 R17
;TYPE:Custom
M220 S100
G90 ; use absolute coordinates
M83 ; extruder relative mode
M104 S150 ; set temporary nozzle temp to prevent oozing during homing
M140 S55 ; set final bed temp
G4 S30 ; allow partial nozzle warmup
G28 ; home all axis and restore leveling
BED_MESH_CALIBRATE PROFILE=adaptive ADAPTIVE=1 ADAPTIVE_MARGIN=0
G1 Z25 F240
G1 X10.0 Y30 F3000
M104 S210 ; set final nozzle temp
M190 S55 ; wait for bed temp to stabilize
M109 S210 ; wait for nozzle temp to stabilize
G1 Z0.28 F240
G92 E0 ; Move Z Axis up
G1 Z2.0 F5000 ; Move to start position
M73 P1 R16
G1 X5 Y30 Z0.28 F300 ; Draw the first line
G1 X5 Y200 Z0.28 F1500 E15 ; Move to side a little
G1 X5.4 Y200 Z0.28 F5000.0 ; Draw the second line
M73 P2 R16
G1 X5.4 Y50 Z0.28 F1500.0 E30 ; Reset Extruder
G92 E0 ; Move Z Axis up
G1 Z2.0 F3000
M117 Start Printing..
G90
G21
M83 ; use relative distances for extrusion
; filament start gcode
M106 S0
;LAYER_CHANGE
;Z:0.2
;HEIGHT:0.2
;BEFORE_LAYER_CHANGE
;0.2
G92 E0

G1 E-.5 F1800
;_SET_FAN_SPEED_CHANGING_LAYER
SET_VELOCITY_LIMIT ACCEL=1000
SET_VELOCITY_LIMIT SQUARE_CORNER_VELOCITY=7
; printing object ecrou PTFE v6.stl id:0 copy 0
EXCLUDE_OBJECT_START NAME=ecrou_PTFE_v6.stl_id_0_copy_0
G1 Z.2 F24000
G1 X130.282 Y127.793
G1 Z.2
G1 E.5 F1800
;TYPE:Inner wall
;WIDTH:0.499999
G1 X130.098 Y127.539 E.0117
G1 X129.687 Y127.077 E.02302
G1 X129.471 Y126.564 E.02074
G1 X129.447 Y126.355 E.0078
G1 X129.446 Y125.874 E.01794
G1 X129.639 Y125.329 E.02151
G1 X129.983 Y124.884 E.02098
G1 X130.456 Y124.576 E.021
G1 X131.014 Y124.428 E.02151
G1 X131.402 Y124.443 E.01446
G1 X131.961 Y124.618 E.0218
G1 X132.321 Y124.865 E.01626
G1 X132.589 Y125.145 E.01445
G1 X132.83 Y125.308 E.01086
G1 X133.173 Y125.352 E.01285
G1 X133.434 Y125.262 E.01028
G1 X134.577 Y124.585 E.04949
G1 X135.697 Y124.075 E.04585
G1 X136.961 Y123.661 E.04952
G1 X137.884 Y123.424 E.0355
G1 X138.054 Y123.308 E.00768
G1 X138.213 Y123.087 E.01014
G1 X138.272 Y122.817 E.01029
G1 X138.281 Y122.234 E.02171
G1 X138.39 Y121.856 E.01465
G1 X138.687 Y121.361 E.0215
G1 X139.002 Y121.077 E.0158
G1 X139.377 Y120.878 E.0158
G1 X139.801 Y120.772 E.01628
G1 X140.281 Y120.798 E.0179
G1 X140.741 Y120.926 E.01778
G1 X141.215 Y121.262 E.02166
G1 X141.549 Y121.712 E.02087
G1 X141.621 Y121.912 E.00792
G1 X141.737 Y122.389 E.01829
G1 X141.745 Y122.961 E.0213
G1 X141.842 Y123.186 E.00911
G1 X142.028 Y123.374 E.00985
G1 X142.254 Y123.473 E.0092
G1 X143.136 Y123.684 E.03377
G1 X143.913 Y123.929 E.03036
G1 X145.056 Y124.402 E.04609
G1 X146.739 Y125.334 E.07162
G1 X147.056 Y125.343 E.01181
G1 X147.294 Y125.243 E.00962
G1 X147.679 Y124.865 E.02008
G1 X148.045 Y124.615 E.01653
G1 X148.242 Y124.543 E.00779
G1 X148.702 Y124.427 E.0177
G1 X149.277 Y124.483 E.02151
G1 X149.793 Y124.709 E.021
G1 X150.117 Y124.984 E.0158
G1 X150.372 Y125.339 E.0163
G1 X150.513 Y125.707 E.01466
G1 X150.572 Y126.283 E.02157
G1 X150.439 Y126.831 E.02101
G1 X150.135 Y127.32 E.02145
G1 X149.855 Y127.589 E.01446
G1 X149.692 Y127.83 E.01084
G1 X149.644 Y128.041 E.00805
G1 X149.686 Y128.325 E.01071
G1 X150.412 Y129.571 E.05369
G1 X150.928 Y130.702 E.04631
G1 X151.198 Y131.465 E.03013
G1 X151.529 Y132.757 E.0497
G1 X151.676 Y133.037 E.01177
G1 X151.922 Y133.216 E.01131
G1 X152.183 Y133.272 E.00997
G1 X152.766 Y133.281 E.02171
G1 X153.144 Y133.39 E.01464
G1 X153.639 Y133.687 E.0215
G1 X153.999 Y134.127 E.02116
G1 X154.202 Y134.648 E.02082
G1 X154.236 Y135.071 E.0158
G1 X154.202 Y135.28 E.00788
G1 X154.074 Y135.741 E.01785
G1 X153.741 Y136.212 E.02148
G1 X153.282 Y136.551 E.02124
G1 X153.082 Y136.623 E.00793
G1 X152.611 Y136.737 E.01805
G1 X152.044 Y136.744 E.02113
G1 X151.823 Y136.836 E.00889
G1 X151.649 Y136.996 E.00881
G1 X151.529 Y137.243 E.01023
G1 X151.219 Y138.45 E.04643
G1 X151.05 Y138.951 E.01968
G1 X150.82 Y139.545 E.02374
G1 X150.567 Y140.117 E.02329
G1 X150.183 Y140.843 E.03059
G1 X149.669 Y141.729 E.03816
G1 X149.648 Y141.998 E.01004
G1 X149.705 Y142.202 E.00789
G1 X149.855 Y142.411 E.0096
G1 X150.135 Y142.679 E.01441
G1 X150.385 Y143.045 E.01653
G1 X150.529 Y143.436 E.01552
G1 X150.576 Y143.858 E.0158
G1 X150.52 Y144.278 E.01579
G1 X150.442 Y144.475 E.00789
G1 X150.218 Y144.899 E.01786
G1 X149.792 Y145.288 E.02151
G1 X149.265 Y145.525 E.02151
G1 X148.881 Y145.573 E.01443
G1 X148.28 Y145.486 E.02261
G1 X147.949 Y145.32 E.01382
G1 X147.201 Y144.705 E.03604
G1 X147.006 Y144.649 E.00757
G1 X146.762 Y144.66 E.00909
G1 X146.567 Y144.738 E.00785
G1 X145.423 Y145.415 E.04949
G1 X144.303 Y145.925 E.04585
G1 X143.13 Y146.317 E.04607
G1 X142.254 Y146.527 E.03354
G1 X141.948 Y146.69 E.0129
G1 X141.766 Y146.969 E.01242
G1 X141.721 Y147.637 E.02496
G1 X141.662 Y148.013 E.01416
G1 X141.395 Y148.53 E.02166
G1 X140.998 Y148.923 E.02082
G1 X140.623 Y149.122 E.0158
G1 X140.212 Y149.225 E.01577
G1 X139.774 Y149.225 E.01631
G1 X139.259 Y149.074 E.02001
G1 X138.787 Y148.74 E.02151
G1 X138.452 Y148.289 E.02095
G1 X138.3 Y147.869 E.0166
G1 X138.234 Y146.969 E.03364
G1 X138.154 Y146.808 E.00669
G1 X138.01 Y146.654 E.00786
G1 X137.746 Y146.527 E.01091
G1 X136.864 Y146.316 E.03377
G1 X136.087 Y146.071 E.03036
G1 X134.944 Y145.598 E.04609
G1 X133.903 Y145.032 E.04412
G1 X133.439 Y144.741 E.0204
G1 X133.073 Y144.643 E.01408
M73 P3 R16
G1 X132.774 Y144.717 E.0115
G1 X132.321 Y145.135 E.02297
G1 X131.961 Y145.382 E.01625
G1 X131.55 Y145.534 E.01631
G1 X131.164 Y145.574 E.01446
G1 X130.587 Y145.479 E.02176
G1 X130.201 Y145.287 E.01607
G1 X129.792 Y144.904 E.02088
G1 X129.521 Y144.414 E.02083
G1 X129.428 Y143.986 E.01633
G1 X129.443 Y143.598 E.01446
G1 X129.618 Y143.039 E.0218
G1 X129.865 Y142.679 E.01626
G1 X130.283 Y142.226 E.02297
G1 X130.345 Y142.046 E.00709
G1 X130.326 Y141.711 E.01249
G1 X130.262 Y141.566 E.0059
G1 X129.585 Y140.423 E.04949
G1 X129.075 Y139.303 E.04585
G1 X128.683 Y138.13 E.04607
G1 X128.473 Y137.254 E.03354
G1 X128.336 Y136.977 E.01151
G1 X128.043 Y136.77 E.01335
G1 X127.791 Y136.728 E.00954
G1 X127.403 Y136.737 E.01444
G1 X126.839 Y136.603 E.02161
G1 X126.361 Y136.313 E.02082
G1 X126.001 Y135.873 E.02116
G1 X125.798 Y135.352 E.02081
G1 X125.764 Y134.93 E.0158
G1 X125.835 Y134.497 E.01631
G1 X125.995 Y134.137 E.01468
G1 X126.36 Y133.689 E.02153
G1 X126.718 Y133.448 E.01608
G1 X127.123 Y133.302 E.01604
G1 X128.043 Y133.23 E.03437
G1 X128.221 Y133.133 E.00755
G1 X128.377 Y132.967 E.00849
G1 X128.473 Y132.746 E.00897
G1 X128.684 Y131.864 E.03377
G1 X128.929 Y131.087 E.03036
G1 X129.402 Y129.944 E.04609
G1 X130.315 Y128.321 E.06936
G1 X130.357 Y128.086 E.00888
G1 X130.308 Y127.83 E.00969
G1 X130.305 Y127.826 E.00021
G1 X129.884 Y128 F24000
;TYPE:Outer wall
G1 F1800
G1 X129.512 Y127.59 E.02061
G1 X129.211 Y127.177 E.01904
G1 X129.023 Y126.67 E.02014
G1 X128.993 Y126.406 E.00989
G1 X128.979 Y125.959 E.01668
G1 X129.103 Y125.431 E.02021
G1 X129.321 Y124.957 E.01942
G1 X129.671 Y124.545 E.02013
G1 X129.889 Y124.389 E.00997
G1 X130.27 Y124.159 E.0166
G1 X130.695 Y124.03 E.01655
G1 X131.159 Y123.969 E.01742
G1 X131.665 Y124.021 E.01896
G1 X132.172 Y124.209 E.02015
G1 X132.618 Y124.515 E.02013
G1 X132.919 Y124.83 E.01622
G1 X133.065 Y124.899 E.00602
G1 X133.201 Y124.868 E.00519
G1 X134.365 Y124.18 E.05039
G1 X135.529 Y123.649 E.04765
G1 X136.854 Y123.216 E.05192
G1 X137.686 Y123.012 E.03189
G1 X137.795 Y122.9 E.00585
G1 X137.869 Y121.986 E.03415
G1 X138.042 Y121.501 E.01918
G1 X138.34 Y121.059 E.01984
G1 X138.738 Y120.7 E.01998
G1 X139.212 Y120.448 E.01999
G1 X139.736 Y120.317 E.02013
G1 X140.267 Y120.332 E.01977
G1 X140.784 Y120.453 E.0198
G1 X141.27 Y120.724 E.0207
G1 X141.657 Y121.055 E.01898
G1 X141.959 Y121.503 E.02014
G1 X142.051 Y121.755 E.00996
G1 X142.172 Y122.204 E.01733
G1 X142.185 Y122.801 E.02225
G1 X142.223 Y122.933 E.0051
G1 X142.36 Y123.029 E.00624
G1 X143.258 Y123.243 E.03437
G1 X144.069 Y123.499 E.03171
G1 X145.253 Y123.989 E.04773
G1 X146.381 Y124.602 E.0478
G1 X146.856 Y124.892 E.02075
G1 X147 Y124.884 E.00536
G1 X147.382 Y124.515 E.01976
G1 X147.834 Y124.206 E.0204
G1 X148.083 Y124.114 E.00988
G1 X148.506 Y123.995 E.01639
G1 X149.049 Y123.987 E.02022
G1 X149.562 Y124.085 E.01942
G1 X150.047 Y124.324 E.02015
G1 X150.456 Y124.672 E.01999
G1 X150.612 Y124.89 E.00998
G1 X150.85 Y125.289 E.01732
G1 X151.005 Y125.783 E.01929
G1 X151.032 Y126.316 E.01986
G1 X150.961 Y126.676 E.01366
G1 X150.793 Y127.168 E.0194
G1 X150.486 Y127.618 E.02029
G1 X150.116 Y128 E.01979
G1 X150.114 Y128.165 E.00615
G1 X150.403 Y128.628 E.02034
G1 X150.82 Y129.363 E.03147
G1 X151.352 Y130.531 E.0478
G1 X151.635 Y131.332 E.03163
G1 X151.98 Y132.669 E.05145
G1 X152.103 Y132.797 E.00658
G1 X153.014 Y132.869 E.03404
G1 X153.499 Y133.042 E.01917
G1 X153.941 Y133.34 E.01984
G1 X154.182 Y133.607 E.01343
G1 X154.482 Y134.05 E.01992
G1 X154.653 Y134.555 E.01986
G1 X154.696 Y135.09 E.01998
G1 X154.653 Y135.354 E.00997
G1 X154.546 Y135.786 E.01659
G1 X154.283 Y136.262 E.02025
G1 X153.945 Y136.657 E.01937
G1 X153.49 Y136.962 E.02041
G1 X153.237 Y137.053 E.01003
G1 X152.793 Y137.172 E.0171
G1 X152.198 Y137.185 E.02216
G1 X152.07 Y137.221 E.00497
G1 X151.972 Y137.356 E.00624
G1 X151.662 Y138.564 E.04643
G1 X151.481 Y139.103 E.02119
G1 X151.24 Y139.727 E.02493
G1 X150.972 Y140.328 E.02448
G1 X150.573 Y141.082 E.03179
G1 X150.12 Y141.823 E.03233
G1 X150.121 Y142.011 E.00702
G1 X150.485 Y142.382 E.01936
G1 X150.794 Y142.834 E.0204
G1 X150.977 Y143.33 E.01968
G1 X151.037 Y143.863 E.01997
G1 X150.966 Y144.394 E.01997
G1 X150.766 Y144.897 E.02015
G1 X150.451 Y145.312 E.01941
G1 X150.043 Y145.67 E.02022
G1 X149.645 Y145.866 E.01655
G1 X149.196 Y146.002 E.01746
G1 X148.689 Y146.032 E.01891
G1 X148.314 Y145.958 E.01424
G1 X147.832 Y145.793 E.01898
G1 X147.382 Y145.486 E.02029
G1 X147.081 Y145.171 E.01623
G1 X146.946 Y145.102 E.00565
G1 X146.799 Y145.132 E.00557
G1 X145.635 Y145.82 E.05039
G1 X144.359 Y146.388 E.05202
G1 X143.16 Y146.78 E.04697
G1 X142.276 Y147.011 E.03403
G1 X142.197 Y147.119 E.00497
G1 X142.135 Y147.994 E.03269
G1 X141.945 Y148.492 E.01987
G1 X141.658 Y148.943 E.01992
G1 X141.262 Y149.3 E.01986
G1 X140.788 Y149.552 E.01998
G1 X140.269 Y149.682 E.01996
G1 X140.001 Y149.682 E.00997
G1 X139.535 Y149.642 E.01741
G1 X139.051 Y149.483 E.01896
G1 X138.739 Y149.283 E.0138
G1 X138.343 Y148.945 E.01942
G1 X138.041 Y148.497 E.02012
G1 X137.949 Y148.243 E.01004
G1 X137.828 Y147.793 E.01739
G1 X137.815 Y147.199 E.02213
G1 X137.776 Y147.065 E.00519
G1 X137.64 Y146.971 E.00615
G1 X136.742 Y146.757 E.03437
G1 X135.931 Y146.501 E.0317
G1 X134.85 Y146.054 E.04355
G1 X134.313 Y145.775 E.02253
G1 X133.115 Y145.102 E.05121
G1 X132.981 Y145.125 E.00505
G1 X132.618 Y145.485 E.01905
G1 X132.173 Y145.79 E.02011
G1 X131.922 Y145.884 E.00998
G1 X131.471 Y146.009 E.01741
G1 X130.963 Y146.029 E.01896
G1 X130.435 Y145.914 E.02012
G1 X129.948 Y145.671 E.02026
G1 X129.679 Y145.443 E.01315
G1 X129.323 Y145.044 E.01991
G1 X129.087 Y144.566 E.01984
G1 X129.03 Y144.307 E.00991
G1 X128.969 Y143.841 E.01749
G1 X129.021 Y143.335 E.01896
G1 X129.209 Y142.828 E.02015
G1 X129.515 Y142.382 E.02013
G1 X129.83 Y142.081 E.01622
G1 X129.896 Y141.959 E.00517
G1 X129.868 Y141.799 E.00604
G1 X129.054 Y140.359 E.06164
G1 X128.596 Y139.312 E.04254
G1 X128.21 Y138.12 E.04667
G1 X127.996 Y137.286 E.03208
G1 X127.885 Y137.199 E.00525
G1 X127.366 Y137.195 E.01935
G1 X127.008 Y137.128 E.01356
G1 X126.501 Y136.958 E.01992
G1 X126.059 Y136.66 E.01985
G1 X125.818 Y136.392 E.01344
G1 X125.518 Y135.95 E.01989
G1 X125.347 Y135.445 E.01984
G1 X125.304 Y134.911 E.01998
G1 X125.347 Y134.646 E.00998
G1 X125.461 Y134.195 E.01735
G1 X125.701 Y133.736 E.01929
G1 X126.058 Y133.341 E.01983
G1 X126.51 Y133.038 E.02027
G1 X126.761 Y132.947 E.00995
G1 X127.203 Y132.828 E.01704
G1 X127.801 Y132.815 E.02227
G1 X127.945 Y132.769 E.00562
G1 X128.029 Y132.64 E.00573
G1 X128.243 Y131.742 E.03437
G1 X128.499 Y130.931 E.03171
G1 X128.989 Y129.747 E.04773
G1 X129.602 Y128.619 E.0478
G1 X129.886 Y128.163 E.02
G1 X129.885 Y128.04 E.0046
G1 E-.5
;WIPE_START
G1 F12000
G1 X129.512 Y127.59
G1 X129.211 Y127.177
G1 X129.023 Y126.67
G1 X128.993 Y126.406
G1 X128.99 Y126.308
;WIPE_END
G1 Z.4 F24000
G1 X147.667 Y135.251 Z.4
G1 Z.2
G1 E.5 F1800
;TYPE:Inner wall
G1 X147.676 Y135.684 E.01612
G1 X147.616 Y136.425 E.02769
G1 X147.376 Y137.545 E.04266
G1 X147.184 Y138.14 E.0233
G1 X146.908 Y138.785 E.02613
G1 X146.569 Y139.414 E.02659
G1 X146.122 Y140.081 E.02991
G1 X145.546 Y140.768 E.03339
G1 X144.966 Y141.328 E.03005
G1 X144.49 Y141.707 E.02266
G1 X143.733 Y142.213 E.03391
G1 X143.089 Y142.551 E.02709
G1 X142.236 Y142.894 E.03422
G1 X141.527 Y143.1 E.02752
G1 X140.545 Y143.274 E.03715
G1 X139.876 Y143.324 E.02497
G1 X139.18 Y143.32 E.02593
G1 X138.493 Y143.245 E.02572
G1 X137.805 Y143.091 E.02629
G1 X137.188 Y142.891 E.02413
G1 X136.348 Y142.54 E.03391
G1 X135.553 Y142.098 E.0339
G1 X134.554 Y141.356 E.04634
G1 X134.141 Y140.934 E.022
G1 X133.448 Y140.076 E.04105
G1 X133.062 Y139.47 E.02678
G1 X132.731 Y138.83 E.02683
G1 X132.454 Y138.156 E.02714
G1 X132.203 Y137.321 E.03247
G1 X132.061 Y136.599 E.02741
G1 X131.981 Y135.753 E.03165
G1 X131.983 Y135.018 E.02739
G1 X132.054 Y134.283 E.0275
G1 X132.194 Y133.564 E.02727
G1 X132.372 Y132.94 E.02416
G1 X132.711 Y132.066 E.03491
G1 X133.003 Y131.5 E.02374
G1 X133.37 Y130.918 E.02562
G1 X133.853 Y130.288 E.02958
G1 X134.398 Y129.713 E.0295
G1 X134.92 Y129.259 E.02578
G1 X135.43 Y128.901 E.02321
G1 X136.224 Y128.424 E.0345
G1 X137.039 Y128.06 E.03324
G1 X137.628 Y127.838 E.02343
G1 X138.472 Y127.612 E.03257
G1 X139.149 Y127.504 E.02553
G1 X139.838 Y127.458 E.02572
G1 X140.678 Y127.486 E.03129
G1 X141.381 Y127.584 E.02642
G1 X142.071 Y127.751 E.02646
G1 X142.854 Y128.017 E.0308
G1 X143.585 Y128.362 E.03011
G1 X144.202 Y128.735 E.02686
G1 X144.843 Y129.215 E.02981
G1 X145.386 Y129.722 E.02768
G1 X145.872 Y130.263 E.02708
G1 X146.253 Y130.797 E.02442
G1 X146.684 Y131.524 E.03149
G1 X147.04 Y132.294 E.0316
G1 X147.361 Y133.224 E.03665
G1 X147.574 Y134.139 E.03496
G1 X147.658 Y134.826 E.0258
G1 X147.666 Y135.211 E.01435
