; HEADER_BLOCK_START
; generated by OrcaSlicer 2.2.0 on 2024-11-21 at 10:59:01
; total layer number: 50
; filament_density: 1.24
; filament_diameter: 1.75
; max_z_height: 10.05
; HEADER_BLOCK_END

; THUMBNAIL_BLOCK_START

;
; THUMBNAIL_BLOCK_END

; THUMBNAIL_BLOCK_START

;
; THUMBNAIL_BLOCK_END

; external perimeters extrusion width = 0.42mm
; perimeters extrusion width = 0.45mm
; infill extrusion width = 0.45mm
; solid infill extrusion width = 0.45mm
; top infill extrusion width = 0.42mm
; first layer extrusion width = 0.55mm

; external perimeters extrusion width = 0.42mm
; perimeters extrusion width = 0.45mm
; infill extrusion width = 0.45mm
; solid infill extrusion width = 0.45mm
; top infill extrusion width = 0.42mm
; first layer extrusion width = 0.55mm

; external perimeters extrusion width = 0.42mm
; perimeters extrusion width = 0.45mm
; infill extrusion width = 0.45mm
; solid infill extrusion width = 0.45mm
; top infill extrusion width = 0.42mm
; first layer extrusion width = 0.55mm

; EXECUTABLE_BLOCK_START
EXCLUDE_OBJECT_DEFINE NAME=ecrou_PTFE_Male_BSP.step_id_0_copy_0 CENTER=130.999,127.975 POLYGON=[[116,127.889],[116.012,127.719],[116.035,127.55],[116.069,127.383],[116.115,127.219],[116.172,127.059],[119.867,118.139],[119.94,117.985],[120.024,117.836],[120.118,117.694],[120.221,117.558],[120.333,117.429],[120.453,117.309],[120.582,117.197],[120.718,117.094],[120.86,117],[121.009,116.916],[121.163,116.843],[130.083,113.148],[130.243,113.091],[130.407,113.045],[130.574,113.011],[130.743,112.988],[130.913,112.976],[131.084,112.976],[131.254,112.988],[131.423,113.011],[131.59,113.045],[131.754,113.091],[131.914,113.148],[140.835,116.843],[140.988,116.916],[141.137,117],[141.28,117.094],[141.415,117.197],[141.544,117.309],[141.664,117.429],[141.776,117.558],[141.879,117.694],[141.973,117.836],[142.057,117.985],[142.13,118.139],[145.825,127.059],[145.882,127.219],[145.928,127.383],[145.962,127.55],[145.985,127.719],[145.997,127.889],[145.997,128.06],[145.985,128.23],[145.962,128.399],[145.928,128.566],[145.882,128.73],[145.825,128.89],[142.13,137.811],[142.057,137.964],[141.973,138.113],[141.879,138.256],[141.776,138.391],[141.664,138.52],[141.544,138.64],[141.415,138.752],[141.28,138.855],[141.137,138.949],[140.988,139.033],[140.835,139.106],[131.914,142.801],[131.754,142.858],[131.59,142.904],[131.423,142.938],[131.254,142.961],[131.084,142.973],[130.913,142.973],[130.743,142.961],[130.574,142.938],[130.407,142.904],[130.243,142.858],[130.083,142.801],[121.163,139.106],[121.009,139.033],[120.86,138.949],[120.718,138.855],[120.582,138.752],[120.453,138.64],[120.333,138.52],[120.221,138.391],[120.118,138.256],[120.024,138.113],[119.94,137.964],[119.867,137.811],[116.172,128.89],[116.115,128.73],[116.069,128.566],[116.035,128.399],[116.012,128.23],[116,128.06],[116,127.889]]
EXCLUDE_OBJECT_DEFINE NAME=ecrou_PTFE_Male_BSP.step_id_1_copy_0 CENTER=99.0015,127.975 POLYGON=[[84.0029,127.889],[84.0145,127.719],[84.0377,127.55],[84.0723,127.383],[84.1183,127.219],[84.1753,127.059],[87.8701,118.139],[87.9434,117.985],[88.027,117.836],[88.1205,117.694],[88.2236,117.558],[88.3356,117.429],[88.4562,117.309],[88.5846,117.197],[88.7204,117.094],[88.863,117],[89.0115,116.916],[89.1654,116.843],[98.0855,113.148],[98.2462,113.091],[98.4103,113.045],[98.5773,113.011],[98.7461,112.988],[98.9162,112.976],[99.0867,112.976],[99.2568,112.988],[99.4257,113.011],[99.5926,113.045],[99.7567,113.091],[99.9174,113.148],[108.837,116.843],[108.991,116.916],[109.14,117],[109.282,117.094],[109.418,117.197],[109.547,117.309],[109.667,117.429],[109.779,117.558],[109.882,117.694],[109.976,117.836],[110.06,117.985],[110.133,118.139],[113.828,127.059],[113.885,127.219],[113.931,127.383],[113.965,127.55],[113.988,127.719],[114,127.889],[114,128.06],[113.988,128.23],[113.965,128.399],[113.931,128.566],[113.885,128.73],[113.828,128.89],[110.133,137.811],[110.06,137.964],[109.976,138.113],[109.882,138.256],[109.779,138.391],[109.667,138.52],[109.547,138.64],[109.418,138.752],[109.282,138.855],[109.14,138.949],[108.991,139.033],[108.837,139.106],[99.9174,142.801],[99.7567,142.858],[99.5926,142.904],[99.4257,142.938],[99.2568,142.961],[99.0867,142.973],[98.9162,142.973],[98.7461,142.961],[98.5772,142.938],[98.4103,142.904],[98.2462,142.858],[98.0855,142.801],[89.1654,139.106],[89.0115,139.033],[88.863,138.949],[88.7204,138.855],[88.5846,138.752],[88.4561,138.64],[88.3356,138.52],[88.2236,138.391],[88.1205,138.256],[88.027,138.113],[87.9434,137.964],[87.8701,137.811],[84.1753,128.89],[84.1183,128.73],[84.0723,128.566],[84.0377,128.399],[84.0145,128.23],[84.0029,128.06],[84.0029,127.889]]
EXCLUDE_OBJECT_DEFINE NAME=ecrou_PTFE_Male_BSP.step_id_2_copy_0 CENTER=115,102.025 POLYGON=[[100.001,101.94],[100.013,101.77],[100.036,101.601],[100.071,101.434],[100.117,101.27],[100.174,101.11],[103.869,92.1894],[103.942,92.0355],[104.026,91.887],[104.119,91.7444],[104.222,91.6086],[104.334,91.4801],[104.455,91.3596],[104.583,91.2476],[104.719,91.1445],[104.862,91.051],[105.01,90.9674],[105.164,90.8941],[114.084,87.1993],[114.245,87.1423],[114.409,87.0963],[114.576,87.0617],[114.745,87.0385],[114.915,87.0269],[115.085,87.0269],[115.255,87.0385],[115.424,87.0617],[115.591,87.0963],[115.755,87.1423],[115.916,87.1993],[124.836,90.8941],[124.99,90.9674],[125.138,91.051],[125.281,91.1445],[125.417,91.2476],[125.545,91.3596],[125.666,91.4802],[125.778,91.6086],[125.881,91.7444],[125.974,91.887],[126.058,92.0355],[126.131,92.1894],[129.826,101.11],[129.883,101.27],[129.929,101.434],[129.964,101.601],[129.987,101.77],[129.999,101.94],[129.999,102.111],[129.987,102.281],[129.964,102.45],[129.929,102.617],[129.883,102.781],[129.826,102.941],[126.131,111.861],[126.058,112.015],[125.974,112.164],[125.881,112.306],[125.778,112.442],[125.666,112.571],[125.545,112.691],[125.417,112.803],[125.281,112.906],[125.138,113],[124.99,113.084],[124.836,113.157],[115.916,116.852],[115.755,116.909],[115.591,116.955],[115.424,116.989],[115.255,117.012],[115.085,117.024],[114.915,117.024],[114.745,117.012],[114.576,116.989],[114.409,116.955],[114.245,116.909],[114.084,116.852],[105.164,113.157],[105.01,113.084],[104.861,113],[104.719,112.906],[104.583,112.803],[104.455,112.691],[104.334,112.571],[104.222,112.442],[104.119,112.306],[104.026,112.164],[103.942,112.015],[103.869,111.861],[100.174,102.941],[100.117,102.781],[100.071,102.617],[100.036,102.45],[100.013,102.281],[100.001,102.111],[100.001,101.94]]
M73 P0 R26
;TYPE:Custom
M220 S100
G90 ; use absolute coordinates
M83 ; extruder relative mode
M104 S150 ; set temporary nozzle temp to prevent oozing during homing
M140 S55 ; set final bed temp
G4 S30 ; allow partial nozzle warmup
G28 ; home all axis and restore leveling
BED_MESH_CALIBRATE PROFILE=adaptive ADAPTIVE=1 ADAPTIVE_MARGIN=0
G1 Z25 F240
G1 X10.0 Y30 F3000
M104 S210 ; set final nozzle temp
M190 S55 ; wait for bed temp to stabilize
M109 S210 ; wait for nozzle temp to stabilize
G1 Z0.28 F240
G92 E0 ; Move Z Axis up
G1 Z2.0 F5000 ; Move to start position
G1 X5 Y30 Z0.28 F300 ; Draw the first line
G1 X5 Y200 Z0.28 F1500 E15 ; Move to side a little
G1 X5.4 Y200 Z0.28 F5000.0 ; Draw the second line
M73 P1 R25
M73 P1 R25
G1 X5.4 Y50 Z0.28 F1500.0 E30 ; Reset Extruder
G92 E0 ; Move Z Axis up
G1 Z2.0 F3000
M117 Start Printing..
G90
G21
M83 ; use relative distances for extrusion
; filament start gcode
M106 S0
;LAYER_CHANGE
;Z:0.25
;HEIGHT:0.25
;BEFORE_LAYER_CHANGE
;0.25
G92 E0

G1 E-.5 F1800
;_SET_FAN_SPEED_CHANGING_LAYER
SET_VELOCITY_LIMIT ACCEL=1000
SET_VELOCITY_LIMIT SQUARE_CORNER_VELOCITY=7
; printing object ecrou PTFE Male BSP.step id:0 copy 0
EXCLUDE_OBJECT_START NAME=ecrou_PTFE_Male_BSP.step_id_0_copy_0
G1 Z.45 F24000
G1 X129.898 Y155.031
G1 Z.45
G1 Z.25
G1 E.5 F1800
;TYPE:Inner wall
;WIDTH:0.549999
G1 F3000
G1 X129.903 Y154.7 E.01508
G1 X129.741 Y154.252 E.02176
G1 X129.166 Y153.298 E.05087
G1 X128.729 Y152.397 E.0457
G1 X128.488 Y151.791 E.02978
G1 X128.284 Y151.172 E.02975
G1 X128.013 Y150.082 E.0513
G1 X127.811 Y149.649 E.0218
G1 X127.508 Y149.356 E.01927
G1 X127.206 Y149.205 E.01539
G1 X126.801 Y149.14 E.01871
G1 X126.513 Y149.142 E.01316
G1 X126.141 Y149.094 E.01713
G1 X125.725 Y148.86 E.02181
G1 X125.437 Y148.479 E.02178
G1 X125.346 Y148.111 E.01733
G1 X125.356 Y147.697 E.01891
G1 X125.561 Y147.265 E.02181
G1 X125.921 Y146.951 E.02181
G1 X126.254 Y146.831 E.01616
G1 X126.801 Y146.809 E.02501
G1 X127.206 Y146.744 E.01871
G1 X127.508 Y146.593 E.01539
G1 X127.811 Y146.3 E.01927
G1 X128.013 Y145.867 E.0218
G1 X128.284 Y144.777 E.0513
G1 X128.488 Y144.158 E.02975
G1 X128.729 Y143.552 E.02978
G1 X129.166 Y142.651 E.04571
G1 X129.741 Y141.697 E.05087
G1 X129.902 Y141.258 E.02132
G1 X129.897 Y140.827 E.01971
G1 X129.79 Y140.507 E.01541
G1 X129.628 Y140.259 E.0135
G1 X129.345 Y139.972 E.01842
G1 X129.115 Y139.675 E.01714
G1 X128.987 Y139.215 E.02181
G1 X129.02 Y138.875 E.01557
G1 X129.213 Y138.442 E.02165
G1 X129.549 Y138.131 E.02088
G1 X129.999 Y137.971 E.02181
G1 X130.475 Y138.003 E.02181
G1 X130.795 Y138.154 E.01616
G1 X131.198 Y138.526 E.02501
G1 X131.531 Y138.766 E.01874
G1 X131.851 Y138.873 E.01541
G1 X132.273 Y138.879 E.01927
G1 X132.721 Y138.717 E.02176
G1 X133.683 Y138.137 E.0513
G1 X134.265 Y137.844 E.02975
G1 X134.856 Y137.589 E.02938
G1 X135.81 Y137.258 E.04612
G1 X136.891 Y136.989 E.05086
G1 X137.324 Y136.787 E.0218
G1 X137.617 Y136.484 E.01927
G1 X137.768 Y136.182 E.01539
G1 X137.828 Y135.893 E.01348
G1 X137.831 Y135.49 E.01839
G1 X137.879 Y135.117 E.01718
G1 X138.113 Y134.701 E.02178
G1 X138.428 Y134.465 E.01798
G1 X138.799 Y134.316 E.01826
G1 X139.277 Y134.332 E.02181
G1 X139.708 Y134.537 E.02181
G1 X140.022 Y134.897 E.02181
G1 X140.142 Y135.23 E.01616
G1 X140.164 Y135.777 E.02501
G1 X140.229 Y136.182 E.01871
G1 X140.38 Y136.484 E.01539
G1 X140.673 Y136.787 E.01927
G1 X141.106 Y136.989 E.0218
G1 X142.187 Y137.258 E.05087
G1 X143.133 Y137.585 E.0457
G1 X143.732 Y137.844 E.02979
G1 X144.314 Y138.137 E.02975
G1 X145.276 Y138.717 E.0513
G1 X145.726 Y138.88 E.02182
G1 X146.148 Y138.873 E.01927
G1 X146.467 Y138.765 E.01539
G1 X146.714 Y138.604 E.01347
G1 X147 Y138.322 E.01833
G1 X147.298 Y138.091 E.01724
G1 X147.623 Y137.986 E.01557
G1 X148.097 Y137.991 E.02165
G1 X148.516 Y138.175 E.02088
G1 X148.842 Y138.525 E.02181
G1 X149.002 Y138.975 E.02181
G1 X148.97 Y139.451 E.02181
G1 X148.819 Y139.771 E.01616
G1 X148.448 Y140.174 E.02501
G1 X148.208 Y140.506 E.0187
G1 X148.1 Y140.826 E.01539
G1 X148.093 Y141.247 E.01927
G1 X148.256 Y141.697 E.02182
G1 X148.831 Y142.651 E.05087
G1 X149.268 Y143.552 E.0457
G1 X149.509 Y144.158 E.02978
G1 X149.713 Y144.777 E.02975
G1 X150.003 Y145.935 E.05448
G1 X150.186 Y146.3 E.01867
G1 X150.489 Y146.593 E.01927
G1 X150.791 Y146.744 E.01539
G1 X151.08 Y146.804 E.01348
G1 X151.626 Y146.806 E.02491
G1 X152.076 Y146.951 E.0216
G1 X152.369 Y147.208 E.0178
G1 X152.592 Y147.544 E.01841
G1 X152.665 Y147.888 E.01605
G1 X152.641 Y148.253 E.01669
G1 X152.436 Y148.684 E.02181
G1 X152.076 Y148.998 E.02181
G1 X151.743 Y149.118 E.01616
G1 X151.196 Y149.14 E.02501
G1 X150.791 Y149.205 E.01871
G1 X150.489 Y149.356 E.01539
G1 X150.186 Y149.649 E.01927
G1 X149.984 Y150.082 E.0218
G1 X149.713 Y151.172 E.0513
G1 X149.509 Y151.791 E.02975
G1 X149.268 Y152.397 E.02978
G1 X148.882 Y153.194 E.04042
G1 X148.222 Y154.314 E.05936
G1 X148.095 Y154.69 E.0181
G1 X148.1 Y155.122 E.01975
G1 X148.207 Y155.442 E.01541
G1 X148.448 Y155.775 E.01874
G1 X148.651 Y155.976 E.01305
G1 X148.882 Y156.274 E.01723
G1 X148.987 Y156.599 E.01558
G1 X148.982 Y157.073 E.02165
G1 X148.798 Y157.492 E.02088
G1 X148.449 Y157.818 E.02181
G1 X147.999 Y157.978 E.02181
G1 X147.522 Y157.946 E.02181
G1 X147.202 Y157.795 E.01616
G1 X146.799 Y157.424 E.02501
G1 X146.466 Y157.183 E.01874
G1 X146.146 Y157.076 E.01541
G1 X145.724 Y157.07 E.01927
G1 X145.276 Y157.232 E.02176
G1 X144.314 Y157.812 E.0513
G1 X143.732 Y158.105 E.02975
G1 X143.133 Y158.364 E.02979
G1 X142.187 Y158.691 E.0457
G1 X141.037 Y158.979 E.05412
G1 X140.673 Y159.162 E.01861
G1 X140.38 Y159.465 E.01927
G1 X140.229 Y159.767 E.01539
G1 X140.164 Y160.172 E.01871
G1 X140.166 Y160.46 E.01314
G1 X140.118 Y160.832 E.01714
G1 X139.884 Y161.248 E.02181
G1 X139.62 Y161.465 E.01557
G1 X139.178 Y161.635 E.02165
G1 X138.721 Y161.617 E.02088
G1 X138.289 Y161.412 E.02181
G1 X137.975 Y161.052 E.02181
G1 X137.855 Y160.719 E.01616
G1 X137.833 Y160.172 E.02501
G1 X137.768 Y159.767 E.01871
G1 X137.617 Y159.465 E.01539
G1 X137.324 Y159.162 E.01927
G1 X136.891 Y158.96 E.0218
G1 X135.801 Y158.689 E.0513
G1 X135.182 Y158.485 E.02975
G1 X134.576 Y158.244 E.02978
G1 X133.675 Y157.807 E.0457
G1 X132.721 Y157.232 E.05087
G1 X132.283 Y157.071 E.02131
G1 X131.851 Y157.076 E.01972
G1 X131.531 Y157.183 E.01541
G1 X131.198 Y157.424 E.01874
G1 X130.996 Y157.628 E.0131
G1 X130.699 Y157.858 E.01719
G1 X130.239 Y157.986 E.02181
G1 X129.85 Y157.931 E.01791
G1 X129.482 Y157.774 E.0183
G1 X129.155 Y157.425 E.02181
G1 X128.995 Y156.974 E.02181
G1 X129.027 Y156.498 E.02181
G1 X129.178 Y156.178 E.01616
G1 X129.55 Y155.775 E.02501
G1 X129.79 Y155.442 E.01874
G1 X129.897 Y155.122 E.01541
G1 X129.898 Y155.071 E.00236
G1 X129.41 Y154.985 F24000
G1 F3000
G1 X129.413 Y154.777 E.00947
G1 X129.315 Y154.508 E.01306
G1 X128.729 Y153.535 E.05189
G1 X128.274 Y152.597 E.04756
M73 P2 R25
M73 P2 R25
G1 X128.022 Y151.96 E.03129
G1 X127.807 Y151.31 E.03127
G1 X127.472 Y150.042 E.05989
G1 X127.342 Y149.861 E.01015
G1 X127.047 Y149.676 E.0159
G1 X126.494 Y149.638 E.02529
G1 X125.989 Y149.57 E.02328
G1 X125.533 Y149.332 E.02348
G1 X125.163 Y148.985 E.02315
G1 X124.935 Y148.548 E.02255
G1 X124.853 Y148.161 E.01804
G1 X124.851 Y147.73 E.0197
G1 X124.986 Y147.256 E.02247
G1 X125.282 Y146.837 E.02342
G1 X125.676 Y146.516 E.02321
G1 X126.152 Y146.345 E.0231
G1 X127.047 Y146.273 E.04099
G1 X127.228 Y146.183 E.00923
G1 X127.41 Y146.007 E.01156
G1 X127.531 Y145.748 E.01308
G1 X127.807 Y144.639 E.05215
G1 X128.022 Y143.989 E.03128
G1 X128.274 Y143.352 E.03129
G1 X128.729 Y142.414 E.04756
G1 X129.104 Y141.792 E.03319
G1 X129.399 Y141.241 E.02852
G1 X129.409 Y140.919 E.01471
G1 X129.248 Y140.578 E.0172
G1 X128.857 Y140.188 E.02522
G1 X128.608 Y139.741 E.02336
G1 X128.489 Y139.248 E.02315
G1 X128.538 Y138.757 E.02255
G1 X128.681 Y138.39 E.01796
G1 X128.916 Y138.027 E.01978
G1 X129.289 Y137.705 E.02247
G1 X129.766 Y137.517 E.02342
G1 X130.272 Y137.465 E.02321
G1 X130.773 Y137.587 E.02353
G1 X131.212 Y137.833 E.02298
G1 X131.602 Y138.224 E.02522
G1 X131.943 Y138.385 E.0172
G1 X132.196 Y138.389 E.01156
G1 X132.465 Y138.291 E.01306
G1 X133.443 Y137.702 E.05215
G1 X134.055 Y137.394 E.03127
G1 X134.676 Y137.126 E.03088
G1 X135.669 Y136.781 E.04798
G1 X136.686 Y136.529 E.04785
G1 X136.984 Y136.418 E.01449
G1 X137.207 Y136.204 E.01413
G1 X137.334 Y135.85 E.01718
G1 X137.335 Y135.47 E.01732
G1 X137.403 Y134.965 E.02328
G1 X137.635 Y134.518 E.023
G1 X137.982 Y134.146 E.02322
G1 X138.397 Y133.913 E.02172
G1 X138.892 Y133.812 E.02308
G1 X139.394 Y133.847 E.023
G1 X139.864 Y134.051 E.02339
G1 X140.259 Y134.373 E.02324
G1 X140.527 Y134.813 E.02353
G1 X140.663 Y135.297 E.02299
G1 X140.663 Y135.85 E.02522
G1 X140.79 Y136.204 E.01718
G1 X140.966 Y136.386 E.01156
G1 X141.225 Y136.507 E.01308
G1 X142.328 Y136.781 E.05189
G1 X143.313 Y137.123 E.04756
G1 X143.942 Y137.394 E.0313
G1 X144.554 Y137.702 E.03127
G1 X145.182 Y138.08 E.03347
G1 X145.728 Y138.374 E.02829
G1 X146.055 Y138.385 E.01496
G1 X146.395 Y138.224 E.01717
G1 X146.785 Y137.833 E.02522
G1 X147.222 Y137.588 E.02288
G1 X147.716 Y137.467 E.02322
G1 X148.191 Y137.5 E.02172
G1 X148.505 Y137.6 E.01506
G1 X148.935 Y137.883 E.02348
G1 X149.268 Y138.265 E.02315
G1 X149.456 Y138.741 E.02337
G1 X149.508 Y139.248 E.02326
G1 X149.386 Y139.749 E.02353
G1 X149.14 Y140.188 E.02298
G1 X148.749 Y140.578 E.02522
G1 X148.588 Y140.918 E.01717
G1 X148.584 Y141.171 E.01156
G1 X148.682 Y141.441 E.01309
G1 X149.268 Y142.414 E.05189
G1 X149.723 Y143.352 E.04756
G1 X149.976 Y143.989 E.03129
G1 X150.19 Y144.639 E.03128
G1 X150.446 Y145.67 E.04849
G1 X150.555 Y145.96 E.01416
