; HEADER_BLOCK_START
; generated by OrcaSlicer 2.0.0 on 2024-06-06 at 21:26:40
; total layer number: 10
; filament_density: 1.27
; filament_diameter: 1.75
; max_z_height: 2.00
; HEADER_BLOCK_END

; THUMBNAIL_BLOCK_START

;
; THUMBNAIL_BLOCK_END

; THUMBNAIL_BLOCK_START

;
; THUMBNAIL_BLOCK_END

; external perimeters extrusion width = 0.40mm
; perimeters extrusion width = 0.42mm
; infill extrusion width = 0.45mm
; solid infill extrusion width = 0.42mm
; top infill extrusion width = 0.40mm
; first layer extrusion width = 0.50mm

; EXECUTABLE_BLOCK_START
EXCLUDE_OBJECT_DEFINE NAME=Face.stl_id_0_copy_0 CENTER=115,115 POLYGON=[[11,65],[11.0407,64.4307],[11.162,63.8731],[11.3615,63.3383],[11.635,62.8374],[11.977,62.3806],[12.3806,61.977],[12.8374,61.635],[13.3383,61.3615],[13.8731,61.162],[14.4307,61.0407],[15,61],[215,61],[215.569,61.0407],[216.127,61.162],[216.662,61.3615],[217.163,61.635],[217.619,61.977],[218.023,62.3806],[218.365,62.8374],[218.639,63.3383],[218.838,63.8731],[218.959,64.4307],[219,65],[219,165],[218.959,165.569],[218.838,166.127],[218.639,166.662],[218.365,167.163],[218.023,167.619],[217.619,168.023],[217.163,168.365],[216.662,168.639],[216.127,168.838],[215.569,168.959],[215,169],[15,169],[14.4307,168.959],[13.8731,168.838],[13.3383,168.639],[12.8374,168.365],[12.3806,168.023],[11.977,167.619],[11.635,167.163],[11.3615,166.662],[11.162,166.127],[11.0407,165.569],[11,165],[11,65]]
M73 P0 R105
;TYPE:Custom
M220 S100
G90 ; use absolute coordinates
M83 ; extruder relative mode
M104 S150 ; set temporary nozzle temp to prevent oozing during homing
M140 S70 ; set final bed temp
G4 S30 ; allow partial nozzle warmup
G28 ; home all axis and restore leveling
BED_MESH_CALIBRATE PROFILE=adaptive ADAPTIVE=1 ADAPTIVE_MARGIN=0
G1 Z25 F240
G1 X10.0 Y30 F3000
M104 S245 ; set final nozzle temp
M190 S70 ; wait for bed temp to stabilize
M109 S245 ; wait for nozzle temp to stabilize
G1 Z0.28 F240
G92 E0 ; Move Z Axis up
G1 Z2.0 F5000 ; Move to start position
M73 P0 R104
G1 X5 Y30 Z0.28 F300 ; Draw the first line
G1 X5 Y200 Z0.28 F1500 E15 ; Move to side a little
G1 X5.4 Y200 Z0.28 F5000.0 ; Draw the second line
G1 X5.4 Y50 Z0.28 F1500.0 E30 ; Reset Extruder
G92 E0 ; Move Z Axis up
G1 Z2.0 F3000
M117 Start Printing..
G90
G21
M83 ; use relative distances for extrusion
; filament start gcode
M106 S0
;LAYER_CHANGE
;Z:0.2
;HEIGHT:0.2
;BEFORE_LAYER_CHANGE
;0.2
G92 E0

G1 E-.5 F2400
;_SET_FAN_SPEED_CHANGING_LAYER
SET_VELOCITY_LIMIT ACCEL=500 ACCEL_TO_DECEL=250
SET_VELOCITY_LIMIT SQUARE_CORNER_VELOCITY=7
; printing object Face.stl id:0 copy 0
EXCLUDE_OBJECT_START NAME=Face.stl_id_0_copy_0
G1 Z.2 F18000
G1 X223.558 Y83.187
G1 Z.2
G1 E.5 F2400
;TYPE:Inner wall
;WIDTH:0.499999
G1 F1800
G1 X224.026 Y83.403 E.01959
G1 X224.435 Y83.757 E.02053
G1 X224.646 Y84.09 E.01499
G1 X224.845 Y84.597 E.0207
G1 X224.9 Y85.096 E.01909
G1 X224.9 Y185.198 E3.80451
G1 X224.727 Y185.789 E.02338
G1 X224.435 Y186.243 E.02053
G1 X224.026 Y186.597 E.02053
G1 X223.535 Y186.821 E.02053
G1 X222.975 Y186.9 E.02149
G1 X22.802 Y186.9 E7.60783
G1 X22.211 Y186.727 E.02338
G1 X21.757 Y186.435 E.02053
G1 X21.403 Y186.026 E.02053
G1 X21.179 Y185.535 E.02053
G1 X21.1 Y184.975 E.02149
G1 X21.1 Y85.025 E3.79871
G1 X21.179 Y84.465 E.02149
G1 X21.403 Y83.974 E.02053
G1 X21.671 Y83.651 E.01594
G1 X22.063 Y83.354 E.01869
G1 X22.503 Y83.19 E.01785
G1 X23.034 Y83.1 E.02046
G1 X222.95 Y83.1 E7.59807
G1 X223.519 Y83.182 E.02182
G1 X223.672 Y82.742 F18000
;TYPE:Outer wall
G1 F1800
G1 X224.274 Y83.018 E.02517
G1 X224.652 Y83.328 E.01859
G1 X224.978 Y83.72 E.01938
G1 X225.238 Y84.276 E.02332
G1 X225.333 Y84.668 E.01531
G1 X225.357 Y85.096 E.0163
G1 X225.357 Y185.093 E3.8005
G1 X225.261 Y185.664 E.02202
G1 X225.063 Y186.126 E.01912
G1 X224.781 Y186.543 E.01913
G1 X224.409 Y186.882 E.01913
G1 X223.979 Y187.144 E.01912
G1 X223.5 Y187.297 E.01912
G1 X222.991 Y187.357 E.01946
G1 X22.907 Y187.357 E7.60443
G1 X22.336 Y187.261 E.02202
G1 X21.874 Y187.063 E.01913
G1 X21.457 Y186.781 E.01912
G1 X21.118 Y186.409 E.01912
G1 X20.856 Y185.979 E.01912
G1 X20.703 Y185.5 E.01912
G1 X20.643 Y184.991 E.01946
G1 X20.643 Y84.906 E3.80386
G1 X20.739 Y84.336 E.02197
G1 X20.935 Y83.877 E.01899
G1 X21.219 Y83.457 E.01926
G1 X21.58 Y83.127 E.01859
G1 X22.015 Y82.86 E.01938
G1 X22.602 Y82.682 E.02332
G1 X23.012 Y82.643 E.01565
G1 X222.983 Y82.643 E7.60015
G1 X223.632 Y82.736 E.02493
M73 P1 R104
G1 E-.35 F2400
;WIPE_START
G1 F1800
G1 X224.274 Y83.018 E-.10511
G1 X224.505 Y83.208 E-.04489
;WIPE_END
G1 Z.4 F18000
G1 X213.004 Y92.015 Z.4
G1 Z.2
G1 E.5 F2400
;TYPE:Inner wall
G1 F1800
G1 X213.112 Y91.58 E.01705
G1 X213.339 Y91.069 E.02123
G1 X213.728 Y90.514 E.02575
G1 X214.13 Y90.127 E.02123
G1 X214.594 Y89.815 E.02123
G1 X215.104 Y89.588 E.02123
G1 X215.646 Y89.454 E.02123
G1 X216.176 Y89.417 E.02019
G1 X216.759 Y89.474 E.02226
G1 X217.296 Y89.629 E.02124
G1 X217.798 Y89.875 E.02123
G1 X218.216 Y90.172 E.01948
G1 X218.637 Y90.606 E.023
G1 X218.949 Y91.069 E.02123
G1 X219.176 Y91.58 E.02123
G1 X219.31 Y92.122 E.02123
G1 X219.349 Y92.68 E.02123
G1 X219.29 Y93.235 E.02123
G1 X219.135 Y93.772 E.02123
G1 X218.889 Y94.274 E.02123
G1 X218.561 Y94.726 E.02123
G1 X218.158 Y95.113 E.02123
G1 X217.695 Y95.425 E.02123
G1 X217.209 Y95.641 E.02019
G1 X216.702 Y95.778 E.01999
G1 X216.156 Y95.827 E.02083
G1 X215.646 Y95.786 E.01941
G1 X215.104 Y95.652 E.02123
G1 X214.594 Y95.425 E.02123
G1 X214.13 Y95.113 E.02123
G1 X213.728 Y94.726 E.02123
G1 X213.399 Y94.274 E.02123
G1 X213.153 Y93.772 E.02123
G1 X212.999 Y93.235 E.02123
G1 X212.94 Y92.68 E.02123
G1 X212.978 Y92.122 E.02123
G1 X212.995 Y92.054 E.00266
G1 X213.44 Y92.128 F18000
;TYPE:Outer wall
G1 F1800
G1 X213.44 Y92.123 E.00021
G1 X213.568 Y91.661 E.01821
G1 X213.773 Y91.228 E.01821
G1 X214.051 Y90.837 E.01821
G1 X214.392 Y90.501 E.01821
G1 X214.787 Y90.229 E.01821
G1 X215.223 Y90.03 E.01821
G1 X215.686 Y89.909 E.01821
G1 X216.14 Y89.872 E.01731
G1 X216.641 Y89.916 E.0191
G1 X217.103 Y90.043 E.01822
G1 X217.536 Y90.249 E.01821
G1 X217.927 Y90.527 E.01821
G1 X218.263 Y90.868 E.01821
G1 X218.535 Y91.263 E.01821
G1 X218.734 Y91.698 E.01821
G1 X218.855 Y92.162 E.01821
G1 X218.893 Y92.64 E.01821
G1 X218.848 Y93.117 E.01821
G1 X218.721 Y93.579 E.01821
G1 X218.515 Y94.012 E.01821
G1 X218.237 Y94.402 E.01821
G1 X217.896 Y94.739 E.01821
G1 X217.501 Y95.011 E.01821
G1 X217.087 Y95.2 E.01731
G1 X216.602 Y95.331 E.0191
G1 X216.124 Y95.369 E.01822
G1 X215.647 Y95.324 E.01821
G1 X215.185 Y95.196 E.01821
G1 X214.752 Y94.991 E.01821
G1 X214.324 Y94.676 E.0202
G1 X214.025 Y94.372 E.0162
G1 X213.753 Y93.977 E.01821
G1 X213.554 Y93.541 E.01821
G1 X213.433 Y93.078 E.01821
G1 X213.395 Y92.6 E.01821
G1 X213.436 Y92.168 E.01648
G1 E-.35 F2400
;WIPE_START
G1 F1800
G1 X213.44 Y92.123 E-.00683
G1 X213.568 Y91.661 E-.07188
G1 X213.771 Y91.232 E-.07128
;WIPE_END
G1 Z.4 F18000
G1 X207.707 Y101.979 Z.4
G1 Z.2
G1 E.5 F2400
;TYPE:Inner wall
G1 F1800
G1 X207.707 Y104.021 E.07764
G1 X207.635 Y104.328 E.01198
G1 X207.461 Y104.548 E.01064
G1 X207.157 Y104.707 E.01302
G1 X192.233 Y104.707 E.56721
G1 X124.979 Y104.707 E2.55611
G1 X124.704 Y104.65 E.01065
M73 P1 R103
G1 X124.459 Y104.468 E.01161
G1 X124.293 Y104.135 E.01416
G1 X124.293 Y101.979 E.08195
G1 X124.354 Y101.695 E.01102
G1 X124.525 Y101.464 E.01092
G1 X124.843 Y101.293 E.01373
G1 X207.021 Y101.293 E3.12328
G1 X207.324 Y101.363 E.01181
G1 X207.551 Y101.543 E.01103
G1 X207.707 Y101.844 E.01285
G1 X207.707 Y101.939 E.00361
G1 E-.35 F2400
;WIPE_START
G1 F1800
G1 X207.707 Y102.939 E-.15
;WIPE_END
G1 Z.4 F18000
G1 X207.688 Y118.113 Z.4
G1 Z.2
G1 E.5 F2400
G1 F1800
G1 X207.649 Y118.297 E.00714
G1 X207.466 Y118.543 E.01166
G1 X207.209 Y118.681 E.01109
G1 X207.021 Y118.707 E.00718
G1 X195.036 Y118.707 E.45552
G1 X194.72 Y118.63 E.01237
G1 X193.584 Y117.809 E.05327
G1 X192.745 Y117.236 E.0386
G1 X191.837 Y116.659 E.0409
G1 X191.588 Y116.381 E.01421
G1 X191.522 Y116.149 E.00915
G1 X191.575 Y115.787 E.01389
G1 X191.707 Y115.54 E.01066
G1 X191.947 Y115.356 E.01152
G1 X192.233 Y115.293 E.01114
G1 X207.021 Y115.293 E.56204
G1 X207.286 Y115.346 E.01024
G1 X207.532 Y115.52 E.01146
G1 X207.707 Y115.839 E.01384
G1 X207.707 Y118.021 E.08293
G1 X207.696 Y118.074 E.00205
G1 X207.25 Y118.021 F18000
;TYPE:Outer wall
G1 F1800
G1 X207.182 Y118.185 E.00672
G1 X207.021 Y118.25 E.00657
G1 X195.036 Y118.25 E.45552
G1 X194.901 Y118.206 E.00542
G1 X193.947 Y117.503 E.04502
G1 X193.003 Y116.859 E.04342
G1 X192.082 Y116.273 E.0415
G1 X191.977 Y116.103 E.0076
G1 X192.05 Y115.842 E.01031
G1 X192.204 Y115.75 E.00683
G1 X207.021 Y115.75 E.56314
G1 X207.181 Y115.815 E.00654
G1 X207.25 Y115.979 E.00675
G1 X207.25 Y117.981 E.07612
G1 E-.35 F2400
;WIPE_START
G1 F1800
G1 X207.182 Y118.185 E-.03216
G1 X207.021 Y118.25 E-.02593
G1 X206.409 Y118.25 E-.09191
;WIPE_END
G1 Z.4 F18000
G1 X207.25 Y101.979 Z.4
G1 Z.2
G1 E.5 F2400
G1 F1800
G1 X207.25 Y104.021 E.07764
G1 X207.181 Y104.185 E.00675
G1 X207.021 Y104.25 E.00654
G1 X124.979 Y104.25 E3.11815
G1 X124.823 Y104.189 E.00636
G1 X124.75 Y104.021 E.00693
G1 X124.75 Y101.979 E.07764
G1 X124.809 Y101.825 E.00626
G1 X124.96 Y101.75 E.0064
G1 X207.021 Y101.75 E3.11885
G1 X207.185 Y101.819 E.00673
G1 X207.235 Y101.942 E.00505
G1 E-.35 F2400
;WIPE_START
G1 F1800
G1 X207.242 Y102.941 E-.15
;WIPE_END
G1 Z.4 F18000
G1 X144.57 Y130.261 Z.4
G1 Z.2
G1 E.5 F2400
;TYPE:Inner wall
G1 F1800
G1 X143.656 Y132.298 E.08486
G1 X143.47 Y132.545 E.01176
G1 X143.199 Y132.686 E.01162
G1 X142.171 Y132.707 E.03908
G1 X124.979 Y132.707 E.6534
G1 X124.704 Y132.65 E.01065
G1 X124.459 Y132.468 E.01161
G1 X124.293 Y132.135 E.01416
G1 X124.293 Y129.979 E.08195
G1 X124.349 Y129.708 E.0105
G1 X124.511 Y129.477 E.01074
G1 X124.787 Y129.32 E.01205
G1 X124.979 Y129.293 E.00735
G1 X143.955 Y129.293 E.72121
G1 X144.245 Y129.357 E.01129
G1 X144.491 Y129.552 E.01194
G1 X144.607 Y129.768 E.00933
G1 X144.617 Y130.155 E.0147
G1 X144.586 Y130.224 E.00289
G1 X144.161 Y130.077 F18000
;TYPE:Outer wall
G1 F1800
G1 X143.816 Y130.798 E.03036
G1 X143.237 Y132.114 E.05463
G1 X143.126 Y132.228 E.00608
G1 X142.171 Y132.25 E.0363
G1 X124.979 Y132.25 E.6534
G1 X124.823 Y132.189 E.00636
G1 X124.75 Y132.021 E.00693
G1 X124.75 Y129.979 E.07764
G1 X124.823 Y129.811 E.00693
G1 X124.979 Y129.75 E.00636
G1 X143.955 Y129.75 E.72121
G1 X144.108 Y129.809 E.00623
G1 X144.18 Y129.939 E.00567
G1 X144.166 Y130.038 E.00377
G1 E-.35 F2400
;WIPE_START
G1 F1800
G1 X143.816 Y130.798 E-.12555
G1 X143.751 Y130.947 E-.02445
;WIPE_END
G1 Z.4 F18000
G1 X141.09 Y143.754 Z.4
G1 Z.2
G1 E.5 F2400
;TYPE:Inner wall
G1 F1800
G1 X141.142 Y143.856 E.00436
G1 X141.128 Y145.253 E.05309
G1 X141.139 Y146.009 E.02874
G1 X141.096 Y146.263 E.00982
G1 X140.919 Y146.525 E.01199
G1 X140.645 Y146.68 E.01198
G1 X140.454 Y146.707 E.00733
G1 X124.979 Y146.707 E.58816
G1 X124.704 Y146.65 E.01065
G1 X124.459 Y146.468 E.01161
G1 X124.293 Y146.135 E.01416
G1 X124.293 Y143.979 E.08195
G1 X124.349 Y143.708 E.0105
G1 X124.511 Y143.477 E.01074
G1 X124.787 Y143.32 E.01205
G1 X124.979 Y143.293 E.00735
G1 X140.456 Y143.293 E.58822
G1 X140.737 Y143.354 E.01096
G1 X140.974 Y143.529 E.01119
G1 X141.071 Y143.719 E.00809
G1 X140.684 Y143.964 F18000
;TYPE:Outer wall
G1 F1800
G1 X140.671 Y145.248 E.0488
G1 X140.682 Y146.017 E.02925
G1 X140.627 Y146.171 E.00623
G1 X140.482 Y146.25 E.00625
G1 X124.979 Y146.25 E.58923
G1 X124.823 Y146.189 E.00636
G1 X124.75 Y146.021 E.00693
G1 X124.75 Y143.979 E.07764
G1 X124.823 Y143.811 E.00693
G1 X124.979 Y143.75 E.00636
G1 X140.456 Y143.75 E.58822
G1 X140.611 Y143.811 E.00635
G1 X140.667 Y143.928 E.00492
G1 E-.35 F2400
;WIPE_START
G1 F1800
G1 X140.67 Y144.928 E-.15
;WIPE_END
G1 Z.4 F18000
G1 X124.912 Y157.302 Z.4
G1 Z.2
G1 E.5 F2400
;TYPE:Inner wall
G1 F1800
G1 X124.979 Y157.293 E.00254
G1 X143.003 Y157.293 E.68506
G1 X143.297 Y157.359 E.01143
G1 X143.517 Y157.524 E.01046
G1 X143.631 Y157.703 E.00808
G1 X144.219 Y159.046 E.0557
G1 X144.544 Y159.726 E.02866
G1 X144.611 Y160.022 E.01154
G1 X144.578 Y160.232 E.00805
G1 X144.462 Y160.448 E.00932
G1 X144.215 Y160.643 E.01195
G1 X143.925 Y160.707 E.0113
G1 X124.979 Y160.707 E.7201
G1 X124.704 Y160.65 E.01065
G1 X124.459 Y160.468 E.01161
G1 X124.293 Y160.135 E.01416
G1 X124.293 Y157.979 E.08195
G1 X124.349 Y157.708 E.0105
G1 X124.511 Y157.477 E.01074
G1 X124.787 Y157.32 E.01205
G1 X124.873 Y157.308 E.0033
G1 X124.973 Y157.752 F18000
;TYPE:Outer wall
G1 F1800
G1 X124.979 Y157.75 E.00022
G1 X143.003 Y157.75 E.68506
G1 X143.181 Y157.815 E.0072
G1 X143.775 Y159.171 E.05627
G1 X144.132 Y159.923 E.03162
G1 X144.143 Y160.092 E.00642
G1 X144.003 Y160.25 E.00803
G1 X124.979 Y160.25 E.72305
G1 X124.823 Y160.189 E.00636
G1 X124.75 Y160.021 E.00693
G1 X124.75 Y157.979 E.07764
G1 X124.823 Y157.811 E.00693
G1 X124.936 Y157.767 E.00462
G1 E-.35 F2400
;WIPE_START
G1 F1800
G1 X124.979 Y157.75 E-.00688
G1 X125.933 Y157.75 E-.14312
;WIPE_END
G1 Z.4 F18000
G1 X118.378 Y171.411 Z.4
G1 Z.2
G1 E.5 F2400
;TYPE:Inner wall
G1 F1800
G1 X118.541 Y171.532 E.00774
G1 X118.707 Y171.865 E.01416
G1 X118.707 Y174.021 E.08195
G1 X118.645 Y174.306 E.01105
G1 X118.474 Y174.537 E.01093
G1 X118.153 Y174.707 E.01382
G1 X38.617 Y174.707 E3.02285
G1 X38.323 Y174.641 E.01147
G1 X38.076 Y174.443 E.012
G1 X37.952 Y174.187 E.01083
G1 X37.932 Y171.979 E.08393
G1 X38.002 Y171.676 E.01179
G1 X38.184 Y171.447 E.01113
G1 X38.484 Y171.293 E.01282
G1 X118.021 Y171.293 E3.02292
G1 X118.296 Y171.35 E.01065
G1 X118.345 Y171.387 E.00235
G1 X118.113 Y171.769 F18000
;TYPE:Outer wall
G1 F1800
G1 X118.25 Y171.907 E.00739
G1 X118.25 Y174.021 E.08036
G1 X118.19 Y174.175 E.00627
G1 X118.047 Y174.25 E.00614
G1 X38.617 Y174.25 E3.01883
G1 X38.464 Y174.191 E.00623
G1 X38.389 Y174.037 E.00651
G1 X38.389 Y171.979 E.07824
G1 X38.46 Y171.813 E.00685
G1 X38.617 Y171.75 E.00644
G1 X118.021 Y171.75 E3.01786
G1 X118.074 Y171.761 E.00203
G1 E-.35 F2400
;WIPE_START
G1 F1800
G1 X118.25 Y171.907 E-.03434
G1 X118.25 Y172.678 E-.11566
;WIPE_END
G1 Z.4 F18000
G1 X196.829 Y166.019 Z.4
G1 Z.2
G1 E.5 F2400
;TYPE:Inner wall
G1 F1800
G1 X196.258 Y166.616 E.03137
G1 X195.051 Y167.772 E.06355
G1 X194.11 Y168.581 E.04717
G1 X192.451 Y169.885 E.08019
G1 X191.367 Y170.627 E.04993
G1 X190.56 Y171.14 E.03633
G1 X189.652 Y171.692 E.0404
G1 X188.175 Y172.483 E.06369
G1 X186.657 Y173.192 E.06369
G1 X185.085 Y173.825 E.0644
G1 X183.497 Y174.364 E.06372
G1 X181.803 Y174.834 E.06682
G1 X180.248 Y175.179 E.06052
G1 X178.595 Y175.452 E.06369
G1 X176.929 Y175.634 E.06369
G1 X175.256 Y175.726 E.06369
G1 X173.58 Y175.726 E.06369
G1 X171.907 Y175.634 E.06369
G1 X170.241 Y175.452 E.06369
G1 X168.588 Y175.179 E.06369
G1 X166.952 Y174.816 E.06369
G1 X165.338 Y174.364 E.06369
G1 X163.769 Y173.831 E.06298
G1 X162.214 Y173.207 E.06369
G1 X160.695 Y172.5 E.06369
G1 X159.217 Y171.71 E.06369
G1 X157.768 Y170.832 E.0644
G1 X156.556 Y170.002 E.05584
G1 X155.057 Y168.864 E.07153
G1 X153.785 Y167.772 E.06369
G1 X152.583 Y166.62 E.0633
G1 X151.875 Y165.88 E.03891
G1 X151.732 Y165.655 E.01014
G1 X151.685 Y165.405 E.00964
G1 X151.742 Y124.591 E1.55121
G1 X151.789 Y124.343 E.00958
G1 X151.934 Y124.117 E.0102
G1 X152.635 Y123.387 E.03847
G1 X153.841 Y122.237 E.06334
G1 X154.801 Y121.417 E.04798
G1 X155.52 Y120.839 E.03507
G1 X156.437 Y120.138 E.04389
G1 X157.553 Y119.377 E.05131
G1 X158.366 Y118.865 E.03651
G1 X159.231 Y118.342 E.03842
G1 X160.704 Y117.556 E.06348
G1 X162.235 Y116.843 E.06418
G1 X163.786 Y116.222 E.06348
G1 X165.368 Y115.686 E.06351
G1 X167.057 Y115.22 E.0666
G1 X168.607 Y114.877 E.06032
G1 X170.255 Y114.606 E.06348
G1 X171.915 Y114.425 E.06348
G1 X173.583 Y114.334 E.06348
G1 X175.253 Y114.334 E.06348
G1 X176.921 Y114.425 E.06348
G1 X178.581 Y114.606 E.06348
G1 X180.229 Y114.877 E.06348
G1 X181.86 Y115.238 E.06348
G1 X183.469 Y115.687 E.06348
G1 X185.033 Y116.216 E.06277
G1 X186.584 Y116.836 E.06348
G1 X188.099 Y117.539 E.06348
G1 X189.59 Y118.332 E.06419
G1 X191.019 Y119.197 E.06348
G1 X192.203 Y120.004 E.05444
G1 X193.726 Y121.152 E.07251
G1 X194.996 Y122.237 E.06348
G1 X196.197 Y123.383 E.06308
G1 X196.903 Y124.117 E.03874
G1 X197.037 Y124.318 E.00918
