; HEADER_BLOCK_START
; generated by OrcaSlicer 2.0.0 on 2024-06-05 at 19:03:23
; total layer number: 10
; filament_density: 1.27
; filament_diameter: 1.75
; max_z_height: 2.00
; HEADER_BLOCK_END

; THUMBNAIL_BLOCK_START

;
; THUMBNAIL_BLOCK_END

; THUMBNAIL_BLOCK_START

;
; THUMBNAIL_BLOCK_END

; external perimeters extrusion width = 0.40mm
; perimeters extrusion width = 0.42mm
; infill extrusion width = 0.45mm
; solid infill extrusion width = 0.42mm
; top infill extrusion width = 0.40mm
; first layer extrusion width = 0.50mm

; EXECUTABLE_BLOCK_START
EXCLUDE_OBJECT_DEFINE NAME=Face_new_01.stl_id_0_copy_0 CENTER=115,115 POLYGON=[[11,65],[11.0407,64.4307],[11.162,63.8731],[11.3615,63.3383],[11.635,62.8374],[11.977,62.3806],[12.3806,61.977],[12.8374,61.635],[13.3383,61.3615],[13.8731,61.162],[14.4307,61.0407],[15,61],[215,61],[215.569,61.0407],[216.127,61.162],[216.662,61.3615],[217.163,61.635],[217.619,61.977],[218.023,62.3806],[218.365,62.8374],[218.639,63.3383],[218.838,63.8731],[218.959,64.4307],[219,65],[219,165],[218.959,165.569],[218.838,166.127],[218.639,166.662],[218.365,167.163],[218.023,167.619],[217.619,168.023],[217.163,168.365],[216.662,168.639],[216.127,168.838],[215.569,168.959],[215,169],[15,169],[14.4307,168.959],[13.8731,168.838],[13.3383,168.639],[12.8374,168.365],[12.3806,168.023],[11.977,167.619],[11.635,167.163],[11.3615,166.662],[11.162,166.127],[11.0407,165.569],[11,165],[11,65]]
M73 P0 R103
;TYPE:Custom
M220 S100
G90 ; use absolute coordinates
M83 ; extruder relative mode
M104 S150 ; set temporary nozzle temp to prevent oozing during homing
M140 S70 ; set final bed temp
G4 S30 ; allow partial nozzle warmup
G28 ; home all axis and restore leveling
BED_MESH_CALIBRATE PROFILE=adaptive ADAPTIVE=1 ADAPTIVE_MARGIN=0
G1 Z25 F240
G1 X10.0 Y30 F3000
M104 S245 ; set final nozzle temp
M190 S70 ; wait for bed temp to stabilize
M109 S245 ; wait for nozzle temp to stabilize
G1 Z0.28 F240
G92 E0 ; Move Z Axis up
G1 Z2.0 F5000 ; Move to start position
G1 X5 Y30 Z0.28 F300 ; Draw the first line
G1 X5 Y200 Z0.28 F1500 E15 ; Move to side a little
G1 X5.4 Y200 Z0.28 F5000.0 ; Draw the second line
G1 X5.4 Y50 Z0.28 F1500.0 E30 ; Reset Extruder
G92 E0 ; Move Z Axis up
G1 Z2.0 F3000
M117 Start Printing..
G90
G21
M83 ; use relative distances for extrusion
; filament start gcode
M106 S0
;LAYER_CHANGE
;Z:0.2
;HEIGHT:0.2
;BEFORE_LAYER_CHANGE
;0.2
G92 E0

M73 P0 R102
G1 E-.5 F2400
;_SET_FAN_SPEED_CHANGING_LAYER
SET_VELOCITY_LIMIT ACCEL=500 ACCEL_TO_DECEL=250
SET_VELOCITY_LIMIT SQUARE_CORNER_VELOCITY=7
; printing object Face new 01.stl id:0 copy 0
EXCLUDE_OBJECT_START NAME=Face_new_01.stl_id_0_copy_0
G1 Z.2 F18000
G1 X223.558 Y83.187
G1 Z.2
G1 E.5 F2400
;TYPE:Inner wall
;WIDTH:0.499999
G1 F1800
G1 X224.026 Y83.403 E.01959
G1 X224.435 Y83.757 E.02053
G1 X224.646 Y84.09 E.01499
G1 X224.845 Y84.597 E.0207
G1 X224.9 Y85.096 E.01909
G1 X224.9 Y185.198 E3.80451
G1 X224.727 Y185.789 E.02338
G1 X224.435 Y186.243 E.02053
G1 X224.026 Y186.597 E.02053
G1 X223.535 Y186.821 E.02053
G1 X222.975 Y186.9 E.02149
G1 X22.802 Y186.9 E7.60783
G1 X22.211 Y186.727 E.02338
G1 X21.757 Y186.435 E.02053
G1 X21.403 Y186.026 E.02053
G1 X21.179 Y185.535 E.02053
G1 X21.1 Y184.975 E.02149
G1 X21.1 Y85.025 E3.79871
G1 X21.179 Y84.465 E.02149
G1 X21.403 Y83.974 E.02053
G1 X21.671 Y83.651 E.01594
G1 X22.063 Y83.354 E.01869
G1 X22.503 Y83.19 E.01785
G1 X23.034 Y83.1 E.02046
G1 X222.95 Y83.1 E7.59807
G1 X223.519 Y83.182 E.02182
G1 X223.672 Y82.742 F18000
;TYPE:Outer wall
G1 F1800
G1 X224.274 Y83.018 E.02517
G1 X224.652 Y83.328 E.01859
G1 X224.978 Y83.72 E.01938
G1 X225.238 Y84.276 E.02332
G1 X225.333 Y84.668 E.01531
G1 X225.357 Y85.096 E.0163
G1 X225.357 Y185.093 E3.8005
G1 X225.261 Y185.664 E.02202
G1 X225.063 Y186.126 E.01912
G1 X224.781 Y186.543 E.01913
G1 X224.409 Y186.882 E.01913
G1 X223.979 Y187.144 E.01912
G1 X223.5 Y187.297 E.01912
G1 X222.991 Y187.357 E.01946
G1 X22.907 Y187.357 E7.60443
G1 X22.336 Y187.261 E.02202
G1 X21.874 Y187.063 E.01913
G1 X21.457 Y186.781 E.01912
G1 X21.118 Y186.409 E.01912
G1 X20.856 Y185.979 E.01912
G1 X20.703 Y185.5 E.01912
G1 X20.643 Y184.991 E.01946
G1 X20.643 Y84.906 E3.80386
G1 X20.739 Y84.336 E.02197
M73 P1 R102
G1 X20.935 Y83.877 E.01899
G1 X21.219 Y83.457 E.01926
G1 X21.58 Y83.127 E.01859
G1 X22.015 Y82.86 E.01938
G1 X22.602 Y82.682 E.02332
G1 X23.012 Y82.643 E.01565
G1 X222.983 Y82.643 E7.60015
G1 X223.632 Y82.736 E.02493
G1 E-.35 F2400
;WIPE_START
G1 F1800
G1 X224.274 Y83.018 E-.10511
G1 X224.505 Y83.208 E-.04489
;WIPE_END
G1 Z.4 F18000
G1 X213.004 Y92.015 Z.4
G1 Z.2
G1 E.5 F2400
;TYPE:Inner wall
G1 F1800
G1 X213.112 Y91.58 E.01705
G1 X213.399 Y90.966 E.02575
G1 X213.728 Y90.514 E.02123
G1 X214.13 Y90.127 E.02123
G1 X214.594 Y89.815 E.02123
G1 X215.104 Y89.588 E.02123
G1 X215.646 Y89.454 E.02123
G1 X216.176 Y89.417 E.02019
G1 X216.759 Y89.474 E.02226
G1 X217.296 Y89.629 E.02124
G1 X217.798 Y89.875 E.02123
G1 X218.216 Y90.172 E.01948
G1 X218.637 Y90.606 E.023
G1 X218.949 Y91.069 E.02123
G1 X219.176 Y91.58 E.02123
G1 X219.31 Y92.122 E.02123
G1 X219.349 Y92.68 E.02123
G1 X219.29 Y93.235 E.02123
G1 X219.135 Y93.772 E.02123
G1 X218.889 Y94.274 E.02123
G1 X218.561 Y94.726 E.02123
G1 X218.158 Y95.113 E.02123
G1 X217.695 Y95.425 E.02123
G1 X217.209 Y95.641 E.02019
G1 X216.702 Y95.778 E.01999
G1 X216.156 Y95.827 E.02083
G1 X215.646 Y95.786 E.01941
G1 X215.104 Y95.652 E.02123
G1 X214.594 Y95.425 E.02123
G1 X214.13 Y95.113 E.02123
G1 X213.728 Y94.726 E.02123
G1 X213.399 Y94.274 E.02123
G1 X213.153 Y93.772 E.02123
G1 X212.999 Y93.235 E.02123
G1 X212.94 Y92.68 E.02123
G1 X212.978 Y92.122 E.02123
G1 X212.995 Y92.054 E.00266
G1 X213.44 Y92.128 F18000
;TYPE:Outer wall
G1 F1800
G1 X213.44 Y92.123 E.00021
G1 X213.568 Y91.661 E.01821
G1 X213.773 Y91.228 E.01821
G1 X214.051 Y90.837 E.01821
G1 X214.392 Y90.501 E.01821
G1 X214.787 Y90.229 E.01821
G1 X215.223 Y90.03 E.01821
G1 X215.686 Y89.909 E.01821
G1 X216.14 Y89.872 E.01731
G1 X216.641 Y89.916 E.0191
G1 X217.103 Y90.043 E.01822
G1 X217.536 Y90.249 E.01821
G1 X217.927 Y90.527 E.01821
G1 X218.263 Y90.868 E.01821
G1 X218.535 Y91.263 E.01821
G1 X218.734 Y91.698 E.01821
G1 X218.855 Y92.162 E.01821
G1 X218.893 Y92.64 E.01821
G1 X218.848 Y93.117 E.01821
G1 X218.721 Y93.579 E.01821
G1 X218.515 Y94.012 E.01821
G1 X218.237 Y94.402 E.01821
G1 X217.896 Y94.739 E.01821
G1 X217.501 Y95.011 E.01821
G1 X217.087 Y95.2 E.01731
G1 X216.602 Y95.331 E.0191
G1 X216.124 Y95.369 E.01822
G1 X215.647 Y95.324 E.01821
G1 X215.185 Y95.196 E.01821
G1 X214.752 Y94.991 E.01821
G1 X214.324 Y94.676 E.0202
G1 X214.025 Y94.372 E.0162
G1 X213.753 Y93.977 E.01821
G1 X213.554 Y93.541 E.01821
G1 X213.433 Y93.078 E.01821
G1 X213.395 Y92.6 E.01821
G1 X213.436 Y92.168 E.01648
G1 E-.35 F2400
;WIPE_START
G1 F1800
G1 X213.44 Y92.123 E-.00683
G1 X213.568 Y91.661 E-.07188
G1 X213.771 Y91.232 E-.07128
;WIPE_END
G1 Z.4 F18000
G1 X207.021 Y104.707 Z.4
G1 Z.2
G1 E.5 F2400
;TYPE:Inner wall
G1 F1800
G1 X192.233 Y104.707 E.56204
G1 X124.979 Y104.707 E2.55611
G1 X124.704 Y104.65 E.01065
G1 X124.459 Y104.468 E.01161
G1 X124.293 Y104.135 E.01416
G1 X124.293 Y101.979 E.08195
G1 X124.354 Y101.695 E.01102
G1 X124.525 Y101.464 E.01092
G1 X124.843 Y101.293 E.01373
G1 X207.021 Y101.293 E3.12328
G1 X207.324 Y101.363 E.01181
G1 X207.551 Y101.543 E.01103
G1 X207.707 Y101.844 E.01285
G1 X207.707 Y104.021 E.08278
G1 X207.635 Y104.328 E.01198
G1 X207.461 Y104.548 E.01064
G1 X207.157 Y104.707 E.01302
G1 X207.061 Y104.707 E.00365
G1 E-.35 F2400
;WIPE_START
G1 F1800
G1 X206.061 Y104.707 E-.15
;WIPE_END
G1 Z.4 F18000
G1 X207.686 Y118.116 Z.4
G1 Z.2
G1 E.5 F2400
G1 F1800
G1 X207.645 Y118.306 E.00739
G1 X207.451 Y118.556 E.012
G1 X207.145 Y118.707 E.01299
G1 X195.036 Y118.707 E.46022
G1 X194.688 Y118.617 E.01365
G1 X193.7 Y117.89 E.04663
G1 X192.727 Y117.223 E.04484
G1 X191.834 Y116.657 E.04017
G1 X191.585 Y116.376 E.01427
G1 X191.519 Y116.102 E.01073
G1 X191.575 Y115.787 E.01213
G1 X191.708 Y115.538 E.01074
G1 X191.866 Y115.4 E.00796
G1 X192.154 Y115.293 E.01168
G1 X207.021 Y115.293 E.56507
G1 X207.286 Y115.346 E.01024
G1 X207.532 Y115.52 E.01146
G1 X207.707 Y115.839 E.01384
G1 X207.707 Y118.021 E.08293
G1 X207.695 Y118.077 E.00217
G1 X207.25 Y118.021 F18000
;TYPE:Outer wall
G1 F1800
G1 X207.189 Y118.177 E.00634
G1 X207.027 Y118.25 E.00677
G1 X195.036 Y118.25 E.45572
G1 X194.862 Y118.177 E.00715
G1 X193.947 Y117.503 E.04322
G1 X192.978 Y116.841 E.04458
G1 X192.081 Y116.273 E.04039
G1 X191.998 Y116.179 E.00476
G1 X191.984 Y116.016 E.00619
G1 X192.087 Y115.803 E.00898
G1 X192.233 Y115.75 E.00594
G1 X207.021 Y115.75 E.56204
G1 X207.181 Y115.815 E.00654
G1 X207.25 Y115.979 E.00675
G1 X207.25 Y117.981 E.07612
G1 E-.35 F2400
;WIPE_START
G1 F1800
G1 X207.189 Y118.177 E-.03068
G1 X207.027 Y118.25 E-.02673
G1 X206.409 Y118.25 E-.09259
;WIPE_END
G1 Z.4 F18000
G1 X207.027 Y104.248 Z.4
G1 Z.2
G1 E.5 F2400
G1 F1800
G1 X207.021 Y104.25 E.00023
G1 X124.979 Y104.25 E3.11815
G1 X124.823 Y104.189 E.00636
M73 P1 R101
G1 X124.75 Y104.021 E.00693
G1 X124.75 Y101.979 E.07764
G1 X124.809 Y101.825 E.00626
G1 X124.96 Y101.75 E.0064
G1 X207.021 Y101.75 E3.11885
G1 X207.185 Y101.819 E.00673
G1 X207.25 Y101.979 E.00657
G1 X207.25 Y104.021 E.07764
G1 X207.181 Y104.185 E.00675
G1 X207.064 Y104.233 E.00479
G1 E-.35 F2400
;WIPE_START
G1 F1800
G1 X207.021 Y104.25 E-.0069
G1 X206.067 Y104.25 E-.1431
;WIPE_END
G1 Z.4 F18000
G1 X144.599 Y129.784 Z.4
G1 Z.2
G1 E.5 F2400
;TYPE:Inner wall
G1 F1800
G1 X144.631 Y129.868 E.00345
G1 X144.634 Y130.071 E.00768
G1 X144.573 Y130.274 E.00809
G1 X144.232 Y130.988 E.03009
G1 X143.656 Y132.298 E.05436
G1 X143.46 Y132.554 E.01226
G1 X143.202 Y132.685 E.01099
G1 X142.054 Y132.707 E.04363
G1 X124.979 Y132.707 E.64898
G1 X124.704 Y132.65 E.01065
G1 X124.459 Y132.468 E.01161
G1 X124.293 Y132.135 E.01416
G1 X124.293 Y129.979 E.08195
G1 X124.349 Y129.708 E.0105
G1 X124.511 Y129.477 E.01074
G1 X124.787 Y129.32 E.01205
G1 X124.979 Y129.293 E.00735
G1 X143.955 Y129.293 E.72121
G1 X144.253 Y129.361 E.01164
G1 X144.409 Y129.465 E.00713
G1 X144.535 Y129.614 E.0074
G1 X144.585 Y129.746 E.00537
G1 X144.18 Y129.942 F18000
;TYPE:Outer wall
G1 F1800
G1 X144.161 Y130.077 E.0052
G1 X143.816 Y130.798 E.03036
G1 X143.237 Y132.114 E.05464
G1 X143.098 Y132.239 E.00712
G1 X124.979 Y132.25 E.68866
G1 X124.823 Y132.189 E.00636
G1 X124.75 Y132.021 E.00693
G1 X124.75 Y129.979 E.07764
G1 X124.823 Y129.811 E.00693
G1 X124.979 Y129.75 E.00636
G1 X143.955 Y129.75 E.72121
G1 X144.106 Y129.807 E.00616
G1 X144.161 Y129.907 E.00431
G1 E-.35 F2400
;WIPE_START
G1 F1800
G1 X144.161 Y130.077 E-.02555
G1 X143.816 Y130.798 E-.11982
G1 X143.804 Y130.826 E-.00463
;WIPE_END
G1 Z.4 F18000
G1 X195.684 Y122.878 Z.4
G1 Z.2
G1 E.5 F2400
;TYPE:Inner wall
G1 F1800
G1 X196.873 Y124.084 E.06437
G1 X198.002 Y125.364 E.06489
G1 X199.059 Y126.705 E.06488
G1 X200.039 Y128.103 E.06488
G1 X200.93 Y129.537 E.06416
G1 X201.75 Y131.034 E.06488
G1 X202.494 Y132.592 E.06561
G1 X203.142 Y134.172 E.06488
G1 X203.701 Y135.785 E.06489
G1 X204.169 Y137.426 E.06488
G1 X204.546 Y139.092 E.06488
G1 X204.829 Y140.775 E.06489
G1 X205.019 Y142.472 E.06488
G1 X205.114 Y144.176 E.06488
G1 X205.114 Y145.884 E.06489
G1 X205.019 Y147.588 E.06488
G1 X204.829 Y149.285 E.06488
G1 X204.546 Y150.968 E.06489
G1 X204.169 Y152.633 E.06488
G1 X203.701 Y154.275 E.06489
G1 X203.142 Y155.888 E.06489
G1 X202.644 Y157.102 E.04985
G1 X201.767 Y158.992 E.07918
G1 X200.94 Y160.507 E.06561
G1 X200.039 Y161.957 E.06489
G1 X199.059 Y163.354 E.06488
G1 X198.002 Y164.695 E.06488
G1 X196.873 Y165.976 E.06489
G1 X195.674 Y167.191 E.06488
G1 X194.424 Y168.325 E.06416
G1 X193.083 Y169.413 E.06561
G1 X191.7 Y170.413 E.06488
G1 X190.535 Y171.159 E.05256
G1 X188.792 Y172.165 E.07647
G1 X187.262 Y172.922 E.06488
G1 X185.675 Y173.6 E.06561
G1 X184.07 Y174.181 E.06489
G1 X182.435 Y174.672 E.06488
G1 X180.775 Y175.072 E.06489
G1 X179.095 Y175.379 E.06488
G1 X177.402 Y175.592 E.06489
G1 X175.698 Y175.711 E.06488
G1 X173.991 Y175.734 E.06489
G1 X172.286 Y175.663 E.06488
G1 X170.587 Y175.497 E.06489
G1 X168.899 Y175.237 E.06488
G1 X167.229 Y174.884 E.06489
G1 X165.581 Y174.438 E.06489
G1 X163.978 Y173.908 E.06416
G1 X162.39 Y173.283 E.06488
G1 X160.838 Y172.571 E.06488
G1 X160.066 Y172.164 E.03317
G1 X159.329 Y171.773 E.03172
G1 X157.849 Y170.884 E.06561
G1 X156.553 Y170.001 E.05962
G1 X155.693 Y169.352 E.04093
G1 X155.082 Y168.885 E.02922
G1 X153.787 Y167.774 E.06489
G1 X152.554 Y166.592 E.06488
G1 X151.39 Y165.343 E.06488
G1 X150.297 Y164.032 E.06488
G1 X149.347 Y162.756 E.06045
G1 X148.348 Y161.255 E.06852
G1 X147.486 Y159.78 E.06495
G1 X146.699 Y158.243 E.06561
G1 X146.015 Y156.7 E.06416
G1 X145.411 Y155.103 E.06488
G1 X144.89 Y153.458 E.06561
G1 X144.467 Y151.803 E.06489
G1 X144.141 Y150.147 E.06416
G1 X143.903 Y148.457 E.06488
G1 X143.76 Y146.755 E.06488
G1 X143.736 Y145.948 E.03069
G1 X143.711 Y145.049 E.03419
G1 X143.758 Y143.342 E.06488
G1 X143.899 Y141.641 E.06488
G1 X144.134 Y139.95 E.06488
G1 X144.467 Y138.256 E.06561
G1 X144.885 Y136.621 E.06416
G1 X145.398 Y134.992 E.06488
G1 X145.706 Y134.176 E.03317
G1 X146.008 Y133.377 E.03244
G1 X146.594 Y132.054 E.05502
G1 X146.899 Y131.425 E.02657
G1 X147.468 Y130.313 E.04745
G1 X148.327 Y128.838 E.06488
G1 X149.278 Y127.397 E.06561
G1 X150.297 Y126.028 E.06489
G1 X151.39 Y124.716 E.06488
G1 X152.554 Y123.468 E.06488
G1 X153.787 Y122.286 E.06489
G1 X154.803 Y121.415 E.05087
G1 X156.371 Y120.188 E.07568
G1 X157.556 Y119.377 E.05457
G1 X158.364 Y118.867 E.03631
G1 X159.295 Y118.305 E.04134
G1 X160.804 Y117.506 E.06488
G1 X162.355 Y116.792 E.06488
G1 X163.96 Y116.158 E.06561
G1 X165.581 Y115.622 E.06489
G1 X167.229 Y115.176 E.06488
G1 X168.899 Y114.823 E.06489
G1 X170.586 Y114.563 E.06488
G1 X172.286 Y114.397 E.06489
G1 X173.907 Y114.329 E.06168
G1 X175.697 Y114.349 E.06805
G1 X177.402 Y114.468 E.06492
G1 X179.095 Y114.681 E.06489
G1 X180.775 Y114.988 E.06488
G1 X182.435 Y115.387 E.06488
G1 X184.07 Y115.879 E.06488
G1 X185.657 Y116.454 E.06416
G1 X187.228 Y117.122 E.06488
G1 X187.849 Y117.428 E.02633
G1 X188.759 Y117.877 E.03855
G1 X190.262 Y118.726 E.06561
G1 X191.313 Y119.399 E.04745
G1 X192.171 Y119.987 E.03952
G1 X193.073 Y120.639 E.04229
G1 X194.41 Y121.721 E.06538
G1 X195.655 Y122.851 E.06388
G1 X195.357 Y123.198 F18000
;TYPE:Outer wall
G1 F1800
G1 X195.358 Y123.199 E.00004
G1 X196.539 Y124.396 E.06392
G1 X197.651 Y125.657 E.06392
G1 X198.692 Y126.978 E.06392
G1 X199.658 Y128.355 E.06392
G1 X200.542 Y129.778 E.06368
G1 X201.349 Y131.254 E.06392
G1 X202.076 Y132.777 E.06416
G1 X202.714 Y134.333 E.06392
G1 X203.265 Y135.922 E.06392
G1 X203.726 Y137.54 E.06392
G1 X204.097 Y139.18 E.06392
G1 X204.377 Y140.838 E.06392
G1 X204.563 Y142.51 E.06392
G1 X204.657 Y144.189 E.06392
G1 X204.657 Y145.871 E.06392
G1 X204.563 Y147.55 E.06392
G1 X204.377 Y149.221 E.06392
G1 X204.097 Y150.88 E.06392
G1 X203.726 Y152.52 E.06392
G1 X203.265 Y154.137 E.06392
G1 X202.714 Y155.726 E.06392
G1 X202.221 Y156.928 E.04936
G1 X201.355 Y158.795 E.07821
G1 X200.545 Y160.276 E.06416
G1 X199.658 Y161.705 E.06392
G1 X198.692 Y163.082 E.06392
G1 X197.651 Y164.403 E.06392
G1 X196.539 Y165.664 E.06392
G1 X195.358 Y166.861 E.06392
G1 X194.117 Y167.987 E.06368
G1 X192.806 Y169.05 E.06416
G1 X191.442 Y170.035 E.06392
G1 X190.289 Y170.774 E.05207
G1 X188.568 Y171.767 E.07551
G1 X187.06 Y172.512 E.06392
G1 X185.507 Y173.174 E.06416
G1 X183.926 Y173.747 E.06392
G1 X182.315 Y174.231 E.06392
G1 X180.68 Y174.625 E.06392
G1 X179.026 Y174.927 E.06392
G1 X177.357 Y175.137 E.06392
G1 X175.679 Y175.254 E.06392
G1 X173.998 Y175.277 E.06392
G1 X172.317 Y175.207 E.06392
G1 X170.644 Y175.044 E.06392
G1 X168.981 Y174.787 E.06392
G1 X167.336 Y174.439 E.06392
G1 X165.713 Y174 E.06392
G1 X164.122 Y173.474 E.06368
G1 X162.557 Y172.857 E.06392
G1 X161.027 Y172.154 E.06402
G1 X160.28 Y171.759 E.0321
G1 X159.542 Y171.369 E.03172
G1 X158.096 Y170.499 E.06416
G1 X156.81 Y169.623 E.05914
G1 X155.971 Y168.989 E.03996
G1 X155.37 Y168.53 E.02873
G1 X154.094 Y167.435 E.06392
G1 X152.88 Y166.271 E.06392
G1 X151.733 Y165.041 E.06392
G1 X150.656 Y163.749 E.06392
