; HEADER_BLOCK_START
; generated by OrcaSlicer 2.2.0 on 2024-11-17 at 19:28:25
; total layer number: 25
; filament_density: 1.24
; filament_diameter: 1.75
; max_z_height: 5.05
; HEADER_BLOCK_END

; THUMBNAIL_BLOCK_START

;
; THUMBNAIL_BLOCK_END

; THUMBNAIL_BLOCK_START

;
; THUMBNAIL_BLOCK_END

; external perimeters extrusion width = 0.42mm
; perimeters extrusion width = 0.45mm
; infill extrusion width = 0.45mm
; solid infill extrusion width = 0.45mm
; top infill extrusion width = 0.42mm
; first layer extrusion width = 0.55mm

; external perimeters extrusion width = 0.42mm
; perimeters extrusion width = 0.45mm
; infill extrusion width = 0.45mm
; solid infill extrusion width = 0.45mm
; top infill extrusion width = 0.42mm
; first layer extrusion width = 0.55mm

; external perimeters extrusion width = 0.42mm
; perimeters extrusion width = 0.45mm
; infill extrusion width = 0.45mm
; solid infill extrusion width = 0.45mm
; top infill extrusion width = 0.42mm
; first layer extrusion width = 0.55mm

; external perimeters extrusion width = 0.42mm
; perimeters extrusion width = 0.45mm
; infill extrusion width = 0.45mm
; solid infill extrusion width = 0.45mm
; top infill extrusion width = 0.42mm
; first layer extrusion width = 0.55mm

; EXECUTABLE_BLOCK_START
EXCLUDE_OBJECT_DEFINE NAME=Femelle.stl_id_0_copy_0 CENTER=132.358,132.358 POLYGON=[[116,126.642],[116.008,126.419],[116.036,126.197],[116.083,125.979],[116.15,125.765],[116.235,125.559],[116.339,125.361],[116.46,125.173],[116.597,124.996],[116.749,124.833],[124.833,116.749],[124.996,116.597],[125.173,116.46],[125.361,116.339],[125.559,116.235],[125.765,116.15],[125.979,116.083],[126.197,116.036],[126.419,116.008],[126.642,116],[138.074,116],[138.297,116.008],[138.519,116.036],[138.738,116.083],[138.951,116.15],[139.157,116.235],[139.355,116.339],[139.543,116.46],[139.72,116.597],[139.883,116.749],[147.967,124.833],[148.119,124.996],[148.256,125.173],[148.377,125.361],[148.481,125.559],[148.566,125.765],[148.633,125.979],[148.681,126.197],[148.708,126.419],[148.716,126.642],[148.716,138.074],[148.708,138.297],[148.681,138.519],[148.633,138.738],[148.566,138.951],[148.481,139.157],[148.377,139.355],[148.256,139.543],[148.119,139.72],[147.967,139.883],[139.883,147.967],[139.72,148.119],[139.543,148.256],[139.355,148.377],[139.157,148.481],[138.951,148.566],[138.738,148.633],[138.519,148.681],[138.297,148.708],[138.074,148.716],[126.642,148.716],[126.419,148.708],[126.197,148.681],[125.979,148.633],[125.765,148.566],[125.559,148.481],[125.361,148.377],[125.173,148.256],[124.996,148.119],[124.833,147.967],[116.749,139.883],[116.597,139.72],[116.46,139.543],[116.339,139.355],[116.235,139.157],[116.15,138.951],[116.083,138.738],[116.036,138.519],[116.008,138.297],[116,138.074],[116,126.642]]
EXCLUDE_OBJECT_DEFINE NAME=Femelle.stl_id_1_copy_0 CENTER=97.6419,132.358 POLYGON=[[81.2838,138.074],[81.2838,126.642],[81.2917,126.419],[81.3194,126.197],[81.3668,125.979],[81.4336,125.765],[81.5191,125.559],[81.6227,125.361],[81.7436,125.173],[81.8808,124.996],[82.0332,124.833],[90.1169,116.749],[90.2803,116.597],[90.4567,116.46],[90.6447,116.339],[90.8427,116.235],[91.0491,116.15],[91.2624,116.083],[91.4808,116.036],[91.7025,116.008],[91.9259,116],[103.358,116],[103.581,116.008],[103.803,116.036],[104.021,116.083],[104.235,116.15],[104.441,116.235],[104.639,116.339],[104.827,116.46],[105.004,116.597],[105.167,116.749],[113.251,124.833],[113.403,124.996],[113.54,125.173],[113.661,125.361],[113.765,125.559],[113.85,125.765],[113.917,125.979],[113.964,126.197],[113.992,126.419],[114,126.642],[114,138.074],[113.992,138.297],[113.964,138.519],[113.917,138.738],[113.85,138.951],[113.765,139.157],[113.661,139.355],[113.54,139.543],[113.403,139.72],[113.251,139.883],[105.167,147.967],[105.004,148.119],[104.827,148.256],[104.639,148.377],[104.441,148.481],[104.235,148.566],[104.021,148.633],[103.803,148.681],[103.581,148.708],[103.358,148.716],[91.9259,148.716],[91.7025,148.708],[91.4808,148.681],[91.2624,148.633],[91.0492,148.566],[90.8427,148.481],[90.6447,148.377],[90.4567,148.256],[90.2803,148.119],[90.1169,147.967],[82.0332,139.883],[81.8808,139.72],[81.7436,139.543],[81.6227,139.355],[81.5191,139.157],[81.4336,138.951],[81.3668,138.738],[81.3194,138.519],[81.2917,138.297],[81.2838,138.074]]
EXCLUDE_OBJECT_DEFINE NAME=Femelle.stl_id_2_copy_0 CENTER=132.358,97.6419 POLYGON=[[116,91.9259],[116.008,91.7025],[116.036,91.4808],[116.083,91.2624],[116.15,91.0492],[116.235,90.8427],[116.339,90.6447],[116.46,90.4567],[116.597,90.2803],[116.749,90.1169],[124.833,82.0332],[124.996,81.8808],[125.173,81.7436],[125.361,81.6227],[125.559,81.5191],[125.765,81.4336],[125.979,81.3668],[126.197,81.3194],[126.419,81.2917],[126.642,81.2838],[138.074,81.2838],[138.297,81.2917],[138.519,81.3194],[138.738,81.3668],[138.951,81.4336],[139.157,81.5191],[139.355,81.6227],[139.543,81.7436],[139.72,81.8808],[139.883,82.0332],[147.967,90.1169],[148.119,90.2803],[148.256,90.4567],[148.377,90.6447],[148.481,90.8427],[148.566,91.0491],[148.633,91.2624],[148.681,91.4808],[148.708,91.7025],[148.716,91.9259],[148.716,103.358],[148.708,103.581],[148.681,103.803],[148.633,104.021],[148.566,104.235],[148.481,104.441],[148.377,104.639],[148.256,104.827],[148.119,105.004],[147.967,105.167],[139.883,113.251],[139.72,113.403],[139.543,113.54],[139.355,113.661],[139.157,113.765],[138.951,113.85],[138.738,113.917],[138.519,113.964],[138.297,113.992],[138.074,114],[126.642,114],[126.419,113.992],[126.197,113.964],[125.979,113.917],[125.765,113.85],[125.559,113.765],[125.361,113.661],[125.173,113.54],[124.996,113.403],[124.833,113.251],[116.749,105.167],[116.597,105.004],[116.46,104.827],[116.339,104.639],[116.235,104.441],[116.15,104.235],[116.083,104.021],[116.036,103.803],[116.008,103.581],[116,103.358],[116,91.9259]]
EXCLUDE_OBJECT_DEFINE NAME=Femelle.stl_id_3_copy_0 CENTER=97.6419,97.6419 POLYGON=[[81.2838,103.358],[81.2838,91.9259],[81.2917,91.7025],[81.3194,91.4808],[81.3668,91.2624],[81.4336,91.0492],[81.5191,90.8427],[81.6227,90.6447],[81.7436,90.4567],[81.8808,90.2803],[82.0332,90.1169],[90.1169,82.0332],[90.2803,81.8808],[90.4567,81.7436],[90.6447,81.6227],[90.8427,81.5191],[91.0491,81.4336],[91.2624,81.3668],[91.4808,81.3194],[91.7025,81.2917],[91.9259,81.2839],[103.358,81.2839],[103.581,81.2917],[103.803,81.3194],[104.021,81.3668],[104.235,81.4336],[104.441,81.5191],[104.639,81.6227],[104.827,81.7436],[105.004,81.8808],[105.167,82.0332],[113.251,90.1169],[113.403,90.2803],[113.54,90.4567],[113.661,90.6447],[113.765,90.8427],[113.85,91.0491],[113.917,91.2624],[113.964,91.4808],[113.992,91.7025],[114,91.9259],[114,103.358],[113.992,103.581],[113.964,103.803],[113.917,104.021],[113.85,104.235],[113.765,104.441],[113.661,104.639],[113.54,104.827],[113.403,105.004],[113.251,105.167],[105.167,113.251],[105.004,113.403],[104.827,113.54],[104.639,113.661],[104.441,113.765],[104.235,113.85],[104.021,113.917],[103.803,113.964],[103.581,113.992],[103.358,114],[91.9259,114],[91.7025,113.992],[91.4808,113.964],[91.2624,113.917],[91.0492,113.85],[90.8427,113.765],[90.6447,113.661],[90.4567,113.54],[90.2803,113.403],[90.1169,113.251],[82.0332,105.167],[81.8808,105.004],[81.7436,104.827],[81.6227,104.639],[81.5191,104.441],[81.4336,104.235],[81.3668,104.021],[81.3194,103.803],[81.2917,103.581],[81.2838,103.358]]
M73 P0 R33
;TYPE:Custom
M220 S100
G90 ; use absolute coordinates
M83 ; extruder relative mode
M104 S150 ; set temporary nozzle temp to prevent oozing during homing
M140 S55 ; set final bed temp
G4 S30 ; allow partial nozzle warmup
G28 ; home all axis and restore leveling
BED_MESH_CALIBRATE PROFILE=adaptive ADAPTIVE=1 ADAPTIVE_MARGIN=0
G1 Z25 F240
G1 X10.0 Y30 F3000
M104 S210 ; set final nozzle temp
M190 S55 ; wait for bed temp to stabilize
M109 S210 ; wait for nozzle temp to stabilize
G1 Z0.28 F240
G92 E0 ; Move Z Axis up
G1 Z2.0 F5000 ; Move to start position
G1 X5 Y30 Z0.28 F300 ; Draw the first line
G1 X5 Y200 Z0.28 F1500 E15 ; Move to side a little
G1 X5.4 Y200 Z0.28 F5000.0 ; Draw the second line
M73 P1 R33
M73 P1 R33
G1 X5.4 Y50 Z0.28 F1500.0 E30 ; Reset Extruder
G92 E0 ; Move Z Axis up
G1 Z2.0 F3000
M117 Start Printing..
G90
G21
M83 ; use relative distances for extrusion
; filament start gcode
M106 S0
;LAYER_CHANGE
;Z:0.25
;HEIGHT:0.25
;BEFORE_LAYER_CHANGE
;0.25
G92 E0

G1 E-.5 F1800
;_SET_FAN_SPEED_CHANGING_LAYER
SET_VELOCITY_LIMIT ACCEL=1000
SET_VELOCITY_LIMIT SQUARE_CORNER_VELOCITY=7
; printing object Femelle.stl id:2 copy 0
EXCLUDE_OBJECT_START NAME=Femelle.stl_id_2_copy_0
G1 Z.45 F24000
G1 X147.039 Y105.313
G1 Z.45
G1 Z.25
G1 E.5 F1800
;TYPE:Inner wall
;WIDTH:0.549999
G1 F3000
G1 X147.095 Y105.476 E.00786
G1 X147.31 Y105.798 E.01767
G1 X147.546 Y105.998 E.01412
G1 X148.01 Y106.3 E.02528
G1 X148.713 Y106.812 E.03972
G1 X149.693 Y107.642 E.05865
G1 X150.076 Y108.021 E.02457
G1 X150.756 Y108.762 E.04591
G1 X151.188 Y109.286 E.03102
G1 X151.737 Y110.047 E.04285
G1 X152.052 Y110.525 E.02611
G1 X152.396 Y110.836 E.02119
G1 X152.784 Y110.99 E.01909
G1 X153.117 Y111.015 E.01522
G1 X153.415 Y110.96 E.01384
G1 X153.878 Y110.775 E.02278
G1 X154.146 Y110.74 E.01233
G1 X154.573 Y110.782 E.01959
G1 X154.978 Y111.01 E.02119
G1 X155.218 Y111.291 E.0169
G1 X155.37 Y111.704 E.0201
G1 X155.382 Y112.045 E.01558
G1 X155.319 Y112.3 E.01197
G1 X155.074 Y112.704 E.0216
G1 X154.878 Y112.87 E.01171
G1 X154.412 Y113.089 E.02356
G1 X154.066 Y113.306 E.01864
G1 X153.848 Y113.559 E.01522
G1 X153.736 Y113.776 E.01118
G1 X153.659 Y114.068 E.01378
G1 X153.674 Y114.492 E.01935
G1 X153.789 Y115.032 E.02523
G1 X153.939 Y115.982 E.04388
G1 X154.021 Y116.942 E.04398
G1 X154.038 Y117.879 E.04282
G1 X153.987 Y118.84 E.04391
G1 X153.93 Y119.353 E.02359
G1 X153.652 Y120.95 E.07398
G1 X153.691 Y121.374 E.01943
G1 X153.866 Y121.752 E.01906
G1 X154.082 Y121.992 E.01474
G1 X154.838 Y122.388 E.03896
G1 X155.178 Y122.707 E.02126
G1 X155.338 Y123.033 E.0166
G1 X155.383 Y123.5 E.02139
G1 X155.289 Y123.857 E.01688
G1 X155.036 Y124.218 E.02012
G1 X154.763 Y124.422 E.01558
G1 X154.441 Y124.521 E.01537
G1 X154.077 Y124.551 E.01666
G1 X153.139 Y124.27 E.04472
G1 X152.816 Y124.287 E.01474
G1 X152.583 Y124.354 E.01108
G1 X152.201 Y124.595 E.02063
G1 X152.002 Y124.831 E.01408
G1 X151.7 Y125.294 E.02523
G1 X151.134 Y126.071 E.0439
G1 X150.523 Y126.799 E.0434
G1 X150.176 Y127.159 E.02284
G1 X149.582 Y127.736 E.03781
G1 X149.101 Y128.165 E.02942
G1 X148.505 Y128.624 E.03433
G1 X147.959 Y129.017 E.03075
G1 X147.454 Y129.352 E.02762
G1 X147.157 Y129.691 E.0206
G1 X147.001 Y130.112 E.02052
G1 X146.987 Y130.431 E.01454
G1 X147.241 Y131.239 E.03868
G1 X147.256 Y131.702 E.02116
G1 X147.18 Y131.953 E.01199
G1 X146.918 Y132.342 E.02138
G1 X146.473 Y132.614 E.02381
G1 X146.139 Y132.66 E.01539
G1 X145.775 Y132.632 E.01666
G1 X145.521 Y132.51 E.01288
G1 X145.173 Y132.228 E.02043
G1 X144.714 Y131.372 E.04436
G1 X144.479 Y131.157 E.01454
G1 X144.269 Y131.038 E.01102
G1 X143.944 Y130.944 E.01545
G1 X143.508 Y130.958 E.01989
G1 X142.968 Y131.073 E.02521
G1 X142.005 Y131.224 E.04449
G1 X141.071 Y131.305 E.04282
G1 X140.321 Y131.318 E.03422
G1 X139.805 Y131.305 E.02359
G1 X138.852 Y131.239 E.04361
G1 X136.914 Y130.932 E.08961
G1 X136.632 Y130.973 E.01297
G1 X136.252 Y131.147 E.01907
G1 X136.01 Y131.363 E.01484
G1 X135.718 Y131.905 E.02809
G1 X135.453 Y132.326 E.02272
G1 X135.248 Y132.489 E.01195
G1 X134.812 Y132.659 E.0214
G1 X134.548 Y132.671 E.01202
G1 X134.095 Y132.553 E.02138
G1 X133.877 Y132.409 E.01195
G1 X133.578 Y132.047 E.0214
G1 X133.5 Y131.83 E.01052
G1 X133.449 Y131.361 E.02154
G1 X133.73 Y130.419 E.04491
G1 X133.712 Y130.094 E.01484
G1 X133.643 Y129.861 E.0111
G1 X133.496 Y129.595 E.01388
G1 X133.169 Y129.286 E.02054
G1 X132.706 Y128.984 E.02523
G1 X131.929 Y128.418 E.0439
G1 X131.201 Y127.807 E.0434
G1 X130.558 Y127.186 E.04079
G1 X130.192 Y126.798 E.02437
G1 X129.529 Y125.999 E.04741
G1 X128.607 Y124.688 E.07318
G1 X128.36 Y124.473 E.01492
G1 X127.95 Y124.297 E.02038
G1 X127.611 Y124.268 E.01555
G1 X127.202 Y124.36 E.01915
G1 X126.666 Y124.545 E.02586
G1 X126.199 Y124.516 E.02139
G1 X125.861 Y124.365 E.01688
G1 X125.525 Y124.039 E.02138
G1 X125.406 Y123.805 E.012
G1 X125.326 Y123.344 E.02133
G1 X125.449 Y122.866 E.02254
G1 X125.639 Y122.583 E.0156
G1 X125.84 Y122.413 E.012
G1 X126.305 Y122.194 E.02345
G1 X126.659 Y121.97 E.01915
G1 X126.878 Y121.71 E.01555
G1 X126.988 Y121.489 E.01126
G1 X127.054 Y121.239 E.01181
G1 X127.042 Y120.792 E.0204
G1 X126.927 Y120.252 E.02521
G1 X126.776 Y119.289 E.04449
G1 X126.695 Y118.355 E.04282
G1 X126.683 Y117.639 E.03269
G1 X126.697 Y117.051 E.02683
G1 X126.752 Y116.225 E.03783
G1 X126.821 Y115.707 E.02384
G1 X127.068 Y114.259 E.06707
G1 X127.044 Y113.988 E.01242
G1 X126.893 Y113.598 E.01911
G1 X126.673 Y113.326 E.01595
G1 X126.401 Y113.134 E.01521
G1 X125.971 Y112.951 E.02132
G1 X125.571 Y112.621 E.02366
G1 X125.366 Y112.2 E.02139
G1 X125.329 Y111.832 E.01688
G1 X125.447 Y111.379 E.02138
G1 X125.591 Y111.161 E.01195
G1 X125.953 Y110.862 E.0214
G1 X126.456 Y110.727 E.02381
G1 X126.718 Y110.75 E.01201
G1 X127.202 Y110.924 E.02345
G1 X127.63 Y111.017 E.01999
G1 X127.977 Y110.98 E.01595
G1 X128.21 Y110.896 E.01132
G1 X128.429 Y110.762 E.01171
G1 X128.714 Y110.454 E.01914
G1 X129.023 Y109.98 E.02584
G1 X129.582 Y109.213 E.04333
G1 X130.193 Y108.485 E.04341
G1 X130.853 Y107.801 E.0434
G1 X131.513 Y107.207 E.04051
G1 X131.92 Y106.872 E.02408
G1 X132.706 Y106.3 E.0444
G1 X133.169 Y105.998 E.02523
G1 X133.495 Y105.69 E.02047
G1 X133.696 Y105.26 E.02165
G1 X133.733 Y104.913 E.01594
G1 X133.676 Y104.585 E.0152
G1 X133.492 Y104.126 E.02259
G1 X133.447 Y103.84 E.01322
G1 X133.509 Y103.407 E.02
G1 X133.726 Y103.022 E.02015
G1 X134.007 Y102.782 E.01688
G1 X134.446 Y102.621 E.02133
G1 X134.966 Y102.661 E.02381
G1 X135.206 Y102.769 E.01202
G1 X135.558 Y103.079 E.02138
G1 X135.806 Y103.588 E.02588
G1 X136.042 Y103.956 E.01998
G1 X136.314 Y104.176 E.01594
G1 X136.538 Y104.282 E.01131
G1 X136.901 Y104.351 E.01687
G1 X137.208 Y104.326 E.01407
G1 X137.748 Y104.211 E.02521
G1 X138.711 Y104.06 E.04449
G1 X139.645 Y103.979 E.04282
G1 X140.596 Y103.962 E.0434
G1 X141.936 Y104.052 E.06134
G1 X143.037 Y104.226 E.05086
G1 X143.532 Y104.33 E.0231
G1 X143.978 Y104.334 E.02037
G1 X144.41 Y104.173 E.02104
G1 X144.663 Y103.969 E.01485
G1 X144.891 Y103.634 E.01849
G1 X145.133 Y103.115 E.02616
G1 X145.399 Y102.837 E.01755
G1 X145.775 Y102.652 E.01915
G1 X146.096 Y102.611 E.01479
G1 X146.475 Y102.673 E.01754
G1 X146.858 Y102.892 E.0201
G1 X147.085 Y103.146 E.01558
G1 X147.233 Y103.478 E.0166
G1 X147.254 Y103.993 E.02354
G1 X147.057 Y104.532 E.02616
G1 X146.982 Y104.93 E.01849
G1 X147.017 Y105.253 E.01485
G1 X147.025 Y105.276 E.0011
G1 X147.518 Y105.178 F24000
G1 F3000
G1 X147.594 Y105.357 E.0089
G1 X147.817 Y105.582 E.01443
G1 X148.291 Y105.891 E.02587
G1 X149.005 Y106.41 E.04031
G1 X150.032 Y107.28 E.06143
G1 X150.433 Y107.676 E.02574
G1 X151.136 Y108.442 E.04748
G1 X151.589 Y108.994 E.0326
G1 X152.153 Y109.776 E.04403
G1 X152.478 Y110.263 E.02672
G1 X152.747 Y110.46 E.01523
G1 X153.087 Y110.52 E.01574
G1 X154.002 Y110.241 E.04366
G1 X154.614 Y110.281 E.02802
G1 X155.17 Y110.526 E.02774
G1 X155.471 Y110.801 E.01862
G1 X155.726 Y111.177 E.02073
G1 X155.864 Y111.62 E.02116
G1 X155.872 Y111.843 E.0102
G1 X155.851 Y112.238 E.01805
G1 X155.726 Y112.625 E.01856
G1 X155.455 Y113.027 E.02217
G1 X155.122 Y113.303 E.01975
G1 X154.545 Y113.575 E.02912
G1 X154.264 Y113.829 E.0173
G1 X154.165 Y114.06 E.01145
G1 X154.16 Y114.389 E.01505
G1 X154.277 Y114.942 E.02582
G1 X154.432 Y115.922 E.04527
G1 X154.517 Y116.916 E.04556
G1 X154.534 Y117.888 E.04439
G1 X154.482 Y118.879 E.04528
G1 X154.421 Y119.431 E.02537
G1 X154.144 Y121.029 E.07406
G1 X154.205 Y121.344 E.01462
G1 X154.405 Y121.615 E.01539
G1 X154.602 Y121.736 E.01058
G1 X155.109 Y121.972 E.02553
G1 X155.463 Y122.288 E.02168
G1 X155.72 Y122.643 E.01999
G1 X155.844 Y123.062 E.01995
G1 X155.878 Y123.539 E.02183
G1 X155.836 Y123.786 E.01142
G1 X155.672 Y124.209 E.02075
G1 X155.387 Y124.576 E.02118
