; HEADER_BLOCK_START
; generated by OrcaSlicer 2.1.1 on 2024-07-31 at 18:04:39
; total layer number: 7
; filament_density: 1.24
; filament_diameter: 1.75
; max_z_height: 1.40
; HEADER_BLOCK_END

; THUMBNAIL_BLOCK_START

;
; THUMBNAIL_BLOCK_END

; THUMBNAIL_BLOCK_START

;
; THUMBNAIL_BLOCK_END

; external perimeters extrusion width = 0.42mm
; perimeters extrusion width = 0.45mm
; infill extrusion width = 0.45mm
; solid infill extrusion width = 0.48mm
; top infill extrusion width = 0.48mm
; first layer extrusion width = 0.50mm

; external perimeters extrusion width = 0.42mm
; perimeters extrusion width = 0.45mm
; infill extrusion width = 0.45mm
; solid infill extrusion width = 0.48mm
; top infill extrusion width = 0.48mm
; first layer extrusion width = 0.50mm

; external perimeters extrusion width = 0.42mm
; perimeters extrusion width = 0.45mm
; infill extrusion width = 0.45mm
; solid infill extrusion width = 0.48mm
; top infill extrusion width = 0.48mm
; first layer extrusion width = 0.50mm

; external perimeters extrusion width = 0.42mm
; perimeters extrusion width = 0.45mm
; infill extrusion width = 0.45mm
; solid infill extrusion width = 0.48mm
; top infill extrusion width = 0.48mm
; first layer extrusion width = 0.50mm

; external perimeters extrusion width = 0.42mm
; perimeters extrusion width = 0.45mm
; infill extrusion width = 0.45mm
; solid infill extrusion width = 0.48mm
; top infill extrusion width = 0.48mm
; first layer extrusion width = 0.50mm

; external perimeters extrusion width = 0.42mm
; perimeters extrusion width = 0.45mm
; infill extrusion width = 0.45mm
; solid infill extrusion width = 0.48mm
; top infill extrusion width = 0.48mm
; first layer extrusion width = 0.50mm

; external perimeters extrusion width = 0.42mm
; perimeters extrusion width = 0.45mm
; infill extrusion width = 0.45mm
; solid infill extrusion width = 0.48mm
; top infill extrusion width = 0.48mm
; first layer extrusion width = 0.50mm

; external perimeters extrusion width = 0.42mm
; perimeters extrusion width = 0.45mm
; infill extrusion width = 0.45mm
; solid infill extrusion width = 0.48mm
; top infill extrusion width = 0.48mm
; first layer extrusion width = 0.50mm

; external perimeters extrusion width = 0.42mm
; perimeters extrusion width = 0.45mm
; infill extrusion width = 0.45mm
; solid infill extrusion width = 0.48mm
; top infill extrusion width = 0.48mm
; first layer extrusion width = 0.50mm

; EXECUTABLE_BLOCK_START
EXCLUDE_OBJECT_DEFINE NAME=flowrate_0_id_0_copy_0 CENTER=115,115 POLYGON=[[95,100],[135,100],[135,120],[125,130],[105,130],[95,120],[95,100]]
EXCLUDE_OBJECT_DEFINE NAME=flowrate_10_id_1_copy_0 CENTER=157,147 POLYGON=[[137,132],[177,132],[177,152],[167,162],[147,162],[137,152],[137,132]]
EXCLUDE_OBJECT_DEFINE NAME=flowrate_15_id_2_copy_0 CENTER=115,147 POLYGON=[[95,132],[135,132],[135,152],[125,162],[105,162],[95,152],[95,132]]
EXCLUDE_OBJECT_DEFINE NAME=flowrate_20_id_3_copy_0 CENTER=73,147 POLYGON=[[53,132],[93,132],[93,152],[83,162],[63,162],[53,152],[53,132]]
EXCLUDE_OBJECT_DEFINE NAME=flowrate_5_id_4_copy_0 CENTER=73,115 POLYGON=[[53,100],[93,100],[93,120],[83,130],[63,130],[53,120],[53,100]]
EXCLUDE_OBJECT_DEFINE NAME=flowrate_m10_id_5_copy_0 CENTER=157,83 POLYGON=[[137,68],[177,68],[177,88],[167,98],[147,98],[137,88],[137,68]]
EXCLUDE_OBJECT_DEFINE NAME=flowrate_m15_id_6_copy_0 CENTER=115,83 POLYGON=[[95,68],[135,68],[135,88],[125,98],[105,98],[95,88],[95,68]]
EXCLUDE_OBJECT_DEFINE NAME=flowrate_m20_id_7_copy_0 CENTER=73,83 POLYGON=[[53,68],[93,68],[93,88],[83,98],[63,98],[53,88],[53,68]]
EXCLUDE_OBJECT_DEFINE NAME=flowrate_m5_id_8_copy_0 CENTER=157,115 POLYGON=[[137,100],[177,100],[177,120],[167,130],[147,130],[137,120],[137,100]]
M73 P0 R23
;TYPE:Custom
M220 S100
G90 ; use absolute coordinates
M83 ; extruder relative mode
M104 S150 ; set temporary nozzle temp to prevent oozing during homing
M140 S55 ; set final bed temp
G4 S30 ; allow partial nozzle warmup
G28 ; home all axis and restore leveling
BED_MESH_CALIBRATE PROFILE=adaptive ADAPTIVE=1 ADAPTIVE_MARGIN=0
G1 Z25 F240
G1 X10.0 Y30 F3000
M104 S210 ; set final nozzle temp
M190 S55 ; wait for bed temp to stabilize
M109 S210 ; wait for nozzle temp to stabilize
G1 Z0.28 F240
G92 E0 ; Move Z Axis up
G1 Z2.0 F5000 ; Move to start position
G1 X5 Y30 Z0.28 F300 ; Draw the first line
G1 X5 Y200 Z0.28 F1500 E15 ; Move to side a little
M73 P1 R23
G1 X5.4 Y200 Z0.28 F5000.0 ; Draw the second line
G1 X5.4 Y50 Z0.28 F1500.0 E30 ; Reset Extruder
G92 E0 ; Move Z Axis up
G1 Z2.0 F3000
M117 Start Printing..
G90
G21
M83 ; use relative distances for extrusion
; filament start gcode
M106 S0
;LAYER_CHANGE
;Z:0.2
;HEIGHT:0.2
;BEFORE_LAYER_CHANGE
;0.2
G92 E0

G1 E-.5 F1800
;_SET_FAN_SPEED_CHANGING_LAYER
SET_VELOCITY_LIMIT ACCEL=1000
SET_VELOCITY_LIMIT SQUARE_CORNER_VELOCITY=7
; printing object flowrate_m20 id:7 copy 0
EXCLUDE_OBJECT_START NAME=flowrate_m20_id_7_copy_0
G1 Z.2 F24000
G1 X72.189 Y107.795
G1 Z.2
G1 E.5 F1800
;TYPE:Inner wall
;WIDTH:0.499999
G1 F3000
G1 X72.166 Y107.6 E.00585
G1 X72.019 Y107.289 E.01025
G1 X71.757 Y107.014 E.0113
G1 X71.442 Y106.848 E.01062
G1 X71.071 Y106.786 E.0112
G1 X62.214 Y106.786 E.26392
G1 X62.214 Y89.214 E.52358
G1 X99.786 Y89.214 E1.11952
M73 P2 R23
G1 X99.786 Y106.786 E.52358
G1 X90.786 Y106.786 E.26818
G1 X90.391 Y106.92 E.01243
G1 X90.063 Y107.183 E.01251
G1 X89.859 Y107.527 E.01194
G1 X89.786 Y107.929 E.01215
G1 X89.786 Y116.786 E.26392
G1 X72.214 Y116.786 E.52358
G1 X72.214 Y108 E.26179
G1 X72.194 Y107.835 E.00496
G1 X71.743 Y107.866 F24000
G1 F3000
G1 X71.728 Y107.732 E.00402
G1 X71.591 Y107.481 E.00851
G1 X71.345 Y107.3 E.00909
G1 X71.071 Y107.243 E.00833
G1 X61.757 Y107.243 E.27754
G1 X61.757 Y88.757 E.55082
G1 X100.243 Y88.757 E1.14676
G1 X100.243 Y107.243 E.55082
G1 X90.8 Y107.243 E.28137
G1 X90.478 Y107.412 E.01084
G1 X90.303 Y107.647 E.00873
G1 X90.243 Y107.929 E.00857
G1 X90.243 Y117.243 E.27754
G1 X71.757 Y117.243 E.55082
G1 X71.757 Y108 E.27541
G1 X71.747 Y107.905 E.00283
G1 X71.3 Y107.929 F24000
;TYPE:Outer wall
G1 F3000
G1 X71.234 Y107.768 E.00519
G1 X71.071 Y107.7 E.00524
G1 X61.3 Y107.7 E.29116
G1 X61.3 Y88.3 E.57806
G1 X100.7 Y88.3 E1.174
G1 X100.7 Y107.7 E.57806
G1 X90.929 Y107.7 E.29116
G1 X90.766 Y107.768 E.00524
G1 X90.7 Y107.929 E.00519
G1 X90.7 Y117.7 E.29116
G1 X71.3 Y117.7 E.57806
G1 X71.3 Y107.969 E.28997
G1 E-.5 F1800
;WIPE_START
G1 F12000
G1 X71.234 Y107.768
G1 X71.071 Y107.7
G1 X69.459 Y107.7
;WIPE_END
G1 Z.4 F24000
G1 X88.718 Y116.649
G1 Z.4
G1 Z.2
G1 E.5 F1800
;TYPE:Bottom surface
;WIDTH:0.503265
G1 F6300
G1 X89.443 Y115.923 E.03079
G1 X89.444 Y115.272 E.01955
G1 X88.272 Y116.443 E.0497
G1 X87.621 Y116.443 E.01954
G1 X89.444 Y114.621 E.07735
G1 X89.444 Y113.969 E.01955
G1 X86.97 Y116.443 E.10499
G1 X86.319 Y116.443 E.01954
G1 X89.444 Y113.318 E.13263
G1 X89.445 Y112.667 E.01955
G1 X85.668 Y116.443 E.16027
G1 X85.017 Y116.443 E.01954
G1 X89.445 Y112.015 E.18791
G1 X89.445 Y111.364 E.01955
G1 X84.366 Y116.443 E.21556
G1 X83.715 Y116.443 E.01954
G1 X89.446 Y110.713 E.2432
G1 X89.446 Y110.061 E.01955
G1 X83.064 Y116.443 E.27084
G1 X82.413 Y116.443 E.01954
G1 X89.446 Y109.41 E.29848
G1 X89.446 Y108.759 E.01955
G1 X81.762 Y116.443 E.32612
G1 X81.111 Y116.443 E.01954
G1 X89.653 Y107.902 E.3625
G1 E-.5 F1800
;WIPE_START
G1 F12000
G1 X88.238 Y109.316
;WIPE_END
G1 Z.4 F24000
G1 X90.314 Y107.314 Z.4
G1 X98.717 Y107.314
G1 X98.717 Y106.649
G1 Z.2
M73 P2 R22
G1 E.5 F1800
G1 F6300
G1 X99.443 Y105.923 E.0308
G1 X99.443 Y105.272 E.01954
G1 X98.272 Y106.444 E.04971
G1 X97.62 Y106.444 E.01955
G1 X99.443 Y104.621 E.07736
G1 X99.443 Y103.97 E.01954
G1 X96.969 Y106.444 E.105
G1 X96.318 Y106.445 E.01955
G1 X99.443 Y103.319 E.13264
G1 X99.443 Y102.668 E.01954
G1 X95.666 Y106.445 E.16029
G1 X95.015 Y106.446 E.01955
G1 X99.443 Y102.017 E.18793
G1 X99.443 Y101.366 E.01954
G1 X94.363 Y106.446 E.21558
G1 X93.712 Y106.446 E.01955
G1 X99.443 Y100.715 E.24322
G1 X99.443 Y100.064 E.01954
G1 X93.061 Y106.447 E.27087
G1 X92.409 Y106.447 E.01955
G1 X99.443 Y99.413 E.29851
G1 X99.443 Y98.762 E.01954
G1 X91.758 Y106.447 E.32616
G1 X91.107 Y106.448 E.01955
G1 X99.443 Y98.111 E.3538
G1 X99.443 Y97.46 E.01954
G1 X80.46 Y116.443 E.80564
G1 X79.809 Y116.443 E.01954
M73 P3 R22
G1 X99.443 Y96.809 E.83327
G1 X99.443 Y96.158 E.01954
G1 X79.158 Y116.443 E.8609
G1 X78.507 Y116.443 E.01954
G1 X99.443 Y95.507 E.88853
G1 X99.443 Y94.856 E.01954
G1 X77.856 Y116.443 E.91616
G1 X77.205 Y116.443 E.01954
G1 X99.443 Y94.205 E.94379
G1 X99.443 Y93.554 E.01954
G1 X76.554 Y116.443 E.97142
G1 X75.903 Y116.443 E.01954
G1 X99.443 Y92.903 E.99905
G1 X99.443 Y92.252 E.01954
G1 X75.252 Y116.443 E1.02668
G1 X74.601 Y116.443 E.01954
G1 X99.443 Y91.601 E1.05431
G1 X99.443 Y90.95 E.01954
G1 X73.95 Y116.443 E1.08194
G1 X73.299 Y116.443 E.01954
G1 X99.443 Y90.299 E1.10957
G1 X99.443 Y89.648 E.01954
G1 X72.648 Y116.443 E1.1372
G1 X72.557 Y116.443 E.00273
G1 X72.557 Y115.883 E.0168
G1 X98.883 Y89.557 E1.11729
G1 X98.232 Y89.557 E.01954
G1 X72.556 Y115.232 E1.08967
G1 X72.556 Y114.582 E.01953
G1 X97.581 Y89.557 E1.06206
G1 X96.93 Y89.557 E.01954
G1 X72.556 Y113.931 E1.03444
G1 X72.556 Y113.28 E.01953
G1 X96.279 Y89.557 E1.00682
G1 X95.628 Y89.557 E.01954
G1 X72.555 Y112.629 E.9792
G1 X72.555 Y111.979 E.01953
G1 X94.977 Y89.557 E.95159
G1 X94.326 Y89.557 E.01954
G1 X72.555 Y111.328 E.92397
G1 X72.554 Y110.677 E.01953
G1 X93.675 Y89.557 E.89635
G1 X93.024 Y89.557 E.01954
G1 X72.554 Y110.026 E.86873
G1 X72.554 Y109.376 E.01953
G1 X92.373 Y89.557 E.84111
G1 X91.722 Y89.557 E.01954
G1 X72.554 Y108.725 E.8135
G1 X72.553 Y108.074 E.01953
G1 X91.071 Y89.557 E.78588
G1 X90.42 Y89.557 E.01954
G1 X72.484 Y107.492 E.76117
G1 X72.427 Y107.32 E.00546
G1 X72.269 Y107.056 E.00921
G1 X89.768 Y89.557 E.74267
G1 X89.117 Y89.557 E.01954
G1 X71.942 Y106.733 E.72895
G1 X71.872 Y106.677 E.00269
G1 X71.665 Y106.566 E.00705
G1 X71.51 Y106.513 E.0049
G1 X88.466 Y89.557 E.71963
G1 X87.815 Y89.557 E.01954
G1 X70.925 Y106.448 E.71685
G1 X70.274 Y106.447 E.01953
G1 X87.164 Y89.557 E.71683
G1 X86.513 Y89.557 E.01954
G1 X69.623 Y106.447 E.71682
G1 X68.973 Y106.447 E.01953
G1 X85.862 Y89.557 E.7168
G1 X85.211 Y89.557 E.01954
G1 X68.322 Y106.446 E.71679
G1 X67.671 Y106.446 E.01953
M73 P4 R22
G1 X84.56 Y89.557 E.71677
G1 X83.909 Y89.557 E.01954
G1 X67.021 Y106.446 E.71676
G1 X66.37 Y106.445 E.01953
G1 X83.258 Y89.557 E.71674
G1 X82.607 Y89.557 E.01954
G1 X65.719 Y106.445 E.71673
G1 X65.069 Y106.444 E.01953
G1 X81.956 Y89.557 E.71671
G1 X81.305 Y89.557 E.01954
G1 X64.418 Y106.444 E.7167
G1 X63.767 Y106.444 E.01953
G1 X80.654 Y89.557 E.71668
G1 X80.003 Y89.557 E.01954
G1 X63.117 Y106.443 E.71667
G1 X62.557 Y106.443 E.0168
G1 X62.557 Y106.352 E.00273
G1 X79.352 Y89.557 E.71279
G1 X78.701 Y89.557 E.01954
G1 X62.557 Y105.701 E.68516
G1 X62.557 Y105.05 E.01954
G1 X78.05 Y89.557 E.65753
G1 X77.399 Y89.557 E.01954
G1 X62.557 Y104.399 E.6299
G1 X62.557 Y103.748 E.01954
G1 X76.748 Y89.557 E.60227
G1 X76.097 Y89.557 E.01954
G1 X62.557 Y103.097 E.57464
G1 X62.557 Y102.446 E.01954
G1 X75.446 Y89.557 E.54701
G1 X74.795 Y89.557 E.01954
G1 X62.557 Y101.795 E.51938
G1 X62.557 Y101.144 E.01954
G1 X74.144 Y89.557 E.49175
G1 X73.493 Y89.557 E.01954
G1 X62.557 Y100.493 E.46412
G1 X62.557 Y99.842 E.01954
G1 X72.842 Y89.557 E.43649
G1 X72.191 Y89.557 E.01954
G1 X62.557 Y99.191 E.40886
G1 X62.557 Y98.54 E.01954
G1 X71.54 Y89.557 E.38123
G1 X70.889 Y89.557 E.01954
G1 X62.557 Y97.889 E.3536
G1 X62.557 Y97.238 E.01954
G1 X70.238 Y89.557 E.32597
G1 X69.587 Y89.557 E.01954
G1 X62.557 Y96.587 E.29834
G1 X62.557 Y95.936 E.01954
G1 X68.936 Y89.557 E.27071
G1 X68.285 Y89.557 E.01954
G1 X62.557 Y95.285 E.24308
G1 X62.557 Y94.634 E.01954
G1 X67.634 Y89.557 E.21545
G1 X66.983 Y89.557 E.01954
G1 X62.557 Y93.983 E.18782
G1 X62.557 Y93.332 E.01954
G1 X66.332 Y89.557 E.16019
G1 X65.681 Y89.557 E.01954
G1 X62.557 Y92.681 E.13256
G1 X62.557 Y92.029 E.01954
G1 X65.029 Y89.557 E.10493
G1 X64.378 Y89.557 E.01954
G1 X62.557 Y91.378 E.0773
G1 X62.557 Y90.727 E.01954
G1 X63.727 Y89.557 E.04967
G1 X63.076 Y89.557 E.01954
G1 X62.351 Y90.282 E.03077
; stop printing object flowrate_m20 id:7 copy 0
; printing object flowrate_5 id:4 copy 0
G1 E-.5 F1800
;WIPE_START
G1 F12000
G1 X63.076 Y89.557
G1 X63.727 Y89.557
G1 X63.499 Y89.786
;WIPE_END
EXCLUDE_OBJECT_END NAME=flowrate_m20_id_7_copy_0
EXCLUDE_OBJECT_START NAME=flowrate_5_id_4_copy_0
G1 Z.4 F24000
G1 X72.189 Y139.795 Z.4
G1 Z.2
G1 E.5 F1800
;TYPE:Inner wall
;WIDTH:0.499999
G1 F3000
G1 X72.166 Y139.6 E.00768
G1 X72.019 Y139.289 E.01346
G1 X71.757 Y139.014 E.01484
G1 X71.442 Y138.848 E.01394
G1 X71.071 Y138.786 E.01469
G1 X62.214 Y138.786 E.3464
G1 X62.214 Y121.214 E.6872
G1 X99.786 Y121.214 E1.46937
G1 X99.786 Y138.786 E.6872
G1 X90.786 Y138.786 E.35198
G1 X90.391 Y138.92 E.01631
G1 X90.063 Y139.183 E.01642
G1 X89.859 Y139.527 E.01567
G1 X89.786 Y139.929 E.01595
G1 X89.786 Y148.786 E.3464
G1 X72.214 Y148.786 E.6872
G1 X72.214 Y140 E.3436
G1 X72.194 Y139.835 E.0065
G1 X71.743 Y139.866 F24000
G1 F3000
G1 X71.728 Y139.732 E.00528
G1 X71.591 Y139.481 E.01117
G1 X71.345 Y139.3 E.01193
G1 X71.071 Y139.243 E.01094
G1 X61.757 Y139.243 E.36427
G1 X61.757 Y120.757 E.72295
G1 X100.243 Y120.757 E1.50512
G1 X100.243 Y139.243 E.72295
M73 P5 R22
G1 X90.8 Y139.243 E.3693
G1 X90.478 Y139.412 E.01423
G1 X90.303 Y139.647 E.01145
G1 X90.243 Y139.929 E.01125
G1 X90.243 Y149.243 E.36427
G1 X71.757 Y149.243 E.72295
G1 X71.757 Y140 E.36148
G1 X71.747 Y139.905 E.00372
G1 X71.3 Y139.929 F24000
;TYPE:Outer wall
G1 F3000
G1 X71.234 Y139.768 E.00681
G1 X71.071 Y139.7 E.00688
G1 X61.3 Y139.7 E.38215
G1 X61.3 Y120.3 E.7587
G1 X100.7 Y120.3 E1.54087
G1 X100.7 Y139.7 E.7587
G1 X90.929 Y139.7 E.38215
G1 X90.766 Y139.768 E.00688
G1 X90.7 Y139.929 E.00681
G1 X90.7 Y149.7 E.38215
G1 X71.3 Y149.7 E.7587
G1 X71.3 Y139.969 E.38058
G1 E-.5 F1800
G1 Z.4 F24000
G1 X88.718 Y148.649 Z.4
G1 Z.2
G1 E.5 F1800
;TYPE:Bottom surface
;WIDTH:0.503265
G1 F6300
G1 X89.443 Y147.923 E.04042
G1 X89.444 Y147.272 E.02565
G1 X88.272 Y148.443 E.06524
G1 X87.621 Y148.443 E.02564
G1 X89.444 Y146.621 E.10152
G1 X89.444 Y145.969 E.02565
G1 X86.97 Y148.443 E.1378
G1 X86.319 Y148.443 E.02564
G1 X89.444 Y145.318 E.17408
G1 X89.445 Y144.667 E.02565
G1 X85.668 Y148.443 E.21036
G1 X85.017 Y148.443 E.02564
G1 X89.445 Y144.015 E.24664
G1 X89.445 Y143.364 E.02565
G1 X84.366 Y148.443 E.28292
G1 X83.715 Y148.443 E.02564
G1 X89.446 Y142.713 E.3192
G1 X89.446 Y142.061 E.02565
G1 X83.064 Y148.443 E.35548
G1 X82.413 Y148.443 E.02564
G1 X89.446 Y141.41 E.39176
G1 X89.446 Y140.759 E.02565
G1 X81.762 Y148.443 E.42804
G1 X81.111 Y148.443 E.02564
G1 X89.653 Y139.902 E.47578
G1 E-.5 F1800
;WIPE_START
G1 F12000
G1 X88.238 Y141.316
;WIPE_END
G1 Z.4 F24000
G1 X90.314 Y139.314 Z.4
G1 X98.717 Y139.314
G1 X98.717 Y138.649
G1 Z.2
G1 E.5 F1800
G1 F6300
G1 X99.443 Y137.923 E.04042
G1 X99.443 Y137.272 E.02564
G1 X98.272 Y138.444 E.06524
G1 X97.62 Y138.444 E.02566
G1 X99.443 Y136.621 E.10153
G1 X99.443 Y135.97 E.02564
G1 X96.969 Y138.444 E.13781
G1 X96.318 Y138.445 E.02566
G1 X99.443 Y135.319 E.1741
G1 X99.443 Y134.668 E.02564
G1 X95.666 Y138.445 E.21038
G1 X95.015 Y138.446 E.02566
G1 X99.443 Y134.017 E.24666
G1 X99.443 Y133.366 E.02564
G1 X94.363 Y138.446 E.28295
G1 X93.712 Y138.446 E.02566
G1 X99.443 Y132.715 E.31923
G1 X99.443 Y132.064 E.02564
G1 X93.061 Y138.447 E.35552
G1 X92.409 Y138.447 E.02566
G1 X99.443 Y131.413 E.3918
G1 X99.443 Y130.762 E.02564
G1 X91.758 Y138.447 E.42808
G1 X91.107 Y138.448 E.02566
G1 X99.443 Y130.111 E.46437
G1 X99.443 Y129.46 E.02564
G1 X80.46 Y148.443 E1.0574
G1 X79.809 Y148.443 E.02564
G1 X99.443 Y128.809 E1.09367
G1 X99.443 Y128.158 E.02564
G1 X79.158 Y148.443 E1.12993
G1 X78.507 Y148.443 E.02564
G1 X99.443 Y127.507 E1.1662
G1 X99.443 Y126.856 E.02564
G1 X77.856 Y148.443 E1.20246
G1 X77.205 Y148.443 E.02564
G1 X99.443 Y126.205 E1.23872
G1 X99.443 Y125.554 E.02564
G1 X76.554 Y148.443 E1.27499
G1 X75.903 Y148.443 E.02564
G1 X99.443 Y124.903 E1.31125
G1 X99.443 Y124.252 E.02564
G1 X75.252 Y148.443 E1.34752
G1 X74.601 Y148.443 E.02564
