; HEADER_BLOCK_START
; generated by OrcaSlicer 2.1.1 on 2024-07-31 at 18:45:08
; total layer number: 7
; filament_density: 1.24
; filament_diameter: 1.75
; max_z_height: 1.40
; HEADER_BLOCK_END

; THUMBNAIL_BLOCK_START

;
; THUMBNAIL_BLOCK_END

; THUMBNAIL_BLOCK_START

;
; THUMBNAIL_BLOCK_END

; external perimeters extrusion width = 0.42mm
; perimeters extrusion width = 0.45mm
; infill extrusion width = 0.45mm
; solid infill extrusion width = 0.48mm
; top infill extrusion width = 0.48mm
; first layer extrusion width = 0.50mm

; external perimeters extrusion width = 0.42mm
; perimeters extrusion width = 0.45mm
; infill extrusion width = 0.45mm
; solid infill extrusion width = 0.48mm
; top infill extrusion width = 0.48mm
; first layer extrusion width = 0.50mm

; external perimeters extrusion width = 0.42mm
; perimeters extrusion width = 0.45mm
; infill extrusion width = 0.45mm
; solid infill extrusion width = 0.48mm
; top infill extrusion width = 0.48mm
; first layer extrusion width = 0.50mm

; external perimeters extrusion width = 0.42mm
; perimeters extrusion width = 0.45mm
; infill extrusion width = 0.45mm
; solid infill extrusion width = 0.48mm
; top infill extrusion width = 0.48mm
; first layer extrusion width = 0.50mm

; external perimeters extrusion width = 0.42mm
; perimeters extrusion width = 0.45mm
; infill extrusion width = 0.45mm
; solid infill extrusion width = 0.48mm
; top infill extrusion width = 0.48mm
; first layer extrusion width = 0.50mm

; external perimeters extrusion width = 0.42mm
; perimeters extrusion width = 0.45mm
; infill extrusion width = 0.45mm
; solid infill extrusion width = 0.48mm
; top infill extrusion width = 0.48mm
; first layer extrusion width = 0.50mm

; external perimeters extrusion width = 0.42mm
; perimeters extrusion width = 0.45mm
; infill extrusion width = 0.45mm
; solid infill extrusion width = 0.48mm
; top infill extrusion width = 0.48mm
; first layer extrusion width = 0.50mm

; external perimeters extrusion width = 0.42mm
; perimeters extrusion width = 0.45mm
; infill extrusion width = 0.45mm
; solid infill extrusion width = 0.48mm
; top infill extrusion width = 0.48mm
; first layer extrusion width = 0.50mm

; external perimeters extrusion width = 0.42mm
; perimeters extrusion width = 0.45mm
; infill extrusion width = 0.45mm
; solid infill extrusion width = 0.48mm
; top infill extrusion width = 0.48mm
; first layer extrusion width = 0.50mm

; external perimeters extrusion width = 0.42mm
; perimeters extrusion width = 0.45mm
; infill extrusion width = 0.45mm
; solid infill extrusion width = 0.48mm
; top infill extrusion width = 0.48mm
; first layer extrusion width = 0.50mm

; EXECUTABLE_BLOCK_START
EXCLUDE_OBJECT_DEFINE NAME=flowrate_0_id_0_copy_0 CENTER=115,163 POLYGON=[[95,148],[135,148],[135,168],[125,178],[105,178],[95,168],[95,148]]
EXCLUDE_OBJECT_DEFINE NAME=flowrate_m1_id_1_copy_0 CENTER=73,131 POLYGON=[[53,116],[93,116],[93,136],[83,146],[63,146],[53,136],[53,116]]
EXCLUDE_OBJECT_DEFINE NAME=flowrate_m2_id_2_copy_0 CENTER=115,131 POLYGON=[[95,116],[135,116],[135,136],[125,146],[105,146],[95,136],[95,116]]
EXCLUDE_OBJECT_DEFINE NAME=flowrate_m3_id_3_copy_0 CENTER=157,131 POLYGON=[[137,116],[177,116],[177,136],[167,146],[147,146],[137,136],[137,116]]
EXCLUDE_OBJECT_DEFINE NAME=flowrate_m4_id_4_copy_0 CENTER=73,99 POLYGON=[[53,84],[93,84],[93,104],[83,114],[63,114],[53,104],[53,84]]
EXCLUDE_OBJECT_DEFINE NAME=flowrate_m5_id_5_copy_0 CENTER=115,99 POLYGON=[[95,84],[135,84],[135,104],[125,114],[105,114],[95,104],[95,84]]
EXCLUDE_OBJECT_DEFINE NAME=flowrate_m6_id_6_copy_0 CENTER=157,99 POLYGON=[[137,84],[177,84],[177,104],[167,114],[147,114],[137,104],[137,84]]
EXCLUDE_OBJECT_DEFINE NAME=flowrate_m7_id_7_copy_0 CENTER=157,67 POLYGON=[[137,52],[177,52],[177,72],[167,82],[147,82],[137,72],[137,52]]
EXCLUDE_OBJECT_DEFINE NAME=flowrate_m8_id_8_copy_0 CENTER=115,67 POLYGON=[[95,52],[135,52],[135,72],[125,82],[105,82],[95,72],[95,52]]
EXCLUDE_OBJECT_DEFINE NAME=flowrate_m9_id_9_copy_0 CENTER=73,67 POLYGON=[[53,52],[93,52],[93,72],[83,82],[63,82],[53,72],[53,52]]
M73 P0 R25
;TYPE:Custom
M220 S100
G90 ; use absolute coordinates
M83 ; extruder relative mode
M104 S150 ; set temporary nozzle temp to prevent oozing during homing
M140 S55 ; set final bed temp
G4 S30 ; allow partial nozzle warmup
G28 ; home all axis and restore leveling
BED_MESH_CALIBRATE PROFILE=adaptive ADAPTIVE=1 ADAPTIVE_MARGIN=0
G1 Z25 F240
G1 X10.0 Y30 F3000
M104 S210 ; set final nozzle temp
M190 S55 ; wait for bed temp to stabilize
M109 S210 ; wait for nozzle temp to stabilize
M73 P0 R24
G1 Z0.28 F240
G92 E0 ; Move Z Axis up
G1 Z2.0 F5000 ; Move to start position
G1 X5 Y30 Z0.28 F300 ; Draw the first line
G1 X5 Y200 Z0.28 F1500 E15 ; Move to side a little
G1 X5.4 Y200 Z0.28 F5000.0 ; Draw the second line
M73 P1 R24
G1 X5.4 Y50 Z0.28 F1500.0 E30 ; Reset Extruder
G92 E0 ; Move Z Axis up
G1 Z2.0 F3000
M117 Start Printing..
G90
G21
M83 ; use relative distances for extrusion
; filament start gcode
M106 S0
;LAYER_CHANGE
;Z:0.2
;HEIGHT:0.2
;BEFORE_LAYER_CHANGE
;0.2
G92 E0

G1 E-.5 F1800
;_SET_FAN_SPEED_CHANGING_LAYER
SET_VELOCITY_LIMIT ACCEL=1000
SET_VELOCITY_LIMIT SQUARE_CORNER_VELOCITY=7
; printing object flowrate_m3 id:3 copy 0
EXCLUDE_OBJECT_START NAME=flowrate_m3_id_3_copy_0
G1 Z.2 F24000
G1 X156.189 Y155.795
G1 Z.2
G1 E.5 F1800
;TYPE:Inner wall
;WIDTH:0.499999
G1 F3000
G1 X156.166 Y155.6 E.00674
G1 X156.019 Y155.289 E.01181
G1 X155.757 Y155.014 E.01302
G1 X155.442 Y154.848 E.01223
G1 X155.071 Y154.786 E.0129
G1 X146.214 Y154.786 E.304
G1 X146.214 Y137.214 E.6031
G1 X183.786 Y137.214 E1.28955
G1 X183.786 Y154.786 E.6031
G1 X174.786 Y154.786 E.30891
M73 P2 R24
G1 X174.391 Y154.92 E.01432
G1 X174.063 Y155.183 E.01441
G1 X173.859 Y155.527 E.01375
G1 X173.786 Y155.929 E.014
G1 X173.786 Y164.786 E.304
G1 X156.214 Y164.786 E.6031
G1 X156.214 Y156 E.30155
G1 X156.194 Y155.835 E.00571
G1 X155.743 Y155.866 F24000
G1 F3000
G1 X155.728 Y155.732 E.00463
G1 X155.591 Y155.481 E.00981
G1 X155.345 Y155.3 E.01047
G1 X155.071 Y155.243 E.0096
G1 X145.757 Y155.243 E.31969
G1 X145.757 Y136.757 E.63448
G1 X184.243 Y136.757 E1.32092
G1 X184.243 Y155.243 E.63448
G1 X174.8 Y155.243 E.3241
G1 X174.478 Y155.412 E.01249
G1 X174.303 Y155.647 E.01005
G1 X174.243 Y155.929 E.00988
G1 X174.243 Y165.243 E.31969
G1 X155.757 Y165.243 E.63448
G1 X155.757 Y156 E.31724
G1 X155.747 Y155.905 E.00326
G1 X155.3 Y155.929 F24000
;TYPE:Outer wall
G1 F3000
G1 X155.234 Y155.768 E.00597
G1 X155.071 Y155.7 E.00603
G1 X145.3 Y155.7 E.33538
G1 X145.3 Y136.3 E.66585
G1 X184.7 Y136.3 E1.3523
G1 X184.7 Y155.7 E.66585
G1 X174.929 Y155.7 E.33538
G1 X174.766 Y155.768 E.00603
G1 X174.7 Y155.929 E.00597
G1 X174.7 Y165.7 E.33538
G1 X155.3 Y165.7 E.66585
G1 X155.3 Y155.969 E.33401
G1 E-.5 F1800
;WIPE_START
G1 F12000
G1 X155.234 Y155.768
G1 X155.071 Y155.7
G1 X153.459 Y155.7
;WIPE_END
G1 Z.4 F24000
G1 X172.718 Y164.649
G1 Z.4
G1 Z.2
G1 E.5 F1800
;TYPE:Bottom surface
;WIDTH:0.503265
G1 F6300
G1 X173.443 Y163.923 E.03547
G1 X173.444 Y163.272 E.02251
G1 X172.272 Y164.443 E.05725
G1 X171.621 Y164.443 E.0225
G1 X173.444 Y162.621 E.08909
G1 X173.444 Y161.969 E.02251
G1 X170.97 Y164.443 E.12093
G1 X170.319 Y164.443 E.0225
G1 X173.444 Y161.318 E.15277
G1 X173.445 Y160.667 E.02251
G1 X169.668 Y164.443 E.18461
G1 X169.017 Y164.443 E.0225
G1 X173.445 Y160.015 E.21645
G1 X173.445 Y159.364 E.02251
G1 X168.366 Y164.443 E.24829
G1 X167.715 Y164.443 E.0225
G1 X173.446 Y158.713 E.28013
G1 X173.446 Y158.061 E.02251
G1 X167.064 Y164.443 E.31197
G1 X166.413 Y164.443 E.0225
G1 X173.446 Y157.41 E.34381
G1 X173.446 Y156.759 E.02251
G1 X165.762 Y164.443 E.37565
G1 X165.111 Y164.443 E.0225
G1 X173.653 Y155.902 E.41755
G1 E-.5 F1800
;WIPE_START
G1 F12000
G1 X172.238 Y157.316
;WIPE_END
G1 Z.4 F24000
G1 X174.314 Y155.314 Z.4
G1 X182.717 Y155.314
G1 X182.717 Y154.649
G1 Z.2
G1 E.5 F1800
G1 F6300
G1 X183.443 Y153.923 E.03548
G1 X183.443 Y153.272 E.0225
G1 X182.272 Y154.444 E.05726
G1 X181.62 Y154.444 E.02252
G1 X183.443 Y152.621 E.0891
G1 X183.443 Y151.97 E.0225
G1 X180.969 Y154.444 E.12095
G1 X180.318 Y154.445 E.02252
G1 X183.443 Y151.319 E.15279
G1 X183.443 Y150.668 E.0225
G1 X179.666 Y154.445 E.18463
G1 X179.015 Y154.446 E.02252
G1 X183.443 Y150.017 E.21648
G1 X183.443 Y149.366 E.0225
G1 X178.363 Y154.446 E.24832
G1 X177.712 Y154.446 E.02252
G1 X183.443 Y148.715 E.28016
G1 X183.443 Y148.064 E.0225
G1 X177.061 Y154.447 E.31201
G1 X176.409 Y154.447 E.02252
G1 X183.443 Y147.413 E.34385
G1 X183.443 Y146.762 E.0225
G1 X175.758 Y154.447 E.37569
G1 X175.107 Y154.448 E.02252
G1 X183.443 Y146.111 E.40754
G1 X183.443 Y145.46 E.0225
G1 X164.46 Y164.443 E.928
G1 X163.809 Y164.443 E.0225
G1 X183.443 Y144.809 E.95982
G1 X183.443 Y144.158 E.0225
G1 X163.158 Y164.443 E.99165
G1 X162.507 Y164.443 E.0225
G1 X183.443 Y143.507 E1.02348
G1 X183.443 Y142.856 E.0225
G1 X161.856 Y164.443 E1.0553
G1 X161.205 Y164.443 E.0225
G1 X183.443 Y142.205 E1.08713
G1 X183.443 Y141.554 E.0225
M73 P3 R24
G1 X160.554 Y164.443 E1.11895
G1 X159.903 Y164.443 E.0225
G1 X183.443 Y140.903 E1.15078
G1 X183.443 Y140.252 E.0225
G1 X159.252 Y164.443 E1.18261
G1 X158.601 Y164.443 E.0225
G1 X183.443 Y139.601 E1.21443
G1 X183.443 Y138.95 E.0225
G1 X157.95 Y164.443 E1.24626
G1 X157.299 Y164.443 E.0225
G1 X183.443 Y138.299 E1.27808
G1 X183.443 Y137.648 E.0225
G1 X156.648 Y164.443 E1.30991
G1 X156.557 Y164.443 E.00314
G1 X156.557 Y163.883 E.01935
G1 X182.883 Y137.557 E1.28698
G1 X182.232 Y137.557 E.0225
G1 X156.556 Y163.232 E1.25517
G1 X156.556 Y162.582 E.02249
G1 X181.581 Y137.557 E1.22336
G1 X180.93 Y137.557 E.0225
G1 X156.556 Y161.931 E1.19154
G1 X156.556 Y161.28 E.02249
G1 X180.279 Y137.557 E1.15973
G1 X179.628 Y137.557 E.0225
G1 X156.555 Y160.629 E1.12792
G1 X156.555 Y159.979 E.02249
G1 X178.977 Y137.557 E1.09611
G1 X178.326 Y137.557 E.0225
G1 X156.555 Y159.328 E1.0643
G1 X156.554 Y158.677 E.02249
G1 X177.675 Y137.557 E1.03248
G1 X177.024 Y137.557 E.0225
G1 X156.554 Y158.026 E1.00067
G1 X156.554 Y157.376 E.02249
G1 X176.373 Y137.557 E.96886
G1 X175.722 Y137.557 E.0225
G1 X156.554 Y156.725 E.93705
G1 X156.553 Y156.074 E.02249
G1 X175.071 Y137.557 E.90524
G1 X174.42 Y137.557 E.0225
G1 X156.484 Y155.492 E.87677
G1 X156.427 Y155.32 E.00628
G1 X156.269 Y155.056 E.01061
G1 X173.768 Y137.557 E.85546
G1 X173.117 Y137.557 E.0225
G1 X155.942 Y154.733 E.83966
G1 X155.872 Y154.677 E.0031
G1 X155.665 Y154.566 E.00812
G1 X155.51 Y154.513 E.00565
G1 X172.466 Y137.557 E.82893
G1 X171.815 Y137.557 E.0225
G1 X154.925 Y154.448 E.82572
G1 X154.274 Y154.447 E.02249
G1 X171.164 Y137.557 E.8257
G1 X170.513 Y137.557 E.0225
G1 X153.623 Y154.447 E.82568
G1 X152.973 Y154.447 E.02249
G1 X169.862 Y137.557 E.82566
G1 X169.211 Y137.557 E.0225
G1 X152.322 Y154.446 E.82565
G1 X151.671 Y154.446 E.02249
G1 X168.56 Y137.557 E.82563
G1 X167.909 Y137.557 E.0225
G1 X151.021 Y154.446 E.82561
G1 X150.37 Y154.445 E.02249
G1 X167.258 Y137.557 E.8256
G1 X166.607 Y137.557 E.0225
G1 X149.719 Y154.445 E.82558
G1 X149.069 Y154.444 E.02249
G1 X165.956 Y137.557 E.82556
G1 X165.305 Y137.557 E.0225
G1 X148.418 Y154.444 E.82554
G1 X147.767 Y154.444 E.02249
G1 X164.654 Y137.557 E.82553
G1 X164.003 Y137.557 E.0225
G1 X147.117 Y154.443 E.82551
G1 X146.557 Y154.443 E.01935
G1 X146.557 Y154.352 E.00315
G1 X163.352 Y137.557 E.82104
G1 X162.701 Y137.557 E.0225
M73 P4 R24
G1 X146.557 Y153.701 E.78922
G1 X146.557 Y153.05 E.0225
G1 X162.05 Y137.557 E.75739
G1 X161.399 Y137.557 E.0225
G1 X146.557 Y152.399 E.72557
G1 X146.557 Y151.748 E.0225
G1 X160.748 Y137.557 E.69374
G1 X160.097 Y137.557 E.0225
G1 X146.557 Y151.097 E.66191
G1 X146.557 Y150.446 E.0225
G1 X159.446 Y137.557 E.63009
G1 X158.795 Y137.557 E.0225
G1 X146.557 Y149.795 E.59826
G1 X146.557 Y149.144 E.0225
G1 X158.144 Y137.557 E.56644
G1 X157.493 Y137.557 E.0225
G1 X146.557 Y148.493 E.53461
G1 X146.557 Y147.842 E.0225
G1 X156.842 Y137.557 E.50278
G1 X156.191 Y137.557 E.0225
G1 X146.557 Y147.191 E.47096
G1 X146.557 Y146.54 E.0225
G1 X155.54 Y137.557 E.43913
G1 X154.889 Y137.557 E.0225
G1 X146.557 Y145.889 E.40731
G1 X146.557 Y145.238 E.0225
G1 X154.238 Y137.557 E.37548
G1 X153.587 Y137.557 E.0225
G1 X146.557 Y144.587 E.34365
G1 X146.557 Y143.936 E.0225
G1 X152.936 Y137.557 E.31183
G1 X152.285 Y137.557 E.0225
G1 X146.557 Y143.285 E.28
G1 X146.557 Y142.634 E.0225
M73 P4 R23
G1 X151.634 Y137.557 E.24818
G1 X150.983 Y137.557 E.0225
G1 X146.557 Y141.983 E.21635
G1 X146.557 Y141.332 E.0225
G1 X150.332 Y137.557 E.18452
G1 X149.681 Y137.557 E.0225
G1 X146.557 Y140.681 E.1527
G1 X146.557 Y140.029 E.0225
G1 X149.029 Y137.557 E.12087
G1 X148.378 Y137.557 E.0225
G1 X146.557 Y139.378 E.08905
G1 X146.557 Y138.727 E.0225
G1 X147.727 Y137.557 E.05722
G1 X147.076 Y137.557 E.0225
G1 X146.351 Y138.282 E.03545
; stop printing object flowrate_m3 id:3 copy 0
; printing object flowrate_m6 id:6 copy 0
G1 E-.5 F1800
;WIPE_START
G1 F12000
G1 X147.076 Y137.557
G1 X147.727 Y137.557
G1 X147.499 Y137.786
;WIPE_END
EXCLUDE_OBJECT_END NAME=flowrate_m3_id_3_copy_0
EXCLUDE_OBJECT_START NAME=flowrate_m6_id_6_copy_0
G1 Z.4 F24000
G1 X156.168 Y123.69 Z.4
G1 Z.2
G1 E.5 F1800
;TYPE:Inner wall
;WIDTH:0.499999
G1 F3000
G1 X156.077 Y123.409 E.00982
G1 X155.898 Y123.147 E.01058
G1 X155.499 Y122.869 E.01618
G1 X155.071 Y122.786 E.01448
G1 X146.214 Y122.786 E.2946
G1 X146.214 Y105.214 E.58445
G1 X183.786 Y105.214 E1.24966
G1 X183.786 Y122.786 E.58445
G1 X174.837 Y122.787 E.29765
G1 X174.411 Y122.922 E.01486
G1 X174.152 Y123.096 E.01036
G1 X173.865 Y123.512 E.01681
G1 X173.786 Y123.929 E.01411
G1 X173.786 Y132.786 E.2946
G1 X156.214 Y132.786 E.58445
G1 X156.208 Y123.814 E.29841
G1 X156.181 Y123.728 E.00299
G1 X155.729 Y123.809 F24000
G1 F3000
G1 X155.651 Y123.573 E.00827
G1 X155.396 Y123.33 E.0117
G1 X155.071 Y123.243 E.01117
G1 X145.757 Y123.243 E.3098
G1 X145.757 Y104.757 E.61485
G1 X184.243 Y104.757 E1.28007
G1 X184.243 Y123.243 E.61486
G1 X174.89 Y123.245 E.31107
G1 X174.557 Y123.356 E.01169
G1 X174.318 Y123.631 E.01213
G1 X174.243 Y123.929 E.0102
G1 X174.243 Y133.243 E.3098
G1 X155.757 Y133.243 E.61486
G1 X155.755 Y123.889 E.31113
G1 X155.741 Y123.847 E.00147
G1 X155.3 Y123.929 F24000
;TYPE:Outer wall
G1 F3000
G1 X155.234 Y123.768 E.00579
G1 X155.071 Y123.7 E.00585
G1 X145.3 Y123.7 E.32501
G1 X145.3 Y104.3 E.64526
G1 X184.7 Y104.3 E1.31048
G1 X184.7 Y123.7 E.64526
G1 X174.929 Y123.7 E.32501
G1 X174.766 Y123.768 E.00585
G1 X174.7 Y123.929 E.00579
G1 X174.7 Y133.7 E.32501
G1 X155.3 Y133.7 E.64526
G1 X155.3 Y123.969 E.32368
M73 P5 R23
G1 E-.5 F1800
G1 Z.4 F24000
G1 X162.786 Y127.044 Z.4
G1 Z.2
G1 E.5 F1800
;TYPE:Inner wall
G1 F3000
G1 X162.969 Y126.825 E.00948
G1 X163.233 Y126.71 E.00958
G1 X165.704 Y126.209 E.08384
G1 X166.001 Y126.215 E.0099
G1 X166.282 Y126.357 E.01048
G1 X166.467 Y126.603 E.01021
G1 X167.696 Y129.37 E.10073
G1 X167.755 Y129.671 E.01019
G1 X167.659 Y129.999 E.01135
G1 X167.516 Y130.169 E.00741
G1 X167.297 Y130.296 E.00841
G1 X163.533 Y131.618 E.13269
G1 X163.306 Y131.657 E.00767
G1 X163.135 Y131.635 E.00573
G1 X162.813 Y131.448 E.01238
G1 X162.655 Y131.188 E.01012
G1 X162.62 Y130.959 E.0077
G1 X162.684 Y127.37 E.1194
G1 X162.751 Y127.086 E.00971
G1 X162.761 Y127.074 E.00049
G1 X163.217 Y127.212 F24000
G1 F3000
G1 X163.324 Y127.158 E.004
G1 X165.794 Y126.657 E.08384
G1 X165.967 Y126.691 E.00586
G1 X166.049 Y126.788 E.00421
G1 X167.278 Y129.556 E.10073
G1 X167.29 Y129.708 E.00506
G1 X167.205 Y129.843 E.00534
G1 X163.381 Y131.187 E.1348
G1 X163.249 Y131.193 E.00442
G1 X163.141 Y131.13 E.00413
G1 X163.077 Y130.967 E.00583
G1 X163.141 Y127.378 E.1194
G1 X163.2 Y127.248 E.00473
G1 E-.5 F1800
G1 Z.4 F24000
G1 X165.618 Y130.255 Z.4
G1 Z.2
G1 E.5 F1800
;TYPE:Bottom surface
;WIDTH:0.545313
G1 F6300
G1 X166.723 Y129.151 E.05712
G1 X166.505 Y128.659 E.01968
G1 X164.859 Y130.304 E.08508
G1 X163.764 Y130.689 E.04244
G1 X166.286 Y128.167 E.13041
G1 X166.068 Y127.675 E.01968
G1 X163.432 Y130.311 E.13628
G1 X163.445 Y129.587 E.02645
G1 X165.849 Y127.183 E.12431
G1 X165.773 Y127.011 E.00687
G1 X165.193 Y127.129 E.02164
G1 X163.457 Y128.864 E.0897
