; HEADER_BLOCK_START
; generated by OrcaSlicer 2.1.1 on 2024-07-09 at 18:27:35
; total layer number: 71
; filament_density: 1.24
; filament_diameter: 1.75
; max_z_height: 14.20
; HEADER_BLOCK_END

; THUMBNAIL_BLOCK_START

;
; THUMBNAIL_BLOCK_END

; THUMBNAIL_BLOCK_START

;
; THUMBNAIL_BLOCK_END

; external perimeters extrusion width = 0.42mm
; perimeters extrusion width = 0.45mm
; infill extrusion width = 0.45mm
; solid infill extrusion width = 0.45mm
; top infill extrusion width = 0.42mm
; first layer extrusion width = 0.50mm

; EXECUTABLE_BLOCK_START
EXCLUDE_OBJECT_DEFINE NAME=Frame_Mini_v2.stl_id_0_copy_0 CENTER=114.995,114.991 POLYGON=[[35.2546,155.743],[35.2552,155.743],[35.406,155.591],[38.6218,152.374],[134.45,56.5244],[155.515,35.4593],[155.669,35.324],[155.835,35.3002],[156.023,35.4154],[162.791,42.1804],[194.43,73.8044],[194.583,73.9569],[194.588,73.962],[194.736,74.1265],[194.706,74.1865],[194.697,74.1971],[189.825,79.0727],[96.33,172.589],[94.8169,174.102],[74.2698,194.65],[74.2052,194.682],[74.0484,194.54],[35.4662,155.976],[35.3205,155.83],[35.2546,155.743]]
M73 P0 R79
;TYPE:Custom
M220 S100
G90 ; use absolute coordinates
M83 ; extruder relative mode
M104 S150 ; set temporary nozzle temp to prevent oozing during homing
M140 S55 ; set final bed temp
G4 S30 ; allow partial nozzle warmup
G28 ; home all axis and restore leveling
BED_MESH_CALIBRATE PROFILE=adaptive ADAPTIVE=1 ADAPTIVE_MARGIN=0
G1 Z25 F240
G1 X10.0 Y30 F3000
M104 S210 ; set final nozzle temp
M190 S55 ; wait for bed temp to stabilize
M109 S210 ; wait for nozzle temp to stabilize
G1 Z0.28 F240
G92 E0 ; Move Z Axis up
G1 Z2.0 F5000 ; Move to start position
G1 X5 Y30 Z0.28 F300 ; Draw the first line
G1 X5 Y200 Z0.28 F1500 E15 ; Move to side a little
M73 P0 R78
G1 X5.4 Y200 Z0.28 F5000.0 ; Draw the second line
G1 X5.4 Y50 Z0.28 F1500.0 E30 ; Reset Extruder
G92 E0 ; Move Z Axis up
G1 Z2.0 F3000
M117 Start Printing..
G90
G21
M83 ; use relative distances for extrusion
; filament start gcode
M106 S0
;LAYER_CHANGE
;Z:0.2
;HEIGHT:0.2
;BEFORE_LAYER_CHANGE
;0.2
G92 E0

G1 E-.5 F1800
;_SET_FAN_SPEED_CHANGING_LAYER
SET_VELOCITY_LIMIT ACCEL=1000
SET_VELOCITY_LIMIT SQUARE_CORNER_VELOCITY=7
; printing object Frame_Mini_v2.stl id:0 copy 0
EXCLUDE_OBJECT_START NAME=Frame_Mini_v2.stl_id_0_copy_0
G1 Z.2 F24000
G1 X201.623 Y94.2
G1 Z.2
G1 E.5 F1800
;TYPE:Inner wall
;WIDTH:0.499999
G1 X82.28 Y213.569 E6.41526
G1 X44.424 Y175.73 E2.03423
G1 X44.834 Y175.344 E.02139
G1 X163.776 Y56.369 E6.39388
G1 X201.595 Y94.172 E2.0323
G1 X202.27 Y94.2 F24000
;TYPE:Outer wall
G1 F1800
G1 X82.28 Y214.215 E6.45
G1 X43.757 Y175.709 E2.0701
M73 P1 R78
G1 X43.858 Y175.636 E.00476
G1 X44.51 Y175.021 E.03406
G1 X163.775 Y55.723 E6.41125
G1 X202.242 Y94.172 E2.06705
G1 E-.5
;WIPE_START
G1 F12000
G1 X200.828 Y95.587
;WIPE_END
G1 Z.4 F24000
G1 X201.284 Y94.346
G1 Z.4
G1 Z.2
G1 E.5 F1800
;TYPE:Bottom surface
;WIDTH:0.501013
G1 F3600
G1 X163.776 Y56.854 E2.02006
G1 X163.46 Y57.17 E.01701
G1 X200.814 Y94.525 E2.01222
G1 X200.491 Y94.849 E.01745
G1 X163.136 Y57.494 E2.01222
G1 X162.812 Y57.818 E.01745
G1 X200.167 Y95.173 E2.01222
G1 X199.843 Y95.496 E.01745
G1 X162.488 Y58.142 E2.01222
G1 X162.164 Y58.466 E.01745
G1 X199.519 Y95.82 E2.01222
G1 X199.195 Y96.144 E.01745
G1 X161.84 Y58.79 E2.01222
G1 X161.517 Y59.114 E.01745
G1 X198.871 Y96.468 E2.01222
G1 X198.547 Y96.792 E.01745
G1 X161.193 Y59.438 E2.01222
G1 X160.869 Y59.762 E.01745
G1 X198.223 Y97.116 E2.01222
G1 X197.899 Y97.44 E.01745
G1 X160.545 Y60.086 E2.01222
G1 X160.221 Y60.41 E.01745
G1 X197.576 Y97.764 E2.01223
G1 X197.252 Y98.088 E.01745
G1 X159.897 Y60.734 E2.01223
G1 X159.573 Y61.057 E.01745
G1 X196.928 Y98.412 E2.01223
G1 X196.604 Y98.736 E.01745
G1 X159.249 Y61.381 E2.01223
G1 X158.925 Y61.705 E.01745
G1 X196.28 Y99.06 E2.01223
G1 X195.956 Y99.384 E.01745
M73 P1 R77
G1 X158.601 Y62.029 E2.01223
G1 X158.278 Y62.353 E.01745
G1 X195.632 Y99.708 E2.01223
G1 X195.308 Y100.032 E.01745
G1 X157.954 Y62.677 E2.01223
G1 X157.63 Y63.001 E.01745
G1 X194.984 Y100.356 E2.01223
G1 X194.661 Y100.68 E.01745
G1 X157.306 Y63.325 E2.01223
G1 X156.982 Y63.649 E.01745
G1 X194.337 Y101.004 E2.01223
G1 X194.013 Y101.328 E.01745
G1 X156.658 Y63.973 E2.01223
G1 X156.334 Y64.297 E.01745
G1 X193.689 Y101.652 E2.01223
G1 X193.365 Y101.976 E.01745
G1 X156.01 Y64.621 E2.01223
G1 X155.686 Y64.945 E.01745
G1 X193.041 Y102.3 E2.01223
G1 X192.717 Y102.623 E.01745
G1 X155.363 Y65.269 E2.01223
G1 X155.039 Y65.593 E.01745
G1 X192.393 Y102.947 E2.01223
G1 X192.069 Y103.271 E.01745
G1 X154.715 Y65.917 E2.01223
G1 X154.391 Y66.241 E.01745
G1 X191.746 Y103.595 E2.01223
G1 X191.422 Y103.919 E.01745
G1 X154.067 Y66.565 E2.01223
G1 X153.743 Y66.889 E.01745
G1 X191.098 Y104.243 E2.01223
G1 X190.774 Y104.567 E.01745
G1 X153.419 Y67.212 E2.01223
G1 X153.095 Y67.536 E.01745
G1 X190.45 Y104.891 E2.01223
G1 X190.126 Y105.215 E.01745
G1 X152.771 Y67.86 E2.01223
G1 X152.447 Y68.184 E.01745
G1 X189.802 Y105.539 E2.01224
G1 X189.478 Y105.863 E.01745
G1 X152.124 Y68.508 E2.01224
G1 X151.8 Y68.832 E.01745
G1 X189.154 Y106.187 E2.01224
G1 X188.831 Y106.511 E.01745
G1 X151.476 Y69.156 E2.01224
G1 X151.152 Y69.48 E.01745
M73 P2 R77
G1 X188.507 Y106.835 E2.01224
G1 X188.183 Y107.159 E.01745
G1 X150.828 Y69.804 E2.01224
G1 X150.504 Y70.128 E.01745
G1 X187.859 Y107.483 E2.01224
G1 X187.535 Y107.807 E.01745
G1 X150.18 Y70.452 E2.01224
G1 X149.856 Y70.776 E.01745
G1 X187.211 Y108.131 E2.01224
G1 X186.887 Y108.455 E.01745
G1 X149.532 Y71.1 E2.01224
G1 X149.209 Y71.424 E.01745
G1 X186.563 Y108.779 E2.01224
G1 X186.239 Y109.103 E.01745
G1 X148.885 Y71.748 E2.01224
G1 X148.561 Y72.072 E.01745
G1 X185.916 Y109.427 E2.01224
G1 X185.592 Y109.75 E.01745
G1 X148.237 Y72.396 E2.01224
G1 X147.913 Y72.72 E.01745
G1 X185.268 Y110.074 E2.01224
G1 X184.944 Y110.398 E.01745
G1 X147.589 Y73.043 E2.01224
G1 X147.265 Y73.367 E.01745
G1 X184.62 Y110.722 E2.01224
G1 X184.296 Y111.046 E.01745
G1 X146.941 Y73.691 E2.01224
G1 X146.617 Y74.015 E.01745
G1 X183.972 Y111.37 E2.01224
G1 X183.648 Y111.694 E.01745
G1 X146.293 Y74.339 E2.01224
G1 X145.97 Y74.663 E.01745
G1 X183.324 Y112.018 E2.01224
G1 X183.001 Y112.342 E.01745
G1 X145.646 Y74.987 E2.01224
G1 X145.322 Y75.311 E.01745
G1 X182.677 Y112.666 E2.01224
G1 X182.353 Y112.99 E.01745
G1 X144.998 Y75.635 E2.01224
G1 X144.674 Y75.959 E.01745
G1 X182.029 Y113.314 E2.01224
G1 X181.705 Y113.638 E.01745
G1 X144.35 Y76.283 E2.01225
G1 X144.026 Y76.607 E.01745
G1 X181.381 Y113.962 E2.01225
G1 X181.057 Y114.286 E.01745
G1 X143.702 Y76.931 E2.01225
G1 X143.378 Y77.255 E.01745
G1 X180.733 Y114.61 E2.01225
G1 X180.409 Y114.934 E.01745
G1 X143.055 Y77.579 E2.01225
G1 X142.731 Y77.903 E.01745
G1 X180.086 Y115.258 E2.01225
G1 X179.762 Y115.582 E.01745
G1 X142.407 Y78.227 E2.01225
G1 X142.083 Y78.551 E.01745
G1 X179.438 Y115.906 E2.01225
G1 X179.114 Y116.23 E.01745
G1 X141.759 Y78.875 E2.01225
G1 X141.435 Y79.198 E.01745
G1 X178.79 Y116.554 E2.01225
G1 X178.466 Y116.877 E.01745
G1 X141.111 Y79.522 E2.01225
G1 X140.787 Y79.846 E.01745
G1 X178.142 Y117.201 E2.01225
G1 X177.818 Y117.525 E.01745
G1 X140.463 Y80.17 E2.01225
G1 X140.139 Y80.494 E.01745
G1 X177.495 Y117.849 E2.01225
G1 X177.171 Y118.173 E.01745
G1 X139.816 Y80.818 E2.01225
G1 X139.492 Y81.142 E.01745
G1 X176.847 Y118.497 E2.01225
G1 X176.523 Y118.821 E.01745
G1 X139.168 Y81.466 E2.01225
G1 X138.844 Y81.79 E.01745
G1 X176.199 Y119.145 E2.01225
G1 X175.875 Y119.469 E.01745
G1 X138.52 Y82.114 E2.01225
G1 X138.196 Y82.438 E.01745
M73 P2 R76
G1 X175.551 Y119.793 E2.01225
G1 X175.227 Y120.117 E.01745
G1 X137.872 Y82.762 E2.01225
G1 X137.548 Y83.086 E.01745
G1 X174.903 Y120.441 E2.01225
G1 X174.58 Y120.765 E.01745
G1 X137.224 Y83.41 E2.01225
G1 X136.901 Y83.734 E.01745
G1 X174.256 Y121.089 E2.01225
G1 X173.932 Y121.413 E.01745
G1 X136.577 Y84.058 E2.01226
G1 X136.253 Y84.382 E.01745
G1 X173.608 Y121.737 E2.01226
G1 X173.284 Y122.061 E.01745
G1 X135.929 Y84.706 E2.01226
G1 X135.605 Y85.03 E.01745
G1 X172.96 Y122.385 E2.01226
G1 X172.636 Y122.709 E.01745
M73 P3 R76
G1 X135.281 Y85.353 E2.01226
G1 X134.957 Y85.677 E.01745
G1 X172.312 Y123.033 E2.01226
G1 X171.988 Y123.357 E.01745
G1 X134.633 Y86.001 E2.01226
G1 X134.309 Y86.325 E.01745
G1 X171.665 Y123.681 E2.01226
G1 X171.341 Y124.004 E.01745
G1 X133.985 Y86.649 E2.01226
G1 X133.662 Y86.973 E.01745
G1 X171.017 Y124.328 E2.01226
G1 X170.693 Y124.652 E.01745
G1 X133.338 Y87.297 E2.01226
G1 X133.014 Y87.621 E.01745
G1 X170.369 Y124.976 E2.01226
G1 X170.045 Y125.3 E.01745
G1 X132.69 Y87.945 E2.01226
G1 X132.366 Y88.269 E.01745
G1 X169.721 Y125.624 E2.01226
G1 X169.397 Y125.948 E.01745
G1 X132.042 Y88.593 E2.01226
G1 X131.718 Y88.917 E.01745
G1 X169.073 Y126.272 E2.01226
G1 X168.75 Y126.596 E.01745
G1 X131.394 Y89.241 E2.01226
G1 X131.07 Y89.565 E.01745
G1 X168.426 Y126.92 E2.01226
G1 X168.102 Y127.244 E.01745
G1 X130.747 Y89.889 E2.01226
G1 X130.423 Y90.213 E.01745
G1 X167.778 Y127.568 E2.01226
G1 X167.454 Y127.892 E.01745
G1 X130.099 Y90.537 E2.01226
G1 X129.775 Y90.861 E.01745
G1 X167.13 Y128.216 E2.01226
G1 X166.806 Y128.54 E.01745
G1 X129.451 Y91.185 E2.01226
G1 X129.127 Y91.508 E.01745
G1 X166.482 Y128.864 E2.01226
G1 X166.158 Y129.188 E.01745
G1 X128.803 Y91.832 E2.01226
G1 X128.479 Y92.156 E.01745
G1 X165.835 Y129.512 E2.01227
G1 X165.511 Y129.836 E.01745
G1 X128.155 Y92.48 E2.01227
G1 X127.831 Y92.804 E.01745
G1 X165.187 Y130.16 E2.01227
G1 X164.863 Y130.484 E.01745
G1 X127.508 Y93.128 E2.01227
G1 X127.184 Y93.452 E.01745
G1 X164.539 Y130.807 E2.01227
G1 X164.215 Y131.131 E.01745
G1 X126.86 Y93.776 E2.01227
G1 X126.536 Y94.1 E.01745
G1 X163.891 Y131.455 E2.01227
G1 X163.567 Y131.779 E.01745
G1 X126.212 Y94.424 E2.01227
G1 X125.888 Y94.748 E.01745
G1 X163.243 Y132.103 E2.01227
G1 X162.92 Y132.427 E.01745
G1 X125.564 Y95.072 E2.01227
G1 X125.24 Y95.396 E.01745
G1 X162.596 Y132.751 E2.01227
G1 X162.272 Y133.075 E.01745
G1 X124.916 Y95.72 E2.01227
G1 X124.593 Y96.044 E.01745
G1 X161.948 Y133.399 E2.01227
G1 X161.624 Y133.723 E.01745
G1 X124.269 Y96.368 E2.01227
G1 X123.945 Y96.692 E.01745
G1 X161.3 Y134.047 E2.01227
G1 X160.976 Y134.371 E.01745
G1 X123.621 Y97.016 E2.01227
G1 X123.297 Y97.339 E.01745
G1 X160.652 Y134.695 E2.01227
G1 X160.328 Y135.019 E.01745
G1 X122.973 Y97.663 E2.01227
G1 X122.649 Y97.987 E.01745
G1 X160.005 Y135.343 E2.01227
G1 X159.681 Y135.667 E.01745
G1 X122.325 Y98.311 E2.01227
G1 X122.001 Y98.635 E.01745
G1 X159.357 Y135.991 E2.01227
G1 X159.033 Y136.315 E.01745
G1 X121.677 Y98.959 E2.01227
G1 X121.354 Y99.283 E.01745
G1 X158.709 Y136.639 E2.01227
G1 X158.385 Y136.963 E.01745
G1 X121.03 Y99.607 E2.01227
G1 X120.706 Y99.931 E.01745
G1 X158.061 Y137.287 E2.01228
G1 X157.737 Y137.611 E.01745
G1 X120.382 Y100.255 E2.01228
G1 X120.058 Y100.579 E.01745
G1 X157.414 Y137.934 E2.01228
G1 X157.09 Y138.258 E.01745
G1 X119.734 Y100.903 E2.01228
G1 X119.41 Y101.227 E.01745
G1 X156.766 Y138.582 E2.01228
G1 X156.442 Y138.906 E.01745
M73 P4 R76
G1 X119.086 Y101.551 E2.01228
G1 X118.762 Y101.875 E.01745
G1 X156.118 Y139.23 E2.01228
G1 X155.794 Y139.554 E.01745
G1 X118.439 Y102.199 E2.01228
G1 X118.115 Y102.523 E.01745
M73 P4 R75
G1 X155.47 Y139.878 E2.01228
G1 X155.146 Y140.202 E.01745
G1 X117.791 Y102.847 E2.01228
G1 X117.467 Y103.171 E.01745
G1 X154.822 Y140.526 E2.01228
G1 X154.499 Y140.85 E.01745
G1 X117.143 Y103.494 E2.01228
G1 X116.819 Y103.818 E.01745
G1 X154.175 Y141.174 E2.01228
G1 X153.851 Y141.498 E.01745
G1 X116.495 Y104.142 E2.01228
G1 X116.171 Y104.466 E.01745
G1 X153.527 Y141.822 E2.01228
G1 X153.203 Y142.146 E.01745
G1 X115.847 Y104.79 E2.01228
G1 X115.523 Y105.114 E.01745
G1 X152.879 Y142.47 E2.01228
G1 X152.555 Y142.794 E.01745
G1 X115.2 Y105.438 E2.01228
G1 X114.876 Y105.762 E.01745
G1 X152.231 Y143.118 E2.01228
G1 X151.907 Y143.442 E.01745
G1 X114.552 Y106.086 E2.01228
G1 X114.228 Y106.41 E.01745
G1 X151.584 Y143.766 E2.01228
G1 X151.26 Y144.09 E.01745
G1 X113.904 Y106.734 E2.01228
G1 X113.58 Y107.058 E.01745
G1 X150.936 Y144.414 E2.01228
G1 X150.612 Y144.738 E.01745
G1 X113.256 Y107.382 E2.01228
G1 X112.932 Y107.706 E.01745
G1 X150.288 Y145.061 E2.01228
G1 X149.964 Y145.385 E.01745
G1 X112.608 Y108.03 E2.01229
G1 X112.285 Y108.354 E.01745
G1 X149.64 Y145.709 E2.01229
G1 X149.316 Y146.033 E.01745
G1 X111.961 Y108.678 E2.01229
G1 X111.637 Y109.002 E.01745
G1 X148.992 Y146.357 E2.01229
G1 X148.669 Y146.681 E.01745
G1 X111.313 Y109.326 E2.01229
G1 X110.989 Y109.649 E.01745
G1 X148.345 Y147.005 E2.01229
G1 X148.021 Y147.329 E.01745
G1 X110.665 Y109.973 E2.01229
G1 X110.341 Y110.297 E.01745
G1 X147.697 Y147.653 E2.01229
G1 X147.373 Y147.977 E.01745
G1 X110.017 Y110.621 E2.01229
G1 X109.693 Y110.945 E.01745
G1 X147.049 Y148.301 E2.01229
G1 X146.725 Y148.625 E.01745
G1 X109.369 Y111.269 E2.01229
G1 X109.046 Y111.593 E.01745
G1 X146.401 Y148.949 E2.01229
G1 X146.077 Y149.273 E.01745
G1 X108.722 Y111.917 E2.01229
G1 X108.398 Y112.241 E.01745
G1 X145.754 Y149.597 E2.01229
G1 X145.43 Y149.921 E.01745
G1 X108.074 Y112.565 E2.01229
G1 X107.75 Y112.889 E.01745
G1 X145.106 Y150.245 E2.01229
G1 X144.782 Y150.569 E.01745
G1 X107.426 Y113.213 E2.01229
G1 X107.102 Y113.537 E.01745
G1 X144.458 Y150.893 E2.01229
G1 X144.134 Y151.217 E.01745
G1 X106.778 Y113.861 E2.01229
G1 X106.454 Y114.185 E.01745
G1 X143.81 Y151.541 E2.01229
G1 X143.486 Y151.865 E.01745
G1 X106.131 Y114.509 E2.01229
G1 X105.807 Y114.833 E.01745
G1 X143.162 Y152.188 E2.01229
G1 X142.839 Y152.512 E.01745
G1 X105.483 Y115.157 E2.01229
G1 X105.159 Y115.48 E.01745
G1 X142.515 Y152.836 E2.01229
G1 X142.191 Y153.16 E.01745
G1 X104.835 Y115.804 E2.0123
G1 X104.511 Y116.128 E.01745
G1 X141.867 Y153.484 E2.0123
G1 X141.543 Y153.808 E.01745
G1 X104.187 Y116.452 E2.0123
G1 X103.863 Y116.776 E.01745
G1 X141.219 Y154.132 E2.0123
G1 X140.895 Y154.456 E.01745
G1 X103.539 Y117.1 E2.0123
G1 X103.215 Y117.424 E.01745
M73 P5 R75
G1 X140.571 Y154.78 E2.0123
G1 X140.247 Y155.104 E.01745
G1 X102.892 Y117.748 E2.0123
G1 X102.568 Y118.072 E.01745
G1 X139.924 Y155.428 E2.0123
G1 X139.6 Y155.752 E.01745
G1 X102.244 Y118.396 E2.0123
G1 X101.92 Y118.72 E.01745
G1 X139.276 Y156.076 E2.0123
G1 X138.952 Y156.4 E.01745
G1 X101.596 Y119.044 E2.0123
G1 X101.272 Y119.368 E.01745
G1 X138.628 Y156.724 E2.0123
G1 X138.304 Y157.048 E.01745
G1 X100.948 Y119.692 E2.0123
G1 X100.624 Y120.016 E.01745
G1 X137.98 Y157.372 E2.0123
G1 X137.656 Y157.696 E.01745
G1 X100.3 Y120.34 E2.0123
G1 X99.976 Y120.664 E.01745
G1 X137.332 Y158.02 E2.0123
G1 X137.009 Y158.344 E.01745
G1 X99.653 Y120.988 E2.0123
G1 X99.329 Y121.312 E.01745
G1 X136.685 Y158.668 E2.0123
G1 X136.361 Y158.992 E.01745
G1 X99.005 Y121.635 E2.0123
G1 X98.681 Y121.959 E.01745
G1 X136.037 Y159.315 E2.0123
G1 X135.713 Y159.639 E.01745
G1 X98.357 Y122.283 E2.0123
G1 X98.033 Y122.607 E.01745
G1 X135.389 Y159.963 E2.0123
G1 X135.065 Y160.287 E.01745
M73 P5 R74
G1 X97.709 Y122.931 E2.0123
G1 X97.385 Y123.255 E.01745
G1 X134.741 Y160.611 E2.0123
G1 X134.418 Y160.935 E.01745
G1 X97.061 Y123.579 E2.0123
G1 X96.738 Y123.903 E.01745
G1 X134.094 Y161.259 E2.01231
G1 X133.77 Y161.583 E.01745
G1 X96.414 Y124.227 E2.01231
G1 X96.09 Y124.551 E.01745
G1 X133.446 Y161.907 E2.01231
G1 X133.122 Y162.231 E.01745
G1 X95.766 Y124.875 E2.01231
G1 X95.442 Y125.199 E.01745
G1 X132.798 Y162.555 E2.01231
G1 X132.474 Y162.879 E.01745
G1 X95.118 Y125.523 E2.01231
G1 X94.794 Y125.847 E.01745
G1 X132.15 Y163.203 E2.01231
G1 X131.826 Y163.527 E.01745
G1 X94.47 Y126.171 E2.01231
G1 X94.146 Y126.495 E.01745
G1 X131.503 Y163.851 E2.01231
G1 X131.179 Y164.175 E.01745
G1 X93.822 Y126.819 E2.01231
G1 X93.499 Y127.143 E.01745
G1 X130.855 Y164.499 E2.01231
G1 X130.531 Y164.823 E.01745
G1 X93.175 Y127.467 E2.01231
G1 X92.851 Y127.79 E.01745
G1 X130.207 Y165.147 E2.01231
G1 X129.883 Y165.471 E.01745
G1 X92.527 Y128.114 E2.01231
G1 X92.203 Y128.438 E.01745
G1 X129.559 Y165.795 E2.01231
G1 X129.235 Y166.118 E.01745
G1 X91.879 Y128.762 E2.01231
G1 X91.555 Y129.086 E.01745
G1 X128.911 Y166.442 E2.01231
G1 X128.588 Y166.766 E.01745
G1 X91.231 Y129.41 E2.01231
G1 X90.907 Y129.734 E.01745
G1 X128.264 Y167.09 E2.01231
