; HEADER_BLOCK_START
; generated by OrcaSlicer 2.1.1 on 2024-07-11 at 12:14:05
; total layer number: 162
; filament_density: 1.24
; filament_diameter: 1.75
; max_z_height: 32.40
; HEADER_BLOCK_END

; THUMBNAIL_BLOCK_START

;
; THUMBNAIL_BLOCK_END

; THUMBNAIL_BLOCK_START

;
; THUMBNAIL_BLOCK_END

; external perimeters extrusion width = 0.42mm
; perimeters extrusion width = 0.45mm
; infill extrusion width = 0.45mm
; solid infill extrusion width = 0.45mm
; top infill extrusion width = 0.42mm
; first layer extrusion width = 0.50mm

; EXECUTABLE_BLOCK_START
EXCLUDE_OBJECT_DEFINE NAME=Front_trimmed_Mini.stl_id_0_copy_0 CENTER=115,115 POLYGON=[[80.9393,121.234],[80.9467,117.988],[80.9652,116.98],[80.9726,116.965],[81.0915,116.789],[81.2077,116.656],[81.6853,116.207],[81.8017,116.106],[84.0589,114.413],[84.7714,113.887],[85.8688,113.106],[86.4875,112.708],[86.6531,112.603],[89.489,110.825],[90.0341,110.508],[93.0933,108.784],[96.5021,107.097],[96.7662,106.988],[96.9982,106.904],[97.0327,106.896],[105.385,105.021],[105.667,105.02],[106.054,105.018],[107.413,105.018],[121.143,105.016],[124.194,105.02],[124.23,105.021],[132.811,106.932],[132.98,106.982],[133.049,107.009],[133.363,107.142],[136.432,108.669],[136.964,108.957],[140.343,110.845],[143.942,113.132],[145.472,114.249],[147.9,116.073],[148.253,116.404],[148.537,116.674],[148.778,116.906],[148.999,117.223],[149.041,117.505],[149.054,117.673],[149.059,119.199],[149.061,122.44],[149.061,123.965],[149.048,124.751],[149.029,124.891],[149.008,124.952],[148.99,124.979],[147.334,124.982],[144.068,124.983],[83.45,124.984],[81.1716,124.982],[81.0521,124.982],[80.9608,124.882],[80.9548,124.738],[80.9436,124.141],[80.9399,122.882],[80.9393,121.234]]
M73 P0 R22
;TYPE:Custom
M220 S100
G90 ; use absolute coordinates
M83 ; extruder relative mode
M104 S150 ; set temporary nozzle temp to prevent oozing during homing
M140 S55 ; set final bed temp
G4 S30 ; allow partial nozzle warmup
G28 ; home all axis and restore leveling
BED_MESH_CALIBRATE PROFILE=adaptive ADAPTIVE=1 ADAPTIVE_MARGIN=0
G1 Z25 F240
G1 X10.0 Y30 F3000
M104 S210 ; set final nozzle temp
M190 S55 ; wait for bed temp to stabilize
M109 S210 ; wait for nozzle temp to stabilize
G1 Z0.28 F240
G92 E0 ; Move Z Axis up
G1 Z2.0 F5000 ; Move to start position
G1 X5 Y30 Z0.28 F300 ; Draw the first line
G1 X5 Y200 Z0.28 F1500 E15 ; Move to side a little
M73 P1 R21
G1 X5.4 Y200 Z0.28 F5000.0 ; Draw the second line
G1 X5.4 Y50 Z0.28 F1500.0 E30 ; Reset Extruder
G92 E0 ; Move Z Axis up
G1 Z2.0 F3000
M117 Start Printing..
G90
G21
M83 ; use relative distances for extrusion
; filament start gcode
M106 S0
;LAYER_CHANGE
;Z:0.2
;HEIGHT:0.2
;BEFORE_LAYER_CHANGE
;0.2
G92 E0

M73 P2 R21
G1 E-.5 F1800
;_SET_FAN_SPEED_CHANGING_LAYER
SET_VELOCITY_LIMIT ACCEL=1000
SET_VELOCITY_LIMIT SQUARE_CORNER_VELOCITY=7
; printing object Front_trimmed_Mini.stl id:0 copy 0
EXCLUDE_OBJECT_START NAME=Front_trimmed_Mini.stl_id_0_copy_0
G1 Z.2 F24000
G1 X151.452 Y134.509
G1 Z.2
G1 E.5 F1800
;TYPE:Inner wall
;WIDTH:0.599718
G1 X151.305 Y134.51 E.00679
;WIDTH:0.560237
G1 X151.158 Y134.51 E.00631
;WIDTH:0.520755
G1 X150.571 Y134.534 E.02334
;WIDTH:0.499999
G1 X139.917 Y134.538 E.40493
G1 X138.157 Y134.521 E.0669
G1 X137.086 Y134.539 E.0407
G1 X136.715 Y134.519 E.01413
G1 X136.417 Y134.534 E.01135
G1 X135.063 Y134.513 E.05146
G1 X134.494 Y134.538 E.02165
G1 X133.388 Y134.521 E.04205
G1 X130.108 Y134.534 E.12464
G1 X128.708 Y134.519 E.05323
G1 X124.374 Y134.545 E.16471
G1 X119.334 Y134.521 E.19157
G1 X116.197 Y134.535 E.11921
G1 X114.622 Y134.514 E.05986
G1 X112.392 Y134.536 E.08478
G1 X107.553 Y134.53 E.18392
G1 X106.757 Y134.513 E.03023
G1 X106.006 Y134.543 E.02856
G1 X100.389 Y134.517 E.21351
G1 X99.671 Y134.543 E.02729
G1 X98.868 Y134.521 E.03054
G1 X95.562 Y134.543 E.12564
G1 X94.538 Y134.52 E.03894
;WIDTH:0.535324
G1 X94.406 Y134.535 E.00545
;WIDTH:0.570648
G1 X94.273 Y134.55 E.00584
;WIDTH:0.605972
G1 X94.141 Y134.565 E.00623
G1 X94.3 Y134.447 E.00927
;WIDTH:0.556826
G1 X94.459 Y134.329 E.00846
;WIDTH:0.50768
G1 X94.911 Y134.085 E.01986
;WIDTH:0.499999
G1 X95.804 Y133.686 E.03717
G1 X98.941 Y132.211 E.13176
G1 X99.441 Y132.031 E.02018
G1 X99.728 Y131.901 E.01197
G1 X103.215 Y130.649 E.14082
G1 X103.691 Y130.459 E.01949
G1 X104.265 Y130.327 E.02239
G1 X104.776 Y130.158 E.02046
G1 X106.229 Y129.767 E.05716
G1 X107.988 Y129.264 E.06955
G1 X109.658 Y128.932 E.06469
G1 X110.853 Y128.736 E.04605
G1 X112.303 Y128.421 E.05637
G1 X112.823 Y128.343 E.01998
G1 X114.839 Y128.105 E.07719
G1 X116.067 Y128.079 E.04667
G1 X116.58 Y128.011 E.01965
G1 X117.137 Y127.989 E.02119
G1 X117.409 Y127.934 E.01055
G1 X119.473 Y127.742 E.0788
G1 X126.381 Y127.745 E.26252
G1 X128.345 Y127.907 E.07491
G1 X128.784 Y127.964 E.01681
G1 X129.047 Y127.955 E.01001
G1 X129.659 Y128.004 E.02333
G1 X130.339 Y128.084 E.02605
G1 X131.077 Y128.115 E.02807
G1 X133.015 Y128.352 E.07418
G1 X137.522 Y129.227 E.17451
G1 X142.244 Y130.542 E.18629
G1 X146.496 Y132.104 E.17214
G1 X150.821 Y134.1 E.18107
;WIDTH:0.549859
G1 X151.136 Y134.305 E.01584
;WIDTH:0.599718
G1 X151.418 Y134.488 E.01555
G1 X151.954 Y135.036 F24000
;WIDTH:0.534309
G1 F1800
G1 X151.897 Y134.89 E.00641
;WIDTH:0.573813
G1 X151.811 Y134.78 E.00617
;WIDTH:0.613316
G1 X151.725 Y134.67 E.00663
G1 X151.855 Y134.72 E.00663
;WIDTH:0.573813
G1 X151.986 Y134.77 E.00617
;WIDTH:0.534309
G1 X152.605 Y135.096 E.0286
;WIDTH:0.499999
G1 X153.158 Y135.409 E.02413
G1 X154.245 Y136.181 E.05067
G1 X154.803 Y136.469 E.02388
G1 X155.551 Y136.91 E.03301
G1 X156.251 Y137.485 E.03444
G1 X156.253 Y144.22 E.25596
G1 X152.094 Y144.217 E.15807
G1 X152.094 Y135.396 E.33526
;WIDTH:0.534309
G1 X151.968 Y135.074 E.01414
G1 E-.5
;WIPE_START
G1 F12000
G1 X151.897 Y134.89
G1 X151.811 Y134.78
G1 X151.725 Y134.67
G1 X151.855 Y134.72
G1 X151.986 Y134.77
G1 X152.605 Y135.096
G1 X153.079 Y135.364
;WIPE_END
G1 Z.4 F24000
G1 X93.761 Y134.824 Z.4
G1 Z.2
G1 E.5 F1800
;WIDTH:0.643759
G1 X93.701 Y135.012 E.00985
;WIDTH:0.595839
G1 X93.642 Y135.2 E.00906
;WIDTH:0.547919
G1 X93.582 Y135.387 E.00827
;WIDTH:0.499999
G1 X93.58 Y144.225 E.33589
G1 X89.721 Y144.225 E.14666
G1 X89.729 Y137.765 E.24552
G1 X89.753 Y137.2 E.02149
G1 X90.231 Y136.822 E.02316
G1 X91.388 Y136.211 E.0497
G1 X91.961 Y135.833 E.0261
G1 X92.511 Y135.412 E.02634
G1 X93.091 Y135.1 E.02503
;WIDTH:0.538516
G1 X93.259 Y135.031 E.00746
;WIDTH:0.577032
G1 X93.426 Y134.962 E.00805
;WIDTH:0.615548
G1 X93.594 Y134.893 E.00863
;WIDTH:0.654064
G1 X93.724 Y134.839 E.00717
G1 E-.5
;WIPE_START
G1 F12000
G1 X93.701 Y135.012
G1 X93.642 Y135.2
G1 X93.582 Y135.387
G1 X93.581 Y136.819
;WIPE_END
G1 Z.4 F24000
G1 X151.567 Y135.231 Z.4
G1 Z.2
G1 E.5 F1800
;TYPE:Outer wall
;WIDTH:0.499999
G1 X151.321 Y135.004 E.01273
G1 X149.327 Y134.985 E.0758
G1 X144.809 Y135.002 E.17171
G1 X138.164 Y134.978 E.25253
G1 X137.094 Y134.996 E.0407
G1 X135.046 Y134.972 E.07781
G1 X134.247 Y134.996 E.03038
G1 X133.39 Y134.978 E.03259
G1 X130.134 Y134.991 E.12375
G1 X128.76 Y134.973 E.05223
G1 X128.116 Y134.989 E.02451
G1 X124.38 Y135.002 E.14198
G1 X122.797 Y134.986 E.06015
G1 X116.2 Y134.992 E.25073
G1 X114.629 Y134.971 E.05971
G1 X112.394 Y134.993 E.08496
G1 X107.552 Y134.987 E.18403
G1 X106.776 Y134.97 E.02949
G1 X106.008 Y135 E.02923
G1 X100.409 Y134.974 E.2128
G1 X99.661 Y135 E.02844
G1 X97.56 Y134.987 E.07983
G1 X95.559 Y135 E.07607
G1 X94.519 Y134.977 E.03952
G1 X94.396 Y135.007 E.00483
G1 X94.13 Y135.205 E.01259
G1 X94.039 Y135.387 E.00776
G1 X94.037 Y144.682 E.35325
G1 X89.263 Y144.682 E.18142
G1 X89.272 Y137.07 E.28931
G1 X89.429 Y136.874 E.00952
G1 X89.978 Y136.44 E.02661
G1 X91.119 Y135.842 E.04897
G1 X91.677 Y135.475 E.02538
G1 X92.295 Y135.009 E.0294
G1 X94.25 Y133.914 E.08517
G1 X94.727 Y133.667 E.02041
G1 X95.606 Y133.274 E.03662
G1 X98.77 Y131.787 E.13284
G1 X99.347 Y131.583 E.02328
G1 X99.526 Y131.488 E.00767
G1 X103.045 Y130.224 E.14214
G1 X103.545 Y130.025 E.02045
G1 X104.132 Y129.889 E.02288
G1 X104.654 Y129.717 E.02088
G1 X106.097 Y129.329 E.05682
G1 X107.881 Y128.82 E.0705
G1 X109.817 Y128.436 E.075
G1 X110.359 Y128.361 E.02079
G1 X110.853 Y128.269 E.01909
G1 X112.212 Y127.973 E.05289
G1 X114.087 Y127.722 E.07189
G1 X114.818 Y127.648 E.02793
G1 X116.023 Y127.618 E.04581
G1 X116.54 Y127.556 E.01978
G1 X117.151 Y127.532 E.02325
G1 X117.306 Y127.485 E.00616
G1 X119.452 Y127.285 E.08191
G1 X126.401 Y127.288 E.2641
G1 X127.849 Y127.417 E.05524
G1 X128.719 Y127.473 E.03314
G1 X128.873 Y127.516 E.00609
G1 X129.025 Y127.495 E.00581
G1 X129.695 Y127.548 E.02554
G1 X130.359 Y127.627 E.02541
G1 X131.115 Y127.659 E.02875
G1 X133.086 Y127.9 E.07547
G1 X136.181 Y128.512 E.11991
G1 X137.603 Y128.775 E.05496
G1 X142.386 Y130.108 E.18872
G1 X146.669 Y131.68 E.17341
M73 P3 R21
G1 X151.016 Y133.686 E.18195
G1 X152.828 Y134.697 E.07885
G1 X153.422 Y135.036 E.02601
G1 X154.483 Y135.789 E.04945
G1 X155.683 Y136.431 E.0517
G1 X156.488 Y137.069 E.03904
G1 X156.672 Y137.289 E.01091
G1 X156.708 Y137.403 E.00454
G1 X156.71 Y144.677 E.27648
G1 X151.637 Y144.674 E.19281
G1 X151.637 Y135.396 E.35262
G1 X151.583 Y135.268 E.00527
G1 X151.452 Y134.509 F24000
;TYPE:Inner wall
;WIDTH:0.613316
G1 F1800
G1 X151.725 Y134.67 E.01503
G1 E-.5
;WIPE_START
G1 F12000
G1 X151.452 Y134.509
;WIPE_END
G1 Z.4 F24000
G1 X93.778 Y134.803 Z.4
G1 Z.2
G1 E.5 F1800
;WIDTH:0.654064
G1 X94.141 Y134.565 E.02205
G1 E-.5
;WIPE_START
G1 F12000
G1 X93.778 Y134.803
;WIPE_END
G1 Z.4 F24000
G1 X93.445 Y136.002
G1 Z.4
G1 Z.2
G1 E.5 F1800
;TYPE:Bottom surface
;WIDTH:0.516397
G1 F3600
G1 X92.986 Y135.543 E.02554
G1 X92.644 Y135.73 E.01534
G1 X92.565 Y135.792 E.00396
G1 X93.239 Y136.466 E.03752
G1 X93.239 Y137.135 E.02636
G1 X92.191 Y136.088 E.05831
G1 X91.939 Y136.234 E.01146
G1 X91.782 Y136.349 E.00766
G1 X93.238 Y137.805 E.08109
G1 X93.238 Y138.474 E.02636
G1 X91.371 Y136.607 E.10398
G1 X91.267 Y136.644 E.00432
G1 X90.926 Y136.832 E.01535
G1 X93.238 Y139.144 E.12874
G1 X93.238 Y139.813 E.02636
G1 X90.494 Y137.069 E.15278
G1 X90.11 Y137.355 E.01884
G1 X93.238 Y140.483 E.17413
G1 X93.238 Y141.152 E.02636
G1 X90.071 Y137.986 E.17629
G1 X90.07 Y138.654 E.02633
G1 X93.237 Y141.821 E.17633
G1 X93.237 Y142.491 E.02636
G1 X90.07 Y139.323 E.17637
G1 X90.069 Y139.992 E.02633
G1 X93.237 Y143.16 E.1764
G1 X93.237 Y143.83 E.02636
G1 X90.068 Y140.661 E.17644
G1 X90.067 Y141.33 E.02633
G1 X92.62 Y143.882 E.14212
G1 X91.95 Y143.882 E.02636
G1 X90.066 Y141.998 E.10489
G1 X90.065 Y142.667 E.02633
G1 X91.281 Y143.882 E.06765
G1 X90.611 Y143.882 E.02636
G1 X89.859 Y143.13 E.04186
G1 E-.5 F1800
;WIPE_START
G1 F12000
G1 X90.611 Y143.882
G1 X91.281 Y143.882
G1 X91.092 Y143.693
;WIPE_END
G1 Z.4 F24000
G1 X148.606 Y133.23 Z.4
G1 Z.2
G1 E.5 F1800
;WIDTH:0.503426
G1 F3600
G1 X149.564 Y134.188 E.05186
G1 X149.25 Y134.171 E.01202
G1 X148.915 Y134.19 E.01287
G1 X147.816 Y133.092 E.05949
G1 X146.605 Y132.532 E.0511
G1 X148.257 Y134.184 E.08946
G1 X147.6 Y134.178 E.02518
G1 X145.54 Y132.118 E.11155
G1 X144.511 Y131.74 E.04198
G1 X146.965 Y134.194 E.13289
G1 X146.316 Y134.197 E.02484
G1 X143.481 Y131.362 E.1535
G1 X142.452 Y130.984 E.04198
G1 X145.667 Y134.199 E.1741
G1 X145.018 Y134.202 E.02484
G1 X141.511 Y130.694 E.18995
G1 X140.608 Y130.442 E.03589
G1 X144.366 Y134.2 E.20351
G1 X143.712 Y134.197 E.02506
G1 X139.705 Y130.191 E.21696
G1 X138.802 Y129.939 E.03589
G1 X143.057 Y134.194 E.23041
G1 X142.403 Y134.191 E.02506
G1 X137.899 Y129.688 E.24386
G1 X137.459 Y129.565 E.01751
G1 X137.052 Y129.492 E.01582
G1 X141.748 Y134.188 E.25429
G1 X141.478 Y134.173 E.01036
G1 X141.101 Y134.191 E.01447
G1 X136.245 Y129.335 E.26296
G1 X135.438 Y129.18 E.03144
G1 X140.447 Y134.188 E.2712
G1 X139.792 Y134.185 E.02505
G1 X134.627 Y129.02 E.27973
G1 X133.815 Y128.859 E.03168
G1 X139.138 Y134.183 E.28827
G1 X138.484 Y134.18 E.02505
G1 X133.003 Y128.699 E.2968
G1 X132.258 Y128.605 E.02877
G1 X137.836 Y134.183 E.30211
G1 X137.196 Y134.194 E.02454
G1 X131.516 Y128.514 E.30759
G1 X131.049 Y128.457 E.018
G1 X130.797 Y128.446 E.00967
G1 X136.532 Y134.181 E.31056
G1 X135.889 Y134.189 E.02462
G1 X130.113 Y128.414 E.31275
G1 X129.925 Y128.369 E.0074
G1 X129.373 Y128.325 E.0212
G1 X135.232 Y134.184 E.31727
G1 X135.055 Y134.17 E.00682
G1 X134.588 Y134.191 E.01789
G1 X128.68 Y128.283 E.31992
G1 X127.971 Y128.226 E.02723
G1 X133.936 Y134.191 E.323
G1 X133.273 Y134.179 E.02539
G1 X127.262 Y128.167 E.32552
G1 X126.547 Y128.104 E.02748
G1 X132.625 Y134.182 E.32915
G1 X131.977 Y134.186 E.0248
G1 X125.879 Y128.088 E.33022
G1 X125.228 Y128.087 E.02495
G1 X131.33 Y134.189 E.33043
G1 X130.682 Y134.193 E.0248
G1 X124.576 Y128.087 E.33063
G1 X123.925 Y128.087 E.02495
G1 X130.029 Y134.191 E.33056
G1 X129.376 Y134.189 E.02502
G1 X123.273 Y128.087 E.33046
G1 X122.622 Y128.086 E.02495
G1 X128.713 Y134.177 E.32984
G1 X128.074 Y134.189 E.02448
G1 X121.97 Y128.086 E.33051
G1 X121.319 Y128.086 E.02495
G1 X127.419 Y134.186 E.33032
G1 X127.311 Y134.171 E.00416
G1 X126.772 Y134.19 E.02065
G1 X120.667 Y128.085 E.33058
G1 X120.016 Y128.085 E.02495
G1 X126.124 Y134.193 E.33077
G1 X125.476 Y134.197 E.02481
G1 X119.375 Y128.096 E.33038
G1 X118.779 Y128.151 E.02291
G1 X124.828 Y134.2 E.32756
G1 X124.179 Y134.202 E.02486
G1 X118.183 Y128.207 E.32466
G1 X117.588 Y128.262 E.02291
G1 X123.524 Y134.199 E.32148
G1 X122.87 Y134.195 E.02506
M73 P4 R21
G1 X116.996 Y128.322 E.31806
G1 X116.961 Y128.322 E.00137
G1 X116.394 Y128.371 E.02177
G1 X122.215 Y134.192 E.31523
G1 X121.561 Y134.189 E.02506
G1 X115.793 Y128.421 E.31236
G1 X115.363 Y128.424 E.01645
G1 X115.154 Y128.433 E.00802
G1 X120.896 Y134.175 E.31093
G1 X120.262 Y134.193 E.02428
G1 X114.538 Y128.468 E.30998
G1 X113.96 Y128.542 E.02228
G1 X119.612 Y134.194 E.30603
G1 X119.322 Y134.175 E.01112
G1 X118.958 Y134.191 E.01395
G1 X113.383 Y128.616 E.30188
G1 X112.807 Y128.692 E.02224
G1 X118.308 Y134.193 E.29788
G1 X117.64 Y134.176 E.02558
G1 X112.251 Y128.787 E.29182
G1 X111.711 Y128.898 E.02112
G1 X117.003 Y134.19 E.2866
G1 X116.351 Y134.189 E.02498
G1 X111.166 Y129.004 E.2808
G1 X110.896 Y129.076 E.01068
G1 X110.622 Y129.111 E.0106
G1 X115.699 Y134.188 E.27493
G1 X115.047 Y134.187 E.02498
G1 X110.063 Y129.204 E.26987
G1 X109.519 Y129.311 E.02123
G1 X114.383 Y134.175 E.2634
G1 X113.742 Y134.186 E.02454
G1 X108.975 Y129.419 E.25815
G1 X108.431 Y129.526 E.02123
G1 X113.097 Y134.192 E.25267
G1 X112.928 Y134.178 E.00653
G1 X112.446 Y134.192 E.01845
G1 X107.9 Y129.646 E.24616
G1 X107.394 Y129.791 E.02017
G1 X111.796 Y134.193 E.23843
G1 X111.145 Y134.194 E.02493
G1 X106.887 Y129.935 E.2306
G1 X106.38 Y130.08 E.02017
G1 X110.494 Y134.194 E.22277
G1 X109.843 Y134.194 E.02493
G1 X105.869 Y130.22 E.21522
G1 X105.356 Y130.358 E.02033
G1 X109.192 Y134.194 E.20771
G1 X108.541 Y134.194 E.02493
G1 X104.844 Y130.497 E.20021
G1 X104.501 Y130.59 E.0136
G1 X104.355 Y130.659 E.0062
G1 X107.887 Y134.192 E.1913
G1 X107.232 Y134.188 E.02507
G1 X103.822 Y130.778 E.18467
G1 X103.355 Y130.962 E.01924
G1 X106.572 Y134.179 E.1742
G1 X105.942 Y134.2 E.02413
G1 X102.86 Y131.119 E.16686
G1 X102.384 Y131.293 E.01944
G1 X105.292 Y134.202 E.15749
G1 X104.639 Y134.2 E.025
G1 X101.907 Y131.468 E.14794
G1 X101.43 Y131.643 E.01944
G1 X103.986 Y134.198 E.13839
G1 X103.333 Y134.196 E.025
G1 X100.954 Y131.817 E.12884
G1 X100.477 Y131.992 E.01944
G1 X102.68 Y134.195 E.11929
G1 X102.013 Y134.178 E.02556
G1 X100.001 Y132.166 E.10896
G1 X99.543 Y132.36 E.01903
G1 X101.373 Y134.19 E.09909
G1 X100.719 Y134.187 E.02504
G1 X99.063 Y132.532 E.08964
G1 X98.62 Y132.74 E.01875
G1 X100.069 Y134.188 E.07845
G1 X99.423 Y134.194 E.02471
G1 X98.177 Y132.948 E.06749
G1 X97.734 Y133.156 E.01874
G1 X98.757 Y134.179 E.05539
G1 X98.118 Y134.191 E.02447
G1 X97.291 Y133.365 E.04477
G1 X96.849 Y133.573 E.01874
G1 X97.468 Y134.192 E.03351
G1 X96.817 Y134.193 E.02491
G1 X96.406 Y133.782 E.02226
G1 X95.963 Y133.99 E.01874
G1 X96.372 Y134.399 E.02213
G1 E-.5 F1800
;WIPE_START
G1 F12000
G1 X95.963 Y133.99
G1 X96.406 Y133.782
G1 X96.817 Y134.193
G1 X97.168 Y134.192
;WIPE_END
G1 Z.4 F24000
G1 X153.323 Y135.692 Z.4
G1 Z.2
G1 E.5 F1800
;WIDTH:0.507456
G1 F3600
G1 X155.908 Y138.277 E.14122
