; HEADER_BLOCK_START
; generated by OrcaSlicer 2.1.1 on 2024-07-10 at 15:05:33
; total layer number: 98
; filament_density: 1.24
; filament_diameter: 1.75
; max_z_height: 19.60
; HEADER_BLOCK_END

; THUMBNAIL_BLOCK_START

;
; THUMBNAIL_BLOCK_END

; THUMBNAIL_BLOCK_START

;
; THUMBNAIL_BLOCK_END

; external perimeters extrusion width = 0.42mm
; perimeters extrusion width = 0.45mm
; infill extrusion width = 0.45mm
; solid infill extrusion width = 0.45mm
; top infill extrusion width = 0.42mm
; support material extrusion width = 0.42mm
; first layer extrusion width = 0.50mm

; external perimeters extrusion width = 0.42mm
; perimeters extrusion width = 0.45mm
; infill extrusion width = 0.45mm
; solid infill extrusion width = 0.45mm
; top infill extrusion width = 0.42mm
; support material extrusion width = 0.42mm
; first layer extrusion width = 0.50mm

; external perimeters extrusion width = 0.42mm
; perimeters extrusion width = 0.45mm
; infill extrusion width = 0.45mm
; solid infill extrusion width = 0.45mm
; top infill extrusion width = 0.42mm
; support material extrusion width = 0.42mm
; first layer extrusion width = 0.50mm

; external perimeters extrusion width = 0.42mm
; perimeters extrusion width = 0.45mm
; infill extrusion width = 0.45mm
; solid infill extrusion width = 0.45mm
; top infill extrusion width = 0.42mm
; support material extrusion width = 0.42mm
; first layer extrusion width = 0.50mm

; EXECUTABLE_BLOCK_START
EXCLUDE_OBJECT_DEFINE NAME=Front_And_Rear_Bumpers_Mini.stl_id_0_copy_0 CENTER=143.685,141.204 POLYGON=[[104.18,158.57],[104.181,158.498],[104.623,117.392],[104.624,117.377],[104.626,117.362],[104.628,117.348],[104.631,117.333],[104.634,117.319],[104.64,117.303],[104.645,117.289],[104.651,117.276],[104.657,117.263],[104.664,117.25],[104.672,117.238],[104.674,117.235],[104.682,117.223],[104.691,117.211],[104.701,117.2],[104.711,117.19],[104.714,117.187],[104.725,117.177],[104.736,117.168],[104.752,117.156],[104.764,117.148],[104.766,117.146],[104.779,117.139],[104.784,117.136],[104.797,117.129],[104.81,117.124],[104.816,117.121],[104.829,117.116],[104.836,117.113],[104.844,117.11],[104.857,117.106],[104.866,117.103],[104.879,117.1],[104.889,117.098],[104.893,117.097],[104.904,117.094],[104.927,117.09],[104.938,117.088],[104.95,117.086],[104.963,117.084],[104.977,117.082],[104.994,117.08],[105.008,117.079],[105.022,117.077],[105.036,117.076],[105.052,117.075],[105.067,117.074],[105.083,117.073],[105.092,117.072],[105.108,117.072],[105.125,117.071],[105.141,117.071],[105.158,117.07],[105.175,117.07],[105.192,117.07],[105.714,117.07],[181.65,117.07],[182.175,117.07],[182.191,117.07],[182.208,117.07],[182.225,117.071],[182.242,117.071],[182.252,117.072],[182.268,117.072],[182.284,117.073],[182.3,117.074],[182.315,117.075],[182.33,117.076],[182.345,117.078],[182.354,117.079],[182.368,117.08],[182.377,117.081],[182.391,117.083],[182.404,117.085],[182.417,117.086],[182.429,117.088],[182.44,117.091],[182.452,117.093],[182.459,117.094],[182.47,117.096],[182.479,117.099],[182.492,117.102],[182.501,117.105],[182.509,117.107],[182.522,117.111],[182.53,117.114],[182.543,117.119],[182.55,117.122],[182.563,117.128],[182.567,117.129],[182.579,117.136],[182.585,117.139],[182.597,117.146],[182.602,117.149],[182.614,117.157],[182.625,117.166],[182.636,117.175],[182.64,117.178],[182.651,117.188],[182.661,117.199],[182.67,117.21],[182.673,117.213],[182.682,117.224],[182.69,117.236],[182.698,117.248],[182.705,117.261],[182.713,117.277],[182.719,117.29],[182.724,117.304],[182.729,117.318],[182.732,117.332],[182.735,117.346],[182.738,117.363],[182.739,117.378],[182.74,117.392],[183.19,158.496],[183.19,158.568],[183.19,158.711],[183.179,159.069],[183.177,159.105],[183.175,159.153],[183.158,159.396],[183.136,159.641],[182.631,164.509],[182.564,165.16],[182.562,165.171],[182.56,165.181],[182.558,165.192],[182.555,165.202],[182.551,165.212],[182.547,165.22],[182.547,165.221],[182.542,165.231],[182.537,165.24],[182.531,165.249],[182.525,165.257],[182.525,165.258],[182.518,165.265],[182.518,165.266],[182.511,165.273],[182.511,165.273],[182.503,165.281],[182.495,165.288],[182.491,165.291],[182.487,165.294],[182.478,165.3],[182.469,165.306],[182.469,165.306],[182.46,165.311],[182.451,165.315],[182.45,165.315],[182.44,165.319],[182.43,165.323],[182.42,165.325],[182.415,165.327],[182.41,165.328],[182.407,165.328],[182.404,165.329],[182.402,165.329],[182.399,165.329],[182.397,165.33],[182.396,165.33],[182.394,165.33],[182.392,165.33],[182.389,165.33],[182.378,165.331],[182.205,165.334],[182.142,165.335],[182.113,165.335],[182.078,165.335],[182.015,165.336],[181.885,165.337],[181.723,165.337],[181.519,165.338],[181.516,165.338],[105.163,165.334],[105.16,165.334],[104.994,165.331],[104.993,165.331],[104.985,165.331],[104.982,165.33],[104.975,165.33],[104.972,165.329],[104.972,165.329],[104.964,165.328],[104.961,165.328],[104.954,165.326],[104.951,165.326],[104.951,165.325],[104.943,165.323],[104.941,165.323],[104.933,165.32],[104.931,165.319],[104.923,165.316],[104.921,165.316],[104.921,165.315],[104.913,165.312],[104.912,165.311],[104.911,165.311],[104.904,165.307],[104.902,165.306],[104.902,165.306],[104.894,165.301],[104.893,165.301],[104.893,165.3],[104.886,165.295],[104.884,165.295],[104.884,165.294],[104.877,165.289],[104.876,165.288],[104.869,165.282],[104.868,165.281],[104.861,165.275],[104.861,165.274],[104.854,165.267],[104.853,165.266],[104.847,165.259],[104.847,165.258],[104.84,165.25],[104.84,165.25],[104.835,165.241],[104.829,165.232],[104.829,165.232],[104.824,165.223],[104.824,165.222],[104.82,165.213],[104.82,165.212],[104.816,165.203],[104.816,165.202],[104.813,165.193],[104.813,165.192],[104.811,165.183],[104.81,165.182],[104.809,165.172],[104.808,165.171],[104.807,165.162],[104.807,165.161],[104.8,165.093],[104.74,164.509],[104.235,159.641],[104.213,159.396],[104.196,159.153],[104.194,159.106],[104.192,159.07],[104.181,158.712],[104.18,158.57]]
EXCLUDE_OBJECT_DEFINE NAME=Front_line_Mini.stl_id_1_copy_0 CENTER=63.4906,124.583 POLYGON=[[46.8095,85.9848],[79.5883,122.974],[79.9133,123.459],[80.1156,124.005],[80.1717,124.685],[80.1156,125.162],[79.9133,125.708],[79.5883,126.193],[46.8095,163.181],[46.8095,85.9848]]
EXCLUDE_OBJECT_DEFINE NAME=Connectors_x8.stl_id_2_copy_0 CENTER=92.6672,80.8924 POLYGON=[[76.5152,83.1251],[76.5576,81.906],[76.5604,81.8876],[76.7676,81.5404],[76.9755,81.2817],[93.0565,65.2006],[93.3146,64.9934],[93.6653,64.7827],[94.8999,64.7403],[108.773,78.6137],[108.819,78.6597],[108.776,79.8922],[108.565,80.2443],[108.358,80.5017],[103.591,85.2697],[92.2773,96.5834],[92.0192,96.7906],[91.6684,97.0013],[90.4346,97.0445],[90.419,97.0289],[76.5152,83.1251]]
EXCLUDE_OBJECT_DEFINE NAME=Axel_Mini_x4.stl_id_3_copy_0 CENTER=139.722,80.57 POLYGON=[[132.899,69.6988],[132.935,69.3699],[133.035,68.9725],[133.606,68.3615],[133.762,68.1942],[133.879,68.0699],[143.879,68.0699],[145.566,68.0699],[145.744,68.2599],[146.399,68.9615],[146.41,68.9773],[146.509,69.3687],[146.532,69.5796],[146.545,69.6991],[146.545,84.6991],[146.545,91.4408],[146.509,91.7701],[146.41,92.1668],[146.293,92.2925],[145.892,92.7217],[145.566,93.07],[145.074,93.07],[135.074,93.07],[133.878,93.07],[133.76,92.9433],[133.599,92.7711],[133.228,92.3739],[133.036,92.1679],[132.935,91.77],[132.9,91.4409],[132.899,84.6988],[132.899,69.6988]]
M73 P0 R21
;TYPE:Custom
M220 S100
G90 ; use absolute coordinates
M83 ; extruder relative mode
M104 S150 ; set temporary nozzle temp to prevent oozing during homing
M140 S55 ; set final bed temp
G4 S30 ; allow partial nozzle warmup
G28 ; home all axis and restore leveling
BED_MESH_CALIBRATE PROFILE=adaptive ADAPTIVE=1 ADAPTIVE_MARGIN=0
G1 Z25 F240
G1 X10.0 Y30 F3000
M104 S210 ; set final nozzle temp
M190 S55 ; wait for bed temp to stabilize
M109 S210 ; wait for nozzle temp to stabilize
G1 Z0.28 F240
G92 E0 ; Move Z Axis up
G1 Z2.0 F5000 ; Move to start position
M73 P1 R21
G1 X5 Y30 Z0.28 F300 ; Draw the first line
G1 X5 Y200 Z0.28 F1500 E15 ; Move to side a little
G1 X5.4 Y200 Z0.28 F5000.0 ; Draw the second line
G1 X5.4 Y50 Z0.28 F1500.0 E30 ; Reset Extruder
G92 E0 ; Move Z Axis up
G1 Z2.0 F3000
M117 Start Printing..
G90
G21
M83 ; use relative distances for extrusion
; filament start gcode
M106 S0
;LAYER_CHANGE
;Z:0.2
;HEIGHT:0.2
;BEFORE_LAYER_CHANGE
;0.2
G92 E0

M73 P2 R21
G1 E-.5 F1800
;_SET_FAN_SPEED_CHANGING_LAYER
SET_VELOCITY_LIMIT ACCEL=1000
SET_VELOCITY_LIMIT SQUARE_CORNER_VELOCITY=7
; printing object Front_And_Rear_Bumpers_Mini.stl id:0 copy 0
EXCLUDE_OBJECT_START NAME=Front_And_Rear_Bumpers_Mini.stl_id_0_copy_0
G1 Z.2 F24000
G1 X113.195 Y180.668
G1 Z.2
G1 E.5 F1800
;TYPE:Inner wall
;WIDTH:0.637938
G1 X113.165 Y180.604 E.00349
;WIDTH:0.591819
G1 X113.135 Y180.54 E.00322
;WIDTH:0.545699
G1 X113.106 Y180.476 E.00295
;WIDTH:0.499579
G1 X113.076 Y180.413 E.00268
;WIDTH:0.45346
G1 X113.046 Y180.349 E.00241
;WIDTH:0.40734
G1 X113.016 Y180.285 E.00213
;WIDTH:0.398136
G1 X112.961 Y179.573 E.0211
;WIDTH:0.417576
G1 X112.931 Y179.064 E.01589
;WIDTH:0.429605
G1 X112.939 Y178.078 E.03169
G1 X112.975 Y177.577 E.01617
;WIDTH:0.427849
G1 X113.044 Y177.078 E.0161
G1 X113.247 Y176.114 E.03154
;WIDTH:0.425879
G1 X113.391 Y175.632 E.01601
;WIDTH:0.432758
G1 X113.562 Y175.159 E.0163
G1 X113.958 Y174.257 E.03194
;WIDTH:0.423924
G1 X114.46 Y173.386 E.03185
;WIDTH:0.419978
G1 X115.033 Y172.594 E.03065
;WIDTH:0.423553
G1 X115.706 Y171.842 E.03193
;WIDTH:0.423309
G1 X116.073 Y171.498 E.01591
G1 X116.838 Y170.877 E.03117
;WIDTH:0.423032
G1 X117.251 Y170.59 E.01589
;WIDTH:0.42272
G1 X117.68 Y170.328 E.01589
G1 X118.558 Y169.878 E.03113
;WIDTH:0.422882
G1 X119.022 Y169.685 E.01589
G1 X119.495 Y169.516 E.01589
;WIDTH:0.421955
G1 X120.363 Y169.277 E.02836
;WIDTH:0.425814
G1 X120.936 Y169.168 E.01859
G1 X121.434 Y169.098 E.01601
;WIDTH:0.427177
G1 X122.439 Y169.043 E.03216
;WIDTH:0.42133
G1 X181.241 Y169.051 E1.85019
;WIDTH:0.42154
G1 X181.91 Y169.096 E.02111
;WIDTH:0.42568
G1 X182.407 Y169.163 E.01594
G1 X183.098 Y169.299 E.02242
;WIDTH:0.422299
G1 X183.851 Y169.508 E.02467
G1 X184.325 Y169.676 E.01586
G1 X185.252 Y170.088 E.032
;WIDTH:0.421036
G1 X186.028 Y170.531 E.02808
;WIDTH:0.423149
G1 X186.509 Y170.86 E.01841
G1 X186.911 Y171.164 E.01593
;WIDTH:0.423348
G1 X187.69 Y171.87 E.03327
;WIDTH:0.418228
G1 X188.317 Y172.568 E.02929
;WIDTH:0.423481
G1 X188.622 Y172.969 E.01591
;WIDTH:0.423785
G1 X189.174 Y173.82 E.03213
G1 X189.517 Y174.471 E.02332
;WIDTH:0.424155
G1 X189.809 Y175.15 E.02342
G1 X189.978 Y175.624 E.01594
;WIDTH:0.424018
G1 X190.241 Y176.604 E.03214
G1 X190.394 Y177.568 E.03094
;WIDTH:0.429614
G1 X190.432 Y178.07 E.0162
G1 X190.439 Y179.072 E.03223
;WIDTH:0.417611
G1 X190.409 Y179.578 E.01577
;WIDTH:0.398153
G1 X190.355 Y180.288 E.02103
;WIDTH:0.407333
G1 X190.325 Y180.351 E.00213
;WIDTH:0.453466
G1 X190.295 Y180.415 E.00241
;WIDTH:0.4996
G1 X190.265 Y180.479 E.00268
;WIDTH:0.545733
G1 X190.235 Y180.543 E.00295
;WIDTH:0.591867
G1 X190.205 Y180.607 E.00322
;WIDTH:0.638
G1 X190.176 Y180.671 E.00349
G1 X190.153 Y180.604 E.00349
;WIDTH:0.591867
G1 X190.129 Y180.537 E.00322
;WIDTH:0.545733
G1 X190.106 Y180.471 E.00295
;WIDTH:0.4996
G1 X190.083 Y180.404 E.00268
;WIDTH:0.453466
G1 X190.06 Y180.338 E.00241
;WIDTH:0.407333
G1 X190.037 Y180.271 E.00213
;WIDTH:0.398153
G1 X190.055 Y179.559 E.02103
;WIDTH:0.417611
G1 X190.065 Y179.058 E.01562
;WIDTH:0.429614
G1 X190.046 Y178.091 E.03109
G1 X189.947 Y177.141 E.03072
;WIDTH:0.427877
G1 X189.826 Y176.485 E.02135
;WIDTH:0.424155
G1 X189.457 Y175.296 E.03947
G1 X189.071 Y174.421 E.03032
;WIDTH:0.422218
G1 X188.643 Y173.667 E.02736
;WIDTH:0.418228
G1 X188.035 Y172.815 E.03264
G1 X187.415 Y172.123 E.02899
;WIDTH:0.423348
G1 X187.035 Y171.773 E.01636
G1 X186.291 Y171.171 E.03025
;WIDTH:0.423149
G1 X185.489 Y170.65 E.03023
;WIDTH:0.422923
G1 X184.863 Y170.315 E.02246
;WIDTH:0.422387
G1 X183.745 Y169.872 E.03793
G1 X182.821 Y169.624 E.03018
;WIDTH:0.422066
G1 X181.881 Y169.473 E.03004
;WIDTH:0.42154
G1 X180.937 Y169.424 E.02974
;WIDTH:0.42133
G1 X122.171 Y169.421 E1.84909
;WIDTH:0.425814
G1 X121.004 Y169.545 E.03735
G1 X120.071 Y169.743 E.03037
;WIDTH:0.424378
G1 X119.163 Y170.038 E.03027
;WIDTH:0.422882
G1 X118.29 Y170.425 E.03016
;WIDTH:0.42134
G1 X117.463 Y170.901 E.03004
;WIDTH:0.419762
G1 X116.689 Y171.461 E.02993
;WIDTH:0.418142
G1 X115.992 Y172.086 E.02921
;WIDTH:0.423553
G1 X115.65 Y172.46 E.01605
;WIDTH:0.423763
G1 X115.05 Y173.202 E.03022
;WIDTH:0.423924
G1 X114.53 Y174.003 E.03023
G1 X114.189 Y174.638 E.02283
;WIDTH:0.432758
G1 X113.688 Y175.943 E.04533
;WIDTH:0.424043
G1 X113.506 Y176.665 E.02359
G1 X113.355 Y177.607 E.03024
;WIDTH:0.423917
G1 X113.303 Y178.55 E.02991
;WIDTH:0.423515
G1 X113.306 Y179.059 E.01611
;WIDTH:0.417576
G1 X113.315 Y179.559 E.01559
;WIDTH:0.398136
G1 X113.334 Y180.269 E.02096
;WIDTH:0.40734
G1 X113.31 Y180.335 E.00213
;WIDTH:0.45346
G1 X113.287 Y180.402 E.00241
;WIDTH:0.499579
G1 X113.264 Y180.468 E.00268
;WIDTH:0.545699
G1 X113.241 Y180.535 E.00295
;WIDTH:0.591819
G1 X113.218 Y180.601 E.00322
;WIDTH:0.637938
G1 X113.208 Y180.63 E.00151
G1 E-.5
;WIPE_START
G1 F12000
G1 X113.165 Y180.604
G1 X113.135 Y180.54
G1 X113.106 Y180.476
G1 X113.076 Y180.413
G1 X113.046 Y180.349
G1 X113.016 Y180.285
G1 X112.961 Y179.573
G1 X112.931 Y179.064
G1 X112.934 Y178.69
;WIPE_END
G1 Z.4 F24000
G1 X113.657 Y184.294 Z.4
G1 Z.2
G1 E.5 F1800
;TYPE:Outer wall
;WIDTH:0.623867
G1 X113.105 Y184.295 E.02667
;WIDTH:0.648754
G1 X113.041 Y183.557 E.0373
G1 X113.003 Y183.428 E.00682
;WIDTH:0.599169
G1 X112.964 Y183.298 E.00626
;WIDTH:0.549584
G1 X112.926 Y183.168 E.00571
;WIDTH:0.499999
G1 X112.556 Y179.604 E.13617
G1 X112.516 Y179.074 E.02021
G1 X112.504 Y178.554 E.01976
G1 X112.519 Y178.035 E.01976
G1 X112.561 Y177.517 E.01975
G1 X112.63 Y177.001 E.01976
G1 X112.726 Y176.491 E.01975
G1 X112.848 Y175.985 E.01975
G1 X112.997 Y175.487 E.01976
G1 X113.171 Y174.997 E.01976
G1 X113.371 Y174.518 E.01975
G1 X113.595 Y174.049 E.01975
G1 X113.844 Y173.593 E.01976
G1 X114.116 Y173.15 E.01975
G1 X114.411 Y172.722 E.01976
G1 X114.727 Y172.31 E.01975
G1 X115.065 Y171.915 E.01976
G1 X115.423 Y171.538 E.01975
G1 X115.801 Y171.18 E.01976
G1 X116.196 Y170.843 E.01975
G1 X116.608 Y170.526 E.01976
G1 X117.037 Y170.232 E.01975
G1 X117.48 Y169.96 E.01976
G1 X117.937 Y169.712 E.01975
G1 X118.406 Y169.488 E.01976
G1 X118.886 Y169.289 E.01976
G1 X119.376 Y169.115 E.01975
G1 X119.874 Y168.967 E.01976
G1 X120.379 Y168.845 E.01975
G1 X120.89 Y168.75 E.01976
G1 X121.405 Y168.682 E.01975
G1 X121.924 Y168.64 E.01976
G1 X122.44 Y168.625 E.01962
G1 X181.33 Y168.636 E2.23821
G1 X181.971 Y168.682 E.02441
G1 X182.483 Y168.75 E.01965
G1 X182.995 Y168.846 E.01979
G1 X183.501 Y168.968 E.01979
G1 X184 Y169.117 E.01979
G1 X184.495 Y169.294 E.01998
G1 X185.451 Y169.721 E.0398
G1 X185.899 Y169.965 E.01938
G1 X186.343 Y170.238 E.01979
G1 X186.772 Y170.533 E.0198
G1 X187.184 Y170.851 E.01979
G1 X187.58 Y171.189 E.0198
G1 X187.958 Y171.548 E.01979
G1 X188.316 Y171.926 E.0198
G1 X188.667 Y172.34 E.02064
G1 X188.973 Y172.74 E.01913
G1 X189.542 Y173.619 E.0398
G1 X189.785 Y174.067 E.01937
G1 X190.009 Y174.538 E.01979
G1 X190.208 Y175.019 E.01979
G1 X190.382 Y175.515 E.01998
G1 X190.653 Y176.527 E.0398
G1 X190.745 Y177.028 E.01938
G1 X190.813 Y177.544 E.01979
G1 X190.854 Y178.064 E.0198
G1 X190.867 Y178.584 E.01978
G1 X190.855 Y179.089 E.01919
G1 X190.814 Y179.612 E.01994
G1 X190.445 Y183.178 E.13625
;WIDTH:0.549589
G1 X190.406 Y183.308 E.00571
;WIDTH:0.599179
G1 X190.368 Y183.437 E.00626
;WIDTH:0.648768
G1 X190.33 Y183.567 E.00682
G1 X190.267 Y184.284 E.03626
;WIDTH:0.624862
G1 X189.714 Y184.291 E.02679
;WIDTH:0.648768
G1 X189.725 Y183.536 E.03803
G1 X189.7 Y183.403 E.00682
;WIDTH:0.599179
G1 X189.676 Y183.27 E.00626
;WIDTH:0.549589
G1 X189.651 Y183.137 E.00571
;WIDTH:0.499999
G1 X189.649 Y179.058 E.15501
G1 X189.624 Y178.115 E.03586
G1 X189.532 Y177.212 E.03452
G1 X189.427 Y176.6 E.02358
G1 X189.07 Y175.456 E.04554
G1 X188.705 Y174.624 E.03456
G1 X188.306 Y173.905 E.03122
G1 X187.725 Y173.093 E.03798
