; HEADER_BLOCK_START
; generated by OrcaSlicer 2.0.0 on 2024-05-31 at 21:25:49
; total layer number: 15
; filament_density: 1.27
; filament_diameter: 1.75
; max_z_height: 3.00
; HEADER_BLOCK_END

; THUMBNAIL_BLOCK_START

;
; THUMBNAIL_BLOCK_END

; THUMBNAIL_BLOCK_START

;
; THUMBNAIL_BLOCK_END

; external perimeters extrusion width = 0.40mm
; perimeters extrusion width = 0.42mm
; infill extrusion width = 0.45mm
; solid infill extrusion width = 0.42mm
; top infill extrusion width = 0.40mm
; first layer extrusion width = 0.50mm

; EXECUTABLE_BLOCK_START
EXCLUDE_OBJECT_DEFINE NAME=Grille_av.stl_id_0_copy_0 CENTER=115,115 POLYGON=[[11,65],[11.0407,64.4307],[11.162,63.8731],[11.3615,63.3383],[11.635,62.8374],[11.977,62.3806],[12.3806,61.977],[12.8374,61.635],[13.3383,61.3615],[13.8731,61.162],[14.4307,61.0407],[15,61],[215,61],[215.569,61.0407],[216.127,61.162],[216.662,61.3615],[217.163,61.635],[217.619,61.977],[218.023,62.3806],[218.365,62.8374],[218.639,63.3383],[218.838,63.8731],[218.959,64.4307],[219,65],[219,165],[218.959,165.569],[218.838,166.127],[218.639,166.662],[218.365,167.163],[218.023,167.619],[217.619,168.023],[217.163,168.365],[216.662,168.639],[216.127,168.838],[215.569,168.959],[215,169],[15,169],[14.4307,168.959],[13.8731,168.838],[13.3383,168.639],[12.8374,168.365],[12.3806,168.023],[11.977,167.619],[11.635,167.163],[11.3615,166.662],[11.162,166.127],[11.0407,165.569],[11,165],[11,65]]
M73 P0 R113
;TYPE:Custom
M220 S100
G90 ; use absolute coordinates
M83 ; extruder relative mode
M104 S150 ; set temporary nozzle temp to prevent oozing during homing
M140 S70 ; set final bed temp
G4 S30 ; allow partial nozzle warmup
G28 ; home all axis and restore leveling
BED_MESH_CALIBRATE PROFILE=adaptive ADAPTIVE=1 ADAPTIVE_MARGIN=0
G1 Z25 F240
G1 X10.0 Y30 F3000
M104 S245 ; set final nozzle temp
M190 S70 ; wait for bed temp to stabilize
M109 S245 ; wait for nozzle temp to stabilize
G1 Z0.28 F240
G92 E0 ; Move Z Axis up
G1 Z2.0 F5000 ; Move to start position
G1 X5 Y30 Z0.28 F300 ; Draw the first line
G1 X5 Y200 Z0.28 F1500 E15 ; Move to side a little
G1 X5.4 Y200 Z0.28 F5000.0 ; Draw the second line
G1 X5.4 Y50 Z0.28 F1500.0 E30 ; Reset Extruder
G92 E0 ; Move Z Axis up
G1 Z2.0 F3000
M117 Start Printing..
G90
G21
M83 ; use relative distances for extrusion
; filament start gcode
M106 S0
;LAYER_CHANGE
;Z:0.2
;HEIGHT:0.2
;BEFORE_LAYER_CHANGE
;0.2
G92 E0

G1 E-.5 F2400
;_SET_FAN_SPEED_CHANGING_LAYER
SET_VELOCITY_LIMIT ACCEL=500 ACCEL_TO_DECEL=250
SET_VELOCITY_LIMIT SQUARE_CORNER_VELOCITY=7
; printing object Grille av.stl id:0 copy 0
EXCLUDE_OBJECT_START NAME=Grille_av.stl_id_0_copy_0
G1 Z.2 F18000
G1 X223.52 Y81.765
G1 Z.2
G1 E.5 F2400
;TYPE:Inner wall
;WIDTH:0.499999
G1 F1800
G1 X224.145 Y81.933 E.02337
G1 X224.775 Y82.239 E.02526
G1 X225.315 Y82.685 E.02532
G1 X225.761 Y83.225 E.02529
G1 X226.068 Y83.856 E.02531
G1 X226.249 Y84.533 E.0253
G1 X226.284 Y85.147 E.02222
G1 X226.284 Y185.123 E3.60973
G1 X226.149 Y185.925 E.02934
G1 X225.874 Y186.569 E.02531
G1 X225.481 Y187.149 E.02531
G1 X224.962 Y187.621 E.02531
G1 X224.364 Y187.986 E.02531
G1 X223.696 Y188.199 E.02531
G1 X222.975 Y188.284 E.02622
G1 X22.876 Y188.284 E7.22474
G1 X22.075 Y188.149 E.02934
G1 X21.431 Y187.874 E.02531
G1 X20.851 Y187.481 E.02531
G1 X20.379 Y186.962 E.02531
G1 X20.014 Y186.364 E.02531
G1 X19.801 Y185.696 E.02531
G1 X19.716 Y184.975 E.02622
G1 X19.716 Y84.876 E3.61414
G1 X19.851 Y84.075 E.02934
M73 P0 R112
G1 X20.126 Y83.431 E.02531
G1 X20.519 Y82.851 E.02531
G1 X21.038 Y82.379 E.02531
G1 X21.636 Y82.014 E.02531
G1 X22.304 Y81.801 E.02531
G1 X23.025 Y81.716 E.02622
G1 X222.864 Y81.727 E7.21539
G1 X223.467 Y81.751 E.02178
G1 X223.481 Y81.755 E.00053
G1 X223.649 Y81.323 F18000
;TYPE:Outer wall
G1 F1800
G1 X224.054 Y81.411 E.01494
G1 X224.554 Y81.597 E.01927
G1 X225.022 Y81.853 E.01927
G1 X225.45 Y82.173 E.01927
G1 X225.827 Y82.55 E.01927
G1 X226.147 Y82.978 E.01927
G1 X226.403 Y83.446 E.01927
G1 X226.589 Y83.946 E.01927
G1 X226.703 Y84.468 E.01927
G1 X226.741 Y85.147 E.02458
G1 X226.741 Y184.991 E3.60495
G1 X226.703 Y185.532 E.01959
G1 X226.589 Y186.054 E.01927
G1 X226.403 Y186.554 E.01927
G1 X226.147 Y187.022 E.01927
G1 X225.827 Y187.45 E.01927
G1 X225.45 Y187.827 E.01927
G1 X225.022 Y188.147 E.01927
G1 X224.554 Y188.403 E.01927
G1 X224.054 Y188.589 E.01927
G1 X223.532 Y188.703 E.01927
G1 X222.991 Y188.741 E.01959
G1 X23.009 Y188.741 E7.22055
G1 X22.468 Y188.703 E.01959
G1 X21.946 Y188.589 E.01927
G1 X21.446 Y188.403 E.01927
G1 X20.978 Y188.147 E.01927
G1 X20.55 Y187.827 E.01927
G1 X20.173 Y187.45 E.01927
G1 X19.853 Y187.022 E.01927
G1 X19.597 Y186.554 E.01927
G1 X19.411 Y186.054 E.01927
G1 X19.297 Y185.532 E.01927
G1 X19.259 Y184.991 E.01959
G1 X19.259 Y85.009 E3.60995
G1 X19.297 Y84.468 E.01959
G1 X19.411 Y83.946 E.01927
G1 X19.597 Y83.446 E.01927
G1 X19.853 Y82.978 E.01927
G1 X20.173 Y82.55 E.01927
G1 X20.55 Y82.173 E.01927
G1 X20.978 Y81.853 E.01927
G1 X21.446 Y81.597 E.01927
G1 X21.946 Y81.411 E.01927
G1 X22.468 Y81.297 E.01927
G1 X23.009 Y81.259 E.01959
G1 X223.027 Y81.27 E7.22186
G1 X223.532 Y81.297 E.01826
M73 P1 R112
G1 X223.61 Y81.314 E.00288
G1 E-.35 F2400
;WIPE_START
G1 F1800
G1 X224.054 Y81.411 E-.06808
G1 X224.554 Y81.597 E-.08006
G1 X224.565 Y81.603 E-.00186
;WIPE_END
G1 Z.4 F18000
G1 X218.561 Y89.968 Z.4
G1 Z.2
G1 E.5 F2400
;TYPE:Inner wall
G1 F1800
G1 X218.603 Y90.03 E.00269
G1 X218.791 Y90.455 E.01679
G1 X218.916 Y90.952 E.01851
G1 X218.949 Y91.44 E.01766
G1 X218.896 Y91.926 E.01765
G1 X218.759 Y92.395 E.01766
G1 X218.543 Y92.834 E.01766
G1 X218.254 Y93.229 E.01765
G1 X217.919 Y93.551 E.01679
G1 X217.495 Y93.839 E.01851
G1 X217.047 Y94.036 E.01766
G1 X216.572 Y94.152 E.01765
G1 X215.992 Y94.177 E.02096
G1 X215.427 Y94.086 E.02066
G1 X215.129 Y93.995 E.01127
G1 X214.69 Y93.779 E.01765
G1 X214.296 Y93.49 E.01766
G1 X213.877 Y93.023 E.02264
G1 X213.685 Y92.731 E.01262
G1 X213.488 Y92.283 E.01766
G1 X213.372 Y91.808 E.01766
G1 X213.34 Y91.32 E.01765
G1 X213.393 Y90.834 E.01766
G1 X213.529 Y90.365 E.01766
G1 X213.745 Y89.926 E.01766
G1 X214.034 Y89.532 E.01765
G1 X214.387 Y89.193 E.01766
G1 X214.794 Y88.921 E.01765
G1 X215.241 Y88.724 E.01766
G1 X215.716 Y88.608 E.01765
G1 X216.18 Y88.577 E.01679
G1 X216.69 Y88.629 E.01851
G1 X217.159 Y88.765 E.01766
G1 X217.598 Y88.981 E.01765
G1 X217.993 Y89.27 E.01766
G1 X218.331 Y89.623 E.01765
G1 X218.539 Y89.934 E.01352
G1 X218.186 Y90.218 F18000
;TYPE:Outer wall
G1 F1800
G1 X218.189 Y90.223 E.00019
G1 X218.35 Y90.577 E.01406
G1 X218.461 Y90.992 E.0155
G1 X218.493 Y91.4 E.01479
G1 X218.454 Y91.808 E.01479
G1 X218.345 Y92.202 E.01479
G1 X218.169 Y92.572 E.01479
G1 X217.931 Y92.905 E.01478
G1 X217.653 Y93.178 E.01405
G1 X217.302 Y93.425 E.0155
G1 X216.929 Y93.594 E.01479
G1 X216.532 Y93.697 E.01479
G1 X216.032 Y93.721 E.01808
G1 X215.546 Y93.644 E.01779
G1 X215.039 Y93.449 E.0196
G1 X214.62 Y93.168 E.01823
G1 X214.252 Y92.761 E.01982
G1 X213.985 Y92.292 E.01948
G1 X213.834 Y91.808 E.01831
G1 X213.795 Y91.36 E.01622
G1 X213.834 Y90.953 E.01479
G1 X213.943 Y90.558 E.01479
G1 X214.12 Y90.188 E.01479
G1 X214.357 Y89.855 E.01478
G1 X214.649 Y89.568 E.01479
G1 X214.987 Y89.336 E.01479
G1 X215.359 Y89.166 E.01479
G1 X215.756 Y89.063 E.01479
G1 X216.144 Y89.032 E.01405
G1 X216.572 Y89.07 E.0155
G1 X216.966 Y89.179 E.01479
G1 X217.336 Y89.356 E.01479
G1 X217.669 Y89.593 E.01479
G1 X217.957 Y89.885 E.01479
G1 X218.163 Y90.185 E.01315
G1 E-.35 F2400
;WIPE_START
G1 F1800
G1 X218.189 Y90.223 E-.00679
G1 X218.35 Y90.577 E-.05839
G1 X218.461 Y90.992 E-.06441
G1 X218.472 Y91.127 E-.02041
;WIPE_END
G1 Z.4 F18000
G1 X207.547 Y115.133 Z.4
G1 Z.2
G1 E.5 F2400
;TYPE:Inner wall
G1 F1800
G1 X207.471 Y115.315 E.00713
G1 X207.261 Y115.51 E.01034
G1 X206.972 Y115.604 E.011
G1 X187.979 Y115.607 E.68576
G1 X187.664 Y115.531 E.01169
G1 X187.409 Y115.304 E.01232
G1 X187.293 Y115.014 E.01126
G1 X187.293 Y109.979 E.18182
G1 X187.324 Y109.774 E.00745
G1 X187.409 Y109.596 E.00713
G1 X187.664 Y109.369 E.01232
G1 X187.979 Y109.293 E.01169
G1 X203.001 Y109.293 E.54239
G1 X203.659 Y109.341 E.02382
G1 X204.354 Y109.494 E.02571
G1 X205.019 Y109.75 E.02572
G1 X205.663 Y110.122 E.02686
G1 X206.196 Y110.547 E.02461
G1 X206.68 Y111.068 E.02567
G1 X207.08 Y111.657 E.02571
G1 X207.398 Y112.328 E.02683
G1 X207.601 Y113.014 E.02579
G1 X207.697 Y113.731 E.02612
G1 X207.684 Y114.445 E.02581
G1 X207.585 Y115.042 E.02184
G1 X207.563 Y115.096 E.00212
G1 X207.135 Y114.962 F18000
;TYPE:Outer wall
G1 F1800
G1 X207.041 Y115.109 E.00632
G1 X206.91 Y115.15 E.00494
G1 X187.979 Y115.15 E.68354
G1 X187.829 Y115.094 E.00577
G1 X187.75 Y114.955 E.00578
G1 X187.75 Y109.979 E.17968
G1 X187.829 Y109.806 E.00686
G1 X187.979 Y109.75 E.00577
G1 X203.001 Y109.75 E.54239
G1 X203.624 Y109.797 E.02257
G1 X204.251 Y109.939 E.02322
G1 X204.85 Y110.174 E.02322
G1 X205.43 Y110.515 E.02429
G1 X205.907 Y110.901 E.02217
G1 X206.341 Y111.375 E.0232
G1 X206.699 Y111.91 E.02322
G1 X206.983 Y112.519 E.02428
G1 X207.161 Y113.138 E.02325
G1 X207.244 Y113.787 E.0236
G1 X207.227 Y114.432 E.0233
G1 X207.142 Y114.922 E.01798
G1 E-.35 F2400
;WIPE_START
G1 F1800
G1 X207.041 Y115.109 E-.03186
G1 X206.91 Y115.15 E-.02054
G1 X206.259 Y115.15 E-.0976
;WIPE_END
G1 Z.4 F18000
G1 X187.303 Y123.911 Z.4
G1 Z.2
G1 E.5 F2400
;TYPE:Inner wall
G1 F1800
G1 X187.324 Y123.774 E.00497
G1 X187.409 Y123.596 E.00713
G1 X187.664 Y123.369 E.01232
G1 X187.979 Y123.293 E.01169
G1 X203.001 Y123.293 E.54239
G1 X203.659 Y123.341 E.02382
G1 X204.354 Y123.494 E.02571
G1 X205.019 Y123.75 E.02572
G1 X205.663 Y124.122 E.02686
G1 X206.196 Y124.547 E.02461
G1 X206.68 Y125.068 E.02567
G1 X207.08 Y125.657 E.02571
G1 X207.398 Y126.328 E.02683
G1 X207.601 Y127.014 E.02579
G1 X207.697 Y127.731 E.02612
G1 X207.684 Y128.445 E.02581
G1 X207.585 Y129.042 E.02184
G1 X207.471 Y129.315 E.01069
G1 X207.265 Y129.508 E.01017
G1 X206.968 Y129.605 E.01129
G1 X187.979 Y129.607 E.68564
G1 X187.678 Y129.538 E.01112
G1 X187.415 Y129.312 E.01253
G1 X187.293 Y129.015 E.0116
G1 X187.293 Y123.979 E.18184
G1 X187.297 Y123.95 E.00104
G1 X187.75 Y123.979 F18000
;TYPE:Outer wall
G1 F1800
G1 X187.829 Y123.806 E.00686
G1 X187.979 Y123.75 E.00577
G1 X203.001 Y123.75 E.54239
G1 X203.624 Y123.797 E.02257
G1 X204.251 Y123.939 E.02322
G1 X204.85 Y124.174 E.02322
G1 X205.43 Y124.515 E.02429
G1 X205.907 Y124.901 E.02216
G1 X206.341 Y125.375 E.0232
G1 X206.699 Y125.91 E.02322
G1 X206.983 Y126.519 E.02428
G1 X207.161 Y127.138 E.02325
G1 X207.244 Y127.787 E.0236
G1 X207.227 Y128.432 E.0233
G1 X207.135 Y128.962 E.01942
G1 X207.042 Y129.108 E.00627
G1 X206.91 Y129.15 E.005
G1 X187.979 Y129.15 E.68354
G1 X187.832 Y129.097 E.00561
G1 X187.75 Y128.955 E.00593
G1 X187.75 Y124.019 E.17824
G1 E-.35 F2400
;WIPE_START
G1 F1800
G1 X187.829 Y123.806 E-.03404
G1 X187.979 Y123.75 E-.02396
G1 X188.592 Y123.75 E-.09201
;WIPE_END
G1 Z.4 F18000
G1 X127.313 Y137.884 Z.4
G1 Z.2
G1 E.5 F2400
;TYPE:Inner wall
G1 F1800
G1 X127.354 Y137.695 E.00699
G1 X127.515 Y137.473 E.00989
G1 X127.743 Y137.335 E.0096
G1 X127.979 Y137.293 E.00865
G1 X203.001 Y137.293 E2.70875
G1 X203.691 Y137.347 E.02499
G1 X204.355 Y137.494 E.02455
G1 X205.019 Y137.75 E.0257
G1 X205.637 Y138.103 E.02572
G1 X206.218 Y138.568 E.02685
G1 X206.681 Y139.069 E.02463
G1 X207.08 Y139.657 E.02565
G1 X207.387 Y140.3 E.02571
G1 X207.6 Y141.011 E.02682
G1 X207.697 Y141.719 E.0258
G1 X207.689 Y142.38 E.02388
G1 X207.587 Y143.034 E.02389
G1 X207.472 Y143.315 E.01097
G1 X207.266 Y143.508 E.01017
G1 X206.968 Y143.605 E.01129
G1 X205.971 Y143.607 E.036
G1 X127.979 Y143.607 E2.816
G1 X127.743 Y143.565 E.00865
G1 X127.471 Y143.383 E.0118
G1 X127.34 Y143.172 E.00898
G1 X127.293 Y142.888 E.01038
G1 X127.293 Y137.979 E.17727
G1 X127.305 Y137.923 E.00205
G1 X127.75 Y137.979 F18000
;TYPE:Outer wall
G1 F1800
G1 X127.809 Y137.825 E.00595
G1 X127.96 Y137.75 E.00608
G1 X203.001 Y137.75 E2.70941
G1 X203.654 Y137.803 E.02364
G1 X204.252 Y137.939 E.02215
G1 X204.85 Y138.174 E.02322
G1 X205.406 Y138.498 E.02322
G1 X205.928 Y138.922 E.02429
G1 X206.342 Y139.376 E.02217
G1 X206.699 Y139.91 E.0232
G1 X206.972 Y140.492 E.02322
G1 X207.161 Y141.137 E.02428
G1 X207.243 Y141.776 E.02325
G1 X207.232 Y142.369 E.02144
G1 X207.136 Y142.959 E.02157
G1 X207.042 Y143.108 E.00636
G1 X206.91 Y143.15 E.005
G1 X127.979 Y143.15 E2.84991
G1 X127.824 Y143.09 E.00598
G1 X127.752 Y142.952 E.00563
G1 X127.75 Y138.019 E.17812
G1 E-.35 F2400
;WIPE_START
G1 F1800
G1 X127.809 Y137.825 E-.0304
G1 X127.96 Y137.75 E-.02526
G1 X128.589 Y137.75 E-.09434
;WIPE_END
G1 Z.4 F18000
G1 X214.009 Y179.191 Z.4
G1 Z.2
G1 E.5 F2400
;TYPE:Inner wall
G1 F1800
G1 X213.957 Y179.137 E.0027
G1 X213.698 Y178.751 E.01679
G1 X213.488 Y178.283 E.01851
G1 X213.372 Y177.808 E.01766
G1 X213.34 Y177.32 E.01765
G1 X213.393 Y176.834 E.01766
G1 X213.529 Y176.365 E.01766
G1 X213.745 Y175.926 E.01765
G1 X214.034 Y175.532 E.01765
G1 X214.387 Y175.193 E.01765
G1 X214.794 Y174.921 E.01765
G1 X215.241 Y174.724 E.01766
G1 X215.744 Y174.605 E.01866
G1 X216.18 Y174.577 E.01578
G1 X216.69 Y174.629 E.01851
G1 X217.159 Y174.765 E.01766
G1 X217.598 Y174.981 E.01765
G1 X217.993 Y175.27 E.01766
G1 X218.331 Y175.623 E.01765
G1 X218.603 Y176.03 E.01765
G1 X218.791 Y176.455 E.01679
G1 X218.916 Y176.952 E.01851
G1 X218.949 Y177.44 E.01766
G1 X218.896 Y177.926 E.01765
G1 X218.759 Y178.395 E.01766
G1 X218.543 Y178.834 E.01766
G1 X218.254 Y179.229 E.01765
G1 X217.901 Y179.567 E.01766
G1 X217.495 Y179.839 E.01765
G1 X217.047 Y180.036 E.01766
G1 X216.572 Y180.152 E.01765
G1 X216.084 Y180.185 E.01766
G1 X215.598 Y180.132 E.01765
G1 X215.129 Y179.995 E.01766
G1 X214.69 Y179.779 E.01765
G1 X214.296 Y179.49 E.01766
G1 X214.037 Y179.22 E.01351
G1 X214.335 Y178.879 F18000
;TYPE:Outer wall
G1 F1800
G1 X214.332 Y178.875 E.00019
G1 X214.111 Y178.554 E.01405
G1 X213.93 Y178.165 E.0155
G1 X213.827 Y177.768 E.01479
G1 X213.795 Y177.36 E.01479
G1 X213.834 Y176.953 E.01479
G1 X213.943 Y176.558 E.01479
G1 X214.12 Y176.188 E.01479
G1 X214.357 Y175.855 E.01479
G1 X214.649 Y175.568 E.01479
G1 X214.987 Y175.336 E.01479
G1 X215.359 Y175.166 E.01479
G1 X215.784 Y175.061 E.01579
G1 X216.144 Y175.032 E.01304
G1 X216.572 Y175.07 E.0155
G1 X216.966 Y175.179 E.01479
G1 X217.336 Y175.356 E.01479
G1 X217.669 Y175.593 E.01479
G1 X217.957 Y175.885 E.01479
G1 X218.189 Y176.223 E.01479
G1 X218.35 Y176.577 E.01405
G1 X218.461 Y176.992 E.0155
G1 X218.493 Y177.4 E.01479
G1 X218.454 Y177.808 E.01479
G1 X218.345 Y178.202 E.01479
G1 X218.169 Y178.572 E.01479
G1 X217.931 Y178.905 E.01478
G1 X217.639 Y179.193 E.01479
G1 X217.301 Y179.425 E.01479
G1 X216.929 Y179.594 E.01479
G1 X216.532 Y179.697 E.01479
G1 X216.124 Y179.729 E.01479
G1 X215.717 Y179.69 E.01479
G1 X215.322 Y179.581 E.01479
G1 X214.952 Y179.405 E.01479
G1 X214.619 Y179.167 E.01479
G1 X214.364 Y178.907 E.01315
G1 E-.35 F2400
;WIPE_START
G1 F1800
G1 X214.332 Y178.875 E-.0068
G1 X214.111 Y178.554 E-.05839
G1 X213.93 Y178.165 E-.06441
G1 X213.896 Y178.033 E-.0204
;WIPE_END
G1 Z.4 F18000
G1 X207.547 Y101.133 Z.4
G1 Z.2
G1 E.5 F2400
;TYPE:Inner wall
G1 F1800
G1 X207.471 Y101.315 E.00713
G1 X207.261 Y101.51 E.01034
G1 X206.972 Y101.604 E.011
G1 X187.979 Y101.607 E.68576
G1 X187.664 Y101.531 E.01169
G1 X187.409 Y101.304 E.01232
G1 X187.293 Y101.014 E.01126
G1 X187.293 Y95.979 E.18182
G1 X187.387 Y95.632 E.01297
G1 X187.592 Y95.412 E.01085
G1 X187.885 Y95.293 E.01144
G1 X203.001 Y95.293 E.54575
G1 X203.659 Y95.341 E.02382
G1 X204.354 Y95.494 E.02571
G1 X205.019 Y95.75 E.02572
G1 X205.663 Y96.122 E.02686
G1 X206.196 Y96.547 E.02461
G1 X206.613 Y96.995 E.0221
G1 X206.953 Y97.465 E.02093
G1 X207.231 Y97.965 E.02065
G1 X207.435 Y98.428 E.01827
G1 X207.601 Y99.014 E.02198
G1 X207.697 Y99.731 E.02612
G1 X207.684 Y100.445 E.02581
G1 X207.585 Y101.042 E.02184
G1 X207.563 Y101.096 E.00212
G1 X207.135 Y100.962 F18000
;TYPE:Outer wall
G1 F1800
G1 X207.041 Y101.109 E.00632
G1 X206.91 Y101.15 E.00494
G1 X187.979 Y101.15 E.68354
G1 X187.829 Y101.094 E.00577
G1 X187.75 Y100.955 E.00578
G1 X187.75 Y95.979 E.17968
G1 X187.807 Y95.828 E.00582
G1 X187.956 Y95.75 E.00607
G1 X203.001 Y95.75 E.54321
