; HEADER_BLOCK_START
; generated by OrcaSlicer 2.0.0 on 2024-05-30 at 17:47:32
; total layer number: 15
; filament_density: 1.27
; filament_diameter: 1.75
; max_z_height: 3.00
; HEADER_BLOCK_END

; THUMBNAIL_BLOCK_START

;
; THUMBNAIL_BLOCK_END

; THUMBNAIL_BLOCK_START

;
; THUMBNAIL_BLOCK_END

; external perimeters extrusion width = 0.40mm
; perimeters extrusion width = 0.42mm
; infill extrusion width = 0.45mm
; solid infill extrusion width = 0.42mm
; top infill extrusion width = 0.40mm
; first layer extrusion width = 0.50mm

; EXECUTABLE_BLOCK_START
EXCLUDE_OBJECT_DEFINE NAME=Grille_av.stl_id_0_copy_0 CENTER=115,115 POLYGON=[[15,65],[215,65],[215,165],[15,165],[15,65]]
M73 P0 R103
;TYPE:Custom
M220 S100
G90 ; use absolute coordinates
M83 ; extruder relative mode
M104 S150 ; set temporary nozzle temp to prevent oozing during homing
M140 S70 ; set final bed temp
G4 S30 ; allow partial nozzle warmup
G28 ; home all axis and restore leveling
BED_MESH_CALIBRATE PROFILE=adaptive ADAPTIVE=1 ADAPTIVE_MARGIN=0
G1 Z25 F240
G1 X10.0 Y30 F3000
M104 S245 ; set final nozzle temp
M190 S70 ; wait for bed temp to stabilize
M109 S245 ; wait for nozzle temp to stabilize
G1 Z0.28 F240
G92 E0 ; Move Z Axis up
G1 Z2.0 F5000 ; Move to start position
G1 X5 Y30 Z0.28 F300 ; Draw the first line
G1 X5 Y200 Z0.28 F1500 E15 ; Move to side a little
G1 X5.4 Y200 Z0.28 F5000.0 ; Draw the second line
G1 X5.4 Y50 Z0.28 F1500.0 E30 ; Reset Extruder
G92 E0 ; Move Z Axis up
G1 Z2.0 F3000
M117 Start Printing..
G90
G21
M83 ; use relative distances for extrusion
; filament start gcode
M106 S0
;LAYER_CHANGE
;Z:0.2
;HEIGHT:0.2
;BEFORE_LAYER_CHANGE
;0.2
G92 E0

G1 E-.5 F2400
;_SET_FAN_SPEED_CHANGING_LAYER
SET_VELOCITY_LIMIT ACCEL=500 ACCEL_TO_DECEL=250
SET_VELOCITY_LIMIT SQUARE_CORNER_VELOCITY=7
; printing object Grille av.stl id:0 copy 0
EXCLUDE_OBJECT_START NAME=Grille_av.stl_id_0_copy_0
G1 Z.2 F18000
G1 X222.293 Y184.293
G1 Z.2
G1 E.5 F2400
;TYPE:Inner wall
;WIDTH:0.499999
G1 F1800
G1 X23.707 Y184.293 E7.17013
G1 X23.707 Y85.707 E3.55954
G1 X222.293 Y85.707 E7.17013
M73 P0 R102
G1 X222.293 Y184.253 E3.55809
G1 X222.75 Y184.75 F18000
;TYPE:Outer wall
G1 F1800
G1 X23.25 Y184.75 E7.20314
G1 X23.25 Y85.25 E3.59254
G1 X222.75 Y85.25 E7.20314
G1 X222.75 Y184.71 E3.5911
M73 P1 R102
G1 E-.35 F2400
;WIPE_START
G1 F1800
G1 X221.75 Y184.71 E-.15
;WIPE_END
G1 Z.4 F18000
G1 X218.686 Y178.29 Z.4
G1 Z.2
G1 E.5 F2400
;TYPE:Inner wall
G1 F1800
G1 X218.665 Y178.361 E.00268
G1 X218.456 Y178.784 E.01703
G1 X218.178 Y179.164 E.01703
G1 X217.854 Y179.475 E.01619
G1 X217.445 Y179.752 E.01785
G1 X217.013 Y179.942 E.01703
G1 X216.555 Y180.054 E.01703
G1 X216.084 Y180.085 E.01703
G1 X215.616 Y180.033 E.01703
G1 X215.163 Y179.901 E.01703
G1 X214.74 Y179.692 E.01703
G1 X214.36 Y179.414 E.01702
G1 X214.05 Y179.09 E.01619
G1 X213.772 Y178.681 E.01785
G1 X213.582 Y178.249 E.01703
G1 X213.47 Y177.791 E.01703
G1 X213.44 Y177.32 E.01702
G1 X213.491 Y176.852 E.01703
G1 X213.623 Y176.399 E.01702
G1 X213.832 Y175.976 E.01703
G1 X214.111 Y175.596 E.01703
G1 X214.451 Y175.27 E.01703
G1 X214.844 Y175.008 E.01703
G1 X215.275 Y174.818 E.01703
G1 X215.733 Y174.706 E.01703
G1 X216.181 Y174.677 E.01619
G1 X216.673 Y174.727 E.01785
G1 X217.125 Y174.859 E.01703
G1 X217.548 Y175.068 E.01703
G1 X217.928 Y175.347 E.01703
G1 X218.254 Y175.687 E.01703
G1 X218.516 Y176.08 E.01703
G1 X218.706 Y176.511 E.01703
G1 X218.818 Y176.969 E.01703
G1 X218.849 Y177.44 E.01703
G1 X218.797 Y177.909 E.01703
G1 X218.697 Y178.252 E.0129
G1 X218.252 Y178.163 F18000
;TYPE:Outer wall
G1 F1800
G1 X218.251 Y178.168 E.00019
G1 X218.082 Y178.522 E.01416
G1 X217.854 Y178.841 E.01416
G1 X217.589 Y179.102 E.01346
G1 X217.252 Y179.338 E.01484
G1 X216.895 Y179.5 E.01416
G1 X216.515 Y179.599 E.01416
G1 X216.124 Y179.629 E.01416
G1 X215.734 Y179.592 E.01416
G1 X215.356 Y179.487 E.01416
G1 X215.002 Y179.318 E.01416
G1 X214.683 Y179.09 E.01416
G1 X214.422 Y178.825 E.01346
G1 X214.186 Y178.488 E.01484
G1 X214.024 Y178.131 E.01416
G1 X213.926 Y177.751 E.01416
G1 X213.895 Y177.36 E.01416
G1 X213.933 Y176.97 E.01416
G1 X214.037 Y176.592 E.01416
G1 X214.304 Y176.099 E.02024
G1 X214.683 Y175.67 E.02067
G1 X215.037 Y175.422 E.01559
G1 X215.394 Y175.26 E.01416
G1 X215.773 Y175.162 E.01416
G1 X216.145 Y175.132 E.01346
G1 X216.554 Y175.169 E.01484
G1 X216.932 Y175.273 E.01416
G1 X217.286 Y175.442 E.01416
G1 X217.605 Y175.67 E.01416
G1 X217.88 Y175.95 E.01416
G1 X218.102 Y176.273 E.01416
G1 X218.265 Y176.63 E.01416
G1 X218.363 Y177.009 E.01416
G1 X218.393 Y177.4 E.01416
G1 X218.356 Y177.79 E.01416
G1 X218.263 Y178.124 E.01252
G1 E-.35 F2400
;WIPE_START
G1 F1800
G1 X218.251 Y178.168 E-.00679
G1 X218.082 Y178.522 E-.05881
G1 X217.854 Y178.841 E-.05881
G1 X217.733 Y178.961 E-.02559
;WIPE_END
G1 Z.4 F18000
G1 X187.879 Y171.584 Z.4
G1 Z.2
G1 E.5 F2400
;TYPE:Inner wall
G1 F1800
G1 X187.678 Y171.538 E.00741
G1 X187.415 Y171.312 E.01253
G1 X187.293 Y171.015 E.0116
G1 X187.293 Y165.979 E.18184
G1 X187.324 Y165.774 E.00745
G1 X187.409 Y165.596 E.00713
G1 X187.664 Y165.369 E.01232
G1 X187.979 Y165.293 E.01169
G1 X203.001 Y165.293 E.54239
G1 X203.611 Y165.334 E.02208
G1 X204.258 Y165.466 E.02383
G1 X204.88 Y165.686 E.02383
G1 X205.465 Y165.992 E.02383
G1 X205.978 Y166.359 E.02278
G1 X206.476 Y166.829 E.02472
G1 X206.888 Y167.35 E.02399
G1 X207.221 Y167.92 E.02383
G1 X207.46 Y168.504 E.02277
G1 X207.615 Y169.102 E.02231
G1 X207.703 Y169.834 E.02661
G1 X207.68 Y170.493 E.02383
G1 X207.584 Y171.046 E.02026
G1 X207.457 Y171.335 E.01141
G1 X207.239 Y171.523 E.0104
G1 X206.929 Y171.607 E.01158
G1 X188.85 Y171.607 E.65277
G1 X187.979 Y171.607 E.03145
G1 X187.917 Y171.593 E.00226
G1 X187.979 Y171.15 F18000
;TYPE:Outer wall
G1 F1800
G1 X187.832 Y171.097 E.00561
G1 X187.75 Y170.955 E.00593
G1 X187.75 Y165.979 E.17968
G1 X187.829 Y165.806 E.00686
G1 X187.979 Y165.75 E.00577
G1 X203.001 Y165.75 E.54239
G1 X203.579 Y165.79 E.02092
G1 X204.162 Y165.912 E.02152
G1 X204.723 Y166.115 E.02152
G1 X205.249 Y166.395 E.02152
G1 X205.709 Y166.728 E.02048
G1 X206.159 Y167.158 E.0225
G1 X206.527 Y167.629 E.02158
G1 X206.824 Y168.146 E.02152
G1 X207.035 Y168.672 E.02048
G1 X207.171 Y169.212 E.02008
G1 X207.248 Y169.877 E.02419
G1 X207.223 Y170.473 E.02151
G1 X207.131 Y170.978 E.01856
G1 X207.036 Y171.112 E.00593
G1 X206.91 Y171.15 E.00476
G1 X188.019 Y171.15 E.6821
G1 E-.35 F2400
;WIPE_START
G1 F1800
G1 X187.832 Y171.097 E-.02902
G1 X187.75 Y170.955 E-.02465
G1 X187.75 Y170.313 E-.09633
;WIPE_END
G1 Z.4 F18000
G1 X207.54 Y157.155 Z.4
G1 Z.2
G1 E.5 F2400
;TYPE:Inner wall
G1 F1800
G1 X207.477 Y157.306 E.00591
G1 X207.292 Y157.491 E.00943
G1 X206.999 Y157.601 E.01133
G1 X206.312 Y157.607 E.02478
G1 X187.979 Y157.607 E.66196
G1 X187.664 Y157.531 E.01169
G1 X187.409 Y157.304 E.01232
G1 X187.293 Y157.014 E.01126
G1 X187.293 Y151.979 E.18182
G1 X187.324 Y151.774 E.00745
G1 X187.409 Y151.596 E.00713
G1 X187.664 Y151.369 E.01232
G1 X187.979 Y151.293 E.01169
G1 X203.001 Y151.293 E.54239
G1 X203.611 Y151.334 E.02208
G1 X204.258 Y151.466 E.02383
G1 X204.88 Y151.686 E.02383
G1 X205.465 Y151.992 E.02383
G1 X205.978 Y152.359 E.02278
G1 X206.476 Y152.829 E.02472
G1 X206.888 Y153.35 E.02399
G1 X207.221 Y153.92 E.02383
G1 X207.46 Y154.504 E.02277
G1 X207.631 Y155.167 E.02474
G1 X207.703 Y155.834 E.0242
G1 X207.68 Y156.493 E.02383
G1 X207.584 Y157.046 E.02026
G1 X207.555 Y157.118 E.00281
G1 X207.129 Y156.987 F18000
;TYPE:Outer wall
G1 F1800
G1 X207.02 Y157.122 E.00629
G1 X206.91 Y157.15 E.00408
G1 X187.979 Y157.15 E.68354
G1 X187.829 Y157.094 E.00577
G1 X187.75 Y156.955 E.00578
G1 X187.75 Y151.979 E.17968
G1 X187.829 Y151.806 E.00686
G1 X187.979 Y151.75 E.00577
G1 X203.001 Y151.75 E.54239
G1 X203.579 Y151.79 E.02092
G1 X204.162 Y151.912 E.02152
G1 X204.723 Y152.115 E.02152
G1 X205.249 Y152.395 E.02152
G1 X205.709 Y152.728 E.02048
G1 X206.159 Y153.158 E.0225
G1 X206.527 Y153.629 E.02158
G1 X206.824 Y154.146 E.02152
G1 X207.035 Y154.672 E.02048
G1 X207.187 Y155.277 E.02251
G1 X207.248 Y155.877 E.02178
G1 X207.223 Y156.473 E.02151
G1 X207.136 Y156.947 E.01742
G1 E-.35 F2400
;WIPE_START
G1 F1800
G1 X207.02 Y157.122 E-.03153
G1 X206.91 Y157.15 E-.01696
G1 X206.233 Y157.15 E-.10151
;WIPE_END
G1 Z.4 F18000
G1 X207.54 Y143.155 Z.4
G1 Z.2
G1 E.5 F2400
;TYPE:Inner wall
G1 F1800
G1 X207.477 Y143.306 E.00591
G1 X207.292 Y143.491 E.00943
G1 X206.999 Y143.601 E.01133
G1 X187.979 Y143.607 E.68674
G1 X187.664 Y143.531 E.01169
G1 X187.409 Y143.304 E.01232
G1 X187.293 Y143.014 E.01126
G1 X187.293 Y137.979 E.18182
G1 X187.381 Y137.642 E.01256
G1 X187.582 Y137.419 E.01081
G1 X187.885 Y137.293 E.01186
G1 X203.001 Y137.293 E.54578
G1 X203.611 Y137.334 E.02208
G1 X204.258 Y137.466 E.02383
G1 X204.88 Y137.686 E.02383
G1 X205.465 Y137.992 E.02383
G1 X205.978 Y138.359 E.02279
G1 X206.476 Y138.829 E.02472
G1 X206.888 Y139.35 E.02399
G1 X207.221 Y139.92 E.02383
G1 X207.46 Y140.504 E.02277
G1 X207.631 Y141.167 E.02474
G1 X207.703 Y141.834 E.0242
G1 X207.68 Y142.493 E.02383
G1 X207.584 Y143.046 E.02026
G1 X207.555 Y143.118 E.00281
G1 X207.129 Y142.987 F18000
;TYPE:Outer wall
G1 F1800
G1 X207.02 Y143.122 E.00629
G1 X206.91 Y143.15 E.00408
G1 X187.979 Y143.15 E.68354
G1 X187.829 Y143.094 E.00577
G1 X187.75 Y142.955 E.00578
G1 X187.75 Y137.979 E.17968
G1 X187.804 Y137.831 E.00567
G1 X187.945 Y137.75 E.00587
G1 X203.001 Y137.75 E.5436
G1 X203.579 Y137.79 E.02092
G1 X204.162 Y137.912 E.02152
G1 X204.723 Y138.115 E.02152
G1 X205.249 Y138.395 E.02152
G1 X205.709 Y138.728 E.02048
G1 X206.159 Y139.158 E.0225
G1 X206.527 Y139.629 E.02158
G1 X206.824 Y140.146 E.02152
G1 X207.035 Y140.672 E.02048
G1 X207.187 Y141.277 E.02251
G1 X207.248 Y141.877 E.02178
G1 X207.223 Y142.473 E.02151
G1 X207.136 Y142.947 E.01742
G1 E-.35 F2400
;WIPE_START
G1 F1800
G1 X207.02 Y143.122 E-.03153
G1 X206.91 Y143.15 E-.01696
G1 X206.233 Y143.15 E-.10151
;WIPE_END
G1 Z.4 F18000
G1 X148.506 Y157.379 Z.4
G1 Z.2
G1 E.5 F2400
;TYPE:Inner wall
G1 F1800
G1 X148.336 Y157.531 E.00821
G1 X148.068 Y157.607 E.01007
G1 X127.979 Y157.607 E.72535
G1 X127.743 Y157.565 E.00865
G1 X127.471 Y157.383 E.0118
G1 X127.322 Y157.12 E.01089
G1 X127.293 Y156.921 E.00726
G1 X127.293 Y151.979 E.17847
G1 X127.354 Y151.695 E.01049
G1 X127.515 Y151.473 E.00989
G1 X127.743 Y151.335 E.0096
G1 X127.979 Y151.293 E.00865
G1 X148.021 Y151.293 E.72367
G1 X148.336 Y151.369 E.01169
G1 X148.591 Y151.596 E.01232
G1 X148.676 Y151.774 E.00713
G1 X148.707 Y151.979 E.00745
G1 X148.707 Y156.921 E.17847
G1 X148.676 Y157.126 E.00745
G1 X148.591 Y157.304 E.00713
G1 X148.536 Y157.353 E.00266
G1 X148.211 Y157.049 F18000
;TYPE:Outer wall
G1 F1800
G1 X148.071 Y157.15 E.00625
G1 X127.979 Y157.15 E.72545
G1 X127.824 Y157.09 E.00598
G1 X127.75 Y156.94 E.00605
G1 X127.75 Y151.979 E.17912
G1 X127.809 Y151.825 E.00595
G1 X127.96 Y151.75 E.00608
G1 X148.021 Y151.75 E.72432
G1 X148.171 Y151.806 E.00577
G1 X148.25 Y151.979 E.00686
G1 X148.25 Y156.921 E.17847
G1 X148.223 Y157.011 E.00336
G1 E-.35 F2400
;WIPE_START
G1 F1800
G1 X148.071 Y157.15 E-.03094
G1 X147.277 Y157.15 E-.11906
;WIPE_END
G1 Z.4 F18000
G1 X183.102 Y137.308 Z.4
G1 Z.2
G1 E.5 F2400
;TYPE:Inner wall
G1 F1800
G1 X183.264 Y137.337 E.00592
G1 X183.477 Y137.466 E.00898
G1 X183.619 Y137.642 E.00818
G1 X183.707 Y137.979 E.01256
G1 X183.707 Y174.021 E1.30136
G1 X183.638 Y174.322 E.01112
G1 X183.477 Y174.534 E.00963
G1 X183.225 Y174.676 E.01043
G1 X183.021 Y174.707 E.00744
G1 X152.979 Y174.707 E1.08473
G1 X152.681 Y174.639 E.011
G1 X152.461 Y174.471 E.01001
G1 X152.32 Y174.211 E.0107
G1 X152.293 Y173.246 E.03483
G1 X152.293 Y137.979 E1.27338
G1 X152.381 Y137.642 E.01256
G1 X152.582 Y137.419 E.01081
G1 X152.885 Y137.293 E.01186
G1 X183.021 Y137.293 E1.08811
G1 X183.063 Y137.3 E.00152
G1 X183.021 Y137.75 F18000
;TYPE:Outer wall
G1 F1800
G1 X183.173 Y137.808 E.00586
G1 X183.25 Y137.93 E.00523
G1 X183.25 Y174.021 E1.30311
G1 X183.194 Y174.171 E.00578
G1 X183.051 Y174.25 E.00589
G1 X152.979 Y174.25 E1.0858
G1 X152.827 Y174.192 E.00586
G1 X152.753 Y174.057 E.00557
G1 X152.75 Y173.246 E.02927
G1 X152.75 Y137.979 E1.27338
G1 X152.804 Y137.831 E.00567
M73 P1 R101
G1 X152.945 Y137.75 E.00587
G1 X182.981 Y137.75 E1.08449
G1 E-.35 F2400
;WIPE_START
G1 F1800
G1 X183.173 Y137.808 E-.03002
G1 X183.25 Y137.93 E-.02171
G1 X183.25 Y138.585 E-.09827
;WIPE_END
G1 Z.4 F18000
G1 X148.461 Y165.481 Z.4
G1 Z.2
G1 E.5 F2400
;TYPE:Inner wall
G1 F1800
G1 X148.591 Y165.596 E.00628
G1 X148.676 Y165.774 E.00713
G1 X148.707 Y165.979 E.00745
G1 X148.707 Y170.921 E.17847
G1 X148.674 Y171.131 E.00765
G1 X148.585 Y171.312 E.0073
G1 X148.322 Y171.538 E.01253
G1 X148.021 Y171.607 E.01112
G1 X127.979 Y171.607 E.72367
G1 X127.672 Y171.535 E.01138
G1 X127.436 Y171.34 E.01104
G1 X127.323 Y171.124 E.00881
G1 X127.293 Y170.921 E.00738
G1 X127.293 Y165.979 E.17847
G1 X127.354 Y165.695 E.01049
G1 X127.515 Y165.473 E.00989
G1 X127.743 Y165.335 E.0096
G1 X127.979 Y165.293 E.00865
G1 X148.021 Y165.293 E.72367
G1 X148.336 Y165.369 E.01169
G1 X148.431 Y165.454 E.0046
G1 X148.171 Y165.806 F18000
;TYPE:Outer wall
G1 F1800
G1 X148.25 Y165.979 E.00686
G1 X148.25 Y170.921 E.17847
G1 X148.209 Y171.052 E.00493
G1 X148.061 Y171.147 E.00636
G1 X127.979 Y171.15 E.72509
G1 X127.823 Y171.089 E.00602
G1 X127.75 Y170.94 E.00601
G1 X127.75 Y165.979 E.17912
G1 X127.809 Y165.825 E.00595
G1 X127.931 Y165.75 E.00514
G1 X148.021 Y165.75 E.7254
G1 X148.134 Y165.792 E.00432
G1 E-.35 F2400
;WIPE_START
G1 F1800
G1 X148.25 Y165.979 E-.033
G1 X148.25 Y166.759 E-.117
;WIPE_END
G1 Z.4 F18000
G1 X127.316 Y143.025 Z.4
G1 Z.2
G1 E.5 F2400
;TYPE:Inner wall
G1 F1800
G1 X127.293 Y142.888 E.00499
G1 X127.293 Y137.979 E.17727
G1 X127.354 Y137.695 E.01049
G1 X127.432 Y137.564 E.00548
G1 X127.648 Y137.378 E.01031
G1 X127.927 Y137.293 E.01053
G1 X148.021 Y137.293 E.72552
G1 X148.264 Y137.337 E.00889
G1 X148.477 Y137.466 E.00898
G1 X148.619 Y137.642 E.00818
G1 X148.707 Y137.979 E.01256
G1 X148.707 Y142.921 E.17847
G1 X148.676 Y143.126 E.00745
G1 X148.591 Y143.304 E.00713
G1 X148.336 Y143.531 E.01232
G1 X148.021 Y143.607 E.01169
G1 X127.979 Y143.607 E.72367
G1 X127.743 Y143.565 E.00865
G1 X127.471 Y143.383 E.0118
G1 X127.34 Y143.172 E.00898
G1 X127.322 Y143.064 E.00394
G1 X127.752 Y142.952 F18000
;TYPE:Outer wall
G1 F1800
G1 X127.75 Y137.979 E.17956
G1 X127.796 Y137.84 E.00526
G1 X127.943 Y137.75 E.00623
G1 X148.021 Y137.75 E.72494
G1 X148.173 Y137.808 E.00586
G1 X148.25 Y137.93 E.00523
G1 X148.25 Y142.921 E.18021
G1 X148.211 Y143.049 E.00481
G1 X148.071 Y143.15 E.00625
G1 X127.979 Y143.15 E.72545
G1 X127.824 Y143.09 E.00598
G1 X127.771 Y142.987 E.00418
G1 E-.35 F2400
;WIPE_START
G1 F1800
G1 X127.766 Y141.987 E-.15
;WIPE_END
G1 Z.4 F18000
G1 X207.548 Y129.13 Z.4
G1 Z.2
G1 E.5 F2400
;TYPE:Inner wall
G1 F1800
G1 X207.472 Y129.315 E.00721
G1 X207.239 Y129.523 E.0113
G1 X206.999 Y129.601 E.00911
G1 X127.979 Y129.607 E2.85311
G1 X127.743 Y129.565 E.00865
G1 X127.471 Y129.383 E.0118
G1 X127.322 Y129.12 E.01089
G1 X127.293 Y128.921 E.00726
G1 X127.293 Y123.979 E.17847
G1 X127.354 Y123.695 E.01049
G1 X127.515 Y123.473 E.00989
G1 X127.743 Y123.335 E.0096
G1 X127.979 Y123.293 E.00865
G1 X203.001 Y123.293 E2.70875
G1 X203.611 Y123.334 E.02208
G1 X204.23 Y123.459 E.02279
G1 X204.876 Y123.685 E.0247
G1 X205.465 Y123.992 E.024
G1 X205.978 Y124.359 E.02279
G1 X206.476 Y124.829 E.02472
G1 X206.888 Y125.35 E.02399
G1 X207.207 Y125.894 E.02278
G1 X207.469 Y126.527 E.02474
G1 X207.632 Y127.171 E.02398
G1 X207.702 Y127.827 E.02383
G1 X207.684 Y128.435 E.02193
G1 X207.586 Y129.037 E.02205
G1 X207.563 Y129.093 E.00216
G1 X207.136 Y128.96 F18000
;TYPE:Outer wall
G1 F1800
G1 X207.038 Y129.111 E.0065
G1 X206.91 Y129.15 E.00481
G1 X127.979 Y129.15 E2.84991
G1 X127.824 Y129.09 E.00598
G1 X127.75 Y128.94 E.00605
G1 X127.75 Y123.979 E.17912
G1 X127.809 Y123.825 E.00595
G1 X127.979 Y123.75 E.00667
G1 X203.001 Y123.75 E2.70875
G1 X203.579 Y123.79 E.02092
G1 X204.134 Y123.906 E.02049
G1 X204.721 Y124.115 E.02249
G1 X205.249 Y124.395 E.02158
G1 X205.709 Y124.728 E.02049
G1 X206.159 Y125.158 E.0225
G1 X206.527 Y125.629 E.02158
G1 X206.81 Y126.121 E.02048
