; HEADER_BLOCK_START
; generated by OrcaSlicer 2.0.0 on 2024-05-29 at 22:00:23
; total layer number: 20
; filament_density: 1.27
; filament_diameter: 1.75
; max_z_height: 2.00
; HEADER_BLOCK_END

; THUMBNAIL_BLOCK_START

;
; THUMBNAIL_BLOCK_END

; THUMBNAIL_BLOCK_START

;
; THUMBNAIL_BLOCK_END

; external perimeters extrusion width = 0.40mm
; perimeters extrusion width = 0.42mm
; infill extrusion width = 0.45mm
; solid infill extrusion width = 0.42mm
; top infill extrusion width = 0.40mm
; first layer extrusion width = 0.50mm

; EXECUTABLE_BLOCK_START
EXCLUDE_OBJECT_DEFINE NAME=Grille_av.stl_id_0_copy_0 CENTER=115,115 POLYGON=[[15,65],[215,65],[215,165],[15,165],[15,65]]
M73 P0 R109
;TYPE:Custom
M220 S100
G90 ; use absolute coordinates
M83 ; extruder relative mode
M104 S150 ; set temporary nozzle temp to prevent oozing during homing
M140 S70 ; set final bed temp
G4 S30 ; allow partial nozzle warmup
G28 ; home all axis and restore leveling
G1 Z25 F240
G1 X10.0 Y30 F3000
M104 S245 ; set final nozzle temp
M190 S70 ; wait for bed temp to stabilize
M109 S245 ; wait for nozzle temp to stabilize
G1 Z0.28 F240
G92 E0 ; Move Z Axis up
G1 Z2.0 F5000 ; Move to start position
G1 X5 Y30 Z0.28 F300 ; Draw the first line
G1 X5 Y200 Z0.28 F1500 E15 ; Move to side a little
G1 X5.4 Y200 Z0.28 F5000.0 ; Draw the second line
G1 X5.4 Y50 Z0.28 F1500.0 E30 ; Reset Extruder
G92 E0 ; Move Z Axis up
G1 Z2.0 F3000
M117 Start Printing..
G90
G21
M83 ; use relative distances for extrusion
; filament start gcode
M106 S0
;LAYER_CHANGE
;Z:0.1
;HEIGHT:0.1
;BEFORE_LAYER_CHANGE
;0.1
G92 E0

M73 P0 R108
G1 E-.5 F2400
;_SET_FAN_SPEED_CHANGING_LAYER
SET_VELOCITY_LIMIT ACCEL=500 ACCEL_TO_DECEL=250
SET_VELOCITY_LIMIT SQUARE_CORNER_VELOCITY=7
G1 Z.2 F18000
G1 X23.002 Y82.045
G1 Z.2
G1 Z.1
G1 E.5 F2400
;TYPE:Skirt
;WIDTH:0.5
G1 F3000
G1 X222.998 Y82.045 E3.78003
G1 X224.471 Y82.439 E.02882
G1 X225.553 Y83.514 E.02882
G1 X225.955 Y85.002 E.02915
G1 X225.955 Y184.998 E1.88997
G1 X225.561 Y186.471 E.02882
G1 X224.486 Y187.553 E.02882
G1 X222.998 Y187.955 E.02915
G1 X23.002 Y187.955 E3.78003
G1 X21.529 Y187.561 E.02882
G1 X20.447 Y186.486 E.02882
G1 X20.045 Y184.998 E.02915
G1 X20.045 Y85.002 E1.88997
G1 X20.439 Y83.529 E.02882
G1 X21.514 Y82.447 E.02882
G1 X22.964 Y82.056 E.02839
G1 X23.002 Y82.524 F18000
G1 F3000
G1 X222.998 Y82.524 E3.78003
G1 X224.335 Y82.916 E.02634
G1 X225.25 Y83.968 E.02634
G1 X225.476 Y85.002 E.02002
G1 X225.476 Y184.998 E1.88997
G1 X225.084 Y186.335 E.02634
G1 X224.032 Y187.25 E.02634
G1 X222.998 Y187.476 E.02002
G1 X23.002 Y187.476 E3.78003
G1 X21.665 Y187.084 E.02634
G1 X20.75 Y186.032 E.02634
G1 X20.524 Y184.998 E.02002
G1 X20.524 Y85.002 E1.88997
G1 X20.916 Y83.665 E.02634
G1 X21.968 Y82.75 E.02634
G1 X22.963 Y82.532 E.01926
; printing object Grille av.stl id:0 copy 0
G1 E-.35 F2400
;WIPE_START
G1 F3000
G1 X23.963 Y82.532 E-.15
;WIPE_END
EXCLUDE_OBJECT_START NAME=Grille_av.stl_id_0_copy_0
G1 Z.3 F18000
G1 X222.269 Y85.731 Z.3
G1 Z.1
G1 E.5 F2400
;TYPE:Inner wall
;WIDTH:0.499999
G1 F1800
G1 X222.269 Y184.269 E1.86242
G1 X23.731 Y184.269 E3.75248
G1 X23.731 Y85.731 E1.86242
G1 X222.229 Y85.731 E3.75173
M73 P1 R108
G1 X222.748 Y85.252 F18000
;TYPE:Outer wall
G1 F1800
G1 X222.748 Y184.748 E1.88051
G1 X23.252 Y184.748 E3.77057
G1 X23.252 Y85.252 E1.88051
M73 P1 R107
G1 X222.708 Y85.252 E3.76982
G1 E-.35 F2400
;WIPE_START
G1 F1800
G1 X222.708 Y86.252 E-.15
;WIPE_END
G1 Z.3 F18000
G1 X213.423 Y177.394 Z.3
G1 Z.1
G1 E.5 F2400
;TYPE:Inner wall
G1 F1800
G1 X213.418 Y177.318 E.00144
G1 X213.471 Y176.845 E.00898
G1 X213.647 Y176.296 E.0109
G1 X213.815 Y175.963 E.00705
G1 X214.031 Y175.655 E.00712
G1 X214.424 Y175.263 E.01048
G1 X214.835 Y174.988 E.00935
G1 X215.271 Y174.797 E.00898
G1 X215.732 Y174.685 E.00898
G1 X216.183 Y174.655 E.00854
G1 X216.679 Y174.707 E.00942
G1 X217.135 Y174.84 E.00898
G1 X217.561 Y175.051 E.00898
G1 X217.944 Y175.332 E.00898
G1 X218.272 Y175.676 E.00898
G1 X218.536 Y176.071 E.00898
G1 X218.727 Y176.507 E.00898
G1 X218.839 Y176.968 E.00898
G1 X218.87 Y177.443 E.00898
G1 X218.818 Y177.915 E.00898
G1 X218.684 Y178.371 E.00898
G1 X218.473 Y178.797 E.00898
G1 X218.192 Y179.18 E.00898
G1 X217.866 Y179.493 E.00854
G1 X217.453 Y179.772 E.00942
G1 X217.018 Y179.963 E.00898
G1 X216.556 Y180.075 E.00898
G1 X216.082 Y180.106 E.00898
G1 X215.609 Y180.054 E.00898
G1 X215.153 Y179.92 E.00898
G1 X214.727 Y179.709 E.00898
G1 X214.344 Y179.428 E.00898
G1 X214.032 Y179.102 E.00854
G1 X213.752 Y178.689 E.00942
G1 X213.561 Y178.254 E.00898
G1 X213.449 Y177.792 E.00898
G1 X213.426 Y177.433 E.00679
G1 X213.895 Y177.364 F18000
;TYPE:Outer wall
G1 F1800
G1 X213.895 Y177.359 E.00008
G1 X213.933 Y176.969 E.00741
G1 X214.081 Y176.498 E.00933
G1 X214.207 Y176.237 E.00547
G1 X214.413 Y175.943 E.00679
G1 X214.826 Y175.566 E.01058
G1 X215.038 Y175.422 E.00484
G1 X215.394 Y175.259 E.00741
G1 X215.774 Y175.162 E.00741
G1 X216.146 Y175.132 E.00704
G1 X216.555 Y175.169 E.00777
G1 X216.933 Y175.274 E.00741
G1 X217.287 Y175.443 E.00741
G1 X217.606 Y175.671 E.00741
G1 X217.88 Y175.95 E.00741
G1 X218.102 Y176.274 E.00741
G1 X218.265 Y176.63 E.00741
G1 X218.363 Y177.01 E.00741
G1 X218.393 Y177.401 E.00741
G1 X218.355 Y177.791 E.00741
G1 X218.25 Y178.169 E.00741
G1 X218.081 Y178.523 E.00741
G1 X217.854 Y178.842 E.00741
G1 X217.588 Y179.103 E.00704
G1 X217.251 Y179.338 E.00777
G1 X216.894 Y179.501 E.00741
G1 X216.514 Y179.599 E.00741
G1 X216.123 Y179.629 E.00741
G1 X215.733 Y179.591 E.00741
G1 X215.355 Y179.486 E.00741
G1 X215.001 Y179.317 E.00741
G1 X214.682 Y179.09 E.00741
G1 X214.421 Y178.824 E.00704
G1 X214.186 Y178.487 E.00777
G1 X214.023 Y178.13 E.00741
G1 X213.926 Y177.75 E.00741
G1 X213.898 Y177.403 E.00657
G1 E-.35 F2400
;WIPE_START
G1 F1800
G1 X213.895 Y177.359 E-.00665
G1 X213.933 Y176.969 E-.05881
G1 X214.081 Y176.498 E-.07403
G1 X214.112 Y176.435 E-.01052
;WIPE_END
G1 Z.3 F18000
G1 X207.561 Y115.178 Z.3
G1 Z.1
G1 E.5 F2400
;TYPE:Inner wall
G1 F1800
G1 X207.487 Y115.361 E.00373
G1 X207.293 Y115.556 E.0052
G1 X206.985 Y115.672 E.00621
G1 X206.271 Y115.679 E.01351
G1 X127.989 Y115.679 E1.47957
G1 X127.741 Y115.634 E.00476
G1 X127.503 Y115.489 E.00528
G1 X127.335 Y115.257 E.00541
G1 X127.271 Y114.961 E.00572
G1 X127.271 Y109.989 E.09396
G1 X127.335 Y109.693 E.00572
G1 X127.503 Y109.461 E.00541
G1 X127.741 Y109.316 E.00528
G1 X127.989 Y109.271 E.00476
G1 X203 Y109.271 E1.41775
G1 X203.612 Y109.313 E.01158
G1 X204.233 Y109.438 E.01199
G1 X204.882 Y109.664 E.01298
G1 X205.475 Y109.972 E.01262
G1 X205.991 Y110.341 E.01199
G1 X206.49 Y110.813 E.01299
G1 X206.905 Y111.336 E.01262
G1 X207.225 Y111.883 E.01198
G1 X207.489 Y112.519 E.013
G1 X207.653 Y113.165 E.01261
G1 X207.724 Y113.825 E.01253
G1 X207.704 Y114.458 E.01197
G1 X207.598 Y115.087 E.01206
G1 X207.576 Y115.141 E.00111
G1 X207.127 Y115.003 F18000
;TYPE:Outer wall
G1 F1800
G1 X207.04 Y115.148 E.0032
G1 X206.892 Y115.2 E.00298
G1 X127.989 Y115.2 E1.4913
G1 X127.827 Y115.137 E.00329
G1 X127.75 Y114.98 E.00331
G1 X127.75 Y109.989 E.09432
G1 X127.812 Y109.829 E.00325
G1 X127.97 Y109.75 E.00334
G1 X203 Y109.75 E1.41811
G1 X203.578 Y109.79 E.01094
G1 X204.133 Y109.906 E.01072
G1 X204.721 Y110.115 E.01177
G1 X205.249 Y110.394 E.0113
G1 X205.708 Y110.727 E.01072
G1 X206.159 Y111.158 E.01178
G1 X206.526 Y111.629 E.0113
G1 X206.81 Y112.12 E.01072
G1 X207.045 Y112.697 E.01178
G1 X207.188 Y113.278 E.01129
G1 X207.247 Y113.871 E.01127
G1 X207.226 Y114.438 E.01072
G1 X207.134 Y114.963 E.01009
G1 E-.35 F2400
;WIPE_START
G1 F1800
G1 X207.04 Y115.148 E-.03106
G1 X206.892 Y115.2 E-.02365
G1 X206.256 Y115.2 E-.09529
;WIPE_END
G1 Z.3 F18000
G1 X207.561 Y101.178 Z.3
G1 Z.1
G1 E.5 F2400
;TYPE:Inner wall
G1 F1800
G1 X207.487 Y101.361 E.00373
G1 X207.293 Y101.556 E.0052
G1 X206.985 Y101.672 E.00621
G1 X127.989 Y101.679 E1.49307
G1 X127.741 Y101.634 E.00476
G1 X127.503 Y101.489 E.00528
G1 X127.335 Y101.257 E.00541
G1 X127.271 Y100.961 E.00572
G1 X127.271 Y95.989 E.09396
G1 X127.331 Y95.702 E.00554
G1 X127.514 Y95.452 E.00586
G1 X127.777 Y95.304 E.0057
G1 X127.989 Y95.271 E.00406
G1 X203 Y95.271 E1.41775
G1 X203.612 Y95.313 E.01158
G1 X204.233 Y95.438 E.01199
G1 X204.882 Y95.664 E.01298
G1 X205.428 Y95.948 E.01163
G1 X205.991 Y96.341 E.01297
G1 X206.49 Y96.813 E.01299
G1 X206.905 Y97.336 E.01262
G1 X207.223 Y97.88 E.01191
G1 X207.489 Y98.519 E.01307
G1 X207.653 Y99.165 E.01261
G1 X207.724 Y99.825 E.01253
G1 X207.704 Y100.458 E.01197
G1 X207.598 Y101.087 E.01206
G1 X207.576 Y101.141 E.00111
G1 X207.127 Y101.003 F18000
;TYPE:Outer wall
G1 F1800
G1 X207.04 Y101.148 E.0032
G1 X206.892 Y101.2 E.00298
G1 X127.989 Y101.2 E1.4913
G1 X127.827 Y101.137 E.00329
G1 X127.75 Y100.98 E.00331
G1 X127.75 Y95.989 E.09432
G1 X127.809 Y95.832 E.00318
G1 X127.958 Y95.75 E.00322
G1 X203 Y95.75 E1.41834
G1 X203.578 Y95.79 E.01094
G1 X204.133 Y95.906 E.01073
G1 X204.721 Y96.115 E.01177
G1 X205.202 Y96.369 E.0103
G1 X205.708 Y96.727 E.01171
G1 X206.159 Y97.158 E.01178
G1 X206.526 Y97.629 E.0113
G1 X206.808 Y98.117 E.01065
G1 X207.045 Y98.697 E.01185
G1 X207.188 Y99.278 E.01129
G1 X207.247 Y99.871 E.01127
G1 X207.226 Y100.438 E.01072
G1 X207.134 Y100.963 E.01009
G1 E-.35 F2400
;WIPE_START
G1 F1800
G1 X207.04 Y101.148 E-.03106
G1 X206.892 Y101.2 E-.02365
G1 X206.256 Y101.2 E-.09529
;WIPE_END
G1 Z.3 F18000
G1 X215.222 Y93.94 Z.3
G1 Z.1
G1 E.5 F2400
;TYPE:Inner wall
G1 F1800
G1 X215.153 Y93.92 E.00137
G1 X214.723 Y93.707 E.00907
G1 X214.261 Y93.345 E.0111
G1 X213.931 Y92.961 E.00956
G1 X213.687 Y92.549 E.00907
G1 X213.497 Y92.015 E.01071
G1 X213.418 Y91.443 E.01091
G1 X213.471 Y90.845 E.01134
G1 X213.604 Y90.389 E.00898
G1 X213.815 Y89.963 E.00898
G1 X214.096 Y89.58 E.00898
G1 X214.44 Y89.252 E.00898
G1 X214.835 Y88.988 E.00898
G1 X215.271 Y88.797 E.00898
G1 X215.732 Y88.685 E.00898
G1 X216.183 Y88.655 E.00854
G1 X216.679 Y88.707 E.00942
G1 X217.135 Y88.84 E.00898
G1 X217.561 Y89.051 E.00898
G1 X217.944 Y89.332 E.00898
G1 X218.272 Y89.676 E.00898
G1 X218.524 Y90.052 E.00854
G1 X218.727 Y90.507 E.00942
G1 X218.839 Y90.968 E.00898
G1 X218.87 Y91.443 E.00898
G1 X218.818 Y91.915 E.00898
G1 X218.684 Y92.371 E.00898
G1 X218.473 Y92.797 E.00898
G1 X218.192 Y93.18 E.00898
G1 X217.866 Y93.493 E.00854
G1 X217.453 Y93.772 E.00942
G1 X217.018 Y93.963 E.00898
G1 X216.556 Y94.075 E.00898
G1 X216.082 Y94.106 E.00898
G1 X215.609 Y94.054 E.00898
G1 X215.261 Y93.952 E.00686
G1 X215.355 Y93.486 F18000
;TYPE:Outer wall
G1 F1800
G1 X214.998 Y93.315 E.00749
G1 X214.599 Y93.006 E.00952
G1 X214.208 Y92.524 E.01174
G1 X214.023 Y92.13 E.00823
G1 X213.908 Y91.546 E.01126
G1 X213.926 Y91.01 E.01013
G1 X214.038 Y90.591 E.0082
G1 X214.207 Y90.237 E.00741
G1 X214.435 Y89.918 E.00741
G1 X214.714 Y89.644 E.00741
G1 X215.038 Y89.422 E.00741
G1 X215.394 Y89.259 E.00741
G1 X215.774 Y89.162 E.00741
G1 X216.146 Y89.132 E.00704
G1 X216.555 Y89.169 E.00777
G1 X216.933 Y89.274 E.00741
G1 X217.287 Y89.443 E.00741
G1 X217.606 Y89.671 E.00741
G1 X217.88 Y89.95 E.00741
G1 X218.091 Y90.257 E.00704
G1 X218.265 Y90.63 E.00777
G1 X218.363 Y91.01 E.00741
G1 X218.393 Y91.401 E.00741
G1 X218.355 Y91.791 E.00741
G1 X218.25 Y92.169 E.00741
G1 X218.082 Y92.523 E.00741
G1 X217.854 Y92.842 E.00741
G1 X217.588 Y93.103 E.00704
G1 X217.251 Y93.338 E.00777
G1 X216.894 Y93.501 E.00741
G1 X216.514 Y93.599 E.00741
G1 X216.123 Y93.629 E.00741
G1 X215.733 Y93.591 E.00741
G1 X215.394 Y93.497 E.00665
G1 E-.35 F2400
;WIPE_START
G1 F1800
G1 X214.998 Y93.315 E-.06539
G1 X214.599 Y93.006 E-.07559
G1 X214.561 Y92.96 E-.00902
;WIPE_END
G1 Z.3 F18000
G1 X207.555 Y129.187 Z.3
G1 Z.1
G1 E.5 F2400
;TYPE:Inner wall
G1 F1800
G1 X207.468 Y129.389 E.00414
G1 X207.255 Y129.58 E.00541
G1 X206.979 Y129.673 E.0055
G1 X127.989 Y129.679 E1.49295
G1 X127.703 Y129.619 E.00553
G1 X127.501 Y129.487 E.00456
G1 X127.335 Y129.257 E.00536
G1 X127.271 Y128.961 E.00572
G1 X127.271 Y123.989 E.09396
G1 X127.335 Y123.693 E.00572
G1 X127.503 Y123.461 E.00541
G1 X127.741 Y123.316 E.00528
G1 X127.989 Y123.271 E.00476
G1 X203 Y123.271 E1.41775
G1 X203.612 Y123.313 E.01158
G1 X204.233 Y123.438 E.01199
G1 X204.882 Y123.664 E.01298
G1 X205.475 Y123.972 E.01262
G1 X205.991 Y124.341 E.01199
G1 X206.49 Y124.813 E.01299
G1 X206.905 Y125.336 E.01262
G1 X207.225 Y125.883 E.01198
G1 X207.489 Y126.519 E.013
G1 X207.653 Y127.165 E.01261
G1 X207.724 Y127.825 E.01253
G1 X207.704 Y128.458 E.01197
G1 X207.598 Y129.087 E.01206
G1 X207.571 Y129.151 E.00131
G1 X207.127 Y129.003 F18000
;TYPE:Outer wall
G1 F1800
G1 X207.028 Y129.158 E.00348
G1 X206.892 Y129.2 E.00269
G1 X127.989 Y129.2 E1.4913
G1 X127.827 Y129.136 E.0033
M73 P2 R107
G1 X127.75 Y128.98 E.00329
G1 X127.75 Y123.989 E.09432
G1 X127.812 Y123.829 E.00325
G1 X127.97 Y123.75 E.00334
G1 X203 Y123.75 E1.41811
G1 X203.578 Y123.79 E.01094
G1 X204.133 Y123.906 E.01072
G1 X204.721 Y124.115 E.01177
G1 X205.249 Y124.394 E.0113
G1 X205.708 Y124.727 E.01072
G1 X206.159 Y125.158 E.01178
G1 X206.526 Y125.629 E.0113
G1 X206.81 Y126.12 E.01072
G1 X207.045 Y126.697 E.01178
G1 X207.188 Y127.278 E.01129
G1 X207.247 Y127.871 E.01127
G1 X207.226 Y128.438 E.01072
G1 X207.134 Y128.963 E.01009
G1 E-.35 F2400
;WIPE_START
G1 F1800
G1 X207.028 Y129.158 E-.03321
G1 X206.892 Y129.2 E-.02139
G1 X206.256 Y129.2 E-.09541
;WIPE_END
G1 Z.3 F18000
G1 X202.488 Y171.525 Z.3
G1 Z.1
G1 E.5 F2400
;TYPE:Inner wall
G1 F1800
G1 X202.332 Y171.63 E.00356
G1 X202.073 Y171.679 E.00498
G1 X133.927 Y171.679 E1.28801
G1 X133.629 Y171.614 E.00576
G1 X133.402 Y171.451 E.00528
G1 X132.858 Y170.868 E.01508
G1 X132.299 Y170.222 E.01613
G1 X131.704 Y169.477 E.01802
G1 X131.198 Y168.782 E.01626
G1 X130.731 Y168.075 E.01601
G1 X130.302 Y167.36 E.01577
G1 X129.913 Y166.635 E.01555
G1 X129.564 Y165.901 E.01535
G1 X129.256 Y165.16 E.01517
G1 X128.978 Y164.38 E.01565
G1 X128.823 Y163.856 E.01033
G1 X128.573 Y162.867 E.01928
G1 X128.434 Y162.105 E.01465
G1 X128.337 Y161.339 E.01458
G1 X128.284 Y160.572 E.01454
G1 X128.273 Y159.792 E.01474
G1 X128.307 Y159.018 E.01464
G1 X128.384 Y158.246 E.01466
G1 X128.465 Y157.726 E.00996
G1 X128.668 Y156.711 E.01957
G1 X128.875 Y155.949 E.01492
G1 X129.123 Y155.195 E.015
G1 X129.412 Y154.451 E.01508
G1 X129.741 Y153.715 E.01525
G1 X130.128 Y152.956 E.01609
G1 X130.539 Y152.236 E.01568
G1 X130.989 Y151.525 E.0159
G1 X131.478 Y150.825 E.01614
G1 X132.005 Y150.136 E.0164
G1 X132.569 Y149.458 E.01667
G1 X133.196 Y148.765 E.01766
G1 X133.807 Y148.139 E.01654
G1 X134.506 Y147.473 E.01824
G1 X135.119 Y146.932 E.01545
G1 X135.965 Y146.228 E.0208
G1 X136.747 Y145.626 E.01866
G1 X137.568 Y145.036 E.01911
G1 X138.421 Y144.462 E.01943
G1 X139.296 Y143.911 E.01954
G1 X140.2 Y143.378 E.01985
G1 X141.133 Y142.862 E.02015
G1 X142.094 Y142.364 E.02045
G1 X143.082 Y141.885 E.02074
G1 X144.1 Y141.423 E.02115
G1 X145.151 Y140.978 E.02157
G1 X146.16 Y140.578 E.02052
G1 X147.256 Y140.172 E.02209
G1 X148.375 Y139.788 E.02236
G1 X149.515 Y139.426 E.0226
G1 X150.673 Y139.085 E.02283
G1 X151.779 Y138.786 E.02165
G1 X152.972 Y138.488 E.02324
G1 X154.181 Y138.214 E.02344
G1 X155.408 Y137.963 E.02368
G1 X157.812 Y137.544 E.04611
G1 X159.074 Y137.362 E.02411
G1 X160.347 Y137.204 E.02423
G1 X162.822 Y136.969 E.04701
G1 X164.193 Y136.878 E.02595
G1 X165.408 Y136.821 E.02299
G1 X166.785 Y136.783 E.02605
G1 X169.297 Y136.784 E.04747
G1 X171.804 Y136.878 E.04741
G1 X173.096 Y136.962 E.02448
G1 X174.38 Y137.071 E.02435
G1 X175.657 Y137.205 E.02427
G1 X176.929 Y137.363 E.02423
G1 X179.354 Y137.735 E.04638
G1 X180.595 Y137.963 E.02385
G1 X181.819 Y138.214 E.02361
G1 X183.028 Y138.488 E.02344
G1 X184.221 Y138.786 E.02324
G1 X185.327 Y139.085 E.02165
G1 X186.485 Y139.426 E.02283
G1 X187.625 Y139.788 E.0226
G1 X188.744 Y140.173 E.02236
G1 X189.84 Y140.578 E.02209
G1 X190.849 Y140.978 E.02052
G1 X191.905 Y141.425 E.02168
G1 X192.919 Y141.885 E.02103
G1 X193.906 Y142.364 E.02074
G1 X194.867 Y142.862 E.02045
G1 X195.8 Y143.378 E.02015
G1 X196.704 Y143.911 E.01984
G1 X197.569 Y144.456 E.01933
G1 X198.413 Y145.023 E.01922
G1 X199.219 Y145.601 E.01874
G1 X200.003 Y146.203 E.01868
G1 X200.749 Y146.816 E.01826
G1 X201.47 Y147.451 E.01816
