; HEADER_BLOCK_START
; generated by OrcaSlicer 2.1.1 on 2024-07-28 at 18:16:38
; total layer number: 60
; filament_density: 1.24
; filament_diameter: 1.75
; max_z_height: 12.00
; HEADER_BLOCK_END

; THUMBNAIL_BLOCK_START

;
; THUMBNAIL_BLOCK_END

; THUMBNAIL_BLOCK_START

;
; THUMBNAIL_BLOCK_END

; external perimeters extrusion width = 0.42mm
; perimeters extrusion width = 0.45mm
; infill extrusion width = 0.45mm
; solid infill extrusion width = 0.45mm
; top infill extrusion width = 0.42mm
; first layer extrusion width = 0.50mm

; EXECUTABLE_BLOCK_START
EXCLUDE_OBJECT_DEFINE NAME=Insert_thermometre_v2.stl_id_0_copy_0 CENTER=115,115 POLYGON=[[41.7066,114.743],[41.7121,114.319],[41.7534,113.898],[41.8302,113.482],[41.942,113.074],[42.0879,112.676],[51.498,90.7695],[51.6858,90.3901],[51.905,90.028],[52.1541,89.6857],[52.4313,89.3657],[52.7345,89.0702],[53.0616,88.8015],[53.4103,88.5614],[53.778,88.3517],[54.1622,88.1739],[76.3064,79.3376],[76.7075,79.2021],[77.1186,79.101],[77.5368,79.0351],[77.9591,79.0048],[78.3824,79.0103],[78.8037,79.0516],[157.944,89.0393],[158.37,89.1136],[158.787,89.2243],[159.194,89.3706],[177.614,97.0006],[178.005,97.1845],[178.378,97.4014],[178.732,97.6497],[179.062,97.9277],[179.368,98.2331],[179.646,98.5637],[179.894,98.9171],[180.111,99.2905],[180.295,99.6814],[187.925,118.102],[188.071,118.508],[188.182,118.926],[188.256,119.351],[188.293,119.781],[188.293,120.213],[188.256,120.644],[188.182,121.069],[188.071,121.487],[187.925,121.893],[180.295,140.313],[180.111,140.704],[179.894,141.078],[179.646,141.431],[179.368,141.762],[179.062,142.067],[178.732,142.345],[178.378,142.593],[178.005,142.81],[177.614,142.994],[159.194,150.624],[158.787,150.77],[158.37,150.881],[157.944,150.955],[157.514,150.993],[77.4446,150.995],[77.0213,150.99],[76.6,150.948],[76.1837,150.872],[75.7753,150.76],[75.3779,150.614],[53.4714,141.204],[53.092,141.016],[52.7298,140.797],[52.3875,140.548],[52.0675,140.271],[51.7721,139.967],[51.5034,139.64],[51.2633,139.292],[51.0536,138.924],[50.8757,138.54],[42.0394,116.395],[41.9039,115.994],[41.8029,115.583],[41.7369,115.165],[41.7066,114.743]]
M73 P0 R40
;TYPE:Custom
M220 S100
G90 ; use absolute coordinates
M83 ; extruder relative mode
M104 S150 ; set temporary nozzle temp to prevent oozing during homing
M140 S55 ; set final bed temp
G4 S30 ; allow partial nozzle warmup
G28 ; home all axis and restore leveling
BED_MESH_CALIBRATE PROFILE=adaptive ADAPTIVE=1 ADAPTIVE_MARGIN=0
G1 Z25 F240
G1 X10.0 Y30 F3000
M104 S210 ; set final nozzle temp
M190 S55 ; wait for bed temp to stabilize
M109 S210 ; wait for nozzle temp to stabilize
G1 Z0.28 F240
G92 E0 ; Move Z Axis up
G1 Z2.0 F5000 ; Move to start position
G1 X5 Y30 Z0.28 F300 ; Draw the first line
G1 X5 Y200 Z0.28 F1500 E15 ; Move to side a little
G1 X5.4 Y200 Z0.28 F5000.0 ; Draw the second line
G1 X5.4 Y50 Z0.28 F1500.0 E30 ; Reset Extruder
G92 E0 ; Move Z Axis up
G1 Z2.0 F3000
M117 Start Printing..
G90
G21
M83 ; use relative distances for extrusion
; filament start gcode
M106 S0
;LAYER_CHANGE
;Z:0.2
;HEIGHT:0.2
;BEFORE_LAYER_CHANGE
;0.2
G92 E0

M73 P1 R40
G1 E-.5 F1800
;_SET_FAN_SPEED_CHANGING_LAYER
SET_VELOCITY_LIMIT ACCEL=1000
SET_VELOCITY_LIMIT SQUARE_CORNER_VELOCITY=7
; printing object Insert thermometre v2.stl id:0 copy 0
EXCLUDE_OBJECT_START NAME=Insert_thermometre_v2.stl_id_0_copy_0
G1 Z.2 F24000
G1 X80.923 Y165.043
G1 Z.2
G1 E.5 F1800
;TYPE:Inner wall
;WIDTH:0.499999
G1 X80.771 Y164.898 E.00781
G1 X80.525 Y164.798 E.00992
G1 X79.471 Y164.594 E.03999
G1 X78.497 Y164.372 E.0372
G1 X77.511 Y164.112 E.03797
G1 X76.573 Y163.832 E.03646
G1 X75.626 Y163.515 E.03721
G1 X74.69 Y163.167 E.03721
G1 X73.765 Y162.788 E.03721
G1 X72.879 Y162.39 E.03618
G1 X71.933 Y161.926 E.03926
G1 X70.965 Y161.407 E.04088
G1 X70.155 Y160.94 E.03484
G1 X69.328 Y160.426 E.03626
G1 X68.505 Y159.877 E.03684
G1 X67.578 Y159.215 E.04245
G1 X67.261 Y159.141 E.01212
G1 X67.07 Y159.167 E.00716
G1 X66.777 Y159.335 E.01259
G1 X66.176 Y159.92 E.03126
G1 X65.577 Y160.328 E.02699
G1 X64.932 Y160.623 E.02642
G1 X64.238 Y160.808 E.02673
G1 X63.524 Y160.873 E.02672
G1 X62.809 Y160.817 E.02672
G1 X62.113 Y160.641 E.02672
G1 X61.457 Y160.35 E.02672
G1 X60.86 Y159.953 E.02672
G1 X60.338 Y159.461 E.02672
G1 X59.907 Y158.888 E.02672
G1 X59.578 Y158.25 E.0267
G1 X59.36 Y157.558 E.02703
G1 X59.263 Y156.855 E.02642
G1 X59.286 Y156.138 E.02673
G1 X59.43 Y155.435 E.02672
G1 X59.69 Y154.767 E.02672
G1 X60.059 Y154.152 E.02672
G1 X60.536 Y153.596 E.02726
G1 X60.953 Y153.202 E.02139
G1 X61.07 Y152.952 E.01027
G1 X61.066 Y152.618 E.01243
G1 X60.971 Y152.409 E.00854
G1 X60.37 Y151.52 E.03999
G1 X59.838 Y150.674 E.0372
G1 X59.325 Y149.794 E.03797
G1 X58.859 Y148.933 E.03646
G1 X58.414 Y148.038 E.03721
G1 X57.998 Y147.13 E.03721
G1 X57.613 Y146.209 E.03721
G1 X57.258 Y145.275 E.03721
G1 X56.934 Y144.33 E.03721
G1 X56.642 Y143.374 E.0372
G1 X56.381 Y142.41 E.03721
G1 X56.152 Y141.438 E.03721
G1 X55.956 Y140.458 E.03721
G1 X55.823 Y139.659 E.03018
G1 X55.704 Y139.182 E.01831
G1 X55.567 Y139.007 E.00828
G1 X55.406 Y138.897 E.00727
G1 X55.113 Y138.826 E.01122
G1 X54.273 Y138.814 E.03128
G1 X53.569 Y138.682 E.02668
G1 X52.897 Y138.432 E.02672
G1 X52.276 Y138.072 E.02672
G1 X51.725 Y137.613 E.02672
G1 X51.259 Y137.068 E.02672
G1 X50.891 Y136.451 E.02672
G1 X50.633 Y135.782 E.02672
G1 X50.492 Y135.079 E.02672
G1 X50.471 Y134.361 E.02672
G1 X50.571 Y133.651 E.02672
G1 X50.789 Y132.968 E.02672
G1 X51.12 Y132.331 E.02672
G1 X51.553 Y131.759 E.02672
G1 X52.076 Y131.269 E.02672
G1 X52.675 Y130.873 E.02672
G1 X53.332 Y130.584 E.02672
G1 X54.028 Y130.41 E.02672
G1 X54.489 Y130.375 E.01724
G1 X55.196 Y130.377 E.02631
G1 X55.531 Y130.309 E.01276
G1 X55.726 Y130.167 E.00897
G1 X55.845 Y129.997 E.00774
G1 X55.904 Y129.823 E.00684
G1 X56.108 Y128.769 E.03999
G1 X56.33 Y127.795 E.03721
G1 X56.584 Y126.829 E.03721
G1 X56.87 Y125.872 E.0372
G1 X57.194 Y124.905 E.03797
G1 X57.535 Y123.988 E.03646
G1 X57.914 Y123.064 E.03721
G1 X58.324 Y122.152 E.03721
G1 X58.763 Y121.255 E.03721
G1 X59.232 Y120.373 E.03721
G1 X59.729 Y119.507 E.0372
G1 X60.255 Y118.657 E.03721
G1 X60.809 Y117.826 E.03721
G1 X61.433 Y116.952 E.03999
G1 X61.554 Y116.65 E.01211
G1 X61.553 Y116.454 E.00732
G1 X61.5 Y116.272 E.00705
G1 X61.367 Y116.076 E.00883
G1 X60.776 Y115.467 E.03159
G1 X60.377 Y114.882 E.02638
G1 X60.078 Y114.23 E.02673
G1 X59.894 Y113.537 E.02672
G1 X59.829 Y112.822 E.02672
G1 X59.885 Y112.107 E.02672
G1 X60.061 Y111.411 E.02672
G1 X60.352 Y110.756 E.02672
G1 X60.749 Y110.158 E.02672
G1 X61.241 Y109.636 E.02672
G1 X61.814 Y109.205 E.02672
G1 X62.451 Y108.876 E.0267
G1 X63.144 Y108.658 E.02703
G1 X63.846 Y108.561 E.02643
G1 X64.564 Y108.585 E.02673
G1 X65.266 Y108.728 E.02672
G1 X65.935 Y108.988 E.02672
G1 X66.55 Y109.357 E.02672
G1 X66.901 Y109.659 E.01724
G1 X67.399 Y110.16 E.02632
G1 X67.644 Y110.333 E.01115
G1 X67.984 Y110.382 E.01279
G1 X68.292 Y110.269 E.01225
G1 X69.182 Y109.668 E.03999
G1 X70.027 Y109.136 E.0372
G1 X70.908 Y108.623 E.03797
G1 X71.769 Y108.158 E.03646
G1 X72.663 Y107.712 E.03721
G1 X73.572 Y107.296 E.03721
G1 X74.493 Y106.911 E.03721
G1 X75.427 Y106.556 E.03721
G1 X76.372 Y106.232 E.03721
G1 X77.327 Y105.94 E.0372
G1 X78.292 Y105.679 E.03721
G1 X79.228 Y105.459 E.03584
G1 X81.48 Y105.023 E.08542
G1 X81.708 Y104.85 E.01066
G1 X81.805 Y104.704 E.00651
G1 X81.876 Y104.411 E.01125
G1 X81.887 Y103.571 E.03128
G1 X82.02 Y102.867 E.02668
G1 X82.27 Y102.195 E.02672
G1 X82.63 Y101.574 E.02672
G1 X83.089 Y101.023 E.02672
G1 X83.634 Y100.557 E.02672
G1 X84.251 Y100.19 E.02672
G1 X84.92 Y99.931 E.02672
G1 X85.469 Y99.821 E.02087
G1 X85.974 Y99.763 E.01894
G1 X86.697 Y99.804 E.02697
G1 X87.397 Y99.964 E.02673
G1 X88.059 Y100.239 E.02672
G1 X88.666 Y100.622 E.02672
G1 X89.199 Y101.102 E.02672
G1 X89.644 Y101.665 E.02672
G1 X89.987 Y102.295 E.0267
G1 X90.221 Y102.982 E.02703
G1 X90.334 Y103.681 E.02638
G1 X90.342 Y104.688 E.03752
G1 X90.45 Y104.926 E.00971
G1 X90.724 Y105.153 E.01327
G1 X90.879 Y105.202 E.00604
G1 X91.933 Y105.406 E.03999
G1 X92.907 Y105.628 E.0372
G1 X93.893 Y105.888 E.03797
G1 X94.83 Y106.168 E.03646
G1 X95.778 Y106.485 E.03721
G1 X96.714 Y106.833 E.03721
G1 X97.638 Y107.212 E.03721
G1 X99.001 Y107.843 E.05592
G1 X100.361 Y108.548 E.05705
G1 X101.442 Y109.18 E.04664
G1 X102.367 Y109.768 E.04082
G1 X103.817 Y110.773 E.06573
G1 X104.105 Y110.857 E.01119
G1 X104.445 Y110.791 E.01289
G1 X104.626 Y110.665 E.00823
G1 X105.228 Y110.079 E.03128
G1 X105.82 Y109.675 E.02668
G1 X106.472 Y109.376 E.02672
G1 X107.165 Y109.192 E.02672
G1 X107.88 Y109.127 E.02672
G1 X108.595 Y109.183 E.02672
G1 X109.29 Y109.359 E.02672
G1 X109.946 Y109.65 E.02672
G1 X110.544 Y110.047 E.02672
G1 X111.066 Y110.539 E.02672
G1 X111.497 Y111.112 E.02672
G1 X111.826 Y111.75 E.0267
G1 X112.044 Y112.442 E.02703
G1 X112.14 Y113.145 E.02643
G1 X112.117 Y113.862 E.02672
G1 X111.974 Y114.565 E.02672
G1 X111.714 Y115.233 E.02672
G1 X111.344 Y115.848 E.02672
G1 X111.043 Y116.2 E.01725
G1 X110.542 Y116.698 E.02631
G1 X110.356 Y116.973 E.01235
G1 X110.32 Y117.286 E.01176
G1 X110.433 Y117.591 E.01209
G1 X111.034 Y118.48 E.03999
G1 X111.566 Y119.326 E.0372
G1 X112.079 Y120.206 E.03797
G1 X112.544 Y121.067 E.03646
G1 X112.99 Y121.962 E.03721
G1 X113.405 Y122.87 E.03721
G1 X113.791 Y123.791 E.03721
G1 X114.146 Y124.725 E.03721
G1 X114.47 Y125.67 E.03721
G1 X114.762 Y126.626 E.0372
G1 X115.023 Y127.59 E.03721
G1 X115.252 Y128.562 E.03721
G1 X115.448 Y129.542 E.03721
G1 X115.618 Y130.564 E.03858
G1 X115.74 Y130.883 E.01271
G1 X115.972 Y131.09 E.0116
G1 X116.291 Y131.174 E.01228
G1 X117.131 Y131.186 E.03128
G1 X117.835 Y131.318 E.02668
G1 X118.507 Y131.568 E.02672
G1 X119.128 Y131.928 E.02672
G1 X119.679 Y132.387 E.02672
G1 X120.145 Y132.932 E.02672
G1 X120.512 Y133.549 E.02672
G1 X120.77 Y134.218 E.02672
G1 X120.912 Y134.921 E.02672
G1 X120.933 Y135.639 E.02672
G1 X120.833 Y136.349 E.02672
G1 X120.615 Y137.032 E.0267
G1 X120.279 Y137.675 E.02703
G1 X119.851 Y138.241 E.02642
G1 X119.327 Y138.731 E.02673
G1 X118.729 Y139.127 E.02672
G1 X118.072 Y139.416 E.02672
G1 X117.376 Y139.59 E.02672
G1 X116.646 Y139.645 E.02726
G1 X116.142 Y139.622 E.01881
G1 X115.804 Y139.729 E.01317
G1 X115.582 Y139.96 E.01196
G1 X115.5 Y140.177 E.00864
G1 X115.296 Y141.231 E.03999
G1 X115.074 Y142.205 E.03721
G1 X114.82 Y143.171 E.03721
G1 X114.534 Y144.129 E.03721
G1 X114.217 Y145.076 E.03721
G1 X113.868 Y146.012 E.03721
G1 X113.489 Y146.936 E.03721
G1 X113.08 Y147.848 E.03721
G1 X112.641 Y148.745 E.03721
G1 X112.172 Y149.627 E.0372
G1 X111.675 Y150.493 E.0372
G1 X111.138 Y151.36 E.03797
G1 X110.595 Y152.174 E.03645
G1 X109.971 Y153.048 E.03998
G1 X109.857 Y153.308 E.0106
G1 X109.847 Y153.522 E.00796
G1 X109.894 Y153.705 E.00702
G1 X110.037 Y153.924 E.00977
G1 X110.623 Y154.526 E.03128
G1 X111.026 Y155.118 E.02667
G1 X111.328 Y155.778 E.02702
G1 X111.51 Y156.463 E.02642
G1 X111.575 Y157.178 E.02673
G1 X111.519 Y157.893 E.02672
G1 X111.343 Y158.588 E.02672
G1 X111.052 Y159.244 E.02672
G1 X110.655 Y159.842 E.02672
G1 X110.163 Y160.364 E.02672
G1 X109.589 Y160.795 E.02672
G1 X108.952 Y161.124 E.0267
G1 X108.26 Y161.342 E.02703
G1 X107.557 Y161.439 E.02642
G1 X106.84 Y161.415 E.02673
G1 X106.137 Y161.272 E.02672
G1 X105.469 Y161.012 E.02672
G1 X104.853 Y160.643 E.02672
G1 X104.298 Y160.166 E.02726
G1 X103.872 Y159.726 E.02279
G1 X103.556 Y159.616 E.01247
G1 X103.288 Y159.645 E.01004
G1 X103.111 Y159.731 E.00733
G1 X102.222 Y160.332 E.03999
G1 X101.376 Y160.864 E.0372
G1 X100.496 Y161.377 E.03797
G1 X99.634 Y161.842 E.03646
G1 X98.74 Y162.288 E.0372
G1 X97.832 Y162.704 E.03721
G1 X96.91 Y163.089 E.03721
M73 P1 R39
G1 X95.977 Y163.444 E.03721
G1 X95.031 Y163.768 E.03721
G1 X94.076 Y164.06 E.0372
G1 X93.112 Y164.321 E.03721
G1 X92.139 Y164.55 E.03721
G1 X91.16 Y164.746 E.03721
G1 X90.101 Y164.922 E.03999
G1 X89.842 Y165.023 E.01036
G1 X89.673 Y165.178 E.00853
G1 X89.583 Y165.33 E.00658
G1 X89.528 Y165.589 E.00988
G1 X89.516 Y166.428 E.03126
G1 X89.381 Y167.14 E.02699
G1 X89.134 Y167.805 E.02642
G1 X88.774 Y168.426 E.02673
G1 X88.315 Y168.977 E.02672
G1 X87.769 Y169.443 E.02672
G1 X87.153 Y169.81 E.02672
G1 X86.484 Y170.069 E.02672
G1 X85.78 Y170.21 E.02672
G1 X85.063 Y170.231 E.02672
G1 X84.353 Y170.131 E.02672
G1 X83.67 Y169.913 E.02672
G1 X83.033 Y169.582 E.02672
G1 X82.461 Y169.149 E.02672
G1 X81.97 Y168.626 E.02672
G1 X81.575 Y168.027 E.02672
G1 X81.286 Y167.37 E.02672
G1 X81.112 Y166.674 E.02672
G1 X81.076 Y166.199 E.01777
G1 X81.079 Y165.506 E.02579
G1 X81.047 Y165.26 E.00925
G1 X80.951 Y165.071 E.00789
G1 X80.58 Y165.337 F24000
;TYPE:Outer wall
G1 F1800
G1 X80.438 Y165.247 E.00626
G1 X79.376 Y165.041 E.04027
G1 X78.388 Y164.816 E.03776
G1 X77.387 Y164.552 E.03853
G1 X76.435 Y164.268 E.03701
G1 X75.474 Y163.946 E.03777
G1 X74.523 Y163.592 E.03777
G1 X73.585 Y163.208 E.03777
G1 X72.66 Y162.792 E.03777
G1 X71.749 Y162.346 E.03777
G1 X70.854 Y161.87 E.03777
G1 X69.974 Y161.365 E.03777
G1 X69.112 Y160.832 E.03777
G1 X68.268 Y160.27 E.03777
G1 X67.388 Y159.641 E.04027
G1 X67.257 Y159.598 E.00513
G1 X67.096 Y159.663 E.00647
G1 X66.466 Y160.276 E.03274
G1 X65.802 Y160.728 E.02991
G1 X65.087 Y161.055 E.0293
G1 X64.319 Y161.26 E.02961
G1 X63.527 Y161.332 E.02961
G1 X62.734 Y161.27 E.02961
G1 X61.964 Y161.074 E.02961
G1 X61.237 Y160.752 E.02961
G1 X60.575 Y160.312 E.02961
G1 X59.996 Y159.767 E.02961
G1 X59.518 Y159.132 E.02962
G1 X59.154 Y158.425 E.0296
G1 X58.912 Y157.659 E.02992
G1 X58.805 Y156.879 E.0293
G1 X58.831 Y156.085 E.02961
G1 X58.99 Y155.306 E.02961
G1 X59.278 Y154.565 E.02961
G1 X59.687 Y153.883 E.02961
G1 X60.019 Y153.497 E.01896
G1 X60.556 Y152.963 E.02821
G1 X60.625 Y152.846 E.00506
G1 X60.592 Y152.665 E.00685
G1 X59.987 Y151.77 E.04027
G1 X59.447 Y150.911 E.03777
G1 X58.926 Y150.017 E.03853
G1 X58.454 Y149.143 E.03701
G1 X58.002 Y148.236 E.03777
G1 X57.579 Y147.313 E.03777
G1 X57.188 Y146.378 E.03777
G1 X56.828 Y145.43 E.03777
G1 X56.499 Y144.471 E.03777
G1 X56.202 Y143.501 E.03777
G1 X55.938 Y142.522 E.03777
G1 X55.705 Y141.535 E.03777
G1 X55.506 Y140.541 E.03777
G1 X55.328 Y139.474 E.04026
G1 X55.258 Y139.343 E.00554
G1 X55.106 Y139.283 E.00607
G1 X54.227 Y139.271 E.03275
G1 X53.446 Y139.124 E.0296
G1 X52.701 Y138.847 E.02961
G1 X52.013 Y138.448 E.02961
G1 X51.402 Y137.939 E.02961
G1 X50.886 Y137.335 E.02961
G1 X50.479 Y136.652 E.02961
G1 X50.193 Y135.91 E.02961
G1 X50.036 Y135.131 E.02961
G1 X50.013 Y134.336 E.02961
G1 X50.124 Y133.549 E.02961
G1 X50.366 Y132.792 E.02961
G1 X50.732 Y132.086 E.02961
G1 X51.212 Y131.452 E.02961
G1 X51.792 Y130.909 E.02961
G1 X52.455 Y130.47 E.02961
G1 X53.183 Y130.15 E.02961
G1 X53.954 Y129.957 E.02961
G1 X54.455 Y129.919 E.01869
G1 X55.226 Y129.921 E.02874
G1 X55.396 Y129.851 E.00684
G1 X55.455 Y129.736 E.00481
G1 X55.661 Y128.675 E.04027
G1 X55.886 Y127.686 E.03777
G1 X56.144 Y126.705 E.03777
G1 X56.434 Y125.734 E.03777
G1 X56.763 Y124.753 E.03853
G1 X57.109 Y123.821 E.03701
G1 X57.494 Y122.883 E.03777
G1 X57.91 Y121.958 E.03777
G1 X58.356 Y121.047 E.03777
G1 X58.831 Y120.152 E.03777
G1 X59.336 Y119.273 E.03777
G1 X59.87 Y118.41 E.03777
G1 X60.432 Y117.566 E.03777
G1 X61.061 Y116.687 E.04027
G1 X61.101 Y116.52 E.00637
G1 X61.039 Y116.395 E.00523
G1 X60.421 Y115.757 E.03306
G1 X59.978 Y115.108 E.02929
G1 X59.647 Y114.385 E.02961
G1 X59.442 Y113.617 E.02961
G1 X59.37 Y112.825 E.02961
G1 X59.432 Y112.032 E.02961
G1 X59.627 Y111.262 E.02961
G1 X59.95 Y110.535 E.02961
G1 X60.39 Y109.873 E.02961
G1 X60.935 Y109.294 E.02961
G1 X61.57 Y108.816 E.02961
G1 X62.277 Y108.452 E.02961
G1 X63.043 Y108.211 E.02992
G1 X63.822 Y108.103 E.0293
G1 X64.617 Y108.129 E.02961
G1 X65.396 Y108.288 E.02961
G1 X66.137 Y108.576 E.02961
G1 X66.819 Y108.985 E.02961
G1 X67.199 Y109.312 E.01869
G1 X67.739 Y109.854 E.02848
G1 X67.879 Y109.928 E.00588
G1 X68.034 Y109.892 E.00593
G1 X68.932 Y109.285 E.04039
G1 X69.791 Y108.745 E.03777
G1 X70.684 Y108.224 E.03853
G1 X71.559 Y107.752 E.03701
G1 X72.466 Y107.3 E.03777
G1 X73.388 Y106.878 E.03777
G1 X74.324 Y106.486 E.03777
G1 X75.272 Y106.126 E.03777
G1 X76.231 Y105.797 E.03777
