; HEADER_BLOCK_START
; generated by OrcaSlicer 2.2.0 on 2024-11-17 at 17:35:20
; total layer number: 50
; filament_density: 1.24
; filament_diameter: 1.75
; max_z_height: 10.00
; HEADER_BLOCK_END

; THUMBNAIL_BLOCK_START

;
; THUMBNAIL_BLOCK_END

; THUMBNAIL_BLOCK_START

;
; THUMBNAIL_BLOCK_END

; external perimeters extrusion width = 0.42mm
; perimeters extrusion width = 0.45mm
; infill extrusion width = 0.45mm
; solid infill extrusion width = 0.45mm
; top infill extrusion width = 0.42mm
; first layer extrusion width = 0.50mm

; EXECUTABLE_BLOCK_START
EXCLUDE_OBJECT_DEFINE NAME=Male.stl_id_0_copy_0 CENTER=115,115 POLYGON=[[100,115],[100.009,114.791],[100.035,114.584],[100.078,114.38],[100.138,114.18],[100.215,113.986],[103.828,105.263],[103.911,105.071],[104.01,104.887],[104.124,104.712],[104.252,104.547],[104.393,104.393],[104.547,104.252],[104.712,104.124],[104.887,104.01],[105.071,103.911],[105.263,103.828],[113.986,100.215],[114.18,100.138],[114.38,100.078],[114.584,100.035],[114.791,100.009],[115,100],[115.209,100.009],[115.416,100.035],[115.62,100.078],[115.82,100.138],[116.014,100.215],[124.737,103.828],[124.929,103.911],[125.113,104.01],[125.288,104.124],[125.453,104.252],[125.607,104.393],[125.748,104.547],[125.876,104.712],[125.99,104.887],[126.089,105.071],[126.172,105.263],[129.785,113.986],[129.862,114.18],[129.922,114.38],[129.965,114.584],[129.991,114.791],[130,115],[129.991,115.209],[129.965,115.416],[129.922,115.62],[129.862,115.82],[129.785,116.014],[126.172,124.737],[126.089,124.929],[125.99,125.113],[125.876,125.288],[125.748,125.453],[125.607,125.607],[125.453,125.748],[125.288,125.876],[125.113,125.99],[124.929,126.089],[124.737,126.172],[116.014,129.785],[115.82,129.862],[115.62,129.922],[115.416,129.965],[115.209,129.991],[115,130],[114.791,129.991],[114.584,129.965],[114.38,129.922],[114.18,129.862],[113.986,129.785],[105.263,126.172],[105.071,126.089],[104.887,125.99],[104.712,125.876],[104.547,125.748],[104.393,125.607],[104.252,125.453],[104.124,125.288],[104.01,125.113],[103.911,124.929],[103.828,124.737],[100.215,116.014],[100.138,115.82],[100.078,115.62],[100.035,115.416],[100.009,115.209],[100,115]]
M73 P0 R10
;TYPE:Custom
M220 S100
G90 ; use absolute coordinates
M83 ; extruder relative mode
M104 S150 ; set temporary nozzle temp to prevent oozing during homing
M140 S55 ; set final bed temp
G4 S30 ; allow partial nozzle warmup
G28 ; home all axis and restore leveling
BED_MESH_CALIBRATE PROFILE=adaptive ADAPTIVE=1 ADAPTIVE_MARGIN=0
G1 Z25 F240
G1 X10.0 Y30 F3000
M104 S210 ; set final nozzle temp
M190 S55 ; wait for bed temp to stabilize
M109 S210 ; wait for nozzle temp to stabilize
G1 Z0.28 F240
M73 P1 R10
G92 E0 ; Move Z Axis up
M73 P1 R10
G1 Z2.0 F5000 ; Move to start position
M73 P2 R10
M73 P2 R10
G1 X5 Y30 Z0.28 F300 ; Draw the first line
G1 X5 Y200 Z0.28 F1500 E15 ; Move to side a little
G1 X5.4 Y200 Z0.28 F5000.0 ; Draw the second line
M73 P3 R10
M73 P3 R10
G1 X5.4 Y50 Z0.28 F1500.0 E30 ; Reset Extruder
G92 E0 ; Move Z Axis up
G1 Z2.0 F3000
M73 P4 R10
M117 Start Printing..
G90
G21
M83 ; use relative distances for extrusion
; filament start gcode
M106 S0
;LAYER_CHANGE
;Z:0.2
;HEIGHT:0.2
;BEFORE_LAYER_CHANGE
;0.2
G92 E0

M73 P4 R10
G1 E-.5 F1800
;_SET_FAN_SPEED_CHANGING_LAYER
SET_VELOCITY_LIMIT ACCEL=1000
SET_VELOCITY_LIMIT SQUARE_CORNER_VELOCITY=7
; printing object Male.stl id:0 copy 0
EXCLUDE_OBJECT_START NAME=Male.stl_id_0_copy_0
G1 Z.4 F24000
G1 X130.198 Y125.285
G1 Z.4
G1 Z.2
G1 E.5 F1800
;TYPE:Inner wall
;WIDTH:0.499999
G1 F3000
G1 X130.256 Y125.267 E.00207
G1 X130.69 Y124.856 E.02008
G1 X131.055 Y124.611 E.0148
G1 X131.478 Y124.46 E.01511
G1 X131.874 Y124.427 E.01337
G1 X132.463 Y124.54 E.02016
G1 X132.858 Y124.752 E.0151
G1 X133.248 Y125.141 E.01852
G1 X133.504 Y125.679 E.02004
G1 X133.574 Y126.247 E.01926
G1 X133.499 Y126.675 E.0146
G1 X133.222 Y127.208 E.02022
G1 X132.803 Y127.644 E.02031
G1 X132.668 Y127.899 E.00971
G1 X132.644 Y128.13 E.0078
G1 X132.718 Y128.397 E.00935
G1 X133.011 Y128.863 E.01852
G1 X133.412 Y129.571 E.02735
G1 X133.925 Y130.697 E.04163
G1 X134.317 Y131.87 E.04161
G1 X134.527 Y132.746 E.03029
G1 X134.631 Y132.978 E.00856
G1 X134.847 Y133.178 E.00991
G1 X135.181 Y133.272 E.01167
G1 X135.777 Y133.283 E.02004
G1 X136.304 Y133.458 E.01867
G1 X136.766 Y133.815 E.01965
G1 X137.095 Y134.306 E.01989
G1 X137.237 Y135 E.0238
G1 X137.181 Y135.445 E.01511
G1 X136.954 Y135.954 E.01874
G1 X136.549 Y136.381 E.01979
G1 X136.043 Y136.65 E.01928
G1 X135.604 Y136.736 E.01506
G1 X135.181 Y136.728 E.01422
G1 X134.847 Y136.822 E.01167
G1 X134.676 Y136.964 E.0075
G1 X134.527 Y137.254 E.01096
G1 X134.316 Y138.136 E.03049
G1 X134.071 Y138.913 E.02741
G1 X133.598 Y140.056 E.04162
G1 X133.004 Y141.149 E.04182
G1 X132.684 Y141.681 E.02088
G1 X132.644 Y141.961 E.00951
G1 X132.731 Y142.252 E.01021
G1 X133.144 Y142.69 E.02025
G1 X133.389 Y143.055 E.0148
G1 X133.54 Y143.478 E.01511
G1 X133.573 Y143.874 E.01337
G1 X133.46 Y144.463 E.02017
G1 X133.248 Y144.859 E.0151
G1 X132.859 Y145.248 E.01851
G1 X132.321 Y145.504 E.02004
G1 X131.753 Y145.574 E.01926
G1 X131.189 Y145.447 E.01944
G1 X130.685 Y145.14 E.01985
G1 X130.409 Y144.853 E.01339
G1 X130.093 Y144.666 E.01235
G1 X129.861 Y144.645 E.00783
G1 X129.567 Y144.738 E.01036
G1 X129.137 Y145.011 E.01716
G1 X128.429 Y145.412 E.02735
G1 X127.303 Y145.925 E.04162
G1 X125.941 Y146.362 E.0481
G1 X125.178 Y146.55 E.02643
G1 X124.907 Y146.731 E.01096
G1 X124.76 Y146.986 E.00993
G1 X124.719 Y147.645 E.02219
G1 X124.657 Y148.029 E.01311
G1 X124.379 Y148.552 E.0199
G1 X123.948 Y148.958 E.0199
G1 X123.438 Y149.183 E.01875
G1 X122.856 Y149.228 E.01965
G1 X122.413 Y149.124 E.01531
G1 X122.046 Y148.954 E.01359
G1 X121.619 Y148.549 E.01979
G1 X121.35 Y148.043 E.01928
G1 X121.264 Y147.604 E.01506
G1 X121.272 Y147.181 E.01422
G1 X121.171 Y146.834 E.01217
G1 X121.023 Y146.664 E.00757
G1 X120.746 Y146.527 E.0104
G1 X119.864 Y146.316 E.03049
G1 X119.087 Y146.071 E.02741
G1 X117.944 Y145.598 E.04162
G1 X116.851 Y145.004 E.04182
G1 X116.31 Y144.681 E.02118
G1 X116.049 Y144.644 E.00888
G1 X115.753 Y144.728 E.01036
G1 X115.31 Y145.144 E.02043
G1 X114.945 Y145.389 E.0148
G1 X114.522 Y145.54 E.01511
G1 X114.126 Y145.573 E.01337
G1 X113.537 Y145.46 E.02017
G1 X113.141 Y145.248 E.0151
G1 X112.752 Y144.859 E.01851
G1 X112.496 Y144.321 E.02004
G1 X112.426 Y143.753 E.01926
G1 X112.501 Y143.325 E.0146
G1 X112.605 Y143.099 E.00835
G1 X112.85 Y142.695 E.01592
G1 X113.272 Y142.247 E.02069
G1 X113.336 Y142.084 E.00589
G1 X113.354 Y141.851 E.00787
G1 X113.284 Y141.606 E.00857
G1 X112.989 Y141.137 E.01866
G1 X112.588 Y140.429 E.02735
G1 X112.075 Y139.303 E.04162
G1 X111.74 Y138.302 E.03551
G1 X111.438 Y137.147 E.04015
G1 X111.267 Y136.905 E.00996
G1 X111.012 Y136.759 E.00988
G1 X110.095 Y136.686 E.03095
G1 X109.552 Y136.458 E.01979
G1 X109.14 Y136.083 E.01875
G1 X108.861 Y135.565 E.01979
G1 X108.763 Y135 E.01929
G1 X108.819 Y134.555 E.01511
G1 X109.046 Y134.046 E.01874
G1 X109.451 Y133.619 E.01979
G1 X109.957 Y133.35 E.01928
G1 X110.396 Y133.264 E.01506
G1 X110.819 Y133.272 E.01422
G1 X111.164 Y133.172 E.01207
G1 X111.334 Y133.025 E.00756
G1 X111.473 Y132.746 E.0105
G1 X111.684 Y131.864 E.03049
G1 X111.929 Y131.087 E.02741
G1 X112.402 Y129.944 E.04162
G1 X112.996 Y128.851 E.04182
G1 X113.306 Y128.345 E.01997
M73 P4 R9
M73 P4 R9
G1 X113.355 Y128.034 E.01057
G1 X113.268 Y127.746 E.01014
G1 X112.856 Y127.31 E.02016
G1 X112.611 Y126.945 E.0148
G1 X112.46 Y126.522 E.01511
G1 X112.427 Y126.126 E.01337
G1 X112.54 Y125.537 E.02017
G1 X112.752 Y125.141 E.0151
G1 X113.141 Y124.752 E.01851
G1 X113.679 Y124.496 E.02004
G1 X114.247 Y124.426 E.01926
G1 X114.675 Y124.501 E.0146
G1 X115.208 Y124.778 E.02022
G1 X115.644 Y125.197 E.02031
G1 X115.903 Y125.333 E.00985
G1 X116.134 Y125.355 E.00781
G1 X116.427 Y125.265 E.01031
G1 X116.863 Y124.989 E.01738
G1 X117.571 Y124.588 E.02735
G1 X118.697 Y124.075 E.04163
G1 X119.87 Y123.683 E.04161
G1 X120.746 Y123.473 E.03029
G1 X120.979 Y123.369 E.00857
G1 X121.178 Y123.153 E.00991
G1 X121.27 Y122.866 E.01012
G1 X121.281 Y122.355 E.0172
G1 X121.343 Y121.971 E.01311
G1 X121.621 Y121.448 E.0199
G1 X122.04 Y121.052 E.01939
G1 X122.437 Y120.857 E.01487
G1 X122.999 Y120.766 E.01918
G1 X123.455 Y120.834 E.01552
G1 X123.823 Y120.968 E.01316
G1 X124.286 Y121.337 E.01991
G1 X124.607 Y121.834 E.0199
G1 X124.716 Y122.252 E.01454
G1 X124.728 Y122.819 E.01907
G1 X124.822 Y123.153 E.01166
G1 X125.021 Y123.369 E.00991
G1 X125.254 Y123.473 E.00857
G1 X126.136 Y123.684 E.03049
G1 X126.913 Y123.929 E.02741
G1 X128.056 Y124.402 E.04162
G1 X129.149 Y124.996 E.04182
M73 P5 R9
M73 P5 R9
G1 X129.687 Y125.318 E.0211
G1 X129.97 Y125.355 E.0096
G1 X130.159 Y125.297 E.00665
G1 X130.029 Y124.87 F24000
;TYPE:Outer wall
G1 F3000
G1 X130.395 Y124.504 E.0174
G1 X130.847 Y124.199 E.01836
G1 X131.105 Y124.107 E.00921
G1 X131.569 Y123.986 E.01613
G1 X132.091 Y123.977 E.01754
G1 X132.629 Y124.11 E.01863
G1 X132.87 Y124.24 E.00924
G1 X133.271 Y124.502 E.01611
G1 X133.628 Y124.883 E.01755
G1 X133.892 Y125.375 E.01878
G1 X133.994 Y125.726 E.01231
G1 X134.034 Y126.271 E.01837
G1 X133.938 Y126.812 E.01848
G1 X133.705 Y127.323 E.01891
G1 X133.108 Y128.023 E.03092
G1 X133.125 Y128.189 E.00562
G1 X133.403 Y128.628 E.01749
G1 X133.82 Y129.363 E.02842
G1 X134.351 Y130.529 E.0431
G1 X134.757 Y131.744 E.04309
G1 X134.971 Y132.64 E.03097
G1 X135.044 Y132.759 E.00469
G1 X135.189 Y132.815 E.00525
G1 X135.835 Y132.827 E.02171
G1 X136.333 Y132.973 E.01745
G1 X136.691 Y133.171 E.01378
G1 X137.1 Y133.503 E.01771
G1 X137.365 Y133.87 E.01525
G1 X137.571 Y134.286 E.01562
G1 X137.698 Y135 E.02437
G1 X137.664 Y135.271 E.00918
G1 X137.563 Y135.739 E.01611
G1 X137.331 Y136.216 E.01785
G1 X136.972 Y136.633 E.01852
G1 X136.68 Y136.855 E.01231
G1 X136.187 Y137.088 E.01837
G1 X135.643 Y137.194 E.01863
G1 X135.198 Y137.185 E.01497
G1 X135.078 Y137.216 E.00418
G1 X134.971 Y137.36 E.00603
G1 X134.757 Y138.258 E.03103
G1 X134.501 Y139.069 E.02863
G1 X134.011 Y140.253 E.0431
G1 X133.398 Y141.381 E.04317
G1 X133.108 Y141.854 E.01866
G1 X133.129 Y142.028 E.00587
G1 X133.496 Y142.395 E.01745
G1 X133.801 Y142.847 E.01836
G1 X133.893 Y143.105 E.00921
G1 X134.014 Y143.569 E.01613
G1 X134.023 Y144.091 E.01754
G1 X133.89 Y144.629 E.01864
G1 X133.76 Y144.871 E.00925
G1 X133.498 Y145.271 E.01608
G1 X133.117 Y145.628 E.01754
G1 X132.625 Y145.892 E.01878
G1 X132.274 Y145.994 E.01231
G1 X131.729 Y146.034 E.01837
G1 X131.461 Y145.987 E.00917
G1 X131.017 Y145.87 E.01542
G1 X130.583 Y145.622 E.01683
G1 X129.975 Y145.108 E.0268
G1 X129.796 Y145.134 E.00608
G1 X129.372 Y145.403 E.01689
G1 X128.637 Y145.82 E.02842
G1 X127.471 Y146.351 E.0431
G1 X126.048 Y146.807 E.05027
G1 X125.303 Y146.993 E.02582
G1 X125.195 Y147.124 E.0057
G1 X125.178 Y147.54 E.014
G1 X125.131 Y148.011 E.01592
G1 X124.97 Y148.437 E.0153
G1 X124.742 Y148.829 E.01526
G1 X124.424 Y149.152 E.01524
G1 X124.035 Y149.432 E.01614
G1 X123.542 Y149.63 E.01786
G1 X123.173 Y149.677 E.01252
G1 X122.639 Y149.669 E.01796
G1 X122.104 Y149.508 E.01878
G1 X121.784 Y149.331 E.01231
G1 X121.367 Y148.972 E.01852
G1 X121.145 Y148.68 E.01231
G1 X120.912 Y148.187 E.01837
G1 X120.806 Y147.643 E.01863
G1 X120.815 Y147.198 E.01497
G1 X120.781 Y147.074 E.00434
G1 X120.64 Y146.971 E.00588
G1 X119.742 Y146.757 E.03103
G1 X118.931 Y146.501 E.02863
G1 X117.747 Y146.011 E.0431
G1 X116.619 Y145.398 E.04317
G1 X116.148 Y145.109 E.01857
G1 X115.974 Y145.128 E.0059
G1 X115.605 Y145.496 E.01751
G1 X115.153 Y145.801 E.01836
G1 X114.895 Y145.893 E.00921
G1 X114.431 Y146.014 E.01613
G1 X113.909 Y146.023 E.01754
G1 X113.371 Y145.89 E.01864
G1 X113.129 Y145.76 E.00925
G1 X112.729 Y145.498 E.01609
G1 X112.372 Y145.117 E.01754
G1 X112.108 Y144.625 E.01878
G1 X112.006 Y144.274 E.01231
G1 X111.966 Y143.729 E.01837
G1 X112.062 Y143.188 E.01848
G1 X112.176 Y142.937 E.0093
G1 X112.411 Y142.52 E.01608
G1 X112.83 Y142.08 E.02044
G1 X112.893 Y141.972 E.00423
G1 X112.876 Y141.812 E.00539
G1 X112.597 Y141.372 E.01754
G1 X112.18 Y140.637 E.02842
G1 X111.649 Y139.471 E.0431
G1 X111.307 Y138.447 E.03632
G1 X111.006 Y137.302 E.0398
G1 X110.875 Y137.195 E.00569
G1 X110.459 Y137.178 E.01399
G1 X109.989 Y137.131 E.01591
G1 X109.563 Y136.969 E.01533
G1 X109.154 Y136.729 E.01594
G1 X108.773 Y136.36 E.01786
G1 X108.489 Y135.888 E.01852
G1 X108.37 Y135.542 E.01231
G1 X108.302 Y135 E.01838
G1 X108.336 Y134.729 E.00919
G1 X108.437 Y134.261 E.0161
G1 X108.669 Y133.784 E.01785
G1 X109.028 Y133.367 E.01852
G1 X109.32 Y133.145 E.01231
G1 X109.813 Y132.912 E.01837
G1 X110.357 Y132.806 E.01863
G1 X110.802 Y132.815 E.01497
G1 X110.926 Y132.782 E.00431
G1 X111.029 Y132.64 E.0059
G1 X111.243 Y131.742 E.03103
G1 X111.499 Y130.931 E.02863
G1 X111.989 Y129.747 E.0431
G1 X112.602 Y128.619 E.04317
G1 X112.892 Y128.144 E.01871
G1 X112.87 Y127.972 E.00586
G1 X112.504 Y127.605 E.01742
G1 X112.199 Y127.153 E.01836
G1 X112.107 Y126.895 E.00921
G1 X111.986 Y126.431 E.01613
G1 X111.977 Y125.909 E.01754
G1 X112.11 Y125.371 E.01864
G1 X112.24 Y125.129 E.00925
G1 X112.502 Y124.729 E.01609
G1 X112.883 Y124.372 E.01754
G1 X113.375 Y124.108 E.01878
G1 X113.726 Y124.006 E.01231
G1 X114.271 Y123.966 E.01837
G1 X114.812 Y124.062 E.01848
G1 X115.323 Y124.295 E.01891
G1 X116.024 Y124.892 E.03097
G1 X116.199 Y124.87 E.00593
G1 X116.628 Y124.597 E.01711
G1 X117.363 Y124.18 E.02842
G1 X118.529 Y123.649 E.0431
G1 X119.744 Y123.243 E.04309
G1 X120.64 Y123.029 E.03097
G1 X120.784 Y122.922 E.00604
G1 X120.869 Y121.989 E.03152
G1 X121.072 Y121.475 E.01859
G1 X121.366 Y121.029 E.01797
G1 X121.786 Y120.668 E.01862
G1 X122.286 Y120.421 E.01875
G1 X122.646 Y120.345 E.01237
G1 X123.179 Y120.309 E.01796
G1 X123.55 Y120.387 E.01277
G1 X124.052 Y120.57 E.01797
G1 X124.36 Y120.792 E.01278
G1 X124.745 Y121.162 E.01797
G1 X125.026 Y121.646 E.0188
G1 X125.168 Y122.185 E.01875
G1 X125.185 Y122.802 E.02076
G1 X125.216 Y122.922 E.00418
G1 X125.36 Y123.029 E.00604
G1 X126.258 Y123.243 E.03103
G1 X127.069 Y123.499 E.02863
G1 X128.253 Y123.989 E.0431
G1 X129.381 Y124.602 E.04317
G1 X129.857 Y124.893 E.01875
G1 X129.989 Y124.875 E.00449
G1 E-.5 F1800
;WIPE_START
G1 F12000
G1 X130.395 Y124.504
G1 X130.847 Y124.199
G1 X131.105 Y124.107
G1 X131.569 Y123.986
G1 X131.721 Y123.984
;WIPE_END
G1 Z.4 F24000
G1 X119.63 Y135.978 Z.4
G1 Z.2
G1 E.5 F1800
;TYPE:Inner wall
G1 F3000
G1 X119.551 Y135.775 E.00733
G1 X119.424 Y135.188 E.0202
G1 X119.414 Y134.414 E.02606
G1 X119.53 Y133.828 E.02007
G1 X119.614 Y133.518 E.0108
G1 X119.88 Y132.928 E.02179
G1 X120.34 Y132.272 E.02695
G1 X120.926 Y131.729 E.02687
G1 X121.509 Y131.373 E.02295
G1 X121.999 Y131.213 E.01734
G1 X122.364 Y131.124 E.01265
G1 X122.946 Y131.073 E.01964
G1 X123.607 Y131.119 E.02229
G1 X124.402 Y131.332 E.0277
G1 X125.019 Y131.63 E.02305
G1 X125.608 Y132.065 E.0246
G1 X126.065 Y132.543 E.02226
G1 X126.5 Y133.219 E.02704
G1 X126.732 Y133.773 E.02022
G1 X126.886 Y134.458 E.02358
G1 X126.924 Y135.11 E.02199
G1 X126.805 Y135.778 E.02282
G1 X126.497 Y136.525 E.02716
G1 X126.108 Y137.105 E.02351
G1 X125.69 Y137.55 E.02055
G1 X125.316 Y137.86 E.01634
G1 X124.839 Y138.154 E.01885
G1 X124.111 Y138.421 E.02605
G1 X123.334 Y138.518 E.02636
G1 X122.473 Y138.432 E.02909
G1 X121.748 Y138.237 E.02525
G1 X121.084 Y137.893 E.02516
G1 X120.511 Y137.419 E.02501
G1 X120.062 Y136.845 E.02451
G1 X119.645 Y136.015 E.03123
G1 X120.055 Y135.812 F24000
;TYPE:Outer wall
G1 F3000
G1 X119.871 Y135.092 E.02502
G1 X119.871 Y134.418 E.02266
G1 X120.031 Y133.707 E.02452
G1 X120.297 Y133.116 E.02179
G1 X120.71 Y132.541 E.02381
G1 X121.23 Y132.07 E.0236
G1 X121.739 Y131.768 E.0199
G1 X122.361 Y131.587 E.02181
G1 X122.985 Y131.529 E.02106
G1 X123.569 Y131.574 E.0197
G1 X124.277 Y131.772 E.02473
G1 X124.813 Y132.038 E.02013
G1 X125.331 Y132.428 E.0218
G1 X125.73 Y132.854 E.01963
G1 X126.112 Y133.46 E.02412
G1 X126.307 Y133.942 E.01748
G1 X126.438 Y134.551 E.02096
G1 X126.467 Y135.122 E.01924
G1 X126.358 Y135.679 E.01909
G1 X126.077 Y136.345 E.02429
G1 X125.734 Y136.843 E.02035
G1 X125.374 Y137.219 E.01752
G1 X125.016 Y137.508 E.01546
