; HEADER_BLOCK_START
; generated by OrcaSlicer 2.2.0 on 2024-11-17 at 19:11:55
; total layer number: 50
; filament_density: 1.24
; filament_diameter: 1.75
; max_z_height: 10.05
; HEADER_BLOCK_END

; THUMBNAIL_BLOCK_START

;
; THUMBNAIL_BLOCK_END

; THUMBNAIL_BLOCK_START

;
; THUMBNAIL_BLOCK_END

; external perimeters extrusion width = 0.42mm
; perimeters extrusion width = 0.45mm
; infill extrusion width = 0.45mm
; solid infill extrusion width = 0.45mm
; top infill extrusion width = 0.42mm
; first layer extrusion width = 0.55mm

; EXECUTABLE_BLOCK_START
EXCLUDE_OBJECT_DEFINE NAME=Male.stl_id_0_copy_0 CENTER=115,115 POLYGON=[[100,115],[100.009,114.791],[100.035,114.584],[100.078,114.38],[100.138,114.18],[100.215,113.986],[103.828,105.263],[103.911,105.071],[104.01,104.887],[104.124,104.712],[104.252,104.547],[104.393,104.393],[104.547,104.252],[104.712,104.124],[104.887,104.01],[105.071,103.911],[105.263,103.828],[113.986,100.215],[114.18,100.138],[114.38,100.078],[114.584,100.035],[114.791,100.009],[115,100],[115.209,100.009],[115.416,100.035],[115.62,100.078],[115.82,100.138],[116.014,100.215],[124.737,103.828],[124.929,103.911],[125.113,104.01],[125.288,104.124],[125.453,104.252],[125.607,104.393],[125.748,104.547],[125.876,104.712],[125.99,104.887],[126.089,105.071],[126.172,105.263],[129.785,113.986],[129.862,114.18],[129.922,114.38],[129.965,114.584],[129.991,114.791],[130,115],[129.991,115.209],[129.965,115.416],[129.922,115.62],[129.862,115.82],[129.785,116.014],[126.172,124.737],[126.089,124.929],[125.99,125.113],[125.876,125.288],[125.748,125.453],[125.607,125.607],[125.453,125.748],[125.288,125.876],[125.113,125.99],[124.929,126.089],[124.737,126.172],[116.014,129.785],[115.82,129.862],[115.62,129.922],[115.416,129.965],[115.209,129.991],[115,130],[114.791,129.991],[114.584,129.965],[114.38,129.922],[114.18,129.862],[113.986,129.785],[105.263,126.172],[105.071,126.089],[104.887,125.99],[104.712,125.876],[104.547,125.748],[104.393,125.607],[104.252,125.453],[104.124,125.288],[104.01,125.113],[103.911,124.929],[103.828,124.737],[100.215,116.014],[100.138,115.82],[100.078,115.62],[100.035,115.416],[100.009,115.209],[100,115]]
M73 P0 R12
;TYPE:Custom
M220 S100
G90 ; use absolute coordinates
M83 ; extruder relative mode
M104 S150 ; set temporary nozzle temp to prevent oozing during homing
M140 S55 ; set final bed temp
G4 S30 ; allow partial nozzle warmup
G28 ; home all axis and restore leveling
BED_MESH_CALIBRATE PROFILE=adaptive ADAPTIVE=1 ADAPTIVE_MARGIN=0
G1 Z25 F240
G1 X10.0 Y30 F3000
M73 P0 R11
M104 S210 ; set final nozzle temp
M190 S55 ; wait for bed temp to stabilize
M109 S210 ; wait for nozzle temp to stabilize
M73 P0 R11
G1 Z0.28 F240
G92 E0 ; Move Z Axis up
G1 Z2.0 F5000 ; Move to start position
M73 P1 R11
M73 P1 R11
G1 X5 Y30 Z0.28 F300 ; Draw the first line
G1 X5 Y200 Z0.28 F1500 E15 ; Move to side a little
G1 X5.4 Y200 Z0.28 F5000.0 ; Draw the second line
M73 P2 R11
M73 P2 R11
G1 X5.4 Y50 Z0.28 F1500.0 E30 ; Reset Extruder
G92 E0 ; Move Z Axis up
G1 Z2.0 F3000
M73 P3 R11
M117 Start Printing..
G90
G21
M83 ; use relative distances for extrusion
; filament start gcode
M106 S0
;LAYER_CHANGE
;Z:0.25
;HEIGHT:0.25
;BEFORE_LAYER_CHANGE
;0.25
G92 E0

M73 P3 R11
G1 E-.5 F1800
;_SET_FAN_SPEED_CHANGING_LAYER
SET_VELOCITY_LIMIT ACCEL=1000
SET_VELOCITY_LIMIT SQUARE_CORNER_VELOCITY=7
; printing object Male.stl id:0 copy 0
EXCLUDE_OBJECT_START NAME=Male.stl_id_0_copy_0
G1 Z.45 F24000
G1 X130.066 Y126.386
G1 Z.45
G1 Z.25
G1 E.5 F1800
;TYPE:Inner wall
;WIDTH:0.549999
G1 F3000
G1 X130.356 Y126.359 E.01328
G1 X130.738 Y126.209 E.01874
G1 X131.033 Y126.009 E.0163
G1 X131.459 Y125.604 E.02685
G1 X131.71 Y125.499 E.01242
G1 X131.999 Y125.506 E.0132
G1 X132.319 Y125.681 E.01666
G1 X132.495 Y125.991 E.01626
G1 X132.478 Y126.376 E.01763
G1 X132.392 Y126.534 E.00818
G1 X132.115 Y126.834 E.01863
G1 X131.791 Y127.262 E.02456
G1 X131.641 Y127.644 E.01874
G1 X131.588 Y127.963 E.01473
G1 X131.612 Y128.391 E.01956
G1 X131.784 Y128.892 E.02422
G1 X132.106 Y129.41 E.02782
G1 X132.469 Y130.051 E.03367
G1 X132.94 Y131.085 E.05186
G1 X133.193 Y131.841 E.03642
G1 X133.613 Y133.323 E.0703
G1 X133.882 Y133.736 E.02252
G1 X134.338 Y134.106 E.0268
G1 X134.733 Y134.268 E.0195
G1 X135.038 Y134.323 E.01414
G1 X135.447 Y134.325 E.0187
G1 X135.724 Y134.364 E.01274
G1 X135.981 Y134.522 E.01378
G1 X136.151 Y134.828 E.01596
G1 X136.149 Y135.183 E.01621
G1 X135.981 Y135.477 E.0155
G1 X135.66 Y135.652 E.01669
G1 X135.225 Y135.671 E.01985
G1 X134.733 Y135.732 E.02265
G1 X134.338 Y135.894 E.0195
G1 X133.882 Y136.264 E.0268
G1 X133.687 Y136.536 E.01529
G1 X133.5 Y137.004 E.02304
G1 X133.297 Y137.854 E.03988
G1 X133.077 Y138.551 E.0334
M73 P4 R11
M73 P4 R11
G1 X132.642 Y139.601 E.05185
G1 X132.141 Y140.523 E.0479
G1 X131.857 Y140.982 E.02469
G1 X131.688 Y141.324 E.01738
G1 X131.59 Y141.772 E.02097
G1 X131.636 Y142.338 E.02591
G1 X131.785 Y142.727 E.01904
G1 X132.071 Y143.122 E.02225
G1 X132.325 Y143.385 E.01668
G1 X132.476 Y143.61 E.01237
G1 X132.494 Y143.999 E.01781
G1 X132.342 Y144.293 E.01512
G1 X132.066 Y144.474 E.01502
G1 X131.772 Y144.513 E.01357
G1 X131.469 Y144.393 E.01487
G1 X131.167 Y144.116 E.01873
G1 X130.728 Y143.785 E.02509
G1 X130.338 Y143.636 E.01904
G1 X129.773 Y143.59 E.02591
G1 X129.454 Y143.647 E.01477
G1 X129.029 Y143.828 E.02107
G1 X128.59 Y144.106 E.02373
G1 X127.936 Y144.477 E.03436
G1 X127.261 Y144.799 E.03414
G1 X126.566 Y145.072 E.0341
G1 X125.854 Y145.297 E.03409
G1 X125.248 Y145.441 E.02845
G1 X124.69 Y145.607 E.02655
G1 X124.295 Y145.855 E.02132
G1 X123.912 Y146.306 E.02701
G1 X123.738 Y146.711 E.02013
G1 X123.636 Y147.724 E.04646
G1 X123.494 Y147.958 E.01251
G1 X123.203 Y148.147 E.01582
G1 X122.817 Y148.149 E.01761
G1 X122.523 Y147.981 E.0155
G1 X122.348 Y147.66 E.01669
G1 X122.329 Y147.22 E.02008
G1 X122.262 Y146.711 E.02344
G1 X122.088 Y146.306 E.02013
G1 X121.705 Y145.855 E.02701
G1 X121.433 Y145.669 E.01503
G1 X120.996 Y145.5 E.02143
G1 X120.146 Y145.297 E.03988
G1 X119.449 Y145.077 E.0334
G1 X118.399 Y144.642 E.05185
G1 X116.761 Y143.722 E.08579
G1 X116.257 Y143.593 E.02376
G1 X115.688 Y143.63 E.02605
G1 X115.287 Y143.778 E.01948
G1 X114.878 Y144.071 E.023
G1 X114.528 Y144.408 E.02217
G1 X114.279 Y144.496 E.01206
G1 X113.949 Y144.483 E.01508
G1 X113.658 Y144.293 E.01587
G1 X113.504 Y143.989 E.01556
G1 X113.525 Y143.614 E.01716
G1 X113.609 Y143.465 E.00782
G1 X113.929 Y143.122 E.02138
G1 X114.222 Y142.713 E.023
G1 X114.37 Y142.312 E.01948
G1 X114.414 Y141.987 E.01499
G1 X114.379 Y141.563 E.01942
G1 X114.217 Y141.11 E.02197
G1 X113.894 Y140.59 E.02795
G1 X113.531 Y139.949 E.03367
G1 X113.06 Y138.915 E.05186
G1 X112.7 Y137.839 E.05181
G1 X112.411 Y136.732 E.05225
G1 X112.145 Y136.295 E.02336
G1 X111.694 Y135.912 E.02701
G1 X111.289 Y135.738 E.02013
G1 X110.276 Y135.636 E.04646
G1 X110.042 Y135.494 E.01251
G1 X109.853 Y135.203 E.01582
G1 X109.851 Y134.817 E.01761
G1 X110.019 Y134.523 E.0155
G1 X110.34 Y134.348 E.01669
G1 X110.78 Y134.329 E.02008
G1 X111.289 Y134.262 E.02344
G1 X111.694 Y134.088 E.02013
G1 X112.145 Y133.705 E.02701
G1 X112.331 Y133.434 E.01503
G1 X112.5 Y132.996 E.02144
G1 X112.703 Y132.146 E.03988
G1 X112.923 Y131.449 E.0334
G1 X113.358 Y130.399 E.05185
G1 X113.805 Y129.577 E.04275
G1 X114.08 Y129.117 E.02445
G1 X114.322 Y128.647 E.02414
G1 X114.41 Y128.225 E.01971
G1 X114.363 Y127.659 E.02589
G1 X114.214 Y127.271 E.01899
G1 X114.009 Y126.967 E.01673
G1 X113.682 Y126.621 E.02175
G1 X113.508 Y126.341 E.01507
G1 X113.512 Y125.969 E.017
G1 X113.707 Y125.658 E.01673
G1 X114.011 Y125.504 E.01559
G1 X114.386 Y125.525 E.01716
G1 X114.535 Y125.609 E.00782
G1 X114.833 Y125.884 E.01852
G1 X115.271 Y126.214 E.02502
G1 X115.659 Y126.363 E.01899
G1 X116.225 Y126.41 E.02589
G1 X116.543 Y126.354 E.01479
G1 X116.955 Y126.181 E.02036
G1 X117.41 Y125.894 E.02456
G1 X118.051 Y125.531 E.03367
G1 X119.085 Y125.06 E.05186
G1 X120.161 Y124.7 E.05181
G1 X120.697 Y124.572 E.02515
G1 X121.35 Y124.374 E.03114
G1 X121.737 Y124.118 E.02119
G1 X122.107 Y123.662 E.0268
G1 X122.268 Y123.267 E.01949
G1 X122.323 Y122.962 E.01413
G1 X122.324 Y122.481 E.02198
G1 X122.44 Y122.124 E.01715
G1 X122.627 Y121.941 E.01192
G1 X122.958 Y121.827 E.01598
G1 X123.229 Y121.867 E.01251
G1 X123.471 Y122.017 E.01301
G1 X123.65 Y122.31 E.01568
G1 X123.671 Y122.775 E.02126
G1 X123.731 Y123.267 E.02263
G1 X123.893 Y123.662 E.01949
G1 X124.263 Y124.118 E.0268
G1 X124.535 Y124.313 E.01529
G1 X124.948 Y124.486 E.02042
G1 X125.486 Y124.608 E.02519
G1 X126.197 Y124.805 E.03367
G1 X127.261 Y125.203 E.05186
G1 X128.276 Y125.709 E.05181
G1 X129.007 Y126.158 E.03918
G1 X129.36 Y126.324 E.01781
G1 X129.793 Y126.411 E.02014
G1 X130.026 Y126.39 E.0107
G1 X130.022 Y125.898 F24000
G1 F3000
G1 X130.23 Y125.879 E.00955
G1 X130.503 Y125.772 E.01338
G1 X130.845 Y125.507 E.01974
G1 X131.286 Y125.124 E.02667
G1 X131.752 Y124.989 E.02219
G1 X132.237 Y125.054 E.02231
G1 X132.672 Y125.328 E.02348
G1 X132.945 Y125.762 E.02343
G1 X133.01 Y126.22 E.02109
G1 X132.954 Y126.534 E.01458
G1 X132.804 Y126.811 E.01438
G1 X132.462 Y127.188 E.02322
G1 X132.228 Y127.497 E.0177
G1 X132.121 Y127.77 E.01338
G1 X132.084 Y127.997 E.01052
G1 X132.1 Y128.303 E.01397
G1 X132.223 Y128.661 E.0173
G1 X132.532 Y129.154 E.02654
G1 X132.912 Y129.826 E.03525
G1 X133.403 Y130.903 E.05404
G1 X133.664 Y131.684 E.03761
G1 X134.064 Y133.114 E.06779
G1 X134.256 Y133.409 E.01609
G1 X134.581 Y133.674 E.01915
G1 X134.863 Y133.789 E.01393
G1 X135.081 Y133.828 E.0101
G1 X135.439 Y133.829 E.01632
G1 X135.891 Y133.891 E.02083
G1 X136.308 Y134.145 E.02231
G1 X136.544 Y134.478 E.01862
G1 X136.655 Y134.855 E.01796
G1 X136.633 Y135.316 E.02108
G1 X136.407 Y135.749 E.02227
G1 X136.047 Y136.037 E.02108
G1 X135.748 Y136.15 E.01457
G1 X135.215 Y136.167 E.02433
G1 X134.863 Y136.211 E.01618
G1 X134.581 Y136.326 E.01393
G1 X134.384 Y136.463 E.01095
G1 X134.116 Y136.785 E.01911
G1 X133.982 Y137.12 E.01645
G1 X133.775 Y137.986 E.04068
G1 X133.544 Y138.721 E.03519
G1 X133.091 Y139.815 E.05403
G1 X132.521 Y140.864 E.05453
G1 X132.199 Y141.388 E.02809
G1 X132.085 Y141.814 E.0201
G1 X132.118 Y142.218 E.01851
G1 X132.224 Y142.496 E.0136
G1 X132.889 Y143.306 E.04786
G1 X133.01 Y143.777 E.0222
G1 X132.984 Y144.106 E.01505
G1 X132.782 Y144.541 E.02191
G1 X132.541 Y144.782 E.01553
G1 X132.098 Y144.986 E.02226
G1 X131.604 Y144.991 E.02259
G1 X131.189 Y144.804 E.02076
G1 X130.812 Y144.462 E.02323
G1 X130.496 Y144.224 E.01807
G1 X130.218 Y144.118 E.0136
G1 X129.988 Y144.083 E.0106
G1 X129.684 Y144.103 E.01393
G1 X129.283 Y144.255 E.01957
G1 X128.846 Y144.532 E.02362
G1 X128.165 Y144.917 E.03573
G1 X127.459 Y145.254 E.03572
G1 X126.845 Y145.496 E.03011
G1 X126.37 Y145.654 E.02286
G1 X125.812 Y145.817 E.02656
G1 X124.984 Y146.023 E.03893
G1 X124.613 Y146.237 E.01956
G1 X124.339 Y146.559 E.01929
G1 X124.215 Y146.848 E.01438
G1 X124.171 Y147.439 E.02705
G1 X124.109 Y147.891 E.02083
G1 X123.856 Y148.306 E.02222
G1 X123.454 Y148.585 E.02231
G1 X123 Y148.672 E.02112
G1 X122.684 Y148.633 E.01457
G1 X122.251 Y148.407 E.02227
G1 X121.963 Y148.047 E.02108
G1 X121.85 Y147.748 E.01457
G1 X121.785 Y146.848 E.04119
G1 X121.661 Y146.559 E.01438
G1 X121.517 Y146.362 E.01111
G1 X121.28 Y146.156 E.01434
G1 X120.88 Y145.982 E.01988
G1 X120.014 Y145.775 E.04068
G1 X119.279 Y145.544 E.03519
G1 X118.185 Y145.091 E.05403
G1 X116.568 Y144.179 E.08478
G1 X116.208 Y144.087 E.01697
G1 X115.801 Y144.113 E.01861
G1 X115.515 Y144.219 E.01392
G1 X114.694 Y144.889 E.04838
G1 X114.223 Y145.01 E.0222
G1 X113.74 Y144.939 E.02226
G1 X113.312 Y144.653 E.02351
G1 X113.055 Y144.238 E.02231
G1 X112.99 Y143.782 E.021
G1 X113.049 Y143.459 E.01501
G1 X113.198 Y143.187 E.01414
G1 X113.538 Y142.812 E.02312
G1 X113.781 Y142.485 E.0186
G1 X113.887 Y142.199 E.01392
G1 X113.918 Y141.967 E.01071
G1 X113.893 Y141.664 E.01387
G1 X113.778 Y141.341 E.01569
G1 X113.468 Y140.846 E.02663
G1 X113.088 Y140.174 E.03525
G1 X112.597 Y139.097 E.05404
G1 X112.272 Y138.125 E.04681
G1 X111.954 Y136.925 E.05668
G1 X111.763 Y136.613 E.01668
G1 X111.441 Y136.339 E.01929
G1 X111.152 Y136.215 E.01438
G1 X110.561 Y136.171 E.02705
G1 X110.109 Y136.109 E.02083
G1 X109.694 Y135.856 E.02222
G1 X109.415 Y135.454 E.02231
G1 X109.328 Y135 E.02112
G1 X109.367 Y134.684 E.01457
G1 X109.593 Y134.251 E.02227
G1 X109.954 Y133.963 E.02108
G1 X110.252 Y133.85 E.01457
G1 X111.152 Y133.785 E.04119
G1 X111.441 Y133.661 E.01438
G1 X111.638 Y133.517 E.01111
G1 X111.844 Y133.28 E.01434
G1 X112.018 Y132.88 E.01988
G1 X112.225 Y132.014 E.04068
G1 X112.456 Y131.279 E.03519
G1 X112.909 Y130.185 E.05403
G1 X113.824 Y128.56 E.08515
G1 X113.915 Y128.184 E.01766
G1 X113.882 Y127.781 E.01849
G1 X113.775 Y127.503 E.01356
G1 X113.572 Y127.222 E.01584
G1 X113.215 Y126.853 E.02343
G1 X113.062 Y126.578 E.01438
G1 X112.989 Y126.248 E.01545
G1 X113.054 Y125.763 E.02231
G1 X113.328 Y125.328 E.02348
G1 X113.762 Y125.055 E.02343
G1 X114.218 Y124.99 E.021
G1 X114.541 Y125.049 E.01501
G1 X114.813 Y125.198 E.01414
G1 X115.188 Y125.538 E.02312
G1 X115.503 Y125.775 E.01802
G1 X115.781 Y125.882 E.01357
G1 X116.01 Y125.917 E.01059
G1 X116.314 Y125.898 E.01394
G1 X116.706 Y125.752 E.01907
G1 X117.154 Y125.468 E.02421
G1 X117.826 Y125.088 E.03525
G1 X118.903 Y124.597 E.05404
G1 X120.024 Y124.222 E.054
G1 X120.582 Y124.089 E.02615
G1 X121.133 Y123.927 E.02624
G1 X121.41 Y123.744 E.01514
G1 X121.674 Y123.419 E.01914
G1 X121.789 Y123.136 E.01392
G1 X121.833 Y122.782 E.01631
G1 X121.858 Y122.278 E.02303
G1 X122.023 Y121.846 E.02113
G1 X122.24 Y121.62 E.01431
G1 X122.623 Y121.39 E.02037
G1 X123.072 Y121.326 E.02074
G1 X123.549 Y121.46 E.02259
G1 X123.919 Y121.766 E.02193
G1 X124.146 Y122.227 E.02344
G1 X124.167 Y122.785 E.02552
G1 X124.21 Y123.137 E.01616
G1 X124.326 Y123.419 E.01392
G1 X124.463 Y123.616 E.01095
G1 X124.697 Y123.828 E.01444
G1 X125.079 Y124.008 E.01926
G1 X125.606 Y124.126 E.02466
G1 X126.35 Y124.333 E.03525
G1 X127.459 Y124.747 E.05404
G1 X128.385 Y125.209 E.04725
G1 X129.44 Y125.824 E.05574
G1 X129.828 Y125.916 E.01822
G1 X129.982 Y125.902 E.00706
G1 X130.019 Y125.406 F24000
G1 F3000
G1 X130.268 Y125.334 E.01186
G1 X130.434 Y125.214 E.00933
G1 X130.86 Y124.802 E.02706
G1 X131.283 Y124.598 E.02145
G1 X131.738 Y124.49 E.02138
G1 X132.311 Y124.559 E.02632
G1 X132.822 Y124.805 E.02591
G1 X133.194 Y125.178 E.02405
G1 X133.442 Y125.693 E.02609
G1 X133.509 Y126.245 E.02539
G1 X133.387 Y126.787 E.02538
G1 X133.19 Y127.126 E.01789
G1 X132.751 Y127.605 E.02966
G1 X132.601 Y127.895 E.01492
G1 X132.579 Y128.137 E.01106
G1 X132.663 Y128.43 E.01394
G1 X132.957 Y128.898 E.02526
G1 X133.355 Y129.6 E.03682
G1 X133.865 Y130.721 E.05622
G1 X134.202 Y131.727 E.04845
G1 X134.514 Y132.905 E.05565
G1 X134.706 Y133.159 E.01453
G1 X134.994 Y133.311 E.01484
G1 X135.818 Y133.371 E.03774
G1 X136.266 Y133.511 E.02145
G1 X136.72 Y133.859 E.02609
G1 X137.036 Y134.333 E.02603
G1 X137.173 Y134.999 E.03102
G1 X137.147 Y135.204 E.00944
G1 X137.037 Y135.665 E.02163
G1 X136.72 Y136.141 E.0261
G1 X136.28 Y136.48 E.02537
G1 X135.731 Y136.654 E.0263
G1 X135.124 Y136.666 E.02768
G1 X134.824 Y136.759 E.01434
G1 X134.579 Y136.982 E.01514
G1 X134.465 Y137.235 E.01267
G1 X134.254 Y138.118 E.04148
G1 X134.011 Y138.891 E.03698
G1 X133.617 Y139.841 E.04692
G1 X133.341 Y140.393 E.02819
G1 X132.622 Y141.662 E.06662
G1 X132.578 Y141.959 E.0137
G1 X132.663 Y142.264 E.01443
G1 X132.786 Y142.433 E.00954
G1 X133.197 Y142.86 E.02708
G1 X133.381 Y143.2 E.01766
G1 X133.509 Y143.753 E.02591
G1 X133.441 Y144.311 E.02565
G1 X133.195 Y144.822 E.02591
G1 X132.934 Y145.1 E.01738
G1 X132.626 Y145.3 E.0168
G1 X132.188 Y145.477 E.02156
G1 X131.611 Y145.493 E.02632
G1 X131.085 Y145.332 E.02511
G1 X130.914 Y145.217 E.00944
G1 X130.264 Y144.663 E.03898
G1 X130.097 Y144.599 E.00816
G1 X129.777 Y144.59 E.01463
G1 X129.526 Y144.687 E.01226
G1 X129.102 Y144.957 E.02297
G1 X128.394 Y145.358 E.03711
G1 X127.657 Y145.71 E.0373
G1 X127.027 Y145.958 E.0309
G1 X126.519 Y146.128 E.02445
G1 X125.1 Y146.511 E.06711
G1 X124.853 Y146.693 E.01402
G1 X124.692 Y146.984 E.0152
G1 X124.671 Y147.607 E.02843
