; HEADER_BLOCK_START
; generated by OrcaSlicer 2.2.0 on 2024-11-17 at 18:08:55
; total layer number: 50
; filament_density: 1.24
; filament_diameter: 1.75
; max_z_height: 10.00
; HEADER_BLOCK_END

; THUMBNAIL_BLOCK_START

;
; THUMBNAIL_BLOCK_END

; THUMBNAIL_BLOCK_START

;
; THUMBNAIL_BLOCK_END

; external perimeters extrusion width = 0.42mm
; perimeters extrusion width = 0.45mm
; infill extrusion width = 0.45mm
; solid infill extrusion width = 0.45mm
; top infill extrusion width = 0.42mm
; first layer extrusion width = 0.50mm

; external perimeters extrusion width = 0.42mm
; perimeters extrusion width = 0.45mm
; infill extrusion width = 0.45mm
; solid infill extrusion width = 0.45mm
; top infill extrusion width = 0.42mm
; first layer extrusion width = 0.50mm

; external perimeters extrusion width = 0.42mm
; perimeters extrusion width = 0.45mm
; infill extrusion width = 0.45mm
; solid infill extrusion width = 0.45mm
; top infill extrusion width = 0.42mm
; first layer extrusion width = 0.50mm

; EXECUTABLE_BLOCK_START
EXCLUDE_OBJECT_DEFINE NAME=Male.stl_id_0_copy_0 CENTER=131,127.974 POLYGON=[[116,127.974],[116.009,127.765],[116.035,127.558],[116.078,127.354],[116.138,127.154],[116.215,126.96],[119.828,118.236],[119.911,118.045],[120.01,117.861],[120.124,117.686],[120.252,117.521],[120.393,117.367],[120.547,117.226],[120.712,117.098],[120.887,116.984],[121.071,116.885],[121.263,116.802],[129.986,113.189],[130.18,113.112],[130.38,113.052],[130.584,113.009],[130.791,112.983],[131,112.974],[131.209,112.983],[131.416,113.009],[131.62,113.052],[131.82,113.112],[132.014,113.189],[140.737,116.802],[140.929,116.885],[141.113,116.984],[141.288,117.098],[141.453,117.226],[141.607,117.367],[141.748,117.521],[141.876,117.686],[141.99,117.861],[142.089,118.045],[142.172,118.236],[145.785,126.96],[145.862,127.154],[145.922,127.354],[145.965,127.558],[145.991,127.765],[146,127.974],[145.991,128.182],[145.965,128.39],[145.922,128.594],[145.862,128.794],[145.785,128.988],[142.172,137.711],[142.089,137.903],[141.99,138.087],[141.876,138.262],[141.748,138.427],[141.607,138.58],[141.453,138.722],[141.288,138.85],[141.113,138.964],[140.929,139.062],[140.737,139.146],[132.014,142.759],[131.82,142.835],[131.62,142.896],[131.416,142.939],[131.209,142.965],[131,142.974],[130.791,142.965],[130.584,142.939],[130.38,142.896],[130.18,142.835],[129.986,142.759],[121.263,139.146],[121.071,139.062],[120.887,138.964],[120.712,138.85],[120.547,138.722],[120.393,138.58],[120.252,138.427],[120.124,138.262],[120.01,138.087],[119.911,137.903],[119.828,137.711],[116.215,128.988],[116.138,128.794],[116.078,128.594],[116.035,128.39],[116.009,128.182],[116,127.974]]
EXCLUDE_OBJECT_DEFINE NAME=Male.stl_id_1_copy_0 CENTER=99,127.974 POLYGON=[[84,127.974],[84.0087,127.765],[84.0348,127.558],[84.0781,127.354],[84.1383,127.154],[84.215,126.96],[87.8282,118.236],[87.9114,118.045],[88.0102,117.861],[88.124,117.686],[88.252,117.521],[88.3934,117.367],[88.5471,117.226],[88.712,117.098],[88.8871,116.984],[89.071,116.885],[89.2626,116.802],[97.9858,113.189],[98.18,113.112],[98.3799,113.052],[98.5842,113.009],[98.7914,112.983],[99,112.974],[99.2086,112.983],[99.4158,113.009],[99.6201,113.052],[99.82,113.112],[100.014,113.189],[108.737,116.802],[108.929,116.885],[109.113,116.984],[109.288,117.098],[109.453,117.226],[109.607,117.367],[109.748,117.521],[109.876,117.686],[109.99,117.861],[110.089,118.045],[110.172,118.236],[113.785,126.96],[113.862,127.154],[113.922,127.354],[113.965,127.558],[113.991,127.765],[114,127.974],[113.991,128.182],[113.965,128.39],[113.922,128.594],[113.862,128.794],[113.785,128.988],[110.172,137.711],[110.089,137.903],[109.99,138.087],[109.876,138.262],[109.748,138.427],[109.607,138.58],[109.453,138.722],[109.288,138.85],[109.113,138.964],[108.929,139.062],[108.737,139.146],[100.014,142.759],[99.82,142.836],[99.6201,142.896],[99.4158,142.939],[99.2086,142.965],[99,142.974],[98.7914,142.965],[98.5842,142.939],[98.3799,142.896],[98.18,142.836],[97.9858,142.759],[89.2626,139.146],[89.071,139.062],[88.8871,138.964],[88.712,138.85],[88.5471,138.722],[88.3934,138.58],[88.252,138.427],[88.124,138.262],[88.0102,138.087],[87.9114,137.903],[87.8282,137.711],[84.215,128.988],[84.1383,128.794],[84.0781,128.594],[84.0348,128.39],[84.0087,128.182],[84,127.974]]
EXCLUDE_OBJECT_DEFINE NAME=Male.stl_id_2_copy_0 CENTER=115,102.026 POLYGON=[[100,102.026],[100.009,101.818],[100.035,101.61],[100.078,101.406],[100.138,101.206],[100.215,101.012],[103.828,92.2888],[103.911,92.0972],[104.01,91.9133],[104.124,91.7382],[104.252,91.5733],[104.393,91.4196],[104.547,91.2782],[104.712,91.1502],[104.887,91.0364],[105.071,90.9375],[105.263,90.8544],[113.986,87.2412],[114.18,87.1645],[114.38,87.1043],[114.584,87.061],[114.791,87.0349],[115,87.0262],[115.209,87.0349],[115.416,87.061],[115.62,87.1043],[115.82,87.1645],[116.014,87.2412],[124.737,90.8544],[124.929,90.9375],[125.113,91.0364],[125.288,91.1502],[125.453,91.2782],[125.607,91.4196],[125.748,91.5733],[125.876,91.7382],[125.99,91.9133],[126.089,92.0972],[126.172,92.2888],[129.785,101.012],[129.862,101.206],[129.922,101.406],[129.965,101.61],[129.991,101.818],[130,102.026],[129.991,102.235],[129.965,102.442],[129.922,102.646],[129.862,102.846],[129.785,103.04],[126.172,111.764],[126.089,111.955],[125.99,112.139],[125.876,112.314],[125.748,112.479],[125.607,112.633],[125.453,112.774],[125.288,112.902],[125.113,113.016],[124.929,113.115],[124.737,113.198],[116.014,116.811],[115.82,116.888],[115.62,116.948],[115.416,116.991],[115.209,117.017],[115,117.026],[114.791,117.017],[114.584,116.991],[114.38,116.948],[114.18,116.888],[113.986,116.811],[105.263,113.198],[105.071,113.115],[104.887,113.016],[104.712,112.902],[104.547,112.774],[104.393,112.633],[104.252,112.479],[104.124,112.314],[104.01,112.139],[103.911,111.955],[103.828,111.764],[100.215,103.04],[100.138,102.846],[100.078,102.646],[100.035,102.442],[100.009,102.235],[100,102.026]]
M73 P0 R24
;TYPE:Custom
M220 S100
G90 ; use absolute coordinates
M83 ; extruder relative mode
M104 S150 ; set temporary nozzle temp to prevent oozing during homing
M140 S55 ; set final bed temp
G4 S30 ; allow partial nozzle warmup
G28 ; home all axis and restore leveling
BED_MESH_CALIBRATE PROFILE=adaptive ADAPTIVE=1 ADAPTIVE_MARGIN=0
G1 Z25 F240
G1 X10.0 Y30 F3000
M104 S210 ; set final nozzle temp
M190 S55 ; wait for bed temp to stabilize
M109 S210 ; wait for nozzle temp to stabilize
G1 Z0.28 F240
G92 E0 ; Move Z Axis up
G1 Z2.0 F5000 ; Move to start position
G1 X5 Y30 Z0.28 F300 ; Draw the first line
G1 X5 Y200 Z0.28 F1500 E15 ; Move to side a little
G1 X5.4 Y200 Z0.28 F5000.0 ; Draw the second line
M73 P1 R24
M73 P1 R24
G1 X5.4 Y50 Z0.28 F1500.0 E30 ; Reset Extruder
G92 E0 ; Move Z Axis up
G1 Z2.0 F3000
M117 Start Printing..
G90
G21
M83 ; use relative distances for extrusion
; filament start gcode
M106 S0
;LAYER_CHANGE
;Z:0.2
;HEIGHT:0.2
;BEFORE_LAYER_CHANGE
;0.2
G92 E0

G1 E-.5 F1800
;_SET_FAN_SPEED_CHANGING_LAYER
SET_VELOCITY_LIMIT ACCEL=1000
SET_VELOCITY_LIMIT SQUARE_CORNER_VELOCITY=7
; printing object Male.stl id:0 copy 0
EXCLUDE_OBJECT_START NAME=Male.stl_id_0_copy_0
G1 Z.4 F24000
G1 X150.623 Y145.918
G1 Z.4
G1 Z.2
G1 E.5 F1800
;TYPE:Inner wall
;WIDTH:0.499999
G1 F3000
G1 X150.729 Y146.065 E.00611
G1 X150.985 Y146.214 E.00995
G1 X151.181 Y146.246 E.00667
G1 X151.777 Y146.257 E.02006
G1 X152.304 Y146.432 E.01867
G1 X152.766 Y146.789 E.01965
G1 X153.088 Y147.269 E.01943
G1 X153.217 Y147.698 E.0151
G1 X153.23 Y148.096 E.01338
G1 X153.088 Y148.679 E.02017
G1 X152.856 Y149.063 E.01509
G1 X152.565 Y149.342 E.01357
G1 X152.043 Y149.624 E.01995
G1 X151.785 Y149.674 E.00884
G1 X151.133 Y149.704 E.02194
G1 X150.832 Y149.804 E.01068
G1 X150.663 Y149.952 E.00757
G1 X150.529 Y150.217 E.00996
G1 X150.199 Y151.503 E.04468
G1 X149.768 Y152.656 E.0414
G1 X149.121 Y153.918 E.04768
G1 X148.693 Y154.633 E.02805
G1 X148.644 Y154.931 E.01013
G1 X148.73 Y155.224 E.01028
G1 X149.011 Y155.536 E.01414
G1 X149.321 Y155.927 E.01677
G1 X149.498 Y156.291 E.0136
G1 X149.572 Y156.87 E.01965
G1 X149.46 Y157.437 E.01943
G1 X149.248 Y157.832 E.0151
G1 X148.859 Y158.222 E.01852
G1 X148.321 Y158.478 E.02004
G1 X147.753 Y158.548 E.01926
G1 X147.325 Y158.472 E.0146
G1 X147.099 Y158.369 E.00835
G1 X146.695 Y158.124 E.01592
G1 X146.25 Y157.704 E.02058
G1 X146.089 Y157.639 E.00583
G1 X145.857 Y157.619 E.00785
G1 X145.574 Y157.708 E.00996
G1 X145.137 Y157.985 E.01743
G1 X144.429 Y158.386 E.02735
G1 X143.303 Y158.899 E.04162
G1 X142.13 Y159.291 E.04161
G1 X141.254 Y159.5 E.03029
G1 X141.025 Y159.602 E.00842
G1 X140.824 Y159.817 E.00992
G1 X140.728 Y160.155 E.0118
G1 X140.717 Y160.736 E.01956
G1 X140.596 Y161.166 E.01501
G1 X140.393 Y161.508 E.01338
G1 X140.048 Y161.846 E.01624
G1 X139.719 Y162.058 E.01316
G1 X139.145 Y162.202 E.01991
G1 X138.569 Y162.157 E.01941
G1 X138.316 Y162.057 E.00915
G1 X137.921 Y161.84 E.01517
G1 X137.633 Y161.54 E.01399
G1 X137.35 Y161.018 E.01998
G1 X137.264 Y160.57 E.01532
G1 X137.272 Y160.155 E.01399
G1 X137.176 Y159.817 E.0118
G1 X137.032 Y159.646 E.00752
G1 X136.757 Y159.503 E.01043
G1 X135.47 Y159.173 E.04468
G1 X134.317 Y158.742 E.0414
G1 X133.365 Y158.267 E.0358
G1 X132.315 Y157.657 E.04083
G1 X132.029 Y157.619 E.00972
G1 X131.743 Y157.708 E.01006
G1 X131.438 Y157.985 E.01389
G1 X131.047 Y158.295 E.01677
G1 X130.683 Y158.471 E.0136
G1 X130.104 Y158.546 E.01965
G1 X129.537 Y158.434 E.01943
G1 X129.142 Y158.222 E.0151
G1 X128.752 Y157.832 E.01852
G1 X128.496 Y157.295 E.02004
G1 X128.426 Y156.726 E.01926
G1 X128.501 Y156.299 E.0146
G1 X128.778 Y155.765 E.02022
G1 X129.146 Y155.384 E.01782
G1 X129.332 Y155.075 E.01212
G1 X129.356 Y154.845 E.0078
G1 X129.269 Y154.553 E.01025
G1 X128.989 Y154.11 E.01761
G1 X128.588 Y153.403 E.02735
G1 X128.075 Y152.277 E.04162
G1 X127.737 Y151.267 E.03581
M73 P2 R24
M73 P2 R24
G1 X127.44 Y150.126 E.03967
G1 X127.25 Y149.865 E.01087
G1 X126.985 Y149.725 E.01009
G1 X126.397 Y149.71 E.01979
G1 X125.957 Y149.624 E.01505
G1 X125.448 Y149.353 E.01942
G1 X125.128 Y149.022 E.01549
G1 X124.916 Y148.693 E.01316
G1 X124.772 Y148.119 E.01991
G1 X124.817 Y147.543 E.01941
G1 X124.917 Y147.29 E.00915
G1 X125.134 Y146.895 E.01517
G1 X125.434 Y146.607 E.01399
G1 X125.956 Y146.324 E.01998
G1 X126.223 Y146.272 E.00913
G1 X126.866 Y146.244 E.02168
G1 X127.141 Y146.159 E.00967
G1 X127.322 Y146.013 E.00781
G1 X127.471 Y145.731 E.01072
G1 X127.801 Y144.444 E.04468
G1 X128.232 Y143.291 E.0414
G1 X128.707 Y142.339 E.03581
G1 X129.317 Y141.29 E.04078
G1 X129.355 Y141.003 E.00974
G1 X129.266 Y140.717 E.01007
G1 X128.989 Y140.412 E.01389
G1 X128.679 Y140.021 E.01677
G1 X128.502 Y139.657 E.0136
G1 X128.428 Y139.078 E.01965
G1 X128.54 Y138.511 E.01943
G1 X128.752 Y138.115 E.0151
G1 X129.141 Y137.726 E.01852
G1 X129.679 Y137.47 E.02004
G1 X130.248 Y137.4 E.01927
G1 X130.676 Y137.476 E.01462
G1 X131.206 Y137.751 E.02009
G1 X131.644 Y138.17 E.0204
G1 X131.899 Y138.305 E.00971
G1 X132.204 Y138.32 E.01028
G1 X132.443 Y138.229 E.00861
G1 X133.216 Y137.755 E.03049
G1 X133.939 Y137.378 E.02742
G1 X135.082 Y136.905 E.04162
G1 X136.274 Y136.552 E.04183
G1 X136.833 Y136.42 E.01933
G1 X137.098 Y136.237 E.01081
G1 X137.241 Y135.984 E.00981
G1 X137.272 Y135.793 E.00649
G1 X137.283 Y135.197 E.02006
G1 X137.458 Y134.67 E.01867
G1 X137.815 Y134.208 E.01965
G1 X138.295 Y133.886 E.01944
G1 X138.711 Y133.761 E.01462
G1 X139.145 Y133.742 E.0146
G1 X139.704 Y133.889 E.01942
G1 X140.198 Y134.213 E.0199
G1 X140.532 Y134.651 E.01852
G1 X140.718 Y135.239 E.02074
G1 X140.73 Y135.84 E.02024
G1 X140.826 Y136.134 E.01039
G1 X140.971 Y136.305 E.00754
G1 X141.242 Y136.444 E.01025
G1 X142.53 Y136.775 E.04472
G1 X143.683 Y137.206 E.0414
G1 X144.955 Y137.86 E.0481
G1 X145.683 Y138.29 E.02847
G1 X145.953 Y138.33 E.00915
G1 X146.248 Y138.245 E.01034
G1 X146.559 Y137.965 E.01408
G1 X146.953 Y137.653 E.0169
G1 X147.317 Y137.476 E.0136
G1 X147.896 Y137.402 E.01965
G1 X148.463 Y137.514 E.01943
G1 X148.858 Y137.726 E.0151
G1 X149.248 Y138.115 E.01852
G1 X149.504 Y138.653 E.02004
G1 X149.574 Y139.222 E.01927
G1 X149.447 Y139.785 E.01944
G1 X149.243 Y140.135 E.01362
G1 X148.803 Y140.617 E.02195
G1 X148.664 Y140.888 E.01023
G1 X148.646 Y141.121 E.00786
G1 X148.744 Y141.417 E.01049
G1 X149.219 Y142.189 E.03049
G1 X149.595 Y142.912 E.02742
G1 X150.069 Y144.056 E.04162
G1 X150.422 Y145.248 E.04183
G1 X150.568 Y145.841 E.02054
G1 X150.6 Y145.885 E.00184
G1 X150.993 Y145.67 F24000
;TYPE:Outer wall
G1 F3000
G1 X151.124 Y145.778 E.0057
G1 X151.621 Y145.797 E.01675
G1 X152.032 Y145.848 E.01391
G1 X152.527 Y146.03 E.01775
G1 X152.832 Y146.244 E.01252
G1 X153.223 Y146.608 E.01796
G1 X153.509 Y147.082 E.01863
G1 X153.669 Y147.612 E.01865
G1 X153.669 Y148.335 E.0243
G1 X153.509 Y148.866 E.01865
G1 X153.367 Y149.101 E.00924
G1 X153.086 Y149.486 E.01604
G1 X152.68 Y149.828 E.01785
G1 X152.187 Y150.062 E.01837
G1 X151.643 Y150.168 E.01863
G1 X151.198 Y150.159 E.01498
G1 X151.073 Y150.193 E.00436
G1 X150.972 Y150.33 E.00574
G1 X150.636 Y151.641 E.0455
G1 X150.188 Y152.839 E.04303
G1 X149.51 Y154.157 E.04985
G1 X149.109 Y154.827 E.02627
G1 X149.129 Y155.001 E.00589
G1 X149.496 Y155.368 E.01747
G1 X149.803 Y155.825 E.0185
G1 X149.939 Y156.164 E.01231
G1 X150.004 Y156.531 E.01252
G1 X150.023 Y157.065 E.01796
G1 X149.89 Y157.602 E.01863
G1 X149.76 Y157.844 E.00924
G1 X149.498 Y158.245 E.01611
G1 X149.117 Y158.601 E.01755
G1 X148.625 Y158.866 E.01878
G1 X148.274 Y158.968 E.01231
G1 X147.729 Y159.008 E.01836
G1 X147.188 Y158.912 E.01848
G1 X146.677 Y158.679 E.01891
G1 X145.973 Y158.081 E.03105
G1 X145.802 Y158.104 E.00583
G1 X145.372 Y158.377 E.01713
G1 X144.637 Y158.793 E.02842
G1 X143.471 Y159.325 E.0431
G1 X142.62 Y159.609 E.03018
G1 X141.265 Y159.994 E.04737
G1 X141.185 Y160.163 E.0063
G1 X141.173 Y160.804 E.02155
G1 X141.097 Y161.073 E.00941
G1 X140.929 Y161.515 E.01591
G1 X140.634 Y161.945 E.01755
G1 X140.346 Y162.193 E.01277
G1 X139.896 Y162.481 E.01797
G1 X139.533 Y162.591 E.01277
G1 X139.005 Y162.672 E.01797
G1 X138.455 Y162.603 E.01863
G1 X137.94 Y162.4 E.01864
G1 X137.491 Y162.063 E.01888
G1 X137.145 Y161.654 E.018
G1 X136.912 Y161.161 E.01836
G1 X136.806 Y160.609 E.0189
G1 X136.815 Y160.172 E.01471
G1 X136.783 Y160.05 E.00423
G1 X136.646 Y159.946 E.0058
G1 X135.333 Y159.609 E.04559
G1 X134.135 Y159.161 E.04303
G1 X133.161 Y158.676 E.03661
G1 X132.152 Y158.084 E.03934
G1 X131.971 Y158.104 E.00614
G1 X131.605 Y158.47 E.01739
G1 X131.149 Y158.777 E.0185
G1 X130.809 Y158.913 E.01231
G1 X130.443 Y158.978 E.01252
G1 X129.909 Y158.997 E.01796
G1 X129.371 Y158.864 E.01863
G1 X129.13 Y158.734 E.00924
G1 X128.729 Y158.472 E.01611
G1 X128.372 Y158.091 E.01755
G1 X128.108 Y157.599 E.01878
G1 X128.006 Y157.248 E.01231
G1 X127.966 Y156.703 E.01836
G1 X128.062 Y156.162 E.01848
G1 X128.295 Y155.651 E.01891
G1 X128.892 Y154.951 E.03092
G1 X128.871 Y154.777 E.0059
G1 X128.597 Y154.346 E.01719
G1 X128.18 Y153.611 E.02842
G1 X127.649 Y152.444 E.0431
G1 X127.304 Y151.412 E.03661
G1 X127.004 Y150.272 E.03965
G1 X126.866 Y150.166 E.00585
G1 X126.357 Y150.168 E.01711
G1 X125.814 Y150.062 E.01863
G1 X125.474 Y149.901 E.01263
G1 X125.029 Y149.608 E.01795
G1 X124.781 Y149.32 E.01277
G1 X124.492 Y148.87 E.01797
G1 X124.383 Y148.507 E.01277
G1 X124.301 Y147.979 E.01797
G1 X124.37 Y147.429 E.01863
G1 X124.574 Y146.913 E.01864
G1 X124.911 Y146.465 E.01888
G1 X125.32 Y146.119 E.018
G1 X125.813 Y145.886 E.01836
G1 X126.132 Y145.824 E.01092
G1 X126.918 Y145.76 E.02654
G1 X127.028 Y145.617 E.00606
G1 X127.364 Y144.307 E.0455
G1 X127.812 Y143.109 E.04303
G1 X128.298 Y142.135 E.03662
G1 X128.892 Y141.117 E.03964
G1 X128.87 Y140.945 E.00584
G1 X128.504 Y140.579 E.01739
G1 X128.197 Y140.123 E.0185
G1 X128.061 Y139.783 E.01231
G1 X127.996 Y139.417 E.01252
G1 X127.977 Y138.883 E.01796
G1 X128.11 Y138.345 E.01863
G1 X128.24 Y138.103 E.00924
G1 X128.502 Y137.703 E.0161
G1 X128.883 Y137.346 E.01755
G1 X129.375 Y137.082 E.01878
G1 X129.726 Y136.98 E.01231
G1 X130.271 Y136.94 E.01838
G1 X130.812 Y137.036 E.01849
G1 X131.062 Y137.149 E.00923
G1 X131.477 Y137.382 E.01601
