; HEADER_BLOCK_START
; generated by OrcaSlicer 2.2.0 on 2024-11-17 at 18:51:14
; total layer number: 50
; filament_density: 1.24
; filament_diameter: 1.75
; max_z_height: 10.05
; HEADER_BLOCK_END

; THUMBNAIL_BLOCK_START

;
; THUMBNAIL_BLOCK_END

; THUMBNAIL_BLOCK_START

;
; THUMBNAIL_BLOCK_END

; external perimeters extrusion width = 0.42mm
; perimeters extrusion width = 0.45mm
; infill extrusion width = 0.45mm
; solid infill extrusion width = 0.45mm
; top infill extrusion width = 0.42mm
; first layer extrusion width = 0.50mm

; EXECUTABLE_BLOCK_START
EXCLUDE_OBJECT_DEFINE NAME=Male.stl_id_0_copy_0 CENTER=115,115 POLYGON=[[100.952,110.279],[100.956,110.07],[100.977,109.863],[101.015,109.657],[101.07,109.456],[101.142,109.26],[101.23,109.07],[101.333,108.889],[101.451,108.717],[101.583,108.555],[101.729,108.405],[108.405,101.729],[108.555,101.583],[108.717,101.451],[108.889,101.333],[109.07,101.23],[109.26,101.142],[109.456,101.07],[109.657,101.015],[109.863,100.977],[110.07,100.956],[110.279,100.952],[119.721,100.952],[119.93,100.956],[120.137,100.977],[120.343,101.015],[120.544,101.07],[120.74,101.142],[120.93,101.23],[121.111,101.333],[121.283,101.451],[121.445,101.583],[121.595,101.729],[128.271,108.405],[128.417,108.555],[128.549,108.717],[128.667,108.889],[128.77,109.07],[128.858,109.26],[128.93,109.456],[128.985,109.657],[129.023,109.863],[129.044,110.07],[129.048,110.279],[129.048,119.721],[129.044,119.93],[129.023,120.137],[128.985,120.343],[128.93,120.544],[128.858,120.74],[128.77,120.93],[128.667,121.111],[128.549,121.283],[128.417,121.445],[128.271,121.595],[121.595,128.271],[121.445,128.417],[121.283,128.549],[121.111,128.667],[120.93,128.77],[120.74,128.858],[120.544,128.93],[120.343,128.985],[120.137,129.023],[119.93,129.044],[119.721,129.048],[110.279,129.048],[110.07,129.044],[109.863,129.023],[109.657,128.985],[109.456,128.93],[109.26,128.858],[109.07,128.77],[108.889,128.667],[108.717,128.549],[108.555,128.417],[108.405,128.271],[101.729,121.595],[101.583,121.445],[101.451,121.283],[101.333,121.111],[101.23,120.93],[101.142,120.74],[101.07,120.544],[101.015,120.343],[100.977,120.137],[100.956,119.93],[100.952,119.721],[100.952,110.279]]
M73 P0 R10
;TYPE:Custom
M220 S100
G90 ; use absolute coordinates
M83 ; extruder relative mode
M104 S150 ; set temporary nozzle temp to prevent oozing during homing
M140 S55 ; set final bed temp
G4 S30 ; allow partial nozzle warmup
G28 ; home all axis and restore leveling
BED_MESH_CALIBRATE PROFILE=adaptive ADAPTIVE=1 ADAPTIVE_MARGIN=0
G1 Z25 F240
G1 X10.0 Y30 F3000
M104 S210 ; set final nozzle temp
M190 S55 ; wait for bed temp to stabilize
M109 S210 ; wait for nozzle temp to stabilize
G1 Z0.28 F240
M73 P1 R10
G92 E0 ; Move Z Axis up
M73 P1 R10
G1 Z2.0 F5000 ; Move to start position
M73 P2 R10
M73 P2 R10
G1 X5 Y30 Z0.28 F300 ; Draw the first line
G1 X5 Y200 Z0.28 F1500 E15 ; Move to side a little
G1 X5.4 Y200 Z0.28 F5000.0 ; Draw the second line
M73 P3 R10
M73 P3 R10
G1 X5.4 Y50 Z0.28 F1500.0 E30 ; Reset Extruder
G92 E0 ; Move Z Axis up
G1 Z2.0 F3000
M73 P4 R10
M117 Start Printing..
G90
G21
M83 ; use relative distances for extrusion
; filament start gcode
M106 S0
;LAYER_CHANGE
;Z:0.25
;HEIGHT:0.25
;BEFORE_LAYER_CHANGE
;0.25
G92 E0

M73 P4 R10
G1 E-.5 F1800
M73 P4 R9
;_SET_FAN_SPEED_CHANGING_LAYER
SET_VELOCITY_LIMIT ACCEL=1000
SET_VELOCITY_LIMIT SQUARE_CORNER_VELOCITY=7
; printing object Male.stl id:0 copy 0
EXCLUDE_OBJECT_START NAME=Male.stl_id_0_copy_0
M73 P4 R9
G1 Z.45 F24000
G1 X125.867 Y123.324
G1 Z.45
G1 Z.25
G1 E.5 F1800
;TYPE:Inner wall
;WIDTH:0.499999
G1 F3000
G1 X126.034 Y123.127 E.01062
G1 X126.241 Y122.656 E.02111
G1 X126.448 Y122.321 E.01616
G1 X126.907 Y121.943 E.02443
G1 X127.33 Y121.775 E.01868
G1 X127.734 Y121.703 E.01688
G1 X128.314 Y121.789 E.02404
G1 X128.832 Y122.052 E.02387
G1 X129.23 Y122.476 E.02387
G1 X129.429 Y122.894 E.01899
G1 X129.525 Y123.277 E.01622
G1 X129.473 Y123.889 E.02525
G1 X129.266 Y124.415 E.02319
G1 X129.226 Y124.752 E.01393
G1 X129.29 Y124.96 E.00894
G1 X129.47 Y125.183 E.01176
G1 X129.901 Y125.486 E.02159
G1 X130.549 Y125.992 E.03377
G1 X131.455 Y126.836 E.05085
G1 X132.153 Y127.64 E.04373
G1 X132.891 Y128.607 E.04993
G1 X133.134 Y128.748 E.01152
G1 X133.425 Y128.775 E.012
G1 X133.985 Y128.56 E.02464
G1 X134.562 Y128.471 E.02398
G1 X135.136 Y128.57 E.02389
G1 X135.526 Y128.767 E.01796
G1 X135.947 Y129.174 E.02405
G1 X136.214 Y129.684 E.0236
G1 X136.29 Y130.392 E.02926
G1 X136.125 Y130.964 E.02443
G1 X135.787 Y131.453 E.02442
G1 X135.446 Y131.713 E.01761
G1 X134.874 Y131.966 E.02568
G1 X134.656 Y132.146 E.0116
G1 X134.549 Y132.345 E.00929
G1 X134.522 Y132.665 E.01318
G1 X134.664 Y133.56 E.03718
G1 X134.751 Y134.8 E.05107
G1 X134.737 Y135.611 E.03328
G1 X134.606 Y136.854 E.05133
G1 X134.514 Y137.469 E.02553
G1 X134.583 Y137.738 E.0114
G1 X134.758 Y137.958 E.01154
G1 X135.344 Y138.24 E.02671
G1 X135.679 Y138.448 E.01616
G1 X136.057 Y138.906 E.02437
G1 X136.27 Y139.472 E.02483
G1 X136.291 Y139.872 E.01645
G1 X136.164 Y140.452 E.02438
G1 X135.948 Y140.832 E.01796
G1 X135.758 Y141.028 E.01121
G1 X135.403 Y141.312 E.01866
G1 X135.012 Y141.465 E.01723
G1 X134.418 Y141.527 E.02454
G1 X133.977 Y141.437 E.01848
G1 X133.585 Y141.266 E.01756
G1 X133.247 Y141.226 E.01394
G1 X133.039 Y141.291 E.00894
G1 X132.82 Y141.467 E.01157
G1 X132.514 Y141.901 E.02178
G1 X132.008 Y142.549 E.03377
G1 X131.164 Y143.455 E.05085
G1 X130.361 Y144.152 E.04365
G1 X129.395 Y144.888 E.04988
G1 X129.254 Y145.127 E.01138
G1 X129.225 Y145.422 E.01218
G1 X129.437 Y145.977 E.02438
G1 X129.528 Y146.568 E.02458
G1 X129.43 Y147.135 E.02362
G1 X129.233 Y147.526 E.01798
G1 X128.945 Y147.855 E.01793
G1 X128.451 Y148.161 E.02385
G1 X128.002 Y148.272 E.01899
G1 X127.608 Y148.29 E.01622
G1 X127.036 Y148.125 E.02443
G1 X126.547 Y147.787 E.02442
G1 X126.287 Y147.446 E.01761
G1 X126.064 Y146.94 E.02271
G1 X125.849 Y146.653 E.01471
G1 X125.648 Y146.546 E.00935
G1 X125.335 Y146.522 E.01289
G1 X124.435 Y146.665 E.03741
G1 X123.622 Y146.737 E.0335
G1 X122.383 Y146.737 E.05085
G1 X121.146 Y146.606 E.05109
G1 X120.59 Y146.514 E.02315
G1 X120.276 Y146.576 E.01315
G1 X120.047 Y146.752 E.01182
G1 X119.628 Y147.575 E.03792
G1 X119.208 Y147.991 E.02428
G1 X118.706 Y148.229 E.02279
G1 X118.109 Y148.29 E.02464
G1 X117.548 Y148.164 E.0236
G1 X117.271 Y148.006 E.01311
G1 X116.958 Y147.765 E.01622
G1 X116.628 Y147.27 E.02443
G1 X116.476 Y146.709 E.02384
G1 X116.527 Y146.111 E.02468
G1 X116.734 Y145.585 E.02319
G1 X116.772 Y145.234 E.01448
G1 X116.702 Y145.026 E.00902
G1 X116.535 Y144.822 E.01085
G1 X116.099 Y144.514 E.02189
G1 X115.451 Y144.008 E.03377
G1 X114.545 Y143.164 E.05085
G1 X114.055 Y142.599 E.0307
G1 X113.557 Y141.986 E.03242
G1 X113.137 Y141.419 E.02897
G1 X112.884 Y141.258 E.01231
G1 X112.584 Y141.224 E.01239
G1 X112.023 Y141.437 E.02464
G1 X111.583 Y141.527 E.01846
G1 X111.146 Y141.505 E.01794
G1 X110.729 Y141.376 E.01792
G1 X110.458 Y141.209 E.01309
G1 X110.153 Y140.957 E.01622
G1 X109.838 Y140.446 E.02464
G1 X109.728 Y140.003 E.01876
G1 X109.71 Y139.608 E.01623
G1 X109.875 Y139.036 E.02443
G1 X110.213 Y138.547 E.02442
G1 X110.673 Y138.215 E.0233
G1 X111.234 Y137.964 E.02521
G1 X111.353 Y137.841 E.00705
G1 X111.457 Y137.637 E.0094
G1 X111.478 Y137.335 E.01243
G1 X111.336 Y136.44 E.03718
G1 X111.249 Y135.2 E.05107
G1 X111.263 Y134.389 E.03328
G1 X111.394 Y133.146 E.05133
G1 X111.487 Y132.555 E.02455
G1 X111.424 Y132.276 E.01177
G1 X111.248 Y132.048 E.01182
G1 X110.425 Y131.628 E.03792
G1 X110.019 Y131.218 E.02371
G1 X109.772 Y130.692 E.02387
G1 X109.706 Y130.114 E.02386
G1 X109.789 Y129.671 E.01852
G1 X109.961 Y129.309 E.01645
G1 X110.357 Y128.854 E.02477
G1 X110.871 Y128.572 E.02407
G1 X111.45 Y128.466 E.02417
G1 X111.875 Y128.524 E.01761
G1 X112.459 Y128.75 E.02571
G1 X112.766 Y128.772 E.01263
G1 X112.974 Y128.702 E.00902
G1 X113.183 Y128.529 E.01117
G1 X113.486 Y128.099 E.02157
G1 X113.992 Y127.451 E.03377
G1 X114.836 Y126.545 E.05085
G1 X115.915 Y125.629 E.05812
G1 X116.584 Y125.134 E.03417
G1 X116.744 Y124.878 E.01238
G1 X116.778 Y124.596 E.01167
G1 X116.581 Y124.026 E.02475
G1 X116.47 Y123.583 E.01876
G1 X116.494 Y123.17 E.01698
G1 X116.695 Y122.591 E.02516
G1 X116.948 Y122.248 E.01752
G1 X117.295 Y121.966 E.01836
G1 X117.684 Y121.786 E.01756
G1 X118.128 Y121.704 E.01854
G1 X118.528 Y121.734 E.01647
M73 P5 R9
M73 P5 R9
G1 X118.947 Y121.877 E.01818
G1 X119.336 Y122.105 E.01851
G1 X119.706 Y122.533 E.02322
G1 X119.965 Y123.126 E.0266
G1 X120.159 Y123.354 E.01229
G1 X120.354 Y123.455 E.00899
G1 X120.665 Y123.478 E.01279
G1 X121.56 Y123.336 E.03721
G1 X122.8 Y123.249 E.05107
G1 X123.611 Y123.263 E.03328
G1 X124.718 Y123.379 E.0457
G1 X125.324 Y123.477 E.02519
G1 X125.583 Y123.472 E.01064
G1 X125.84 Y123.353 E.01163
G1 X125.575 Y122.995 F24000
;TYPE:Outer wall
G1 F3000
G1 X126.011 Y122.164 E.03856
G1 X126.395 Y121.767 E.02267
G1 X126.837 Y121.467 E.02196
G1 X127.367 Y121.293 E.02291
G1 X127.734 Y121.254 E.01512
G1 X128.101 Y121.291 E.01518
G1 X128.621 Y121.418 E.02195
G1 X129.102 Y121.692 E.02273
G1 X129.299 Y121.883 E.01127
G1 X129.6 Y122.226 E.01875
G1 X129.805 Y122.633 E.01869
G1 X129.941 Y123.069 E.01874
G1 X129.963 Y123.523 E.01869
G1 X129.906 Y123.997 E.01956
G1 X129.685 Y124.571 E.02527
G1 X129.668 Y124.691 E.00498
G1 X129.75 Y124.834 E.00678
G1 X130.166 Y125.127 E.02089
G1 X130.839 Y125.652 E.03505
G1 X131.776 Y126.526 E.05261
G1 X132.49 Y127.347 E.04469
G1 X133.205 Y128.288 E.0485
G1 X133.368 Y128.332 E.00696
G1 X133.85 Y128.132 E.02143
G1 X134.212 Y128.059 E.01516
G1 X134.746 Y128.027 E.02195
G1 X135.287 Y128.146 E.02275
G1 X135.778 Y128.394 E.02258
G1 X136.194 Y128.759 E.02272
G1 X136.414 Y129.053 E.0151
G1 X136.642 Y129.547 E.02233
G1 X136.692 Y129.815 E.01117
G1 X136.735 Y130.45 E.02615
G1 X136.647 Y130.819 E.01557
G1 X136.452 Y131.317 E.02195
G1 X136.113 Y131.761 E.02293
G1 X135.838 Y131.998 E.0149
G1 X135.007 Y132.422 E.03831
G1 X134.963 Y132.595 E.00734
G1 X135.108 Y133.509 E.03799
G1 X135.198 Y134.789 E.05268
G1 X135.183 Y135.638 E.03488
G1 X135.064 Y136.764 E.0465
G1 X134.963 Y137.401 E.02647
G1 X135.005 Y137.574 E.00732
G1 X135.836 Y138.01 E.03856
G1 X136.167 Y138.322 E.01863
G1 X136.443 Y138.681 E.01861
G1 X136.62 Y139.103 E.01878
G1 X136.73 Y139.571 E.01972
G1 X136.724 Y140.1 E.02173
G1 X136.58 Y140.624 E.02233
G1 X136.308 Y141.102 E.02257
G1 X135.922 Y141.5 E.02275
G1 X135.441 Y141.785 E.02299
G1 X134.927 Y141.949 E.02212
G1 X134.384 Y141.976 E.02235
G1 X134.07 Y141.912 E.01316
G1 X133.309 Y141.668 E.0328
G1 X133.166 Y141.748 E.00672
G1 X132.873 Y142.166 E.02095
G1 X132.348 Y142.839 E.03505
G1 X131.474 Y143.776 E.05261
G1 X130.654 Y144.489 E.04461
G1 X129.713 Y145.203 E.0485
G1 X129.668 Y145.367 E.00701
G1 X129.865 Y145.841 E.02107
G1 X129.976 Y146.387 E.02289
G1 X129.972 Y146.755 E.01512
G1 X129.854 Y147.287 E.02235
G1 X129.606 Y147.778 E.02259
G1 X129.244 Y148.191 E.02254
G1 X128.936 Y148.403 E.01537
G1 X128.457 Y148.642 E.02196
G1 X128.084 Y148.711 E.01557
G1 X127.55 Y148.735 E.02195
G1 X127.181 Y148.647 E.01557
G1 X126.683 Y148.452 E.02195
G1 X126.239 Y148.113 E.02293
G1 X126.002 Y147.838 E.0149
G1 X125.576 Y147.006 E.03838
G1 X125.408 Y146.962 E.00714
G1 X124.49 Y147.109 E.0382
G1 X123.642 Y147.183 E.03496
G1 X122.36 Y147.183 E.05261
G1 X121.084 Y147.048 E.05269
G1 X120.553 Y146.959 E.02211
G1 X120.389 Y147.039 E.00746
G1 X120.214 Y147.419 E.01716
G1 X119.989 Y147.836 E.01948
G1 X119.677 Y148.168 E.0187
G1 X119.298 Y148.455 E.01952
G1 X118.819 Y148.663 E.02142
G1 X118.268 Y148.747 E.02291
G1 X117.9 Y148.724 E.01512
G1 X117.376 Y148.58 E.02233
G1 X117.05 Y148.394 E.0154
G1 X116.627 Y148.067 E.02196
G1 X116.402 Y147.762 E.01557
G1 X116.147 Y147.292 E.02195
G1 X116.028 Y146.751 E.02274
G1 X116.037 Y146.476 E.01127
G1 X116.094 Y146.003 E.01956
G1 X116.315 Y145.429 E.02527
G1 X116.331 Y145.305 E.00517
G1 X116.252 Y145.167 E.00651
G1 X115.834 Y144.873 E.02099
G1 X115.161 Y144.348 E.03505
G1 X114.224 Y143.474 E.05261
G1 X113.516 Y142.66 E.04428
G1 X112.803 Y141.718 E.04853
G1 X112.635 Y141.667 E.0072
G1 X112.159 Y141.865 E.02115
G1 X111.616 Y141.976 E.02273
G1 X111.068 Y141.948 E.02256
G1 X110.543 Y141.785 E.02254
G1 X110.224 Y141.589 E.0154
G1 X109.812 Y141.248 E.02196
G1 X109.496 Y140.788 E.02291
G1 X109.356 Y140.448 E.01512
G1 X109.289 Y140.084 E.01518
G1 X109.265 Y139.55 E.02194
G1 X109.353 Y139.181 E.01557
G1 X109.548 Y138.683 E.02195
G1 X109.887 Y138.239 E.02293
G1 X110.162 Y138.002 E.0149
G1 X110.996 Y137.574 E.03851
G1 X111.037 Y137.405 E.00714
G1 X110.892 Y136.491 E.03799
G1 X110.802 Y135.211 E.05268
G1 X110.817 Y134.362 E.03488
G1 X110.935 Y133.243 E.0462
G1 X111.037 Y132.599 E.02677
G1 X111.019 Y132.465 E.00553
G1 X110.907 Y132.356 E.00647
G1 X110.311 Y132.096 E.02667
G1 X110.021 Y131.886 E.01468
G1 X109.65 Y131.476 E.02273
G1 X109.475 Y131.144 E.01539
G1 X109.294 Y130.641 E.02196
G1 X109.257 Y130.088 E.02276
G1 X109.307 Y129.818 E.01127
G1 X109.436 Y129.357 E.01965
G1 X109.69 Y128.901 E.02142
G1 X110.075 Y128.503 E.02276
G1 X110.547 Y128.213 E.02274
G1 X110.893 Y128.09 E.0151
G1 X111.437 Y128.018 E.02252
G1 X111.982 Y128.09 E.02258
G1 X112.571 Y128.315 E.02587
G1 X112.695 Y128.331 E.00517
G1 X112.835 Y128.25 E.00661
G1 X113.127 Y127.834 E.02088
G1 X113.652 Y127.161 E.03505
G1 X114.526 Y126.224 E.05261
G1 X115.493 Y125.383 E.0526
G1 X116.242 Y124.84 E.03801
G1 X116.322 Y124.732 E.00551
G1 X116.319 Y124.578 E.00636
G1 X116.081 Y123.973 E.02667
G1 X116.025 Y123.409 E.02328
G1 X116.09 Y122.893 E.02136
G1 X116.303 Y122.371 E.02314
G1 X116.623 Y121.937 E.02214
G1 X117.057 Y121.584 E.02298
G1 X117.547 Y121.358 E.02215
G1 X117.812 Y121.308 E.01107
G1 X118.294 Y121.261 E.01987
G1 X118.81 Y121.335 E.02142
G1 X119.325 Y121.552 E.02292
G1 X119.772 Y121.908 E.02345
G1 X120.096 Y122.31 E.02122
G1 X120.426 Y122.996 E.03125
G1 X120.594 Y123.038 E.00712
G1 X121.509 Y122.892 E.03802
G1 X122.789 Y122.802 E.05268
G1 X123.638 Y122.817 E.03488
G1 X124.764 Y122.936 E.04651
G1 X125.401 Y123.037 E.02647
G1 X125.536 Y123.005 E.00569
G1 E-.5 F1800
;WIPE_START
G1 F12000
G1 X126.011 Y122.164
G1 X126.395 Y121.767
G1 X126.794 Y121.496
;WIPE_END
G1 Z.45 F24000
G1 X119.552 Y135.228 Z.45
G1 Z.25
G1 E.5 F1800
;TYPE:Inner wall
G1 F3000
G1 X119.554 Y134.756 E.01937
G1 X119.611 Y134.163 E.02449
G1 X119.718 Y133.68 E.02031
G1 X119.958 Y133.114 E.02525
G1 X120.386 Y132.478 E.03147
G1 X120.94 Y131.937 E.03178
G1 X121.606 Y131.512 E.03244
G1 X122.363 Y131.233 E.03314
G1 X122.949 Y131.137 E.02436
G1 X123.615 Y131.139 E.02734
G1 X124.294 Y131.302 E.02866
G1 X125.021 Y131.645 E.03301
G1 X125.601 Y132.071 E.02954
G1 X126.144 Y132.664 E.033
G1 X126.515 Y133.273 E.02928
G1 X126.761 Y133.902 E.02776
G1 X126.898 Y134.65 E.0312
G1 X126.906 Y135.306 E.02695
G1 X126.801 Y135.921 E.02561
G1 X126.588 Y136.538 E.02678
G1 X126.443 Y136.871 E.01492
G1 X126.137 Y137.331 E.02269
G1 X125.498 Y137.907 E.03532
G1 X124.993 Y138.22 E.0244
G1 X124.527 Y138.411 E.02067
G1 X124.062 Y138.559 E.02004
G1 X123.495 Y138.65 E.02358
G1 X122.847 Y138.626 E.02661
G1 X122.419 Y138.554 E.01783
G1 X122.084 Y138.458 E.01433
G1 X121.578 Y138.233 E.02272
G1 X120.941 Y137.797 E.03169
G1 X120.469 Y137.341 E.02696
G1 X120.243 Y137.092 E.01381
G1 X119.942 Y136.621 E.02293
G1 X119.681 Y135.982 E.02833
G1 X119.552 Y135.305 E.02831
G1 X119.552 Y135.268 E.00151
G1 X119.992 Y135.23 F24000
;TYPE:Outer wall
G1 F3000
G1 X120.008 Y134.479 E.03086
G1 X120.115 Y133.9 E.02413
G1 X120.369 Y133.288 E.02723
G1 X120.751 Y132.734 E.02762
G1 X121.246 Y132.262 E.02808
G1 X121.839 Y131.893 E.0287
G1 X122.51 Y131.654 E.02921
G1 X123.012 Y131.579 E.02084
G1 X123.609 Y131.585 E.02451
G1 X124.176 Y131.732 E.02408
G1 X124.824 Y132.046 E.02955
G1 X125.33 Y132.426 E.02598
G1 X125.81 Y132.96 E.02947
G1 X126.129 Y133.498 E.02569
G1 X126.343 Y134.059 E.02466
G1 X126.458 Y134.723 E.02767
G1 X126.459 Y135.299 E.02364
G1 X126.362 Y135.839 E.02254
G1 X126.066 Y136.631 E.0347
G1 X125.797 Y137.04 E.02011
G1 X125.298 Y137.502 E.02789
G1 X124.827 Y137.797 E.02282
G1 X124.367 Y137.995 E.02058
G1 X123.991 Y138.118 E.01622
