; HEADER_BLOCK_START
; generated by OrcaSlicer 2.2.0 on 2024-11-16 at 17:37:36
; total layer number: 50
; filament_density: 1.27
; filament_diameter: 1.75
; max_z_height: 10.00
; HEADER_BLOCK_END

; THUMBNAIL_BLOCK_START

;
; THUMBNAIL_BLOCK_END

; THUMBNAIL_BLOCK_START

;
; THUMBNAIL_BLOCK_END

; external perimeters extrusion width = 0.42mm
; perimeters extrusion width = 0.45mm
; infill extrusion width = 0.45mm
; solid infill extrusion width = 0.45mm
; top infill extrusion width = 0.42mm
; first layer extrusion width = 0.50mm

; EXECUTABLE_BLOCK_START
EXCLUDE_OBJECT_DEFINE NAME=Male.stl_id_0_copy_0 CENTER=115,115 POLYGON=[[100,115],[100.009,114.791],[100.035,114.584],[100.078,114.38],[100.138,114.18],[100.215,113.986],[103.828,105.263],[103.911,105.071],[104.01,104.887],[104.124,104.712],[104.252,104.547],[104.393,104.393],[104.547,104.252],[104.712,104.124],[104.887,104.01],[105.071,103.911],[105.263,103.828],[113.986,100.215],[114.18,100.138],[114.38,100.078],[114.584,100.035],[114.791,100.009],[115,100],[115.209,100.009],[115.416,100.035],[115.62,100.078],[115.82,100.138],[116.014,100.215],[124.737,103.828],[124.929,103.911],[125.113,104.01],[125.288,104.124],[125.453,104.252],[125.607,104.393],[125.748,104.547],[125.876,104.712],[125.99,104.887],[126.089,105.071],[126.172,105.263],[129.785,113.986],[129.862,114.18],[129.922,114.38],[129.965,114.584],[129.991,114.791],[130,115],[129.991,115.209],[129.965,115.416],[129.922,115.62],[129.862,115.82],[129.785,116.014],[126.172,124.737],[126.089,124.929],[125.99,125.113],[125.876,125.288],[125.748,125.453],[125.607,125.607],[125.453,125.748],[125.288,125.876],[125.113,125.99],[124.929,126.089],[124.737,126.172],[116.014,129.785],[115.82,129.862],[115.62,129.922],[115.416,129.965],[115.209,129.991],[115,130],[114.791,129.991],[114.584,129.965],[114.38,129.922],[114.18,129.862],[113.986,129.785],[105.263,126.172],[105.071,126.089],[104.887,125.99],[104.712,125.876],[104.547,125.748],[104.393,125.607],[104.252,125.453],[104.124,125.288],[104.01,125.113],[103.911,124.929],[103.828,124.737],[100.215,116.014],[100.138,115.82],[100.078,115.62],[100.035,115.416],[100.009,115.209],[100,115]]
M73 P0 R9
;TYPE:Custom
M220 S100
G90 ; use absolute coordinates
M83 ; extruder relative mode
M104 S150 ; set temporary nozzle temp to prevent oozing during homing
M140 S70 ; set final bed temp
G4 S30 ; allow partial nozzle warmup
G28 ; home all axis and restore leveling
BED_MESH_CALIBRATE PROFILE=adaptive ADAPTIVE=1 ADAPTIVE_MARGIN=0
G1 Z25 F240
G1 X10.0 Y30 F3000
M73 P1 R9
M104 S245 ; set final nozzle temp
M190 S70 ; wait for bed temp to stabilize
M109 S245 ; wait for nozzle temp to stabilize
M73 P1 R9
G1 Z0.28 F240
G92 E0 ; Move Z Axis up
G1 Z2.0 F5000 ; Move to start position
M73 P2 R9
M73 P2 R9
G1 X5 Y30 Z0.28 F300 ; Draw the first line
G1 X5 Y200 Z0.28 F1500 E15 ; Move to side a little
G1 X5.4 Y200 Z0.28 F5000.0 ; Draw the second line
M73 P3 R9
M73 P3 R9
G1 X5.4 Y50 Z0.28 F1500.0 E30 ; Reset Extruder
G92 E0 ; Move Z Axis up
G1 Z2.0 F3000
M73 P4 R9
M117 Start Printing..
G90
G21
M83 ; use relative distances for extrusion
; filament start gcode
M106 S0
;LAYER_CHANGE
;Z:0.2
;HEIGHT:0.2
;BEFORE_LAYER_CHANGE
;0.2
G92 E0

M73 P4 R9
G1 E-.5 F1800
;_SET_FAN_SPEED_CHANGING_LAYER
SET_VELOCITY_LIMIT ACCEL=1000
SET_VELOCITY_LIMIT SQUARE_CORNER_VELOCITY=7
; printing object Male.stl id:0 copy 0
EXCLUDE_OBJECT_START NAME=Male.stl_id_0_copy_0
G1 Z.4 F24000
G1 X132.679 Y127.93
G1 Z.4
G1 Z.2
G1 E.5 F1800
;TYPE:Inner wall
;WIDTH:0.499999
G1 F3000
G1 X132.643 Y128.066 E.00507
G1 X132.696 Y128.35 E.01042
G1 X133.011 Y128.863 E.02175
G1 X133.412 Y129.571 E.02936
G1 X133.86 Y130.554 E.039
G1 X134.048 Y131.066 E.0197
G1 X134.349 Y132 E.03543
G1 X134.538 Y132.788 E.02926
G1 X134.706 Y133.069 E.0118
G1 X134.967 Y133.234 E.01117
G1 X135.181 Y133.272 E.00784
G1 X135.777 Y133.283 E.02152
G1 X136.304 Y133.458 E.02004
G1 X136.766 Y133.815 E.0211
G1 X137.095 Y134.306 E.02135
G1 X137.237 Y135 E.02555
G1 X137.181 Y135.445 E.01622
G1 X136.954 Y135.954 E.02011
G1 X136.549 Y136.381 E.02125
G1 X136.043 Y136.65 E.02069
G1 X135.785 Y136.701 E.00949
G1 X135.134 Y136.73 E.02354
G1 X134.808 Y136.847 E.0125
G1 X134.643 Y137.004 E.00821
G1 X134.527 Y137.254 E.00996
G1 X134.316 Y138.136 E.03273
G1 X134.071 Y138.913 E.02943
M73 P5 R9
M73 P5 R9
G1 X133.661 Y139.903 E.03869
G1 X133.402 Y140.416 E.02073
G1 X132.677 Y141.702 E.05331
G1 X132.643 Y141.896 E.00713
G1 X132.713 Y142.218 E.0119
G1 X132.853 Y142.409 E.00854
G1 X133.144 Y142.69 E.01461
G1 X133.389 Y143.055 E.01588
G1 X133.54 Y143.478 E.01622
G1 X133.573 Y143.874 E.01435
G1 X133.46 Y144.463 E.02165
G1 X133.248 Y144.859 E.01621
G1 X132.859 Y145.248 E.01987
G1 X132.321 Y145.504 E.02152
G1 X131.753 Y145.574 E.02067
G1 X131.189 Y145.447 E.02087
G1 X130.875 Y145.268 E.01301
G1 X130.218 Y144.713 E.03107
G1 X130.035 Y144.653 E.00696
G1 X129.799 Y144.653 E.00852
G1 X129.566 Y144.739 E.00896
G1 X129.137 Y145.011 E.01837
G1 X128.429 Y145.412 E.02936
G1 X127.303 Y145.925 E.04468
G1 X125.899 Y146.373 E.05322
G1 X125.209 Y146.539 E.0256
G1 X124.951 Y146.687 E.01075
G1 X124.772 Y146.951 E.01154
G1 X124.728 Y147.181 E.00845
G1 X124.719 Y147.645 E.01675
G1 X124.657 Y148.029 E.01407
G1 X124.379 Y148.552 E.02137
G1 X123.948 Y148.958 E.02136
G1 X123.438 Y149.183 E.02013
G1 X122.856 Y149.228 E.0211
G1 X122.413 Y149.124 E.01644
G1 X122.046 Y148.954 E.01459
G1 X121.619 Y148.549 E.02125
G1 X121.35 Y148.043 E.02069
G1 X121.308 Y147.832 E.00779
G1 X121.228 Y146.951 E.03191
G1 X121.139 Y146.787 E.00676
G1 X120.975 Y146.628 E.00822
G1 X120.746 Y146.527 E.00905
G1 X119.864 Y146.316 E.03273
G1 X119.087 Y146.071 E.02943
G1 X117.944 Y145.598 E.04468
G1 X116.851 Y145.004 E.0449
G1 X116.401 Y144.72 E.01922
G1 X116.112 Y144.643 E.01078
G1 X115.787 Y144.711 E.01201
G1 X115.591 Y144.853 E.00873
G1 X115.31 Y145.144 E.01461
G1 X114.945 Y145.389 E.01588
G1 X114.522 Y145.54 E.01622
G1 X114.126 Y145.573 E.01435
G1 X113.537 Y145.46 E.02165
G1 X113.141 Y145.248 E.01621
G1 X112.752 Y144.859 E.01987
G1 X112.496 Y144.321 E.02152
G1 X112.426 Y143.753 E.02067
G1 X112.501 Y143.325 E.01567
G1 X112.691 Y142.91 E.01649
G1 X113.289 Y142.213 E.03315
G1 X113.357 Y141.888 E.01201
G1 X113.274 Y141.589 E.01119
G1 X112.989 Y141.137 E.01932
G1 X112.588 Y140.429 E.02936
G1 X112.147 Y139.461 E.0384
G1 X111.919 Y138.836 E.02402
G1 X111.62 Y137.87 E.03652
G1 X111.466 Y137.228 E.02384
G1 X111.308 Y136.946 E.01166
G1 X111.044 Y136.77 E.01145
G1 X110.725 Y136.726 E.01164
G1 X110.095 Y136.686 E.02281
G1 X109.552 Y136.458 E.02124
G1 X109.14 Y136.083 E.02013
G1 X108.861 Y135.565 E.02124
G1 X108.763 Y135 E.0207
G1 X108.819 Y134.555 E.01622
G1 X109.046 Y134.046 E.02011
G1 X109.451 Y133.619 E.02125
G1 X109.957 Y133.35 E.02069
G1 X110.168 Y133.308 E.00779
G1 X111.044 Y133.23 E.03176
G1 X111.208 Y133.143 E.00669
G1 X111.368 Y132.98 E.00823
G1 X111.473 Y132.746 E.00928
G1 X111.684 Y131.864 E.03273
G1 X111.929 Y131.087 E.02943
G1 X112.402 Y129.944 E.04468
G1 X112.944 Y128.947 E.04094
G1 X113.24 Y128.468 E.02036
G1 X113.35 Y128.186 E.01093
G1 X113.344 Y127.95 E.00852
G1 X113.197 Y127.644 E.01225
G1 X112.856 Y127.31 E.01722
G1 X112.611 Y126.945 E.01588
G1 X112.46 Y126.522 E.01622
G1 X112.427 Y126.126 E.01435
G1 X112.54 Y125.537 E.02165
G1 X112.752 Y125.141 E.01621
G1 X113.141 Y124.752 E.01987
G1 X113.679 Y124.496 E.02152
G1 X114.247 Y124.426 E.02067
G1 X114.675 Y124.501 E.01567
G1 X115.208 Y124.778 E.02171
G1 X115.644 Y125.197 E.0218
G1 X115.95 Y125.344 E.01225
G1 X116.186 Y125.35 E.00852
G1 X116.44 Y125.258 E.00975
G1 X116.863 Y124.989 E.01814
G1 X117.571 Y124.588 E.02936
G1 X118.697 Y124.075 E.04468
G1 X119.87 Y123.683 E.04466
G1 X120.473 Y123.539 E.02237
G1 X120.95 Y123.388 E.01806
G1 X121.163 Y123.178 E.01079
G1 X121.27 Y122.866 E.01192
G1 X121.281 Y122.355 E.01846
G1 X121.343 Y121.971 E.01407
G1 X121.621 Y121.448 E.02137
G1 X122.04 Y121.052 E.02081
G1 X122.437 Y120.857 E.01596
G1 X122.999 Y120.766 E.02058
G1 X123.455 Y120.834 E.01666
G1 X123.823 Y120.968 E.01412
G1 X124.286 Y121.337 E.02137
G1 X124.607 Y121.834 E.02136
G1 X124.716 Y122.252 E.01561
G1 X124.73 Y122.866 E.02218
G1 X124.837 Y123.178 E.01192
G1 X124.99 Y123.346 E.00817
G1 X125.254 Y123.473 E.01059
G1 X126.136 Y123.684 E.03273
G1 X126.913 Y123.929 E.02943
G1 X128.056 Y124.402 E.04468
G1 X129.236 Y125.052 E.04861
G1 X129.679 Y125.315 E.01863
G1 X129.934 Y125.357 E.00931
G1 X130.238 Y125.276 E.01138
G1 X130.69 Y124.856 E.02227
G1 X131.055 Y124.611 E.01588
G1 X131.478 Y124.46 E.01622
G1 X131.874 Y124.427 E.01435
G1 X132.463 Y124.54 E.02164
G1 X132.858 Y124.752 E.0162
G1 X133.248 Y125.141 E.01988
G1 X133.504 Y125.679 E.02152
G1 X133.574 Y126.247 E.02067
G1 X133.499 Y126.675 E.01567
G1 X133.309 Y127.09 E.01649
G1 X132.724 Y127.761 E.03216
G1 X132.689 Y127.892 E.00486
G1 X133.106 Y128.033 F24000
;TYPE:Outer wall
G1 F3000
G1 X133.118 Y128.173 E.00506
G1 X133.403 Y128.628 E.0194
G1 X133.82 Y129.363 E.03051
G1 X134.351 Y130.529 E.04627
G1 X134.757 Y131.744 E.04626
G1 X134.97 Y132.637 E.03312
G1 X135.031 Y132.747 E.00455
G1 X135.189 Y132.815 E.00622
G1 X135.835 Y132.827 E.0233
G1 X136.333 Y132.973 E.01873
G1 X136.691 Y133.171 E.01479
G1 X137.1 Y133.503 E.01901
G1 X137.365 Y133.87 E.01637
G1 X137.571 Y134.286 E.01677
G1 X137.698 Y135 E.02616
G1 X137.664 Y135.271 E.00985
G1 X137.563 Y135.739 E.01729
G1 X137.331 Y136.216 E.01916
G1 X136.972 Y136.633 E.01988
G1 X136.68 Y136.855 E.01322
G1 X136.187 Y137.088 E.01971
G1 X135.643 Y137.194 E.02
G1 X135.198 Y137.185 E.01607
G1 X135.065 Y137.224 E.00502
G1 X134.971 Y137.36 E.00596
G1 X134.757 Y138.258 E.03331
G1 X134.501 Y139.069 E.03073
G1 X134.011 Y140.253 E.04627
G1 X133.398 Y141.381 E.04634
G1 X133.111 Y141.844 E.01966
G1 X133.123 Y142.016 E.00623
G1 X133.496 Y142.395 E.01917
G1 X133.801 Y142.847 E.01971
G1 X133.893 Y143.105 E.00988
G1 X134.014 Y143.569 E.01731
G1 X134.023 Y144.091 E.01883
G1 X133.89 Y144.629 E.02001
G1 X133.76 Y144.871 E.00993
G1 X133.498 Y145.271 E.01726
G1 X133.117 Y145.628 E.01883
G1 X132.625 Y145.892 E.02016
G1 X132.274 Y145.994 E.01321
G1 X131.729 Y146.034 E.01971
G1 X131.36 Y145.969 E.01355
G1 X130.852 Y145.803 E.01929
G1 X130.389 Y145.491 E.02015
G1 X130.08 Y145.17 E.01608
G1 X129.955 Y145.103 E.00512
G1 X129.799 Y145.132 E.00574
G1 X129.372 Y145.403 E.01827
G1 X128.637 Y145.82 E.03051
G1 X127.471 Y146.351 E.04627
G1 X126.005 Y146.817 E.05554
G1 X125.317 Y146.986 E.02557
G1 X125.199 Y147.113 E.00623
G1 X125.131 Y148.011 E.03253
G1 X124.97 Y148.437 E.01643
G1 X124.742 Y148.829 E.01638
G1 X124.424 Y149.152 E.01636
G1 X124.035 Y149.432 E.01732
G1 X123.542 Y149.63 E.01917
G1 X123.173 Y149.677 E.01344
G1 X122.639 Y149.669 E.01928
G1 X122.104 Y149.508 E.02016
G1 X121.784 Y149.331 E.01321
G1 X121.367 Y148.972 E.01988
G1 X121.145 Y148.68 E.01322
G1 X120.912 Y148.187 E.01971
G1 X120.806 Y147.643 E.02
G1 X120.815 Y147.198 E.01607
G1 X120.771 Y147.058 E.00532
G1 X120.64 Y146.971 E.00567
G1 X119.742 Y146.757 E.03331
G1 X118.931 Y146.501 E.03073
G1 X117.747 Y146.011 E.04627
G1 X116.619 Y145.398 E.04634
G1 X116.164 Y145.114 E.01936
G1 X115.985 Y145.123 E.00646
G1 X115.605 Y145.496 E.01923
G1 X115.153 Y145.801 E.01971
G1 X114.895 Y145.893 E.00988
G1 X114.431 Y146.014 E.01731
G1 X113.909 Y146.023 E.01883
G1 X113.371 Y145.89 E.02001
G1 X113.129 Y145.76 E.00992
G1 X112.729 Y145.498 E.01727
G1 X112.372 Y145.117 E.01883
G1 X112.108 Y144.625 E.02016
G1 X112.006 Y144.274 E.01321
G1 X111.966 Y143.729 E.01971
G1 X112.062 Y143.188 E.01984
G1 X112.176 Y142.937 E.00998
G1 X112.411 Y142.52 E.01726
G1 X112.83 Y142.08 E.02194
G1 X112.897 Y141.953 E.00521
G1 X112.873 Y141.807 E.00535
G1 X112.597 Y141.372 E.01859
G1 X112.18 Y140.637 E.03051
G1 X111.649 Y139.471 E.04627
G1 X111.176 Y137.976 E.05661
G1 X111.015 Y137.32 E.02439
G1 X110.886 Y137.199 E.00639
G1 X109.989 Y137.131 E.03248
G1 X109.563 Y136.969 E.01645
G1 X109.154 Y136.729 E.01711
G1 X108.773 Y136.36 E.01917
G1 X108.489 Y135.888 E.01988
G1 X108.37 Y135.542 E.01322
G1 X108.302 Y135 E.01973
G1 X108.336 Y134.729 E.00987
G1 X108.437 Y134.261 E.01728
G1 X108.669 Y133.784 E.01916
G1 X109.028 Y133.367 E.01988
G1 X109.32 Y133.145 E.01322
G1 X109.813 Y132.912 E.01971
G1 X110.357 Y132.806 E.02
G1 X110.802 Y132.815 E.01607
G1 X110.94 Y132.772 E.00524
G1 X111.029 Y132.64 E.00574
G1 X111.243 Y131.742 E.03331
G1 X111.499 Y130.931 E.03073
G1 X111.989 Y129.747 E.04627
G1 X112.602 Y128.619 E.04634
G1 X112.888 Y128.157 E.01961
G1 X112.875 Y127.981 E.00639
G1 X112.504 Y127.605 E.01905
G1 X112.199 Y127.153 E.01971
G1 X112.107 Y126.895 E.00988
G1 X111.986 Y126.431 E.01731
G1 X111.977 Y125.909 E.01883
G1 X112.11 Y125.371 E.02001
G1 X112.24 Y125.129 E.00992
G1 X112.502 Y124.729 E.01727
G1 X112.883 Y124.372 E.01883
G1 X113.375 Y124.108 E.02016
G1 X113.726 Y124.006 E.01321
G1 X114.271 Y123.966 E.01971
G1 X114.812 Y124.062 E.01984
G1 X115.063 Y124.176 E.00998
G1 X115.48 Y124.411 E.01726
G1 X115.92 Y124.83 E.02194
G1 X116.04 Y124.896 E.00494
G1 X116.203 Y124.867 E.00599
G1 X116.628 Y124.597 E.01819
G1 X117.363 Y124.18 E.03051
G1 X118.529 Y123.649 E.04627
G1 X119.892 Y123.207 E.05173
G1 X120.708 Y123 E.03038
G1 X120.804 Y122.878 E.0056
G1 X120.869 Y121.989 E.03221
G1 X121.072 Y121.475 E.01995
G1 X121.366 Y121.029 E.01929
G1 X121.786 Y120.668 E.01999
G1 X122.286 Y120.421 E.02013
G1 X122.646 Y120.345 E.01327
G1 X123.179 Y120.309 E.01928
G1 X123.55 Y120.387 E.01371
G1 X124.052 Y120.57 E.01929
G1 X124.36 Y120.792 E.01371
M73 P6 R9
M73 P6 R9
G1 X124.745 Y121.162 E.01929
G1 X125.026 Y121.646 E.02018
G1 X125.168 Y122.185 E.02013
G1 X125.185 Y122.802 E.02228
G1 X125.221 Y122.93 E.00484
G1 X125.36 Y123.029 E.00614
G1 X126.258 Y123.243 E.03331
G1 X127.069 Y123.499 E.03073
G1 X128.253 Y123.989 E.04627
G1 X129.381 Y124.602 E.04634
G1 X129.86 Y124.893 E.02023
G1 X130.023 Y124.873 E.00594
G1 X130.395 Y124.504 E.01891
G1 X130.847 Y124.199 E.01971
G1 X131.105 Y124.107 E.00988
G1 X131.569 Y123.986 E.01731
G1 X132.091 Y123.977 E.01883
G1 X132.629 Y124.11 E.02
G1 X132.87 Y124.24 E.00992
G1 X133.271 Y124.502 E.01729
G1 X133.628 Y124.883 E.01883
G1 X133.892 Y125.375 E.02016
G1 X133.994 Y125.726 E.01321
G1 X134.034 Y126.271 E.01971
G1 X133.938 Y126.812 E.01984
G1 X133.824 Y127.063 E.00998
G1 X133.589 Y127.48 E.01726
G1 X133.17 Y127.92 E.02194
G1 X133.125 Y127.998 E.00327
G1 E-.5 F1800
;WIPE_START
G1 F12000
G1 X133.118 Y128.173
G1 X133.403 Y128.628
G1 X133.82 Y129.363
G1 X134.003 Y129.766
;WIPE_END
G1 Z.4 F24000
G1 X117.806 Y135.266 Z.4
G1 Z.2
G1 E.5 F1800
;TYPE:Inner wall
G1 F3000
G1 X117.754 Y134.706 E.02033
G1 X117.745 Y134.421 E.01026
G1 X117.853 Y133.508 E.03322
G1 X118.166 Y132.506 E.0379
G1 X118.477 Y131.882 E.02517
G1 X118.75 Y131.46 E.01815
G1 X119.251 Y130.862 E.02817
G1 X119.764 Y130.381 E.02539
M73 P6 R8
M73 P6 R8
G1 X120.208 Y130.052 E.01995
G1 X121.063 Y129.586 E.03516
G1 X122.124 Y129.235 E.04037
G1 X123.023 Y129.106 E.0328
G1 X123.821 Y129.108 E.02879
G1 X124.639 Y129.297 E.03032
G1 X125.074 Y129.418 E.01631
G1 X125.658 Y129.671 E.02299
G1 X126.125 Y129.93 E.01927
G1 X126.859 Y130.482 E.03315
G1 X127.379 Y131.057 E.02801
G1 X127.775 Y131.653 E.02581
G1 X128.074 Y132.205 E.02266
G1 X128.309 Y132.801 E.02316
G1 X128.432 Y133.269 E.01744
G1 X128.575 Y134.019 E.02759
G1 X128.604 Y134.674 E.02367
G1 X128.481 Y135.748 E.03904
G1 X128.32 Y136.347 E.02236
G1 X127.969 Y137.163 E.03211
G1 X127.66 Y137.679 E.0217
G1 X126.975 Y138.491 E.03835
G1 X126.468 Y138.928 E.02416
G1 X125.49 Y139.508 E.04104
G1 X124.495 Y139.895 E.03856
G1 X123.861 Y140.046 E.02353
G1 X123.33 Y140.108 E.01932
G1 X122.335 Y140.073 E.03594
G1 X121.547 Y139.892 E.02917
G1 X121.22 Y139.798 E.01229
G1 X120.436 Y139.429 E.0313
G1 X119.839 Y139.026 E.026
G1 X119.392 Y138.631 E.02154
G1 X118.897 Y138.061 E.02725
G1 X118.621 Y137.642 E.01812
G1 X118.203 Y136.784 E.03445
G1 X117.985 Y136.155 E.02405
G1 X117.836 Y135.586 E.02122
G1 X117.81 Y135.306 E.01016
G1 X118.258 Y135.223 F24000
;TYPE:Outer wall
G1 F3000
G1 X118.21 Y134.667 E.02015
G1 X118.237 Y134.154 E.01856
G1 X118.307 Y133.562 E.02153
G1 X118.601 Y132.648 E.03466
G1 X118.884 Y132.091 E.02256
