; HEADER_BLOCK_START
; generated by OrcaSlicer 2.1.1 on 2024-07-03 at 17:08:49
; total layer number: 15
; filament_density: 1.24
; filament_diameter: 1.75
; max_z_height: 3.00
; HEADER_BLOCK_END

; THUMBNAIL_BLOCK_START

;
; THUMBNAIL_BLOCK_END

; THUMBNAIL_BLOCK_START

;
; THUMBNAIL_BLOCK_END

; external perimeters extrusion width = 0.42mm
; perimeters extrusion width = 0.45mm
; infill extrusion width = 0.45mm
; solid infill extrusion width = 0.45mm
; top infill extrusion width = 0.42mm
; first layer extrusion width = 0.50mm

; EXECUTABLE_BLOCK_START
EXCLUDE_OBJECT_DEFINE NAME=medaille001_v9_Patrice.step_id_0_copy_0 CENTER=115,115 POLYGON=[[57,115],[57.006,114.204],[57.0239,113.408],[57.0538,112.613],[57.0956,111.818],[57.1493,111.024],[57.215,110.231],[57.2926,109.439],[57.382,108.648],[57.4834,107.858],[57.5965,107.071],[57.7215,106.285],[57.8583,105.5],[58.0068,104.719],[58.1671,103.939],[58.339,103.162],[58.5226,102.387],[58.7178,101.616],[58.9246,100.847],[59.1429,100.082],[59.3727,99.3197],[59.6138,98.5612],[59.8664,97.8064],[60.1302,97.0555],[60.4053,96.3086],[60.6916,95.566],[60.989,94.8277],[61.2975,94.094],[61.6169,93.365],[61.9472,92.6408],[62.2884,91.9218],[62.6404,91.2079],[63.003,90.4994],[63.3762,89.7964],[63.76,89.0991],[64.1541,88.4076],[64.5586,87.7221],[64.9734,87.0428],[65.3983,86.3698],[65.8333,85.7033],[66.2782,85.0433],[66.733,84.3901],[67.1975,83.7438],[67.6717,83.1046],[68.1555,82.4726],[68.6486,81.8479],[69.1512,81.2306],[69.6629,80.621],[70.1837,80.0191],[70.7135,79.4252],[71.2521,78.8392],[71.7995,78.2614],[72.3555,77.6919],[72.92,77.1308],[73.4929,76.5782],[74.074,76.0344],[74.6632,75.4992],[75.2604,74.9731],[75.8654,74.4559],[76.4781,73.9479],[77.0983,73.4491],[77.726,72.9597],[78.3609,72.4798],[79.003,72.0094],[79.6521,71.5488],[80.308,71.098],[80.9707,70.657],[81.6398,70.2261],[82.3154,69.8053],[82.9972,69.3946],[83.6851,68.9943],[84.3789,68.6043],[85.0785,68.2248],[85.7838,67.8558],[86.4945,67.4975],[87.2105,67.1498],[87.9316,66.813],[88.6577,66.487],[89.3886,66.172],[90.1242,65.868],[90.8643,65.5751],[91.6086,65.2933],[92.3571,65.0227],[93.1096,64.7634],[93.8659,64.5154],[94.6259,64.2788],[95.3893,64.0537],[96.156,63.84],[96.9258,63.6379],[97.6986,63.4474],[98.4742,63.2684],[99.2523,63.1012],[100.033,62.9456],[100.816,62.8018],[101.601,62.6698],[102.387,62.5496],[103.176,62.4412],[103.966,62.3446],[104.757,62.2599],[105.55,62.1872],[106.344,62.1263],[107.138,62.0773],[107.933,62.0403],[108.729,62.0153],[109.524,62.0021],[110.32,62.001],[111.116,62.0118],[111.912,62.0345],[112.707,62.0692],[113.501,62.1158],[114.295,62.1743],[115.088,62.2448],[115.88,62.3271],[116.67,62.4214],[117.459,62.5275],[118.246,62.6454],[119.031,62.7751],[119.814,62.9166],[120.595,63.0699],[121.374,63.2349],[122.15,63.4115],[122.923,63.5998],[123.694,63.7996],[124.461,64.011],[125.225,64.234],[125.986,64.4683],[126.743,64.7141],[127.496,64.9712],[128.246,65.2396],[128.991,65.5192],[129.732,65.8099],[130.468,66.1118],[131.2,66.4247],[131.927,66.7485],[132.649,67.0832],[133.366,67.4287],[134.078,67.785],[134.784,68.1519],[135.485,68.5294],[136.18,68.9173],[136.869,69.3156],[137.552,69.7243],[138.229,70.1431],[138.899,70.5721],[139.563,71.0111],[140.22,71.46],[140.871,71.9187],[141.514,72.3872],[142.151,72.8652],[142.78,73.3528],[143.401,73.8497],[167.804,93.5829],[167.988,93.7362],[168.164,93.8982],[168.333,94.0684],[168.493,94.2465],[168.644,94.432],[168.787,94.6246],[168.92,94.8238],[169.043,95.0291],[169.156,95.2401],[169.259,95.4562],[169.352,95.6771],[169.635,96.4159],[169.907,97.1589],[170.168,97.9058],[170.417,98.6566],[170.656,99.411],[170.883,100.169],[171.098,100.93],[171.303,101.694],[171.496,102.462],[171.677,103.232],[171.847,104.004],[172.005,104.779],[172.152,105.557],[172.287,106.336],[172.411,107.118],[172.522,107.901],[172.623,108.686],[172.711,109.472],[172.788,110.259],[172.852,111.048],[172.906,111.837],[172.947,112.627],[172.976,113.418],[172.994,114.209],[173,115],[172.994,115.791],[172.976,116.582],[172.947,117.373],[172.906,118.163],[172.852,118.952],[172.788,119.741],[172.711,120.528],[172.623,121.314],[172.522,122.099],[172.411,122.882],[172.287,123.664],[172.152,124.443],[172.005,125.221],[171.847,125.996],[171.677,126.768],[171.496,127.538],[171.303,128.306],[171.098,129.07],[170.883,129.831],[170.656,130.589],[170.417,131.343],[170.168,132.094],[169.907,132.841],[169.635,133.584],[169.352,134.323],[169.259,134.544],[169.156,134.76],[169.043,134.971],[168.92,135.176],[168.787,135.375],[168.644,135.568],[168.493,135.754],[168.333,135.932],[168.164,136.102],[167.988,136.264],[167.804,136.417],[143.401,156.15],[142.78,156.647],[142.151,157.135],[141.514,157.613],[140.871,158.081],[140.22,158.54],[139.563,158.989],[138.899,159.428],[138.229,159.857],[137.552,160.276],[136.869,160.684],[136.18,161.083],[135.485,161.471],[134.784,161.848],[134.078,162.215],[133.366,162.571],[132.649,162.917],[131.927,163.252],[131.2,163.575],[130.468,163.888],[129.732,164.19],[128.991,164.481],[128.246,164.76],[127.496,165.029],[126.743,165.286],[125.986,165.532],[125.225,165.766],[124.461,165.989],[123.694,166.2],[122.923,166.4],[122.15,166.589],[121.374,166.765],[120.595,166.93],[119.814,167.083],[119.031,167.225],[118.246,167.355],[117.459,167.473],[116.67,167.579],[115.88,167.673],[115.088,167.755],[114.295,167.826],[113.501,167.884],[112.707,167.931],[111.912,167.966],[111.116,167.988],[110.32,167.999],[109.524,167.998],[108.729,167.985],[107.933,167.96],[107.138,167.923],[106.344,167.874],[105.55,167.813],[104.757,167.74],[103.966,167.655],[103.176,167.559],[102.387,167.45],[101.601,167.33],[100.816,167.198],[100.033,167.054],[99.2523,166.899],[98.4742,166.732],[97.6986,166.553],[96.9258,166.362],[96.156,166.16],[95.3893,165.946],[94.6259,165.721],[93.8659,165.485],[93.1096,165.237],[92.3571,164.977],[91.6086,164.707],[90.8643,164.425],[90.1242,164.132],[89.3886,163.828],[88.6577,163.513],[87.9316,163.187],[87.2105,162.85],[86.4945,162.503],[85.7838,162.144],[85.0785,161.775],[84.3789,161.396],[83.6851,161.006],[82.9972,160.605],[82.3154,160.195],[81.6398,159.774],[80.9707,159.343],[80.308,158.902],[79.6521,158.451],[79.003,157.991],[78.3609,157.52],[77.726,157.04],[77.0983,156.551],[76.4781,156.052],[75.8654,155.544],[75.2604,155.027],[74.6632,154.501],[74.074,153.966],[73.4929,153.422],[72.92,152.869],[72.3555,152.308],[71.7995,151.739],[71.2521,151.161],[70.7135,150.575],[70.1837,149.981],[69.6629,149.379],[69.1512,148.769],[68.6486,148.152],[68.1555,147.527],[67.6717,146.895],[67.1975,146.256],[66.733,145.61],[66.2782,144.957],[65.8333,144.297],[65.3983,143.63],[64.9734,142.957],[64.5586,142.278],[64.1541,141.592],[63.76,140.901],[63.3762,140.204],[63.003,139.501],[62.6404,138.792],[62.2884,138.078],[61.9472,137.359],[61.6169,136.635],[61.2975,135.906],[60.989,135.172],[60.6916,134.434],[60.4053,133.691],[60.1302,132.945],[59.8664,132.194],[59.6138,131.439],[59.3727,130.68],[59.1429,129.918],[58.9246,129.153],[58.7178,128.384],[58.5226,127.613],[58.339,126.838],[58.1671,126.061],[58.0068,125.281],[57.8583,124.5],[57.7215,123.715],[57.5965,122.929],[57.4834,122.142],[57.382,121.352],[57.2926,120.561],[57.215,119.769],[57.1493,118.976],[57.0956,118.182],[57.0538,117.387],[57.0239,116.592],[57.006,115.796],[57,115]]
M73 P0 R49
;TYPE:Custom
M220 S100
G90 ; use absolute coordinates
M83 ; extruder relative mode
M104 S150 ; set temporary nozzle temp to prevent oozing during homing
M140 S55 ; set final bed temp
G4 S30 ; allow partial nozzle warmup
G28 ; home all axis and restore leveling
BED_MESH_CALIBRATE PROFILE=adaptive ADAPTIVE=1 ADAPTIVE_MARGIN=0
G1 Z25 F240
G1 X10.0 Y30 F3000
M104 S210 ; set final nozzle temp
M190 S55 ; wait for bed temp to stabilize
M109 S210 ; wait for nozzle temp to stabilize
G1 Z0.28 F240
G92 E0 ; Move Z Axis up
G1 Z2.0 F5000 ; Move to start position
G1 X5 Y30 Z0.28 F300 ; Draw the first line
G1 X5 Y200 Z0.28 F1500 E15 ; Move to side a little
G1 X5.4 Y200 Z0.28 F5000.0 ; Draw the second line
G1 X5.4 Y50 Z0.28 F1500.0 E30 ; Reset Extruder
G92 E0 ; Move Z Axis up
G1 Z2.0 F3000
M117 Start Printing..
G90
G21
M83 ; use relative distances for extrusion
; filament start gcode
M106 S0
;LAYER_CHANGE
;Z:0.2
;HEIGHT:0.2
;BEFORE_LAYER_CHANGE
;0.2
G92 E0

G1 E-.5 F1800
;_SET_FAN_SPEED_CHANGING_LAYER
SET_VELOCITY_LIMIT ACCEL=1000
SET_VELOCITY_LIMIT SQUARE_CORNER_VELOCITY=7
; printing object medaille001 v9 Patrice.step id:0 copy 0
EXCLUDE_OBJECT_START NAME=medaille001_v9_Patrice.step_id_0_copy_0
G1 Z.2 F24000
G1 X72.639 Y112.381
G1 Z.2
G1 E.5 F1800
;TYPE:Inner wall
;WIDTH:0.708075
G1 X72.185 Y112.173 E.02764
G1 X71.741 Y112.202 E.02464
G1 X72.229 Y111.236 E.05988
G1 X72.477 Y111.583 E.02362
G1 X72.664 Y111.698 E.01212
G1 X72.633 Y111.836 E.00784
G1 X72.639 Y112.341 E.02795
G1 E-.5
;WIPE_START
G1 F12000
G1 X72.185 Y112.173
G1 X71.741 Y112.202
G1 X72.223 Y111.246
;WIPE_END
G1 Z.4 F24000
G1 X74.247 Y113.752 Z.4
G1 Z.2
G1 E.5 F1800
;TYPE:Outer wall
;WIDTH:0.38292
G1 X74.703 Y113.934 E.01388
G1 E-.5
;WIPE_START
G1 F12000
G1 X74.247 Y113.752
;WIPE_END
G1 Z.4 F24000
G1 X73.574 Y115.767 Z.4
G1 Z.2
G1 E.5 F1800
;WIDTH:0.430108
G1 X72.983 Y115.453 E.02152
;WIDTH:0.429354
G1 X72.942 Y115.434 E.00146
G1 E-.5
;WIPE_START
G1 F12000
G1 X72.983 Y115.453
G1 X73.574 Y115.767
;WIPE_END
G1 Z.4 F24000
G1 X72.107 Y117.761 Z.4
G1 Z.2
G1 E.5 F1800
;WIDTH:0.578547
G1 X72.095 Y117.887 E.00565
;WIDTH:0.622886
G1 X72.083 Y118.014 E.00611
G1 X71.815 Y118.651 E.03334
;WIDTH:0.583902
G1 X71.775 Y118.749 E.00477
G1 X71.299 Y117.258 F24000
;WIDTH:0.402505
G1 F1800
G1 X71.494 Y117.16 E.00652
;WIDTH:0.407016
G1 X71.724 Y117.186 E.00703
;WIDTH:0.424585
G1 X72.004 Y117.375 E.01071
;WIDTH:0.462702
G1 X72.058 Y117.51 E.00508
;WIDTH:0.500818
G1 X72.112 Y117.645 E.00554
;WIDTH:0.534208
G1 X72.107 Y117.761 E.00473
G1 X72.063 Y117.671 E.00409
;WIDTH:0.500818
G1 X71.985 Y117.633 E.0033
;WIDTH:0.463368
G1 X71.907 Y117.595 E.00303
;WIDTH:0.425917
G1 X71.649 Y117.542 E.00839
;WIDTH:0.407016
G1 X71.164 Y117.404 E.01527
;WIDTH:0.402505
G1 X71.272 Y117.287 E.00476
G1 E-.5
;WIPE_START
G1 F12000
G1 X71.494 Y117.16
G1 X71.724 Y117.186
G1 X72.004 Y117.375
G1 X72.058 Y117.51
G1 X72.112 Y117.645
G1 X72.107 Y117.761
G1 X72.063 Y117.671
G1 X71.985 Y117.633
G1 X71.907 Y117.595
G1 X71.649 Y117.542
G1 X71.427 Y117.479
;WIPE_END
G1 Z.4 F24000
G1 X70.988 Y115.021 Z.4
G1 Z.2
G1 E.5 F1800
;TYPE:Inner wall
;WIDTH:0.470019
M73 P1 R49
G1 X70.634 Y115.205 E.01417
G1 X70.011 Y115.789 E.03032
G1 X70.504 Y114.571 E.04666
;WIDTH:0.440468
G1 X70.629 Y114.247 E.01148
;WIDTH:0.440086
G1 X70.621 Y114.431 E.00609
;WIDTH:0.469256
G1 X70.614 Y114.615 E.00653
;WIDTH:0.470019
G1 X70.74 Y114.839 E.00911
G1 X70.956 Y114.997 E.00951
G1 E-.5
;WIPE_START
G1 F12000
G1 X70.634 Y115.205
G1 X70.011 Y115.789
G1 X70.297 Y115.081
;WIPE_END
G1 Z.4 F24000
G1 X67.591 Y123.361 Z.4
G1 Z.2
G1 E.5 F1800
;WIDTH:0.423691
G1 X67.92 Y122.051 E.04277
G1 X68.099 Y122.56 E.01707
;WIDTH:0.46951
G1 X68.211 Y122.644 E.00497
;WIDTH:0.515329
G1 X68.322 Y122.729 E.0055
;WIDTH:0.561148
G1 X68.434 Y122.814 E.00603
G1 X68.285 Y122.839 E.0065
;WIDTH:0.515329
G1 X68.136 Y122.863 E.00593
;WIDTH:0.46951
G1 X67.987 Y122.888 E.00535
;WIDTH:0.423691
G1 X67.617 Y123.331 E.01827
G1 E-.5
;WIPE_START
G1 F12000
G1 X67.92 Y122.051
G1 X68.099 Y122.56
G1 X68.211 Y122.644
G1 X68.215 Y122.648
;WIPE_END
G1 Z.4 F24000
G1 X70.585 Y123.755 Z.4
G1 Z.2
G1 E.5 F1800
;TYPE:Outer wall
;WIDTH:0.406714
G1 X72.155 Y124.129 E.04883
G1 X72.962 Y124.281 F24000
;TYPE:Inner wall
;WIDTH:0.499999
G1 F1800
G1 X72.962 Y124.288 E.0003
G1 E-.5
;WIPE_START
G1 F12000
G1 X72.962 Y124.281
;WIPE_END
G1 Z.4 F24000
G1 X70.052 Y125.814 Z.4
G1 Z.2
G1 E.5 F1800
;TYPE:Outer wall
;WIDTH:0.425802
G1 X69.882 Y126.465 E.02143
;WIDTH:0.38292
G1 X69.878 Y126.485 E.00059
G1 X68.888 Y125.558 F24000
;WIDTH:0.488548
G1 F1800
G1 X68.832 Y125.813 E.00968
;WIDTH:0.450911
G1 X68.777 Y126.068 E.00886
;WIDTH:0.413274
G1 X68.782 Y126.191 E.00378
;WIDTH:0.447497
G1 X68.639 Y126.35 E.0072
;WIDTH:0.489532
G1 X68.496 Y126.51 E.00795
;WIDTH:0.53846
G1 X67.74 Y126.188 E.03384
G1 E-.5
;WIPE_START
G1 F12000
G1 X68.496 Y126.51
G1 X68.639 Y126.35
G1 X68.782 Y126.191
G1 X68.777 Y126.068
G1 X68.832 Y125.813
G1 X68.888 Y125.558
;WIPE_END
G1 Z.4 F24000
G1 X67.131 Y130.108 Z.4
G1 Z.2
G1 E.5 F1800
;WIDTH:0.63479
G1 X67.591 Y130.096 E.02265
G1 E-.5
;WIPE_START
G1 F12000
G1 X67.131 Y130.108
;WIPE_END
G1 Z.4 F24000
G1 X66.336 Y136.104 Z.4
G1 Z.2
G1 E.5 F1800
;TYPE:Inner wall
;WIDTH:0.499999
G1 X66.305 Y135.146 E.03645
;WIDTH:0.45485
G1 X66.283 Y134.804 E.01172
;WIDTH:0.4097
G1 X66.26 Y134.463 E.01044
G1 X66.445 Y134.655 E.00812
;WIDTH:0.45485
G1 X66.629 Y134.847 E.00912
;WIDTH:0.499999
G1 X66.814 Y135.04 E.01012
G1 X68.079 Y135.142 E.04824
G1 X68.408 Y135.146 E.01252
;WIDTH:0.452744
G1 X68.737 Y135.151 E.01123
;WIDTH:0.405488
G1 X69.067 Y135.155 E.00993
;WIDTH:0.407449
G1 X69.141 Y135.188 E.00246
;WIDTH:0.456666
G1 X69.216 Y135.22 E.0028
;WIDTH:0.505883
G1 X69.29 Y135.253 E.00313
;WIDTH:0.5551
G1 X69.365 Y135.286 E.00346
;WIDTH:0.604317
G1 X69.439 Y135.318 E.0038
;WIDTH:0.653534
G1 X69.514 Y135.351 E.00413
G1 X69.446 Y135.372 E.00361
;WIDTH:0.604084
G1 X69.377 Y135.392 E.00332
;WIDTH:0.554633
G1 X69.309 Y135.412 E.00302
;WIDTH:0.505182
G1 X69.241 Y135.433 E.00273
;WIDTH:0.455731
G1 X69.173 Y135.453 E.00244
;WIDTH:0.40628
G1 X69.105 Y135.474 E.00215
;WIDTH:0.399748
G1 X68.874 Y135.46 E.00687
;WIDTH:0.433165
G1 X68.618 Y135.495 E.00841
;WIDTH:0.466582
G1 X68.361 Y135.531 E.00913
;WIDTH:0.499999
G1 X68.104 Y135.566 E.00985
G1 X67.564 Y135.818 E.02266
G1 X67.264 Y136.05 E.01439
G1 X66.806 Y136.489 E.02412
G1 X66.373 Y137.263 E.03372
G1 X66.337 Y136.144 E.04255
G1 E-.5
;WIPE_START
G1 F12000
G1 X66.305 Y135.146
G1 X66.283 Y134.804
G1 X66.26 Y134.463
G1 X66.445 Y134.655
G1 X66.48 Y134.691
;WIPE_END
G1 Z.4 F24000
G1 X67.094 Y139.816 Z.4
G1 Z.2
G1 E.5 F1800
;WIDTH:0.451149
G1 X66.782 Y140.239 E.01785
G1 X66.612 Y140.667 E.01564
G1 X66.487 Y139.409 E.04291
G1 X66.638 Y139.638 E.00929
G1 X66.823 Y139.759 E.00752
G1 X67.055 Y139.807 E.00803
G1 X68.571 Y138.958 F24000
;WIDTH:0.38342
G1 F1800
G1 X68.863 Y138.887 E.00849
G1 X68.8 Y138.642 E.00717
G1 X68.716 Y138.574 E.00305
G1 X68.548 Y138.583 E.00477
G1 X68.502 Y138.674 E.00288
G1 X68.516 Y138.833 E.00453
G1 X68.571 Y138.958 E.00387
G1 X68.199 Y139.477 F24000
;TYPE:Outer wall
;WIDTH:0.619166
G1 F1800
G1 X68.232 Y139.38 E.0049
;WIDTH:0.581764
G1 X68.265 Y139.283 E.00458
;WIDTH:0.544361
G1 X68.104 Y138.887 E.01785
;WIDTH:0.499999
G1 X68.103 Y138.597 E.01102
G1 X68.225 Y138.318 E.01158
G1 X68.514 Y138.165 E.0124
G1 X68.877 Y138.193 E.01385
G1 X69.058 Y138.309 E.00819
G1 X69.227 Y138.567 E.01171
G1 X69.255 Y139.174 E.0231
;WIDTH:0.470779
G1 X69.358 Y139.238 E.00431
;WIDTH:0.42685
G1 X69.461 Y139.301 E.00387
G1 X69.333 Y139.27 E.00419
;WIDTH:0.470779
G1 X69.206 Y139.238 E.00467
;WIDTH:0.499999
G1 X68.798 Y139.313 E.01574
;WIDTH:0.539722
G1 X68.599 Y139.368 E.00855
;WIDTH:0.579444
G1 X68.399 Y139.422 E.00923
;WIDTH:0.619166
G1 X68.238 Y139.466 E.008
G1 X70.034 Y139.269 F24000
;WIDTH:0.38292
G1 F1800
G1 X69.461 Y139.301 E.01623
G1 E-.5
;WIPE_START
G1 F12000
G1 X70.034 Y139.269
;WIPE_END
G1 Z.4 F24000
G1 X69.716 Y143.192 Z.4
G1 Z.2
G1 E.5 F1800
;WIDTH:0.408492
G1 X70.221 Y143.075 E.01573
;WIDTH:0.422746
G1 X70.679 Y142.929 E.0152
G1 E-.5
;WIPE_START
G1 F12000
G1 X70.221 Y143.075
G1 X69.716 Y143.192
;WIPE_END
G1 Z.4 F24000
G1 X70.356 Y146.567 Z.4
G1 Z.2
G1 E.5 F1800
;WIDTH:0.410386
G1 X70.986 Y146.468 E.01948
;WIDTH:0.40997
G1 X71.027 Y146.464 E.00128
G1 E-.5
;WIPE_START
G1 F12000
G1 X70.986 Y146.468
G1 X70.356 Y146.567
;WIPE_END
G1 Z.4 F24000
G1 X70.652 Y149.674 Z.4
G1 Z.2
G1 E.5 F1800
;TYPE:Inner wall
;WIDTH:0.361983
G1 X70.484 Y149.281 E.01135
;WIDTH:0.360054
G1 X70.538 Y149.184 E.00292
G1 X70.735 Y149.2 E.00521
;WIDTH:0.361983
G1 X70.853 Y149.362 E.00531
G1 X70.894 Y149.578 E.00585
G1 X70.689 Y149.66 E.00584
G1 X70.26 Y150.219 F24000
;TYPE:Outer wall
;WIDTH:0.553554
G1 F1800
G1 X70.295 Y150.06 E.00694
;WIDTH:0.526777
