; HEADER_BLOCK_START
; generated by OrcaSlicer 2.1.1 on 2024-07-03 at 18:04:42
; total layer number: 15
; filament_density: 1.24
; filament_diameter: 1.75
; max_z_height: 3.00
; HEADER_BLOCK_END

; THUMBNAIL_BLOCK_START

;
; THUMBNAIL_BLOCK_END

; THUMBNAIL_BLOCK_START

;
; THUMBNAIL_BLOCK_END

; external perimeters extrusion width = 0.42mm
; perimeters extrusion width = 0.45mm
; infill extrusion width = 0.45mm
; solid infill extrusion width = 0.45mm
; top infill extrusion width = 0.42mm
; first layer extrusion width = 0.50mm

; EXECUTABLE_BLOCK_START
EXCLUDE_OBJECT_DEFINE NAME=medaille001_v9_Aurélia.step_id_0_copy_0 CENTER=115,115 POLYGON=[[59.2337,94.1182],[59.244,93.8789],[59.2659,93.6404],[59.2991,93.4033],[59.3436,93.1679],[59.3994,92.935],[59.4662,92.705],[59.7108,91.9526],[59.9666,91.204],[60.2335,90.4592],[60.5115,89.7185],[60.8005,88.9821],[61.1005,88.25],[61.4114,87.5225],[61.7331,86.7997],[62.0656,86.0818],[62.4087,85.369],[62.7624,84.6613],[63.1267,83.959],[63.5014,83.2622],[63.8865,82.5711],[64.2818,81.8858],[64.6874,81.2065],[65.103,80.5334],[65.5286,79.8665],[65.9641,79.206],[66.4095,78.5521],[66.8645,77.9049],[67.3292,77.2646],[67.8034,76.6313],[68.2869,76.0051],[68.7798,75.3863],[69.2818,74.7748],[69.793,74.1709],[70.313,73.5748],[70.8419,72.9864],[71.3796,72.406],[71.9258,71.8337],[72.4805,71.2696],[73.0436,70.7139],[73.6149,70.1666],[74.1944,69.6279],[74.7818,69.0979],[75.377,68.5768],[75.9799,68.0646],[76.5905,67.5614],[77.2085,67.0674],[77.8337,66.5827],[78.4662,66.1074],[79.1056,65.6416],[79.752,65.1854],[80.4051,64.7388],[81.0648,64.3021],[81.7309,63.8753],[82.4033,63.4584],[83.0819,63.0517],[83.7665,62.6551],[83.9774,62.5416],[84.1935,62.4384],[84.4143,62.3456],[84.6392,62.2635],[84.8679,62.1922],[85.0997,62.132],[85.3341,62.083],[85.5706,62.0452],[85.8087,62.0188],[86.0477,62.0038],[86.2872,62.0003],[117.67,62.0003],[118.466,62.0049],[119.262,62.0213],[120.057,62.0498],[120.852,62.0901],[121.646,62.1424],[122.439,62.2066],[123.232,62.2827],[124.023,62.3708],[124.812,62.4706],[125.6,62.5824],[126.387,62.7059],[127.171,62.8412],[127.953,62.9883],[128.733,63.1472],[129.511,63.3177],[130.285,63.4999],[131.057,63.6937],[131.826,63.899],[132.592,64.1159],[133.354,64.3443],[134.113,64.5841],[134.869,64.8353],[135.62,65.0977],[136.367,65.3715],[137.111,65.6564],[137.849,65.9524],[138.584,66.2595],[139.313,66.5776],[140.038,66.9067],[140.758,67.2465],[141.472,67.5972],[142.181,67.9585],[142.885,68.3304],[143.583,68.7129],[144.275,69.1058],[144.962,69.509],[145.642,69.9226],[146.315,70.3462],[146.983,70.78],[147.643,71.2237],[148.298,71.6773],[148.945,72.1407],[149.585,72.6137],[150.218,73.0963],[150.843,73.5883],[151.461,74.0897],[152.072,74.6003],[152.675,75.12],[153.27,75.6487],[153.857,76.1863],[154.435,76.7326],[155.006,77.2876],[155.568,77.8511],[156.122,78.4229],[156.667,79.003],[157.203,79.5912],[157.73,80.1874],[158.248,80.7915],[158.758,81.4032],[159.258,82.0226],[159.748,82.6494],[160.229,83.2835],[160.701,83.9247],[161.162,84.5729],[161.614,85.228],[162.057,85.8898],[162.489,86.5582],[162.911,87.233],[163.323,87.9141],[163.724,88.6012],[164.116,89.2943],[164.496,89.9933],[164.867,90.6978],[165.226,91.4079],[165.575,92.1232],[165.913,92.8437],[166.241,93.5692],[166.557,94.2996],[166.862,95.0346],[167.157,95.7741],[167.44,96.518],[167.712,97.266],[167.972,98.018],[168.222,98.7739],[168.46,99.5334],[168.686,100.296],[168.901,101.063],[169.105,101.832],[169.297,102.605],[169.477,103.38],[169.646,104.158],[169.803,104.938],[169.948,105.72],[170.082,106.505],[170.203,107.292],[170.313,108.08],[170.411,108.87],[170.497,109.661],[170.571,110.454],[170.634,111.247],[170.684,112.041],[170.723,112.836],[170.749,113.632],[170.764,114.428],[170.766,115.224],[170.757,116.019],[170.736,116.815],[170.703,117.61],[170.657,118.405],[170.6,119.199],[170.531,119.992],[170.45,120.783],[170.358,121.574],[170.253,122.363],[170.136,123.15],[170.008,123.936],[169.868,124.719],[169.716,125.501],[169.553,126.28],[169.378,127.056],[169.191,127.83],[168.992,128.6],[168.782,129.368],[168.561,130.133],[168.328,130.894],[168.083,131.651],[167.828,132.405],[167.561,133.155],[167.282,133.9],[166.993,134.642],[166.692,135.379],[166.381,136.111],[166.058,136.839],[165.725,137.562],[165.381,138.279],[165.026,138.992],[164.66,139.699],[164.284,140.4],[163.897,141.096],[163.5,141.786],[163.093,142.469],[162.675,143.147],[162.248,143.818],[161.81,144.483],[161.362,145.141],[160.905,145.792],[160.437,146.436],[159.96,147.074],[159.474,147.704],[158.978,148.326],[158.473,148.941],[157.959,149.549],[157.435,150.149],[156.903,150.74],[156.362,151.324],[155.812,151.899],[155.254,152.467],[154.687,153.025],[154.112,153.575],[153.528,154.117],[152.937,154.65],[152.338,155.173],[151.73,155.688],[151.116,156.193],[150.493,156.689],[149.863,157.176],[149.227,157.653],[148.582,158.121],[147.931,158.579],[147.274,159.027],[146.609,159.465],[145.938,159.893],[145.261,160.311],[144.577,160.719],[143.888,161.116],[143.192,161.503],[142.491,161.88],[141.784,162.246],[141.072,162.601],[140.355,162.946],[139.632,163.28],[138.905,163.603],[138.172,163.915],[137.436,164.216],[136.694,164.505],[135.949,164.784],[135.199,165.051],[134.445,165.308],[133.688,165.552],[132.927,165.786],[132.163,166.008],[131.395,166.218],[130.625,166.417],[129.851,166.604],[129.075,166.78],[128.296,166.944],[127.515,167.096],[126.731,167.237],[125.946,167.365],[125.158,167.482],[124.369,167.587],[123.579,167.681],[122.787,167.762],[121.994,167.831],[121.201,167.889],[120.406,167.935],[119.611,167.968],[118.815,167.99],[118.019,168],[117.223,167.997],[116.428,167.983],[115.632,167.957],[114.837,167.919],[114.043,167.869],[113.249,167.807],[112.457,167.734],[111.665,167.648],[110.875,167.55],[110.087,167.441],[109.3,167.32],[108.516,167.187],[107.733,167.042],[106.953,166.885],[106.175,166.717],[105.4,166.537],[104.627,166.346],[103.857,166.142],[103.091,165.928],[102.328,165.702],[101.568,165.464],[100.812,165.215],[100.06,164.955],[99.3119,164.683],[98.5679,164.401],[97.8282,164.107],[97.093,163.802],[96.3625,163.486],[95.6368,163.159],[94.9161,162.821],[94.2006,162.473],[93.4903,162.113],[92.7856,161.744],[92.0864,161.363],[91.3931,160.972],[90.7057,160.571],[90.0244,160.16],[89.3494,159.738],[88.6808,159.306],[88.0187,158.864],[87.3634,158.413],[86.7149,157.951],[86.0734,157.48],[85.4391,156.999],[84.812,156.509],[84.1924,156.009],[83.5804,155.501],[82.976,154.983],[82.3795,154.456],[81.791,153.92],[81.2106,153.375],[80.6385,152.822],[80.0747,152.26],[79.5194,151.69],[78.9727,151.111],[78.4348,150.525],[77.9058,149.93],[77.3858,149.328],[76.8748,148.717],[76.3731,148.099],[75.8807,147.474],[75.3978,146.841],[74.9244,146.202],[74.4607,145.555],[74.0067,144.901],[73.5627,144.24],[73.1285,143.573],[72.7045,142.9],[72.2906,142.22],[71.887,141.534],[71.4937,140.842],[71.1109,140.144],[70.7385,139.441],[70.3768,138.732],[70.0258,138.017],[69.6855,137.298],[69.3561,136.573],[69.0376,135.844],[68.7301,135.11],[68.4336,134.371],[68.1483,133.628],[67.8742,132.881],[67.6113,132.13],[67.3597,131.375],[67.1195,130.616],[66.8907,129.853],[66.6734,129.088],[66.4676,128.319],[66.2734,127.547],[66.0908,126.772],[65.9198,125.995],[59.3534,95.307],[59.3067,95.0721],[59.2713,94.8352],[59.2473,94.5969],[59.2347,94.3577],[59.2337,94.1182]]
M73 P0 R50
;TYPE:Custom
M220 S100
G90 ; use absolute coordinates
M83 ; extruder relative mode
M104 S150 ; set temporary nozzle temp to prevent oozing during homing
M140 S55 ; set final bed temp
G4 S30 ; allow partial nozzle warmup
G28 ; home all axis and restore leveling
BED_MESH_CALIBRATE PROFILE=adaptive ADAPTIVE=1 ADAPTIVE_MARGIN=0
G1 Z25 F240
G1 X10.0 Y30 F3000
M104 S210 ; set final nozzle temp
M190 S55 ; wait for bed temp to stabilize
M109 S210 ; wait for nozzle temp to stabilize
G1 Z0.28 F240
G92 E0 ; Move Z Axis up
G1 Z2.0 F5000 ; Move to start position
G1 X5 Y30 Z0.28 F300 ; Draw the first line
G1 X5 Y200 Z0.28 F1500 E15 ; Move to side a little
M73 P0 R49
G1 X5.4 Y200 Z0.28 F5000.0 ; Draw the second line
G1 X5.4 Y50 Z0.28 F1500.0 E30 ; Reset Extruder
G92 E0 ; Move Z Axis up
G1 Z2.0 F3000
M117 Start Printing..
G90
G21
M83 ; use relative distances for extrusion
; filament start gcode
M106 S0
;LAYER_CHANGE
;Z:0.2
;HEIGHT:0.2
;BEFORE_LAYER_CHANGE
;0.2
G92 E0

G1 E-.5 F1800
;_SET_FAN_SPEED_CHANGING_LAYER
SET_VELOCITY_LIMIT ACCEL=1000
SET_VELOCITY_LIMIT SQUARE_CORNER_VELOCITY=7
; printing object medaille001 v9 Aurélia.step id:0 copy 0
EXCLUDE_OBJECT_START NAME=medaille001_v9_Aurélia.step_id_0_copy_0
G1 Z.2 F24000
G1 X146.802 Y181.125
G1 Z.2
G1 E.5 F1800
;TYPE:Inner wall
;WIDTH:0.707893
G1 X147.031 Y181.545 E.02646
G1 X147.49 Y181.772 E.02831
G1 X146.414 Y182.259 E.06526
G1 X146.44 Y181.832 E.02364
G1 X146.364 Y181.625 E.01223
G1 X146.469 Y181.527 E.00794
G1 X146.776 Y181.156 E.02665
G1 E-.5
;WIPE_START
G1 F12000
G1 X147.031 Y181.545
G1 X147.49 Y181.772
G1 X146.558 Y182.194
;WIPE_END
G1 Z.4 F24000
G1 X149.76 Y180.096 Z.4
G1 Z.2
G1 E.5 F1800
;WIDTH:0.468763
G1 X150.151 Y180.175 E.01412
G1 X150.968 Y180.12 E.02902
G1 X149.85 Y180.749 E.04544
;WIDTH:0.437849
G1 X149.547 Y180.926 E.01152
;WIDTH:0.43777
G1 X149.671 Y180.787 E.00611
;WIDTH:0.468606
G1 X149.794 Y180.647 E.00659
;WIDTH:0.468763
G1 X149.837 Y180.393 E.00913
G1 X149.77 Y180.135 E.00944
G1 E-.5
;WIPE_START
G1 F12000
G1 X150.151 Y180.175
G1 X150.968 Y180.12
G1 X150.273 Y180.511
;WIPE_END
G1 Z.4 F24000
G1 X148.494 Y178.535 Z.4
G1 Z.2
G1 E.5 F1800
;TYPE:Outer wall
;WIDTH:0.426862
G1 X148.289 Y178.073 E.01614
;WIDTH:0.443508
G1 X148.214 Y177.865 E.00737
;WIDTH:0.47168
G1 X148.14 Y177.657 E.00788
G1 E-.5
;WIPE_START
G1 F12000
G1 X148.214 Y177.865
G1 X148.289 Y178.073
G1 X148.494 Y178.535
;WIPE_END
G1 Z.4 F24000
G1 X146.187 Y178.605 Z.4
G1 Z.2
G1 E.5 F1800
;WIDTH:0.38292
G1 X146.424 Y179.025 E.01363
G1 E-.5
;WIPE_START
G1 F12000
G1 X146.187 Y178.605
;WIPE_END
G1 Z.4 F24000
G1 X150.558 Y177.401 Z.4
G1 Z.2
G1 E.5 F1800
;WIDTH:0.55782
G1 X150.597 Y177.276 E.0056
;WIDTH:0.576722
G1 X150.683 Y177.169 E.00607
;WIDTH:0.613889
G1 X150.829 Y177.064 E.00856
;WIDTH:0.651056
G1 X150.975 Y176.958 E.00912
G1 X151.214 Y176.843 E.0134
;WIDTH:0.614172
G1 X151.452 Y176.727 E.01259
;WIDTH:0.581338
G1 X151.491 Y176.702 E.00208
G1 X150.738 Y178.132 F24000
;WIDTH:0.407259
G1 F1800
M73 P1 R49
G1 X150.543 Y177.943 E.00822
;WIDTH:0.435306
G1 X150.509 Y177.815 E.00434
;WIDTH:0.463352
G1 X150.474 Y177.686 E.00465
;WIDTH:0.510586
G1 X150.516 Y177.544 E.00578
;WIDTH:0.55782
G1 X150.558 Y177.401 E.00637
G1 X150.625 Y177.479 E.0044
;WIDTH:0.52018
G1 X150.692 Y177.557 E.00408
;WIDTH:0.48254
G1 X150.759 Y177.635 E.00376
;WIDTH:0.4449
G1 X150.825 Y177.714 E.00344
;WIDTH:0.407259
G1 X151.129 Y178.146 E.01601
;WIDTH:0.402295
G1 X150.778 Y178.133 E.01052
G1 E-.5
;WIPE_START
G1 F12000
G1 X150.543 Y177.943
G1 X150.509 Y177.815
G1 X150.474 Y177.686
G1 X150.516 Y177.544
G1 X150.558 Y177.401
G1 X150.625 Y177.479
G1 X150.692 Y177.557
G1 X150.759 Y177.635
G1 X150.825 Y177.714
G1 X151.129 Y178.146
G1 X150.935 Y178.139
;WIPE_END
G1 Z.4 F24000
G1 X157.64 Y175.747 Z.4
G1 Z.2
G1 E.5 F1800
;TYPE:Inner wall
;WIDTH:0.393528
G1 X157.343 Y175.96 E.01064
;WIDTH:0.419969
G1 X157.046 Y176.173 E.01145
G1 X156.488 Y176.622 E.02246
G1 X156.744 Y176.046 E.01976
;WIDTH:0.46723
G1 X156.712 Y175.913 E.00484
;WIDTH:0.51449
G1 X156.68 Y175.779 E.00538
;WIDTH:0.56175
G1 X156.648 Y175.646 E.00591
G1 X156.767 Y175.714 E.00592
;WIDTH:0.51449
G1 X156.886 Y175.782 E.00538
;WIDTH:0.46723
G1 X157.005 Y175.85 E.00484
;WIDTH:0.419969
G1 X157.322 Y175.799 E.01007
;WIDTH:0.393528
G1 X157.6 Y175.754 E.0082
G1 E-.5
;WIPE_START
G1 F12000
G1 X157.343 Y175.96
G1 X157.046 Y176.173
G1 X156.488 Y176.622
G1 X156.727 Y176.084
;WIPE_END
G1 Z.4 F24000
G1 X158.018 Y173.223 Z.4
G1 Z.2
G1 E.5 F1800
;TYPE:Outer wall
;WIDTH:0.488542
G1 X158.222 Y173.06 E.00968
;WIDTH:0.450905
G1 X158.425 Y172.896 E.00886
;WIDTH:0.413268
G1 X158.466 Y172.855 E.00179
G1 X159.32 Y173.48 F24000
;WIDTH:0.541772
G1 F1800
G1 X159.121 Y173.105 E.01762
;WIDTH:0.515651
G1 X158.921 Y172.73 E.0167
G1 X157.274 Y172.293 F24000
;WIDTH:0.425804
G1 F1800
G1 X157.815 Y171.893 E.02143
G1 E-.5
;WIPE_START
G1 F12000
G1 X157.274 Y172.293
;WIPE_END
G1 Z.4 F24000
G1 X154.579 Y172.28 Z.4
G1 Z.2
G1 E.5 F1800
;WIDTH:0.406714
G1 X155.565 Y173.559 E.04883
G1 E-.5
;WIPE_START
G1 F12000
G1 X154.579 Y172.28
;WIPE_END
G1 Z.4 F24000
G1 X162.245 Y170.79 Z.4
G1 Z.2
G1 E.5 F1800
;WIDTH:0.63479
G1 X161.88 Y170.51 E.02265
G1 E-.5
;WIPE_START
G1 F12000
G1 X162.245 Y170.79
;WIPE_END
G1 Z.4 F24000
G1 X166.414 Y162.882 Z.4
G1 Z.2
G1 E.5 F1800
;TYPE:Inner wall
;WIDTH:0.382022
G1 X166.313 Y163.105 E.00691
G1 X166.336 Y163.211 E.00305
G1 X166.472 Y163.31 E.00476
G1 X166.566 Y163.268 E.00289
G1 X166.655 Y163.136 E.00449
G1 X166.69 Y163.006 E.00381
G1 X166.414 Y162.882 E.00854
G1 X166.218 Y162.186 F24000
;TYPE:Outer wall
;WIDTH:0.38292
G1 F1800
G1 X165.744 Y161.838 E.01662
G1 X166.288 Y162.266 F24000
;WIDTH:0.455732
G1 F1800
G1 X166.359 Y162.347 E.00368
;WIDTH:0.492137
G1 X166.43 Y162.428 E.004
;WIDTH:0.499999
G1 X166.73 Y162.587 E.01293
;WIDTH:0.535568
G1 X166.926 Y162.672 E.00872
;WIDTH:0.571137
G1 X167.121 Y162.756 E.00935
;WIDTH:0.606706
G1 X167.317 Y162.84 E.00998
G1 X167.223 Y162.897 E.00514
;WIDTH:0.569616
G1 X167.13 Y162.954 E.0048
;WIDTH:0.532526
G1 X167.009 Y163.352 E.01695
;WIDTH:0.499999
G1 X166.827 Y163.579 E.01103
G1 X166.557 Y163.719 E.01158
G1 X166.236 Y163.656 E.0124
G1 X165.971 Y163.406 E.01385
G1 X165.903 Y163.201 E.00819
G1 X165.934 Y162.895 E.01171
G1 X166.005 Y162.783 E.00501
G1 X166.284 Y162.442 E.01676
;WIDTH:0.492137
G1 X166.262 Y162.357 E.0033
;WIDTH:0.455732
G1 X166.24 Y162.271 E.00303
;WIDTH:0.419326
G1 X166.218 Y162.186 E.00277
G1 X166.262 Y162.236 E.0021
G1 E-.5
;WIPE_START
G1 F12000
G1 X166.359 Y162.347
G1 X166.43 Y162.428
G1 X166.73 Y162.587
G1 X166.926 Y162.672
G1 X167.121 Y162.756
G1 X167.317 Y162.84
G1 X167.223 Y162.897
G1 X167.13 Y162.954
G1 X167.009 Y163.352
G1 X166.927 Y163.454
;WIPE_END
G1 Z.4 F24000
G1 X168.374 Y163.264 Z.4
G1 Z.2
G1 E.5 F1800
;TYPE:Inner wall
;WIDTH:0.448163
G1 X168.687 Y163.194 E.0108
G1 X169.084 Y163.042 E.01433
G1 X169.293 Y162.902 E.00846
G1 X168.592 Y163.964 E.04285
G1 X168.619 Y163.688 E.00932
G1 X168.554 Y163.484 E.00724
G1 X168.4 Y163.295 E.00821
G1 E-.5
;WIPE_START
G1 F12000
G1 X168.687 Y163.194
G1 X169.084 Y163.042
G1 X169.293 Y162.902
G1 X168.731 Y163.753
;WIPE_END
G1 Z.4 F24000
G1 X170.15 Y160.319 Z.4
G1 Z.2
G1 E.5 F1800
;WIDTH:0.449291
G1 X170.37 Y160.399 E.00789
G1 X170.77 Y160.335 E.0137
;WIDTH:0.433547
G1 X170.977 Y160.141 E.00922
;WIDTH:0.418806
G1 X170.797 Y160.427 E.01057
;WIDTH:0.449291
G1 X170.272 Y161.26 E.03328
G1 X170.248 Y160.697 E.01905
G1 X170.16 Y160.358 E.01185
G1 E-.5
;WIPE_START
G1 F12000
G1 X170.37 Y160.399
G1 X170.77 Y160.335
G1 X170.977 Y160.141
G1 X170.797 Y160.427
G1 X170.393 Y161.069
;WIPE_END
G1 Z.4 F24000
G1 X171.249 Y158.264 Z.4
G1 Z.2
G1 E.5 F1800
;WIDTH:0.479825
G1 X172.123 Y157.851 E.03513
G1 X171.697 Y158.737 E.03572
;WIDTH:0.449205
G1 X171.548 Y159.059 E.01196
G1 X171.513 Y158.753 E.0104
;WIDTH:0.479825
G1 X171.477 Y158.447 E.01119
G1 X171.28 Y158.289 E.00916
G1 X172.118 Y156.489 F24000
;WIDTH:0.466163
G1 F1800
G1 X172.215 Y156.449 E.00371
G1 X172.728 Y156.153 E.02085
G1 X172.937 Y155.945 E.01036
;WIDTH:0.439713
G1 X173.145 Y155.737 E.00972
;WIDTH:0.437657
G1 X173.06 Y155.898 E.00599
;WIDTH:0.466163
G1 X172.546 Y156.998 E.04272
G1 X172.528 Y156.889 E.00388
G1 X172.383 Y156.662 E.00949
G1 X172.151 Y156.51 E.00975
G1 E-.5
;WIPE_START
G1 F12000
G1 X172.215 Y156.449
G1 X172.728 Y156.153
G1 X172.937 Y155.945
G1 X173.145 Y155.737
G1 X173.06 Y155.898
G1 X172.828 Y156.394
;WIPE_END
G1 Z.4 F24000
G1 X170.087 Y155.964 Z.4
G1 Z.2
G1 E.5 F1800
;TYPE:Outer wall
;WIDTH:0.424012
G1 X169.418 Y155.566 E.02465
;WIDTH:0.433504
G1 X169.372 Y155.533 E.00185
G1 E-.5
;WIPE_START
G1 F12000
G1 X169.418 Y155.566
G1 X170.087 Y155.964
;WIPE_END
G1 Z.4 F24000
G1 X171.81 Y153.362 Z.4
G1 Z.2
G1 E.5 F1800
;TYPE:Inner wall
;WIDTH:0.361982
