; HEADER_BLOCK_START
; generated by OrcaSlicer 2.2.0 on 2024-11-25 at 18:32:27
; total layer number: 25
; filament_density: 1.27
; filament_diameter: 1.75
; max_z_height: 5.00
; HEADER_BLOCK_END

; THUMBNAIL_BLOCK_START

;
; THUMBNAIL_BLOCK_END

; THUMBNAIL_BLOCK_START

;
; THUMBNAIL_BLOCK_END

; external perimeters extrusion width = 0.42mm
; perimeters extrusion width = 0.45mm
; infill extrusion width = 0.45mm
; solid infill extrusion width = 0.45mm
; top infill extrusion width = 0.42mm
; first layer extrusion width = 0.50mm

; EXECUTABLE_BLOCK_START
EXCLUDE_OBJECT_DEFINE NAME=Multi_PTFE_B_v11.stl_id_0_copy_0 CENTER=115,115 POLYGON=[[103,105.5],[103.008,105.209],[103.034,104.92],[103.076,104.632],[103.135,104.347],[103.21,104.066],[103.302,103.79],[103.409,103.52],[103.532,103.256],[103.67,103],[103.823,102.752],[103.989,102.514],[104.17,102.286],[104.363,102.069],[104.569,101.863],[104.786,101.67],[105.014,101.489],[105.252,101.323],[105.5,101.17],[105.756,101.032],[106.02,100.909],[106.29,100.802],[106.566,100.71],[106.847,100.635],[107.132,100.576],[107.42,100.534],[107.709,100.508],[108,100.5],[122,100.5],[122.291,100.508],[122.58,100.534],[122.868,100.576],[123.153,100.635],[123.434,100.71],[123.71,100.802],[123.98,100.909],[124.244,101.032],[124.5,101.17],[124.748,101.323],[124.986,101.489],[125.214,101.67],[125.431,101.863],[125.637,102.069],[125.83,102.286],[126.011,102.514],[126.177,102.752],[126.33,103],[126.468,103.256],[126.591,103.52],[126.698,103.79],[126.79,104.066],[126.865,104.347],[126.924,104.632],[126.966,104.92],[126.992,105.209],[127,105.5],[127,129.5],[103,129.5],[103,105.5]]
M73 P0 R5
;TYPE:Custom
M220 S100
G90 ; use absolute coordinates
M83 ; extruder relative mode
M104 S150 ; set temporary nozzle temp to prevent oozing during homing
M140 S70 ; set final bed temp
G4 S30 ; allow partial nozzle warmup
G28 ; home all axis and restore leveling
BED_MESH_CALIBRATE
G1 Z25 F240
G1 X10.0 Y30 F3000
M73 P1 R5
M104 S245 ; set final nozzle temp
M190 S70 ; wait for bed temp to stabilize
M109 S245 ; wait for nozzle temp to stabilize
M73 P1 R5
G1 Z0.28 F240
M73 P2 R5
G92 E0 ; Move Z Axis up
LINE_PURGE
G92 E0 ; Move Z Axis up
M73 P2 R5
G1 Z2.0 F3000
M73 P4 R5
M117 Start Printing..
G90
G21
M83 ; use relative distances for extrusion
; filament start gcode
M106 S0
;LAYER_CHANGE
;Z:0.2
;HEIGHT:0.2
;BEFORE_LAYER_CHANGE
;0.2
G92 E0

M73 P4 R5
G1 E-.5 F1800
;_SET_FAN_SPEED_CHANGING_LAYER
SET_VELOCITY_LIMIT ACCEL=1000
SET_VELOCITY_LIMIT SQUARE_CORNER_VELOCITY=7
; printing object Multi PTFE B v11.stl id:0 copy 0
EXCLUDE_OBJECT_START NAME=Multi_PTFE_B_v11.stl_id_0_copy_0
G1 Z.4 F24000
G1 X134.243 Y148.743
G1 Z.4
G1 Z.2
G1 E.5 F1800
;TYPE:Inner wall
;WIDTH:0.499999
G1 F3000
G1 X111.757 Y148.743 E.81186
G1 X111.757 Y125.531 E.83809
G1 X111.824 Y124.763 E.02782
G1 X112.016 Y124.05 E.02668
G1 X112.271 Y123.502 E.02182
G1 X112.534 Y123.064 E.01844
G1 X112.915 Y122.589 E.02198
G1 X113.366 Y122.181 E.02197
G1 X113.999 Y121.766 E.02732
G1 X114.54 Y121.518 E.02151
G1 X115.147 Y121.355 E.02268
G1 X115.757 Y121.265 E.02226
G1 X129.935 Y121.257 E.51193
G1 X130.483 Y121.286 E.01979
G1 X131.091 Y121.412 E.02243
G1 X131.685 Y121.607 E.02258
G1 X132.219 Y121.891 E.02184
G1 X132.78 Y122.305 E.02518
G1 X133.17 Y122.689 E.01974
G1 X133.544 Y123.169 E.02198
G1 X133.836 Y123.702 E.02194
G1 X134.085 Y124.379 E.02604
G1 X134.177 Y124.867 E.01794
G1 X134.235 Y125.396 E.01921
G1 X134.243 Y148.703 E.84151
G1 X134.7 Y149.2 F24000
M73 P5 R5
;TYPE:Outer wall
M73 P5 R5
G1 F3000
G1 X111.3 Y149.2 E.84488
G1 X111.3 Y125.511 E.85531
G1 X111.372 Y124.684 E.02999
G1 X111.584 Y123.893 E.02957
G1 X111.932 Y123.147 E.02969
G1 X112.23 Y122.694 E.01961
G1 X112.582 Y122.275 E.01973
G1 X112.979 Y121.9 E.01974
G1 X113.417 Y121.574 E.01971
G1 X113.891 Y121.3 E.01974
G1 X114.39 Y121.085 E.01962
G1 X115.188 Y120.871 E.02982
G1 X115.728 Y120.808 E.01964
G1 X129.998 Y120.8 E.51523
G1 X130.543 Y120.832 E.0197
G1 X131.183 Y120.964 E.02363
G1 X131.737 Y121.14 E.02098
G1 X132.225 Y121.367 E.01942
G1 X132.688 Y121.653 E.01964
G1 X133.116 Y121.99 E.01968
G1 X133.502 Y122.375 E.01969
G1 X133.841 Y122.803 E.01971
G1 X134.129 Y123.268 E.01974
G1 X134.361 Y123.764 E.01977
G1 X134.523 Y124.248 E.01842
G1 X134.629 Y124.801 E.02034
G1 X134.692 Y125.396 E.0216
G1 X134.7 Y149.16 E.85802
G1 E-.5 F1800
;WIPE_START
G1 F12000
G1 X132.7 Y149.163
;WIPE_END
G1 Z.4 F24000
G1 X129.865 Y132 Z.4
G1 Z.2
G1 E.5 F1800
;TYPE:Inner wall
G1 F3000
G1 X130.449 Y132.661 E.03183
G1 X130.789 Y133.204 E.02315
G1 X131.02 Y133.707 E.01997
G1 X131.25 Y134.471 E.02882
G1 X131.356 Y135.279 E.02942
G1 X131.346 Y135.916 E.02301
G1 X131.27 Y136.464 E.01995
G1 X131.131 Y136.995 E.01982
G1 X130.933 Y137.505 E.01975
G1 X130.641 Y138.052 E.02239
G1 X130.327 Y138.504 E.01988
G1 X129.967 Y138.914 E.0197
G1 X129.562 Y139.282 E.01978
G1 X129.115 Y139.601 E.01983
G1 X128.336 Y139.998 E.03155
G1 X127.799 Y140.182 E.02049
G1 X127.269 Y140.299 E.0196
G1 X126.475 Y140.362 E.02876
G1 X125.584 Y140.277 E.03231
G1 X124.787 Y140.05 E.02991
G1 X124.317 Y139.841 E.01859
G1 X123.803 Y139.542 E.02147
G1 X123.312 Y139.167 E.02231
G1 X123 Y138.865 E.01568
G1 X122.339 Y139.449 E.03183
G1 X121.796 Y139.789 E.02315
G1 X121.339 Y140 E.01815
G1 X120.529 Y140.25 E.03063
G1 X119.721 Y140.356 E.02942
G1 X119.084 Y140.346 E.02301
G1 X118.536 Y140.27 E.01995
G1 X118.005 Y140.131 E.01982
G1 X117.495 Y139.933 E.01975
G1 X116.948 Y139.641 E.02239
G1 X116.496 Y139.327 E.01988
M73 P6 R5
M73 P6 R5
G1 X116.086 Y138.967 E.0197
G1 X115.718 Y138.562 E.01978
G1 X115.399 Y138.115 E.01984
G1 X115.002 Y137.336 E.03155
G1 X114.818 Y136.799 E.0205
G1 X114.688 Y136.176 E.02299
G1 X114.638 Y135.475 E.02537
G1 X114.723 Y134.584 E.03231
G1 X114.95 Y133.787 E.02991
G1 X115.18 Y133.271 E.02041
G1 X115.438 Y132.836 E.01826
G1 X115.805 Y132.347 E.02209
G1 X116.142 Y131.993 E.01763
G1 X115.815 Y131.673 E.01651
G1 X115.358 Y131.049 E.02792
G1 X114.988 Y130.311 E.02983
G1 X114.75 Y129.529 E.0295
G1 X114.655 Y128.899 E.02301
G1 X114.654 Y128.098 E.02894
G1 X114.788 Y127.288 E.02962
G1 X115.06 Y126.514 E.02965
G1 X115.337 Y125.989 E.02141
G1 X115.66 Y125.534 E.02016
G1 X115.913 Y125.214 E.01474
G1 X116.425 Y124.731 E.0254
G1 X117.104 Y124.27 E.02965
G1 X117.849 Y123.931 E.02954
G1 X118.536 Y123.739 E.02575
G1 X119.332 Y123.642 E.02898
G1 X119.901 Y123.652 E.02052
G1 X120.435 Y123.725 E.01946
G1 X121.286 Y123.98 E.03209
G1 X122.168 Y124.441 E.03595
G1 X122.644 Y124.817 E.02189
G1 X123.005 Y125.144 E.01758
G1 X123.312 Y124.826 E.01595
G1 X123.737 Y124.496 E.01943
G1 X124.437 Y124.096 E.02913
G1 X125.206 Y123.815 E.02956
G1 X126.008 Y123.665 E.02946
G1 X126.645 Y123.639 E.02299
G1 X127.193 Y123.684 E.01988
G1 X127.975 Y123.864 E.02895
G1 X128.504 Y124.067 E.02048
G1 X129.051 Y124.359 E.02238
G1 X129.585 Y124.75 E.0239
G1 X130.103 Y125.229 E.02548
G1 X130.654 Y125.973 E.03341
G1 X130.998 Y126.664 E.02787
G1 X131.182 Y127.201 E.0205
G1 X131.299 Y127.731 E.0196
G1 X131.362 Y128.525 E.02876
G1 X131.277 Y129.416 E.03231
G1 X131.05 Y130.213 E.02991
G1 X130.82 Y130.729 E.02041
G1 X130.542 Y131.197 E.01966
G1 X130.167 Y131.688 E.02231
G1 X129.893 Y131.971 E.01424
G1 X129.15 Y132.003 F24000
;TYPE:Outer wall
G1 F3000
G1 X129.629 Y132.397 E.02238
G1 X130.098 Y132.954 E.02628
G1 X130.398 Y133.442 E.02069
G1 X130.615 Y133.924 E.01908
G1 X130.811 Y134.599 E.02538
G1 X130.902 Y135.333 E.02671
G1 X130.889 Y135.904 E.02062
G1 X130.817 Y136.402 E.01815
G1 X130.681 Y136.9 E.01864
G1 X130.496 Y137.361 E.01792
G1 X130.24 Y137.834 E.01944
G1 X129.938 Y138.26 E.01885
G1 X129.608 Y138.628 E.01788
G1 X129.236 Y138.958 E.01792
G1 X128.823 Y139.245 E.01818
G1 X128.132 Y139.589 E.02787
G1 X127.657 Y139.748 E.0181
G1 X127.167 Y139.853 E.0181
G1 X126.443 Y139.906 E.02621
G1 X125.633 Y139.822 E.02938
G1 X124.918 Y139.613 E.02689
G1 X124.463 Y139.405 E.01808
G1 X124.033 Y139.147 E.01811
G1 X123.592 Y138.806 E.02012
G1 X123.219 Y138.436 E.01898
G1 X122.997 Y138.15 E.01306
G1 X122.603 Y138.629 E.02239
G1 X122.046 Y139.098 E.02628
G1 X121.558 Y139.398 E.02069
G1 X121.102 Y139.605 E.01807
G1 X120.401 Y139.811 E.0264
G1 X119.667 Y139.902 E.02671
G1 X119.096 Y139.889 E.02062
G1 X118.578 Y139.812 E.0189
G1 X118.065 Y139.667 E.01926
G1 X117.639 Y139.497 E.01654
G1 X117.166 Y139.24 E.01944
G1 X116.74 Y138.938 E.01885
G1 X116.372 Y138.608 E.01788
G1 X116.042 Y138.236 E.01792
G1 X115.755 Y137.823 E.01818
G1 X115.411 Y137.132 E.02787
G1 X115.252 Y136.657 E.01811
G1 X115.144 Y136.143 E.01894
G1 X115.094 Y135.443 E.02537
G1 X115.178 Y134.633 E.02938
G1 X115.387 Y133.918 E.02689
G1 X115.595 Y133.463 E.01808
G1 X115.864 Y133.017 E.0188
G1 X116.194 Y132.592 E.01942
G1 X116.564 Y132.219 E.01898
G1 X116.848 Y131.998 E.013
G1 X116.213 Y131.436 E.03063
G1 X115.706 Y130.744 E.03097
G1 X115.399 Y130.112 E.02538
G1 X115.189 Y129.401 E.02674
G1 X115.108 Y128.836 E.02062
G1 X115.111 Y128.101 E.02656
G1 X115.238 Y127.369 E.02682
G1 X115.49 Y126.67 E.02681
G1 X115.738 Y126.207 E.01898
G1 X116.159 Y125.631 E.02578
G1 X116.612 Y125.183 E.02297
G1 X117.077 Y124.835 E.02097
G1 X117.39 Y124.633 E.01345
G1 X118.033 Y124.349 E.02539
G1 X118.654 Y124.18 E.02323
G1 X119.383 Y124.096 E.0265
G1 X119.839 Y124.105 E.01646
G1 X120.373 Y124.178 E.01946
G1 X121.15 Y124.416 E.02937
G1 X121.951 Y124.844 E.03277
G1 X122.614 Y125.389 E.03098
G1 X123.003 Y125.855 E.02192
G1 X123.592 Y125.187 E.03216
G1 X124.017 Y124.857 E.01943
G1 X124.66 Y124.495 E.02664
G1 X125.358 Y124.246 E.02677
G1 X126.087 Y124.115 E.02675
G1 X126.658 Y124.096 E.0206
G1 X127.184 Y124.145 E.01909
G1 X127.868 Y124.309 E.0254
G1 X128.336 Y124.492 E.01813
G1 X128.833 Y124.76 E.02041
G1 X129.311 Y125.116 E.02149
G1 X129.78 Y125.553 E.02317
G1 X130.223 Y126.142 E.02663
G1 X130.589 Y126.868 E.02933
G1 X130.748 Y127.343 E.01811
G1 X130.856 Y127.857 E.01894
G1 X130.906 Y128.557 E.02537
G1 X130.822 Y129.367 E.02938
G1 X130.613 Y130.082 E.02689
G1 X130.405 Y130.537 E.01808
G1 X130.147 Y130.967 E.01811
G1 X129.806 Y131.408 E.02012
G1 X129.436 Y131.781 E.01898
G1 X129.182 Y131.978 E.01162
G1 E-.5 F1800
;WIPE_START
G1 F12000
G1 X129.629 Y132.397
G1 X130.098 Y132.954
G1 X130.398 Y133.442
G1 X130.434 Y133.521
;WIPE_END
G1 Z.4 F24000
G1 X133.67 Y123.662
G1 Z.4
G1 Z.2
G1 E.5 F1800
;TYPE:Bottom surface
;WIDTH:0.505403
G1 F5838.053
G1 X132.654 Y122.646 E.0525
G1 X132.328 Y122.373 E.01553
G1 X131.949 Y122.124 E.01657
G1 X131.549 Y121.923 E.01637
G1 X131.122 Y121.768 E.01659
G1 X133.724 Y124.371 E.13448
G1 X133.789 Y124.587 E.00822
G1 X133.875 Y125.176 E.02176
G1 X130.319 Y121.62 E.18372
G1 X129.645 Y121.6 E.02464
G1 X133.892 Y125.847 E.21941
G1 X133.892 Y126.501 E.0239
M73 P7 R5
M73 P7 R5
G1 X128.991 Y121.6 E.25322
G1 X128.337 Y121.6 E.02389
G1 X133.892 Y127.155 E.28702
G1 X133.893 Y127.81 E.0239
G1 X127.683 Y121.6 E.32082
G1 X127.029 Y121.6 E.02389
G1 X133.893 Y128.464 E.35463
G1 X133.893 Y129.118 E.0239
G1 X131.317 Y126.542 E.13311
G1 X130.918 Y125.742 E.03265
M73 P7 R4
M73 P7 R4
G1 X130.351 Y124.992 E.03436
G1 X129.938 Y124.587 E.02113
G1 X129.255 Y124.08 E.03108
G1 X128.737 Y123.798 E.02154
G1 X128.458 Y123.683 E.01101
G1 X126.375 Y121.6 E.10764
G1 X125.721 Y121.6 E.02389
G1 X127.527 Y123.406 E.09333
G1 X127.364 Y123.365 E.00617
G1 X126.773 Y123.306 E.02167
G1 X125.067 Y121.6 E.08816
G1 X124.413 Y121.6 E.02389
G1 X126.124 Y123.311 E.08842
G1 X125.558 Y123.399 E.02093
G1 X123.759 Y121.6 E.09296
G1 X123.105 Y121.6 E.02389
G1 X125.022 Y123.517 E.09907
G1 X124.545 Y123.694 E.0186
G1 X122.451 Y121.6 E.10819
G1 X121.796 Y121.6 E.02389
G1 X124.093 Y123.896 E.11863
G1 X123.673 Y124.13 E.01756
G1 X121.142 Y121.6 E.13073
G1 X120.488 Y121.6 E.02389
G1 X123.297 Y124.408 E.1451
G1 X122.993 Y124.66 E.01442
G1 X122.475 Y124.241 E.02434
G1 X119.834 Y121.6 E.13644
G1 X119.18 Y121.6 E.02389
G1 X121.168 Y123.588 E.10269
G1 X120.489 Y123.387 E.02586
G1 X120.287 Y123.361 E.00743
G1 X118.526 Y121.6 E.09099
G1 X117.872 Y121.6 E.02389
G1 X119.574 Y123.302 E.08794
G1 X119.301 Y123.301 E.00999
G1 X118.958 Y123.34 E.01261
G1 X117.218 Y121.6 E.08989
G1 X116.564 Y121.6 E.02389
G1 X118.392 Y123.427 E.09441
G1 X117.879 Y123.569 E.01941
G1 X115.916 Y121.606 E.10142
G1 X115.32 Y121.664 E.02189
M73 P8 R4
M73 P8 R4
G1 X117.407 Y123.751 E.10785
G1 X116.963 Y123.961 E.01794
G1 X114.804 Y121.802 E.11156
G1 X114.653 Y121.843 E.00571
G1 X114.33 Y121.982 E.01286
G1 X116.57 Y124.222 E.11575
G1 X116.182 Y124.488 E.01719
G1 X113.908 Y122.214 E.11751
G1 X113.528 Y122.488 E.01711
G1 X115.848 Y124.808 E.11984
G1 X115.608 Y125.037 E.01212
G1 X115.528 Y125.142 E.00483
G1 X113.188 Y122.802 E.1209
G1 X112.887 Y123.155 E.01695
G1 X115.247 Y125.515 E.12192
G1 X115.13 Y125.67 E.0071
G1 X114.993 Y125.915 E.01024
G1 X112.627 Y123.549 E.12222
G1 X112.419 Y123.995 E.01798
G1 X114.766 Y126.342 E.12125
G1 X114.587 Y126.818 E.01855
G1 X112.254 Y124.484 E.12055
G1 X112.163 Y124.823 E.01281
G1 X112.145 Y125.03 E.00757
G1 X114.436 Y127.32 E.11836
G1 X114.344 Y127.883 E.02081
G1 X112.1 Y125.638 E.11595
G1 X112.1 Y126.292 E.02389
G1 X114.313 Y128.505 E.11433
G1 X114.315 Y128.939 E.01586
G1 X114.355 Y129.202 E.00969
G1 X112.1 Y126.947 E.11651
G1 X112.1 Y127.601 E.02389
G1 X114.553 Y130.054 E.12673
G1 X114.676 Y130.452 E.01525
G1 X115.057 Y131.211 E.03102
G1 X112.1 Y128.255 E.15276
G1 X112.1 Y128.909 E.02389
G1 X115.446 Y132.255 E.17286
G1 X115.164 Y132.627 E.01706
G1 X112.1 Y129.563 E.1583
G1 X112.1 Y130.217 E.02389
G1 X114.918 Y133.035 E.1456
G1 X114.708 Y133.479 E.01794
G1 X112.1 Y130.871 E.13474
G1 X112.1 Y131.525 E.02389
G1 X114.543 Y133.968 E.1262
G1 X114.396 Y134.475 E.01931
G1 X112.1 Y132.179 E.11864
G1 X112.1 Y132.833 E.02389
G1 X114.327 Y135.06 E.11506
G1 X114.298 Y135.325 E.00975
M73 P9 R4
M73 P9 R4
G1 X114.319 Y135.706 E.01394
G1 X112.1 Y133.487 E.11466
G1 X112.1 Y134.141 E.02389
G1 X114.394 Y136.435 E.1185
G1 X114.49 Y136.901 E.0174
G1 X114.641 Y137.336 E.01681
G1 X111.894 Y134.589 E.1419
G1 E-.5 F1800
;WIPE_START
G1 F12000
G1 X113.308 Y136.004
;WIPE_END
G1 Z.4 F24000
G1 X134.099 Y129.978 Z.4
G1 Z.2
G1 E.5 F1800
G1 F5838.053
G1 X131.59 Y127.469 E.12964
G1 X131.654 Y127.794 E.01209
G1 X131.676 Y128.21 E.01521
G1 X133.894 Y130.427 E.11455
G1 X133.894 Y131.081 E.0239
G1 X131.68 Y128.868 E.11436
G1 X131.615 Y129.457 E.02165
G1 X133.894 Y131.735 E.11772
G1 X133.894 Y132.39 E.0239
G1 X131.473 Y129.969 E.12508
G1 X131.318 Y130.467 E.01908
G1 X133.894 Y133.044 E.13312
G1 X133.895 Y133.698 E.0239
G1 X131.108 Y130.911 E.14399
G1 X130.866 Y131.323 E.01746
G1 X133.895 Y134.352 E.1565
G1 X133.895 Y135.007 E.0239
G1 X130.589 Y131.701 E.17079
G1 X130.343 Y132.001 E.01417
G1 X130.804 Y132.57 E.02675
G1 X133.895 Y135.661 E.15972
G1 X133.896 Y136.315 E.0239
G1 X131.421 Y133.841 E.12784
G1 X131.612 Y134.533 E.02622
G1 X131.631 Y134.705 E.00632
G1 X133.896 Y136.97 E.11701
G1 X133.896 Y137.624 E.0239
G1 X131.701 Y135.429 E.11341
G1 X131.677 Y136.058 E.02302
G1 X133.896 Y138.278 E.11468
G1 X133.896 Y138.932 E.0239
G1 X131.583 Y136.619 E.11951
G1 X131.443 Y137.132 E.01945
G1 X133.897 Y139.587 E.1268
G1 X133.897 Y140.241 E.0239
G1 X131.258 Y137.602 E.13635
G1 X131.039 Y138.037 E.0178
M73 P10 R4
M73 P10 R4
G1 X133.897 Y140.895 E.14766
G1 X133.897 Y141.549 E.0239
G1 X130.788 Y138.44 E.16065
G1 X130.509 Y138.815 E.01708
G1 X133.898 Y142.204 E.17508
G1 X133.898 Y142.858 E.0239
G1 X130.202 Y139.162 E.19094
G1 X129.86 Y139.474 E.01691
G1 X133.898 Y143.512 E.20863
G1 X133.898 Y144.167 E.0239
G1 X129.487 Y139.756 E.22788
G1 X129.306 Y139.886 E.00818
G1 X129.08 Y140.002 E.00927
G1 X133.899 Y144.821 E.24896
G1 X133.899 Y145.475 E.0239
G1 X128.648 Y140.224 E.2713
G1 X128.483 Y140.308 E.00674
G1 X128.182 Y140.413 E.01165
G1 X133.899 Y146.129 E.29536
G1 X133.899 Y146.784 E.0239
G1 X127.673 Y140.557 E.32169
G1 X127.12 Y140.658 E.02053
G1 X133.899 Y147.438 E.35027
G1 X133.9 Y148.092 E.0239
G1 X126.5 Y140.692 E.38233
G1 X126.325 Y140.702 E.00637
G1 X125.798 Y140.645 E.01937
G1 X133.553 Y148.4 E.40068
G1 X132.899 Y148.4 E.02389
G1 X124.955 Y140.456 E.41043
G1 X124.595 Y140.346 E.01375
G1 X124.082 Y140.108 E.02068
G1 X123.762 Y139.917 E.01361
