; HEADER_BLOCK_START
; generated by OrcaSlicer 2.0.0 on 2024-06-28 at 13:11:41
; total layer number: 15
; filament_density: 1.24
; filament_diameter: 1.75
; max_z_height: 3.00
; HEADER_BLOCK_END

; THUMBNAIL_BLOCK_START

;
; THUMBNAIL_BLOCK_END

; THUMBNAIL_BLOCK_START

;
; THUMBNAIL_BLOCK_END

; external perimeters extrusion width = 0.40mm
; perimeters extrusion width = 0.42mm
; infill extrusion width = 0.45mm
; solid infill extrusion width = 0.42mm
; top infill extrusion width = 0.40mm
; first layer extrusion width = 0.50mm

; EXECUTABLE_BLOCK_START
EXCLUDE_OBJECT_DEFINE NAME=Numéro_course_68_v3.stl_id_0_copy_0 CENTER=115,115 POLYGON=[[5.37329,91.7794],[5.38884,90.4275],[5.4355,89.1003],[5.51328,87.7977],[5.62217,86.5199],[5.76217,85.2667],[5.93328,84.0382],[6.1355,82.8343],[6.36883,81.6552],[6.63327,80.5007],[6.92883,79.3709],[7.25549,78.2659],[7.61327,77.1854],[8.00215,76.1297],[8.42215,75.0987],[8.87326,74.0923],[9.35547,73.1107],[9.8688,72.1537],[10.4132,71.2214],[10.9888,70.3138],[11.5955,69.4309],[12.2332,68.5727],[12.9021,67.7392],[13.6021,66.9304],[14.3332,66.1462],[15.0954,65.3868],[15.8888,64.652],[16.7132,63.942],[17.5687,63.2566],[18.4554,62.5959],[19.3732,61.96],[20.322,61.3487],[21.302,60.7621],[22.126,60.3076],[22.969,59.8676],[23.8309,59.442],[24.7118,59.0308],[25.6117,58.6341],[26.5306,58.2518],[27.4684,57.8839],[28.4252,57.5305],[29.401,57.1915],[30.3958,56.8669],[31.4095,56.5568],[32.4422,56.2611],[33.494,55.9798],[34.5647,55.713],[35.6544,55.4606],[36.763,55.2226],[37.8907,54.9991],[39.0373,54.7899],[40.203,54.5952],[41.3876,54.415],[42.5913,54.2491],[43.8139,54.0977],[45.0555,53.9607],[46.3162,53.8381],[47.5958,53.73],[48.8944,53.6362],[50.212,53.5569],[51.5487,53.492],[52.9043,53.4416],[54.2789,53.4055],[55.6726,53.3839],[57.0853,53.3767],[173.949,53.3767],[175.355,53.3836],[176.741,53.4043],[178.108,53.4388],[179.455,53.4871],[180.782,53.5491],[182.09,53.625],[183.378,53.7146],[184.647,53.8181],[185.896,53.9353],[187.125,54.0663],[188.335,54.2111],[189.525,54.3697],[190.696,54.5421],[191.847,54.7282],[192.978,54.9281],[194.09,55.1418],[195.183,55.3693],[196.255,55.6106],[197.309,55.8656],[198.342,56.1344],[199.356,56.417],[200.35,56.7133],[201.325,57.0234],[202.28,57.3473],[203.216,57.6849],[204.132,58.0363],[205.029,58.4015],[205.905,58.7804],[206.763,59.1731],[207.6,59.5796],[208.418,59.9998],[209.217,60.4338],[210.109,60.939],[210.977,61.4699],[211.82,62.0263],[212.639,62.6083],[213.433,63.216],[214.202,63.8492],[214.947,64.5081],[215.667,65.1926],[216.363,65.9028],[217.033,66.6386],[217.68,67.4001],[218.301,68.1873],[218.898,69.0002],[219.471,69.8388],[220.019,70.7031],[220.542,71.5931],[221.037,72.5126],[221.499,73.4668],[221.93,74.4557],[222.329,75.4793],[222.696,76.5375],[223.031,77.6304],[223.334,78.758],[223.605,79.9202],[223.844,81.1171],[224.052,82.3487],[224.228,83.6149],[224.371,84.9158],[224.483,86.2514],[224.563,87.6216],[224.611,89.0265],[224.627,90.4661],[224.585,91.7076],[221.982,144.998],[221.938,145.861],[221.881,146.711],[221.811,147.546],[221.729,148.367],[221.635,149.174],[221.527,149.967],[221.407,150.746],[221.275,151.51],[221.129,152.261],[220.971,152.997],[220.801,153.72],[220.618,154.428],[220.422,155.122],[220.214,155.803],[219.993,156.469],[219.759,157.12],[219.513,157.758],[219.254,158.382],[218.983,158.992],[218.699,159.587],[218.402,160.169],[218.093,160.736],[217.771,161.289],[217.436,161.829],[217.089,162.354],[216.73,162.865],[216.357,163.362],[215.972,163.844],[215.575,164.313],[214.749,165.217],[213.889,166.082],[212.994,166.909],[212.064,167.697],[211.1,168.447],[210.1,169.158],[209.066,169.831],[207.998,170.466],[206.894,171.062],[205.756,171.62],[204.583,172.139],[203.376,172.62],[202.133,173.063],[200.857,173.467],[199.545,173.832],[198.199,174.159],[196.825,174.457],[195.43,174.736],[194.015,174.996],[192.579,175.236],[191.122,175.457],[189.645,175.659],[188.147,175.842],[186.629,176.005],[185.09,176.149],[183.53,176.274],[181.95,176.38],[180.349,176.466],[178.728,176.533],[177.086,176.581],[175.424,176.61],[173.741,176.62],[56.7746,176.623],[55.2928,176.617],[53.834,176.596],[52.3983,176.563],[50.9857,176.516],[49.596,176.455],[48.2294,176.381],[46.8859,176.293],[45.5654,176.192],[44.2679,176.078],[42.9934,175.95],[41.7421,175.809],[40.5137,175.654],[39.3084,175.486],[38.1261,175.304],[36.9668,175.109],[35.8306,174.9],[34.7174,174.678],[33.6272,174.442],[32.5601,174.193],[31.516,173.931],[30.495,173.655],[29.4969,173.366],[28.5219,173.063],[27.5699,172.747],[26.641,172.417],[25.7351,172.074],[24.8522,171.717],[23.9923,171.347],[23.1555,170.963],[22.3416,170.566],[21.5509,170.156],[20.7831,169.732],[19.835,169.164],[18.9171,168.57],[18.0292,167.947],[17.1714,167.298],[16.3437,166.621],[15.5462,165.918],[14.7787,165.186],[14.0413,164.428],[13.334,163.643],[12.6568,162.83],[12.0097,161.99],[11.3927,161.122],[10.8058,160.228],[10.249,159.306],[9.72234,158.357],[9.22573,157.381],[8.75923,156.377],[8.32282,155.347],[7.91651,154.289],[7.54029,153.204],[7.19417,152.091],[6.87815,150.952],[6.59223,149.785],[6.3364,148.591],[6.11067,147.37],[5.91503,146.121],[5.7495,144.845],[5.61406,143.542],[5.50872,142.212],[5.43348,140.855],[5.38833,139.47],[5.37329,138.058],[5.37329,91.7794]]
M73 P0 R105
;TYPE:Custom
M220 S100
G90 ; use absolute coordinates
M83 ; extruder relative mode
M104 S150 ; set temporary nozzle temp to prevent oozing during homing
M140 S55 ; set final bed temp
G4 S30 ; allow partial nozzle warmup
G28 ; home all axis and restore leveling
BED_MESH_CALIBRATE PROFILE=adaptive ADAPTIVE=1 ADAPTIVE_MARGIN=0
G1 Z25 F240
G1 X10.0 Y30 F3000
M104 S210 ; set final nozzle temp
M190 S55 ; wait for bed temp to stabilize
M109 S210 ; wait for nozzle temp to stabilize
G1 Z0.28 F240
G92 E0 ; Move Z Axis up
G1 Z2.0 F5000 ; Move to start position
G1 X5 Y30 Z0.28 F300 ; Draw the first line
G1 X5 Y200 Z0.28 F1500 E15 ; Move to side a little
G1 X5.4 Y200 Z0.28 F5000.0 ; Draw the second line
G1 X5.4 Y50 Z0.28 F1500.0 E30 ; Reset Extruder
G92 E0 ; Move Z Axis up
G1 Z2.0 F3000
M117 Start Printing..
G90
G21
M83 ; use relative distances for extrusion
; filament start gcode
M106 S0
;LAYER_CHANGE
;Z:0.2
;HEIGHT:0.2
;BEFORE_LAYER_CHANGE
;0.2
G92 E0

G1 E-.5 F2400
;_SET_FAN_SPEED_CHANGING_LAYER
SET_VELOCITY_LIMIT ACCEL=500 ACCEL_TO_DECEL=250
SET_VELOCITY_LIMIT SQUARE_CORNER_VELOCITY=7
; printing object Numéro course 68 v3.stl id:0 copy 0
EXCLUDE_OBJECT_START NAME=Numéro_course_68_v3.stl_id_0_copy_0
G1 Z.2 F18000
G1 X51.098 Y142.1
G1 Z.2
G1 E.5 F2400
;TYPE:Inner wall
;WIDTH:0.499999
G1 F1800
G1 X50.949 Y142.098 E.00564
G1 X50.667 Y142.237 E.01194
G1 X50.485 Y142.467 E.01117
G1 X50.416 Y142.767 E.01169
G1 X50.428 Y159.057 E.61914
G1 X50.464 Y160.024 E.03678
G1 X50.524 Y160.939 E.03484
G1 X50.614 Y161.846 E.03466
G1 X50.719 Y162.641 E.03044
G1 X50.898 Y163.634 E.03837
G1 X51.043 Y164.289 E.0255
G1 X51.248 Y165.032 E.0293
G1 X51.412 Y165.541 E.0203
G1 X51.663 Y166.186 E.02634
G1 X51.921 Y166.741 E.02325
G1 X52.22 Y167.279 E.02336
G1 X52.549 Y167.773 E.02257
G1 X52.933 Y168.247 E.02319
G1 X53.735 Y168.989 E.04152
G1 X54.618 Y169.564 E.04007
G1 X55.122 Y169.825 E.02155
G1 X55.659 Y170.064 E.02235
G1 X56.23 Y170.282 E.02324
G1 X56.835 Y170.48 E.02419
G1 X57.586 Y170.684 E.02956
G1 X58.854 Y170.955 E.04931
G1 X59.87 Y171.11 E.03906
G1 X60.587 Y171.195 E.02741
G1 X62.018 Y171.321 E.05461
G1 X63.829 Y171.395 E.06889
G1 X65.681 Y171.394 E.0704
G1 X67.341 Y171.322 E.06314
G1 X68.183 Y171.255 E.03207
G1 X69.676 Y171.073 E.05719
G1 X70.408 Y170.95 E.02819
G1 X71.095 Y170.81 E.02665
G1 X71.753 Y170.65 E.02574
G1 X72.382 Y170.47 E.02487
G1 X72.982 Y170.271 E.02405
G1 X73.554 Y170.051 E.02328
G1 X74.097 Y169.81 E.02256
G1 X74.61 Y169.548 E.02191
G1 X75.094 Y169.265 E.02132
G1 X75.559 Y168.951 E.02132
G1 X76 Y168.594 E.02155
G1 X76.409 Y168.19 E.02184
G1 X76.785 Y167.741 E.02227
G1 X77.129 Y167.248 E.02286
G1 X77.442 Y166.712 E.02358
G1 X77.725 Y166.134 E.02445
G1 X77.978 Y165.515 E.02543
G1 X78.203 Y164.854 E.02653
G1 X78.399 Y164.151 E.02773
G1 X78.568 Y163.407 E.02901
G1 X78.711 Y162.621 E.03037
G1 X78.827 Y161.792 E.0318
G1 X78.916 Y160.921 E.03328
G1 X78.98 Y160.007 E.03482
G1 X79.022 Y158.765 E.04721
G1 X115.36 Y158.765 E1.38105
G1 X115.35 Y159.724 E.03643
G1 X115.303 Y161.289 E.05952
G1 X115.221 Y162.917 E.06194
G1 X115.107 Y164.443 E.05818
G1 X114.962 Y165.924 E.05653
G1 X114.784 Y167.358 E.05491
G1 X114.575 Y168.745 E.05333
G1 X114.333 Y170.086 E.05178
G1 X114.06 Y171.38 E.05028
G1 X113.754 Y172.628 E.04882
G1 X113.418 Y173.829 E.04741
G1 X113.062 Y174.945 E.04451
G1 X112.649 Y176.093 E.04634
G1 X112.219 Y177.154 E.04353
G1 X111.757 Y178.169 E.04239
G1 X111.263 Y179.14 E.04141
G1 X110.74 Y180.076 E.04075
G1 X110.193 Y180.982 E.0402
G1 X109.644 Y181.826 E.03829
G1 X109.033 Y182.698 E.04044
G1 X108.419 Y183.507 E.03859
G1 X107.783 Y184.285 E.03819
G1 X107.125 Y185.031 E.03781
G1 X106.444 Y185.745 E.0375
G1 X105.741 Y186.428 E.03725
G1 X105.016 Y187.079 E.03706
G1 X104.267 Y187.699 E.03693
G1 X103.497 Y188.288 E.03686
G1 X102.703 Y188.846 E.03686
G1 X101.914 Y189.354 E.03567
G1 X101.047 Y189.868 E.0383
G1 X100.183 Y190.333 E.03729
G1 X99.295 Y190.774 E.03771
G1 X98.388 Y191.196 E.03801
G1 X97.465 Y191.598 E.03825
G1 X96.558 Y191.966 E.03721
G1 X95.571 Y192.339 E.0401
G1 X94.6 Y192.679 E.03909
G1 X93.613 Y192.998 E.03944
G1 X92.609 Y193.296 E.03979
G1 X91.589 Y193.573 E.04018
G1 X90.553 Y193.83 E.04058
G1 X88.434 Y194.281 E.08231
G1 X86.243 Y194.65 E.08446
G1 X83.985 Y194.936 E.0865
G1 X81.672 Y195.165 E.08834
G1 X79.33 Y195.364 E.08931
G1 X76.965 Y195.533 E.09013
G1 X74.575 Y195.671 E.09098
G1 X72.161 Y195.778 E.09183
G1 X69.723 Y195.855 E.09271
G1 X67.261 Y195.901 E.0936
G1 X64.776 Y195.916 E.09447
G1 X61.847 Y195.889 E.11129
G1 X59.058 Y195.811 E.10606
G1 X57.632 Y195.749 E.05423
G1 X54.934 Y195.588 E.10274
G1 X53.626 Y195.488 E.04987
G1 X51.069 Y195.247 E.09761
G1 X48.604 Y194.953 E.09432
G1 X47.413 Y194.786 E.04571
G1 X45.09 Y194.412 E.08946
G1 X42.859 Y193.985 E.08633
G1 X41.785 Y193.753 E.04174
G1 X39.695 Y193.247 E.08175
G1 X37.7 Y192.688 E.0787
G1 X35.796 Y192.077 E.07601
G1 X34.884 Y191.753 E.03678
G1 X33.996 Y191.417 E.03609
G1 X32.308 Y190.713 E.06952
G1 X30.66 Y189.935 E.06928
G1 X29.132 Y189.117 E.06587
G1 X28.209 Y188.564 E.04088
G1 X27.312 Y187.983 E.04061
G1 X26.446 Y187.376 E.04023
G1 X25.609 Y186.742 E.03989
G1 X24.802 Y186.082 E.03962
G1 X24.024 Y185.396 E.03941
G1 X23.276 Y184.684 E.03926
G1 X22.582 Y183.97 E.03785
G1 X21.868 Y183.179 E.04048
G1 X21.209 Y182.388 E.03916
G1 X20.578 Y181.569 E.03928
G1 X19.977 Y180.723 E.03944
G1 X19.404 Y179.851 E.03965
G1 X18.861 Y178.952 E.03994
G1 X18.347 Y178.025 E.04027
G1 X17.862 Y177.071 E.04067
G1 X17.406 Y176.091 E.04112
G1 X16.979 Y175.082 E.04162
G1 X16.581 Y174.046 E.04217
G1 X16.212 Y172.983 E.04277
G1 X15.873 Y171.892 E.04343
G1 X15.562 Y170.773 E.04412
G1 X15.281 Y169.627 E.04486
G1 X15.03 Y168.452 E.04564
G1 X14.808 Y167.25 E.04646
G1 X14.615 Y166.021 E.04731
G1 X14.452 Y164.763 E.0482
G1 X14.318 Y163.478 E.04911
G1 X14.214 Y162.165 E.05007
G1 X14.14 Y160.824 E.05105
G1 X14.095 Y159.455 E.05205
G1 X14.08 Y158.055 E.05322
G1 X14.08 Y111.783 E1.75859
G1 X14.096 Y110.444 E.05091
G1 X14.142 Y109.134 E.04983
G1 X14.219 Y107.849 E.04892
G1 X14.326 Y106.589 E.04805
G1 X14.464 Y105.355 E.04721
G1 X14.632 Y104.145 E.0464
G1 X14.831 Y102.962 E.04563
G1 X15.06 Y101.803 E.04489
G1 X15.32 Y100.669 E.0442
G1 X15.61 Y99.561 E.04355
G1 X15.93 Y98.477 E.04294
G1 X16.281 Y97.419 E.04237
G1 X16.662 Y96.385 E.04186
G1 X17.072 Y95.377 E.04139
G1 X17.513 Y94.393 E.04098
G1 X17.985 Y93.434 E.04062
G1 X18.486 Y92.499 E.0403
G1 X19.017 Y91.589 E.04005
G1 X19.579 Y90.704 E.03986
G1 X20.171 Y89.842 E.03972
G1 X20.793 Y89.005 E.03964
G1 X21.445 Y88.192 E.03962
G1 X22.128 Y87.403 E.03966
G1 X22.842 Y86.638 E.03976
G1 X23.585 Y85.897 E.03991
G1 X24.36 Y85.179 E.04012
G1 X25.165 Y84.486 E.04039
G1 X26.001 Y83.816 E.04071
G1 X26.868 Y83.17 E.0411
G1 X27.736 Y82.569 E.04012
G1 X28.695 Y81.949 E.04342
G1 X29.651 Y81.377 E.04232
G1 X31.289 Y80.498 E.07066
G1 X33.004 Y79.675 E.0723
G1 X34.799 Y78.906 E.0742
G1 X35.717 Y78.546 E.03747
G1 X37.627 Y77.862 E.07711
G1 X39.613 Y77.234 E.07918
G1 X40.628 Y76.943 E.04011
G1 X42.697 Y76.409 E.08124
G1 X43.806 Y76.151 E.04324
G1 X46.023 Y75.694 E.08605
G1 X48.317 Y75.293 E.08851
G1 X49.487 Y75.115 E.04497
G1 X51.896 Y74.8 E.09235
G1 X54.38 Y74.542 E.09491
G1 X56.941 Y74.342 E.09763
G1 X59.581 Y74.198 E.10048
G1 X60.925 Y74.148 E.05111
G1 X63.681 Y74.091 E.10477
G1 X67.701 Y74.103 E.1528
G1 X70.281 Y74.149 E.09807
G1 X72.829 Y74.225 E.09686
G1 X75.344 Y74.333 E.09567
G1 X77.826 Y74.471 E.09449
G1 X80.276 Y74.639 E.09333
G1 X82.694 Y74.839 E.0922
G1 X85.074 Y75.068 E.0909
G1 X87.359 Y75.35 E.08751
G1 X88.527 Y75.53 E.04489
G1 X89.641 Y75.727 E.04302
G1 X90.739 Y75.945 E.04254
G1 X91.82 Y76.184 E.04206
G1 X92.883 Y76.445 E.04162
G1 X93.93 Y76.727 E.04119
G1 X94.959 Y77.031 E.04078
G1 X95.971 Y77.356 E.0404
G1 X96.966 Y77.702 E.04004
G1 X97.911 Y78.057 E.03837
G1 X98.905 Y78.459 E.04074
G1 X99.849 Y78.869 E.03911
G1 X100.775 Y79.3 E.03885
G1 X101.684 Y79.752 E.03856
G1 X102.568 Y80.227 E.03816
G1 X103.427 Y80.732 E.03786
G1 X104.262 Y81.268 E.03771
G1 X105.074 Y81.834 E.03761
G1 X105.863 Y82.43 E.03758
G1 X106.629 Y83.057 E.03761
G1 X107.371 Y83.715 E.0377
G1 X108.091 Y84.404 E.03786
G1 X108.787 Y85.123 E.03806
G1 X109.461 Y85.874 E.03834
G1 X110.112 Y86.656 E.03866
G1 X110.74 Y87.469 E.03905
G1 X111.345 Y88.313 E.03948
G1 X111.928 Y89.189 E.03998
G1 X112.488 Y90.096 E.04051
G1 X113.024 Y91.032 E.04101
G1 X113.53 Y92.002 E.04157
G1 X114.004 Y93.013 E.04243
G1 X114.445 Y94.068 E.04347
G1 X114.855 Y95.167 E.04457
G1 X115.232 Y96.31 E.04574
G1 X115.566 Y97.456 E.04539
G1 X115.89 Y98.727 E.04986
G1 X116.171 Y100.002 E.04959
G1 X116.418 Y101.321 E.051
G1 X116.633 Y102.683 E.05243
G1 X116.815 Y104.09 E.0539
G1 X116.965 Y105.54 E.05542
G1 X117.081 Y107.034 E.05696
G1 X117.164 Y108.572 E.05854
G1 X117.216 Y110.348 E.0675
G1 X117.23 Y111.776 E.05428
G1 X117.211 Y112.765 E.03761
G1 X117.127 Y114.719 E.07431
G1 X116.986 Y116.609 E.07206
G1 X116.786 Y118.443 E.07011
G1 X116.666 Y119.33 E.03401
G1 X116.381 Y121.074 E.06717
G1 X116.038 Y122.755 E.0652
G1 X115.638 Y124.38 E.0636
G1 X115.419 Y125.16 E.03082
G1 X114.933 Y126.695 E.0612
G1 X114.391 Y128.167 E.05961
G1 X113.801 Y129.56 E.05749
G1 X113.141 Y130.929 E.05777
G1 X112.427 Y132.227 E.0563
G1 X111.671 Y133.447 E.05454
G1 X111.258 Y134.056 E.02795
G1 X110.404 Y135.208 E.05452
G1 X109.492 Y136.303 E.05414
G1 X109.024 Y136.819 E.02651
G1 X108.027 Y137.828 E.0539
G1 X106.973 Y138.78 E.05397
G1 X106.434 Y139.226 E.0266
G1 X105.293 Y140.092 E.05443
G1 X104.099 Y140.899 E.05478
G1 X102.842 Y141.651 E.05568
G1 X102.202 Y142.001 E.02772
G1 X100.857 Y142.668 E.05707
G1 X99.457 Y143.278 E.05802
G1 X97.998 Y143.83 E.05929
G1 X96.48 Y144.326 E.06071
G1 X94.902 Y144.765 E.06225
G1 X93.26 Y145.148 E.06404
G1 X92.426 Y145.316 E.03235
G1 X90.695 Y145.612 E.06674
G1 X88.935 Y145.847 E.06749
G1 X87.993 Y145.948 E.036
G1 X84.385 Y146.255 E.13761
G1 X81.872 Y146.431 E.09577
G1 X78.756 Y146.594 E.11857
G1 X76.601 Y146.663 E.08194
G1 X75.253 Y146.683 E.05123
G1 X73.383 Y146.677 E.07107
G1 X72.195 Y146.651 E.04518
G1 X69.883 Y146.544 E.08796
G1 X67.709 Y146.369 E.08289
G1 X66.614 Y146.251 E.04187
G1 X64.588 Y145.972 E.07774
G1 X63.573 Y145.8 E.03912
G1 X61.67 Y145.411 E.07382
G1 X59.869 Y144.952 E.07064
G1 X59.016 Y144.699 E.0338
G1 X51.264 Y142.101 E.31072
G1 X51.138 Y142.1 E.00482
G1 X51.107 Y142.538 F18000
;TYPE:Outer wall
G1 F1800
G1 X50.939 Y142.606 E.00688
G1 X50.873 Y142.767 E.00663
G1 X50.885 Y159.046 E.61873
G1 X50.92 Y159.994 E.03605
G1 X50.979 Y160.895 E.0343
G1 X51.067 Y161.787 E.03407
G1 X51.169 Y162.564 E.02979
G1 X51.345 Y163.539 E.03766
G1 X51.485 Y164.173 E.02466
G1 X51.684 Y164.893 E.02839
G1 X51.838 Y165.377 E.01929
G1 X52.079 Y165.995 E.02522
G1 X52.321 Y166.521 E.02201
G1 X52.601 Y167.027 E.02199
G1 X52.907 Y167.489 E.02106
G1 X53.247 Y167.914 E.0207
