; HEADER_BLOCK_START
; generated by OrcaSlicer 2.2.0 on 2024-11-30 at 10:44:28
; total layer number: 137
; filament_density: 1.27
; filament_diameter: 1.75
; max_z_height: 27.40
; HEADER_BLOCK_END

; THUMBNAIL_BLOCK_START

;
; THUMBNAIL_BLOCK_END

; THUMBNAIL_BLOCK_START

;
; THUMBNAIL_BLOCK_END

; external perimeters extrusion width = 0.42mm
; perimeters extrusion width = 0.45mm
; infill extrusion width = 0.45mm
; solid infill extrusion width = 0.45mm
; top infill extrusion width = 0.42mm
; first layer extrusion width = 0.50mm

; EXECUTABLE_BLOCK_START
EXCLUDE_OBJECT_DEFINE NAME=Pied.stl_id_0_copy_0 CENTER=115,115 POLYGON=[[61.0054,115.001],[61.0184,114.354],[61.0573,113.709],[61.1215,113.066],[61.2108,112.425],[61.3247,111.788],[61.4628,111.153],[61.6248,110.523],[61.8102,109.897],[62.0187,109.276],[62.2499,108.66],[62.5033,108.051],[62.7787,107.447],[63.0755,106.851],[63.3935,106.262],[63.7322,105.68],[64.0912,105.107],[64.4428,104.582],[64.8106,104.063],[65.1945,103.551],[65.5943,103.045],[66.0097,102.547],[66.4405,102.055],[66.8865,101.571],[67.3476,101.093],[67.8233,100.622],[68.3137,100.158],[68.8184,99.7011],[69.3372,99.2511],[69.87,98.808],[70.4164,98.372],[70.9763,97.9429],[71.5495,97.5209],[72.1358,97.106],[72.7348,96.6981],[73.3466,96.2973],[73.9707,95.9036],[74.607,95.517],[75.2553,95.1376],[75.9153,94.7653],[76.5869,94.4002],[77.2698,94.0423],[77.9639,93.6916],[78.6688,93.3481],[79.3844,93.0118],[80.8469,92.3611],[82.3495,91.7395],[83.1567,91.424],[83.4126,91.3267],[83.9747,91.117],[84.494,90.9285],[84.8031,90.8185],[85.5932,90.5449],[85.6417,90.5285],[86.49,90.2471],[86.7093,90.1762],[87.3479,89.9743],[87.8417,89.8224],[88.9897,89.4836],[89.0909,89.4547],[90.1526,89.1599],[90.8683,88.9701],[91.3297,88.8514],[92.5203,88.5582],[92.6775,88.5208],[93.7237,88.2803],[94.5163,88.1072],[94.9392,88.018],[96.1661,87.7712],[96.3819,87.7296],[97.4037,87.54],[98.2722,87.3883],[98.6513,87.3247],[99.9082,87.1252],[100.184,87.0837],[101.174,86.9417],[101.495,86.8978],[101.82,86.8546],[101.935,86.8394],[102.03,86.8271],[102.116,86.816],[103.257,86.6765],[104.065,86.5858],[104.49,86.5408],[105.728,86.4201],[106.029,86.3932],[106.972,86.3145],[108.005,86.2386],[108.22,86.2241],[109.471,86.149],[109.991,86.1224],[110.726,86.0892],[111.984,86.0448],[114.001,86.0061],[114.001,86.0061],[116.019,86.0071],[116.02,86.0071],[118.036,86.0475],[118.037,86.0475],[120.048,86.1271],[120.05,86.1272],[122.053,86.2457],[122.055,86.2458],[124.049,86.4029],[124.052,86.4031],[126.033,86.5985],[126.036,86.5988],[128.001,86.8323],[128.005,86.8328],[128.131,86.8492],[128.26,86.8661],[128.485,86.8959],[128.711,86.9265],[128.937,86.9575],[129.16,86.9889],[129.177,86.9913],[129.952,87.1041],[130.972,87.2622],[131.884,87.4134],[132.748,87.5653],[133.792,87.7602],[134.503,87.9002],[135.675,88.1441],[136.236,88.2668],[137.529,88.5648],[137.944,88.6648],[139.353,89.0222],[139.625,89.0942],[141.144,89.516],[141.277,89.5546],[142.026,89.7764],[142.899,90.0459],[144.334,90.5153],[145.742,91.0088],[147.121,91.526],[148.469,92.0669],[149.787,92.6313],[151.071,93.219],[152.323,93.8298],[153.539,94.4636],[154.72,95.1203],[155.863,95.7995],[156.968,96.5012],[158.035,97.2252],[159.06,97.9713],[160.044,98.7394],[160.986,99.5293],[161.883,100.341],[162.434,100.872],[162.967,101.412],[163.48,101.962],[163.974,102.521],[164.448,103.089],[164.902,103.666],[165.334,104.251],[165.746,104.845],[166.135,105.447],[166.502,106.057],[166.845,106.676],[167.166,107.302],[167.462,107.936],[167.734,108.577],[167.981,109.226],[168.203,109.883],[168.382,110.487],[168.539,111.096],[168.672,111.709],[168.782,112.326],[168.87,112.945],[168.934,113.567],[168.976,114.19],[168.995,114.813],[168.99,115.438],[168.963,116.061],[168.912,116.684],[168.839,117.304],[168.742,117.923],[168.623,118.538],[168.48,119.149],[168.314,119.756],[168.093,120.456],[167.843,121.147],[167.565,121.83],[167.259,122.505],[166.927,123.171],[166.567,123.829],[166.182,124.478],[165.772,125.117],[165.336,125.747],[164.877,126.368],[164.394,126.979],[163.888,127.58],[163.359,128.171],[162.809,128.752],[162.238,129.322],[161.645,129.882],[161.098,130.374],[160.535,130.858],[159.955,131.334],[159.36,131.802],[158.749,132.262],[158.123,132.714],[157.482,133.157],[156.827,133.593],[156.157,134.02],[155.472,134.439],[154.774,134.85],[154.062,135.252],[153.337,135.646],[152.598,136.032],[151.847,136.409],[151.083,136.778],[150.307,137.138],[149.518,137.489],[148.718,137.832],[147.906,138.166],[147.083,138.491],[146.249,138.808],[145.405,139.116],[144.549,139.414],[143.684,139.704],[142.808,139.985],[141.923,140.257],[141.029,140.52],[140.125,140.773],[139.212,141.018],[137.361,141.48],[136.388,141.704],[135.406,141.919],[134.417,142.123],[133.42,142.316],[131.406,142.672],[129.367,142.985],[127.306,143.257],[125.227,143.486],[123.132,143.673],[121.025,143.817],[118.91,143.919],[116.788,143.978],[114.664,143.994],[112.54,143.967],[110.42,143.896],[108.307,143.783],[106.204,143.625],[104.114,143.424],[102.209,143.202],[100.322,142.943],[98.4533,142.648],[96.6062,142.319],[94.7825,141.954],[92.9843,141.555],[91.2139,141.122],[89.4732,140.655],[87.7645,140.155],[86.0898,139.621],[84.4513,139.055],[83.6462,138.76],[82.851,138.457],[82.0659,138.146],[81.2912,137.827],[80.527,137.501],[79.7738,137.166],[79.0318,136.824],[78.3011,136.473],[77.5822,136.116],[76.8752,135.75],[75.9873,135.271],[75.1193,134.78],[74.2718,134.276],[73.445,133.76],[72.6397,133.232],[71.8562,132.692],[71.095,132.14],[70.3567,131.575],[69.6417,130.998],[68.9505,130.41],[68.2836,129.809],[67.6414,129.196],[67.0245,128.571],[66.4333,127.933],[65.8684,127.284],[65.3302,126.623],[64.915,126.079],[64.5183,125.527],[64.1404,124.967],[63.7818,124.399],[63.4429,123.824],[63.1241,123.242],[62.8259,122.652],[62.5488,122.057],[62.293,121.455],[62.0591,120.847],[61.8475,120.234],[61.6587,119.616],[61.4929,118.993],[61.3508,118.366],[61.2327,117.734],[61.139,117.099],[61.0807,116.576],[61.0389,116.051],[61.0138,115.526],[61.0054,115.001]]
M73 P0 R36
;TYPE:Custom
M220 S100
G90 ; use absolute coordinates
M83 ; extruder relative mode
M104 S150 ; set temporary nozzle temp to prevent oozing during homing
M140 S70 ; set final bed temp
G4 S30 ; allow partial nozzle warmup
G28 ; home all axis and restore leveling
BED_MESH_CALIBRATE
G1 Z25 F240
G1 X10.0 Y30 F3000
M104 S245 ; set final nozzle temp
M190 S70 ; wait for bed temp to stabilize
M109 S245 ; wait for nozzle temp to stabilize
G1 Z0.28 F240
G92 E0 ; Move Z Axis up
LINE_PURGE
G92 E0 ; Move Z Axis up
G1 Z2.0 F3000
M117 Start Printing..
G90
G21
M83 ; use relative distances for extrusion
; filament start gcode
M106 S0
;LAYER_CHANGE
;Z:0.2
;HEIGHT:0.2
;BEFORE_LAYER_CHANGE
;0.2
G92 E0

G1 E-.5 F1800
;_SET_FAN_SPEED_CHANGING_LAYER
SET_VELOCITY_LIMIT ACCEL=1000
SET_VELOCITY_LIMIT SQUARE_CORNER_VELOCITY=7
; printing object Pied.stl id:0 copy 0
EXCLUDE_OBJECT_START NAME=Pied.stl_id_0_copy_0
G1 Z.4 F24000
G1 X107.798 Y108.837
G1 Z.4
G1 Z.2
G1 E.5 F1800
;TYPE:Inner wall
;WIDTH:0.499999
G1 F3000
G1 X108.417 Y108.739 E.02263
G1 X110.325 Y108.474 E.06955
G1 X112.266 Y108.245 E.07058
G1 X114.099 Y108.065 E.06649
G1 X116.192 Y107.902 E.07582
G1 X118.046 Y107.793 E.06705
G1 X120.029 Y107.716 E.07165
G1 X122.492 Y107.678 E.08895
G1 X123.902 Y107.678 E.05089
G1 X125.987 Y107.718 E.07529
G1 X127.966 Y107.796 E.07151
G1 X129.938 Y107.913 E.07135
G1 X131.901 Y108.068 E.0711
G1 X133.852 Y108.26 E.07077
G1 X135.788 Y108.49 E.07038
G1 X137.666 Y108.751 E.06848
G1 X139.645 Y109.068 E.07235
G1 X141.51 Y109.408 E.06847
G1 X143.35 Y109.784 E.0678
G1 X145.162 Y110.195 E.06707
G1 X146.941 Y110.642 E.06625
G1 X148.687 Y111.124 E.06539
G1 X150.397 Y111.64 E.0645
G1 X151.798 Y112.098 E.05322
G1 X153.172 Y112.58 E.05256
G1 X154.516 Y113.084 E.05184
G1 X155.829 Y113.611 E.05107
G1 X157.11 Y114.16 E.05031
G1 X158.357 Y114.73 E.04952
G1 X159.57 Y115.322 E.04872
G1 X160.747 Y115.935 E.04791
G1 X161.886 Y116.569 E.04709
G1 X162.988 Y117.224 E.04627
G1 X164.051 Y117.898 E.04544
G1 X165.073 Y118.593 E.04462
G1 X166.054 Y119.306 E.0438
G1 X166.993 Y120.039 E.04299
G1 X167.888 Y120.79 E.04218
G1 X168.735 Y121.556 E.04123
G1 X169.768 Y122.577 E.05246
G1 X170.236 Y123.078 E.02474
G1 X171.157 Y124.15 E.05105
G1 X171.565 Y124.669 E.02384
G1 X172.363 Y125.785 E.04952
G1 X172.709 Y126.32 E.023
G1 X173.377 Y127.475 E.04817
G1 X173.935 Y128.616 E.04589
M73 P0 R35
M73 P0 R35
G1 X174.408 Y129.792 E.04574
G1 X174.771 Y130.932 E.04322
G1 X174.908 Y131.467 E.01993
G1 X175.134 Y132.605 E.04189
G1 X175.209 Y133.133 E.01928
G1 X175.306 Y134.27 E.04119
G1 X175.319 Y135.41 E.04115
G1 X175.295 Y135.942 E.01923
G1 X175.18 Y137.092 E.04173
G1 X175.098 Y137.619 E.01927
G1 X174.855 Y138.753 E.04188
G1 X174.71 Y139.284 E.01986
G1 X174.51 Y139.92 E.02407
G1 X174.283 Y140.548 E.02411
G1 X174.029 Y141.17 E.02426
G1 X173.75 Y141.787 E.02443
G1 X173.445 Y142.397 E.02464
G1 X173.115 Y143.001 E.02486
G1 X172.76 Y143.599 E.02511
G1 X172.38 Y144.191 E.02537
G1 X171.977 Y144.775 E.02565
G1 X171.099 Y145.923 E.05217
G1 X170.633 Y146.476 E.02612
G1 X169.611 Y147.586 E.05446
G1 X168.511 Y148.654 E.05537
G1 X167.453 Y149.584 E.05086
G1 X166.915 Y150.026 E.02513
G1 X165.757 Y150.917 E.05275
G1 X164.544 Y151.774 E.05364
G1 X163.264 Y152.607 E.05512
G1 X162.618 Y153.003 E.02736
G1 X161.252 Y153.791 E.05696
G1 X159.836 Y154.544 E.05789
G1 X158.368 Y155.267 E.05909
G1 X156.849 Y155.958 E.06025
G1 X155.281 Y156.616 E.0614
G1 X153.667 Y157.241 E.0625
G1 X152.008 Y157.833 E.06358
G1 X150.308 Y158.391 E.06462
G1 X148.567 Y158.913 E.06561
G1 X146.789 Y159.401 E.06657
G1 X144.976 Y159.853 E.06748
G1 X143.059 Y160.284 E.07092
G1 X141.111 Y160.673 E.07173
G1 X139.134 Y161.023 E.07251
G1 X137.131 Y161.331 E.07317
G1 X135.105 Y161.598 E.07376
G1 X133.061 Y161.823 E.07426
G1 X131.001 Y162.007 E.07468
G1 X128.928 Y162.149 E.07501
G1 X126.846 Y162.249 E.07526
G1 X124.759 Y162.307 E.0754
G1 X122.668 Y162.323 E.07548
G1 X120.578 Y162.296 E.07546
G1 X118.493 Y162.227 E.07535
G1 X116.414 Y162.115 E.07515
G1 X114.346 Y161.96 E.07488
G1 X112.291 Y161.762 E.07454
G1 X110.42 Y161.544 E.06802
G1 X108.565 Y161.289 E.06759
G1 X106.73 Y161 E.06708
G1 X104.917 Y160.676 E.06651
G1 X103.127 Y160.319 E.06589
G1 X101.364 Y159.927 E.06521
G1 X99.629 Y159.503 E.06449
G1 X97.925 Y159.046 E.06372
G1 X96.253 Y158.556 E.06289
G1 X94.616 Y158.035 E.06202
G1 X93.016 Y157.483 E.0611
G1 X91.457 Y156.9 E.06013
G1 X89.938 Y156.286 E.05913
G1 X88.463 Y155.643 E.05808
G1 X87.035 Y154.972 E.057
G1 X85.658 Y154.273 E.05576
G1 X83.951 Y153.33 E.07042
G1 X83.149 Y152.853 E.03368
G1 X81.565 Y151.84 E.06789
G1 X80.83 Y151.333 E.03224
G1 X79.381 Y150.254 E.06522
G1 X78.052 Y149.152 E.06234
G1 X77.42 Y148.583 E.03071
G1 X76.813 Y148.004 E.03029
G1 X76.232 Y147.415 E.02988
G1 X75.677 Y146.816 E.02949
G1 X75.147 Y146.208 E.02912
G1 X74.65 Y145.597 E.02843
G1 X73.891 Y144.572 E.04606
G1 X73.202 Y143.518 E.04545
G1 X72.903 Y143.01 E.02131
G1 X72.324 Y141.91 E.04486
G1 X72.082 Y141.39 E.02073
G1 X71.625 Y140.261 E.04396
G1 X71.442 Y139.731 E.02024
G1 X71.113 Y138.579 E.04326
G1 X70.884 Y137.471 E.04085
G1 X70.745 Y136.414 E.03851
G1 X70.677 Y135.004 E.05094
G1 X70.724 Y133.843 E.04198
G1 X70.862 Y132.688 E.04199
G1 X70.964 Y132.113 E.02109
G1 X71.232 Y130.983 E.04193
G1 X71.599 Y129.822 E.04393
G1 X71.799 Y129.288 E.02061
G1 X72.294 Y128.154 E.04466
G1 X72.553 Y127.632 E.02106
G1 X73.17 Y126.534 E.04547
G1 X73.488 Y126.025 E.02167
G1 X74.168 Y125.039 E.04325
G1 X74.512 Y124.579 E.02075
G1 X75.287 Y123.625 E.04436
G1 X75.678 Y123.179 E.0214
G1 X76.537 Y122.267 E.04526
G1 X77.45 Y121.385 E.04583
G1 X78.426 Y120.519 E.0471
G1 X78.919 Y120.109 E.02318
G1 X79.98 Y119.279 E.04863
G1 X81.089 Y118.479 E.04938
G1 X82.256 Y117.699 E.05068
G1 X82.845 Y117.328 E.02511
G1 X84.088 Y116.587 E.05228
G1 X85.374 Y115.875 E.05307
G1 X86.707 Y115.189 E.05413
G1 X88.085 Y114.529 E.05514
G1 X89.501 Y113.899 E.05597
G1 X91.772 Y112.978 E.08847
G1 X93.399 Y112.381 E.06258
G1 X95.012 Y111.835 E.06151
G1 X97.607 Y111.046 E.09791
G1 X99.312 Y110.582 E.06383
G1 X101.054 Y110.149 E.06481
G1 X102.887 Y109.737 E.06781
G1 X104.625 Y109.385 E.06402
G1 X106.572 Y109.033 E.07144
G1 X107.758 Y108.844 E.04339
G1 X107.726 Y108.386 F24000
G1 F3000
G1 X108.349 Y108.287 E.0228
G1 X110.267 Y108.021 E.06988
G1 X112.217 Y107.791 E.07091
G1 X114.059 Y107.61 E.06681
G1 X116.161 Y107.446 E.07614
G1 X118.024 Y107.336 E.06738
G1 X120.017 Y107.259 E.07201
G1 X122.489 Y107.22 E.08927
G1 X123.906 Y107.221 E.05117
G1 X126 Y107.261 E.07562
G1 X127.988 Y107.34 E.07184
G1 X129.97 Y107.457 E.07168
G1 X131.942 Y107.612 E.07142
G1 X133.902 Y107.806 E.0711
G1 X135.846 Y108.037 E.07071
G1 X137.734 Y108.299 E.06881
G1 X139.722 Y108.618 E.0727
G1 X141.597 Y108.959 E.06882
G1 X143.447 Y109.337 E.06816
G1 X145.268 Y109.751 E.06743
G1 X147.058 Y110.2 E.06663
G1 X148.814 Y110.685 E.06578
G1 X150.534 Y111.204 E.06489
G1 X151.945 Y111.665 E.05359
G1 X153.328 Y112.15 E.05291
G1 X154.682 Y112.658 E.0522
G1 X156.004 Y113.189 E.05145
G1 X157.295 Y113.742 E.0507
G1 X158.552 Y114.317 E.04993
G1 X159.776 Y114.914 E.04915
G1 X160.963 Y115.533 E.04836
G1 X162.114 Y116.173 E.04755
G1 X163.228 Y116.834 E.04675
G1 X164.302 Y117.516 E.04594
G1 X165.336 Y118.219 E.04514
G1 X166.329 Y118.941 E.04434
G1 X167.28 Y119.683 E.04356
G1 X168.188 Y120.445 E.04278
G1 X169.049 Y121.223 E.04191
G1 X170.096 Y122.259 E.05316
G1 X170.576 Y122.773 E.02541
G1 X171.51 Y123.86 E.05175
G1 X171.931 Y124.395 E.02457
G1 X172.741 Y125.528 E.05029
G1 X173.099 Y126.081 E.0238
G1 X173.778 Y127.256 E.049
G1 X174.353 Y128.43 E.0472
G1 X174.608 Y129.031 E.02355
G1 X174.839 Y129.637 E.02342
G1 X175.212 Y130.81 E.04446
G1 X175.354 Y131.366 E.02069
G1 X175.585 Y132.528 E.0428
G1 X175.663 Y133.082 E.02019
G1 X175.762 Y134.248 E.04226
G1 X175.776 Y135.417 E.04221
G1 X175.751 Y135.975 E.02014
G1 X175.634 Y137.15 E.04264
G1 X175.548 Y137.702 E.02019
G1 X175.3 Y138.862 E.04281
G1 X175.149 Y139.413 E.02065
G1 X174.943 Y140.066 E.02473
G1 X174.709 Y140.712 E.02478
G1 X174.449 Y141.351 E.02491
G1 X174.163 Y141.983 E.02507
G1 X173.85 Y142.609 E.02526
G1 X173.512 Y143.228 E.02546
G1 X173.149 Y143.84 E.02569
G1 X172.761 Y144.444 E.02594
G1 X172.349 Y145.041 E.0262
G1 X171.453 Y146.212 E.05321
G1 X170.976 Y146.778 E.02674
G1 X169.939 Y147.905 E.05529
G1 X168.821 Y148.99 E.05625
G1 X167.749 Y149.932 E.05155
G1 X167.199 Y150.383 E.02567
G1 X166.028 Y151.284 E.05334
G1 X164.801 Y152.152 E.05429
G1 X163.508 Y152.993 E.05567
G1 X162.852 Y153.396 E.02781
G1 X161.473 Y154.19 E.05745
G1 X160.045 Y154.951 E.05844
G1 X158.564 Y155.68 E.05961
G1 X157.032 Y156.377 E.06075
G1 X155.452 Y157.04 E.06187
G1 X153.826 Y157.67 E.06295
G1 X152.156 Y158.265 E.06401
G1 X150.445 Y158.827 E.06504
G1 X148.694 Y159.353 E.06601
G1 X146.905 Y159.843 E.06696
M73 P1 R35
M73 P1 R35
G1 X145.081 Y160.298 E.06786
G1 X143.154 Y160.731 E.07131
G1 X141.196 Y161.123 E.07211
G1 X139.208 Y161.474 E.07288
G1 X137.195 Y161.783 E.07353
G1 X135.16 Y162.051 E.07411
G1 X133.106 Y162.278 E.07461
G1 X131.037 Y162.462 E.07502
G1 X128.955 Y162.605 E.07535
G1 X126.864 Y162.706 E.07559
G1 X124.767 Y162.764 E.07574
G1 X122.667 Y162.78 E.07582
G1 X120.568 Y162.753 E.07579
G1 X118.473 Y162.683 E.07569
G1 X116.385 Y162.571 E.0755
G1 X114.307 Y162.416 E.07522
G1 X112.243 Y162.217 E.07489
G1 X110.363 Y161.997 E.06835
G1 X108.499 Y161.741 E.06792
G1 X106.655 Y161.451 E.06741
G1 X104.832 Y161.126 E.06685
G1 X103.033 Y160.766 E.06623
G1 X101.26 Y160.373 E.06557
G1 X99.515 Y159.946 E.06485
G1 X97.801 Y159.486 E.06409
G1 X96.119 Y158.993 E.06327
G1 X94.472 Y158.469 E.06241
G1 X92.862 Y157.913 E.06151
G1 X91.291 Y157.326 E.06055
G1 X89.761 Y156.708 E.05957
G1 X88.275 Y156.06 E.05854
G1 X86.834 Y155.382 E.05748
G1 X85.444 Y154.677 E.0563
G1 X83.723 Y153.726 E.07097
G1 X82.909 Y153.243 E.03421
G1 X81.312 Y152.221 E.06845
G1 X80.563 Y151.705 E.03282
G1 X79.101 Y150.616 E.06584
G1 X77.751 Y149.496 E.06333
G1 X77.109 Y148.918 E.03117
G1 X76.493 Y148.33 E.03077
G1 X75.902 Y147.731 E.03038
G1 X75.337 Y147.122 E.03001
