; HEADER_BLOCK_START
; generated by OrcaSlicer 2.1.1 on 2024-08-16 at 09:28:00
; total layer number: 122
; filament_density: 1.24
; filament_diameter: 1.75
; max_z_height: 24.40
; HEADER_BLOCK_END

; THUMBNAIL_BLOCK_START

;
; THUMBNAIL_BLOCK_END

; THUMBNAIL_BLOCK_START

;
; THUMBNAIL_BLOCK_END

; external perimeters extrusion width = 0.42mm
; perimeters extrusion width = 0.45mm
; infill extrusion width = 0.45mm
; solid infill extrusion width = 0.45mm
; top infill extrusion width = 0.42mm
; first layer extrusion width = 0.50mm

; EXECUTABLE_BLOCK_START
EXCLUDE_OBJECT_DEFINE NAME=PigTeam_Esquisse_v14.stl_id_0_copy_0 CENTER=115,115 POLYGON=[[102.57,115.063],[102.579,114.745],[102.595,114.426],[102.619,114.109],[102.652,113.791],[102.693,113.475],[102.742,113.16],[102.799,112.847],[102.864,112.535],[102.937,112.224],[103.017,111.916],[103.106,111.61],[103.203,111.306],[103.307,111.005],[103.419,110.706],[103.539,110.411],[103.666,110.118],[103.8,109.83],[103.942,109.544],[104.092,109.262],[104.248,108.985],[104.412,108.711],[104.582,108.442],[104.759,108.177],[104.943,107.917],[107.572,104.24],[107.761,104.094],[107.953,103.953],[108.148,103.816],[108.347,103.683],[108.549,103.554],[108.756,103.43],[108.966,103.309],[109.18,103.194],[109.397,103.082],[109.618,102.975],[109.841,102.872],[110.067,102.774],[110.295,102.681],[110.525,102.592],[110.758,102.508],[110.992,102.428],[111.229,102.353],[111.467,102.283],[111.708,102.217],[111.951,102.156],[112.195,102.1],[112.441,102.049],[112.687,102.002],[112.934,101.96],[113.182,101.923],[113.431,101.89],[113.681,101.863],[113.932,101.84],[114.183,101.822],[114.435,101.808],[114.687,101.8],[114.939,101.797],[115.191,101.798],[115.442,101.804],[115.694,101.815],[115.946,101.831],[116.197,101.851],[116.447,101.877],[116.697,101.907],[116.946,101.942],[117.193,101.982],[117.44,102.026],[117.686,102.075],[117.93,102.13],[118.173,102.188],[118.414,102.252],[118.653,102.32],[118.891,102.393],[119.126,102.471],[119.359,102.553],[119.59,102.64],[119.819,102.731],[120.046,102.827],[120.27,102.928],[120.491,103.033],[120.709,103.143],[120.924,103.257],[121.135,103.375],[121.343,103.498],[121.546,103.625],[121.746,103.756],[121.943,103.891],[122.136,104.031],[122.327,104.175],[124.961,107.788],[125.148,108.046],[125.329,108.309],[125.503,108.576],[125.67,108.847],[125.83,109.123],[125.983,109.403],[126.129,109.686],[126.267,109.974],[126.398,110.264],[126.521,110.558],[126.637,110.855],[126.745,111.155],[126.846,111.458],[126.938,111.763],[127.023,112.07],[127.1,112.379],[127.169,112.69],[127.23,113.003],[127.283,113.318],[127.327,113.633],[127.364,113.95],[127.393,114.267],[127.413,114.585],[127.425,114.904],[127.43,115.223],[127.425,115.541],[127.413,115.86],[127.393,116.178],[127.364,116.496],[127.327,116.812],[127.283,117.128],[127.23,117.442],[127.169,117.755],[127.1,118.066],[127.023,118.376],[126.938,118.683],[126.846,118.988],[126.745,119.29],[126.637,119.59],[126.521,119.887],[126.398,120.181],[126.267,120.472],[126.129,120.759],[125.983,121.043],[125.83,121.322],[125.67,121.598],[125.503,121.87],[125.329,122.137],[125.148,122.399],[124.961,122.657],[124.767,122.91],[124.567,123.158],[124.36,123.401],[124.147,123.638],[123.929,123.87],[123.704,124.096],[121.964,125.83],[120.94,126.793],[120.909,126.82],[120.878,126.845],[120.844,126.867],[120.701,126.937],[120.557,127.005],[120.412,127.071],[120.266,127.135],[120.119,127.198],[119.972,127.258],[119.823,127.317],[119.674,127.373],[118.404,127.773],[118.115,127.844],[117.824,127.909],[117.532,127.967],[117.385,127.994],[117.238,128.019],[117.091,128.042],[116.944,128.064],[116.647,128.104],[116.349,128.137],[116.05,128.163],[115.735,128.184],[115.542,128.192],[115.349,128.198],[115.156,128.201],[114.534,128.203],[113.77,128.148],[113.588,128.131],[113.407,128.111],[113.226,128.089],[113.045,128.064],[112.865,128.037],[112.685,128.007],[112.505,127.975],[112.327,127.94],[112.023,127.876],[111.791,127.822],[111.56,127.763],[111.33,127.701],[111.102,127.634],[110.137,127.306],[109.256,126.916],[109.044,126.811],[108.834,126.702],[108.627,126.588],[108.422,126.471],[108.396,126.455],[108.372,126.438],[108.349,126.419],[108.326,126.397],[108.304,126.374],[105.744,123.52],[105.535,123.28],[105.331,123.035],[105.134,122.784],[104.943,122.529],[104.759,122.269],[104.582,122.004],[104.412,121.734],[104.248,121.461],[104.092,121.183],[103.942,120.901],[103.8,120.616],[103.666,120.327],[103.539,120.035],[103.419,119.739],[103.307,119.441],[103.203,119.14],[103.106,118.836],[103.017,118.53],[102.937,118.221],[102.864,117.911],[102.799,117.599],[102.742,117.285],[102.693,116.97],[102.652,116.654],[102.619,116.337],[102.595,116.019],[102.579,115.701],[102.57,115.382],[102.57,115.063]]
M73 P0 R18
;TYPE:Custom
M220 S100
G90 ; use absolute coordinates
M83 ; extruder relative mode
M104 S150 ; set temporary nozzle temp to prevent oozing during homing
M140 S55 ; set final bed temp
G4 S30 ; allow partial nozzle warmup
G28 ; home all axis and restore leveling
BED_MESH_CALIBRATE PROFILE=adaptive ADAPTIVE=1 ADAPTIVE_MARGIN=0
G1 Z25 F240
G1 X10.0 Y30 F3000
M104 S205 ; set final nozzle temp
M190 S55 ; wait for bed temp to stabilize
M109 S205 ; wait for nozzle temp to stabilize
G1 Z0.28 F240
G92 E0 ; Move Z Axis up
G1 Z2.0 F5000 ; Move to start position
M73 P1 R18
G1 X5 Y30 Z0.28 F300 ; Draw the first line
G1 X5 Y200 Z0.28 F1500 E15 ; Move to side a little
G1 X5.4 Y200 Z0.28 F5000.0 ; Draw the second line
G1 X5.4 Y50 Z0.28 F1500.0 E30 ; Reset Extruder
G92 E0 ; Move Z Axis up
G1 Z2.0 F3000
M117 Start Printing..
G90
G21
M83 ; use relative distances for extrusion
; filament start gcode
SET_PRESSURE_ADVANCE ADVANCE=0.052; Override pressure advance value
M106 S0
;LAYER_CHANGE
;Z:0.2
;HEIGHT:0.2
;BEFORE_LAYER_CHANGE
;0.2
G92 E0

M73 P2 R18
G1 E-.5 F1800
;_SET_FAN_SPEED_CHANGING_LAYER
SET_VELOCITY_LIMIT ACCEL=1000
SET_VELOCITY_LIMIT SQUARE_CORNER_VELOCITY=7
; printing object PigTeam Esquisse v14.stl id:0 copy 0
EXCLUDE_OBJECT_START NAME=PigTeam_Esquisse_v14.stl_id_0_copy_0
G1 Z.2 F24000
G1 X117.051 Y130.772
G1 Z.2
G1 E.5 F1800
;TYPE:Inner wall
;WIDTH:0.499999
G1 X117.536 Y130.187 E.02831
G1 X117.96 Y129.766 E.02228
G1 X118.519 Y129.296 E.02717
G1 X119.087 Y128.912 E.02556
G1 X119.643 Y128.595 E.02382
G1 X120.337 Y128.287 E.02826
G1 X121.126 Y128.037 E.03085
G1 X121.945 Y127.874 E.03108
G1 X122.77 Y127.801 E.03086
G1 X123.331 Y127.807 E.02091
G1 X123.879 Y127.846 E.02046
G1 X124.826 Y128.029 E.03591
G1 X125.358 Y128.178 E.02061
G1 X126.169 Y128.509 E.03262
G1 X126.74 Y128.803 E.02391
G1 X127.382 Y129.233 E.02879
G1 X127.821 Y129.571 E.02061
G1 X128.418 Y130.145 E.03087
G1 X128.958 Y130.796 E.0315
G1 X129.402 Y131.469 E.03004
G1 X129.67 Y131.952 E.02057
G1 X130.03 Y132.845 E.03588
G1 X130.195 Y133.374 E.02061
G1 X130.358 Y134.234 E.03262
G1 X130.421 Y134.873 E.02391
G1 X130.41 Y135.646 E.02879
G1 X130.364 Y136.197 E.02061
G1 X130.216 Y136.985 E.02986
G1 X130.069 Y137.506 E.02015
G1 X129.806 Y138.201 E.02768
G1 X129.562 Y138.706 E.02091
G1 X129.044 Y139.53 E.03623
G1 X128.713 Y139.971 E.02056
G1 X128.199 Y140.53 E.02827
G1 X127.766 Y140.921 E.02174
G1 X127.173 Y141.369 E.02766
G1 X126.524 Y141.763 E.02828
G1 X125.838 Y142.088 E.02825
G1 X125.123 Y142.342 E.02826
G1 X124.386 Y142.521 E.02826
G1 X123.635 Y142.625 E.02826
G1 X122.876 Y142.651 E.02829
G1 X122.316 Y142.621 E.02087
G1 X121.416 Y142.475 E.03396
G1 X120.821 Y142.325 E.02284
G1 X119.886 Y141.96 E.03739
G1 X119.261 Y141.635 E.02623
G1 X118.78 Y141.337 E.02108
G1 X118.179 Y140.875 E.02826
G1 X117.627 Y140.354 E.02826
G1 X117.132 Y139.779 E.02826
G1 X116.577 Y138.942 E.0374
G1 X116.253 Y138.317 E.02624
G1 X116.03 Y137.796 E.02109
G1 X115.754 Y136.831 E.03739
G1 X115.634 Y136.137 E.02623
G1 X115.578 Y135.573 E.02113
G1 X115.589 Y134.8 E.0288
G1 X115.635 Y134.248 E.02061
G1 X115.805 Y133.389 E.03262
G1 X115.986 Y132.774 E.02388
G1 X116.286 Y132.045 E.02937
G1 X116.628 Y131.402 E.02714
G1 X117.029 Y130.805 E.02675
G1 X116.698 Y130.481 F24000
;TYPE:Outer wall
G1 F1800
G1 X117.211 Y129.866 E.02983
G1 X117.665 Y129.417 E.0238
G1 X118.257 Y128.922 E.02873
G1 X118.859 Y128.516 E.02707
G1 X119.456 Y128.178 E.02554
G1 X120.193 Y127.853 E.03
G1 X121.028 Y127.59 E.03259
G1 X121.892 Y127.42 E.03282
G1 X122.759 Y127.344 E.03241
G1 X123.446 Y127.357 E.02558
G1 X123.955 Y127.395 E.01901
G1 X124.947 Y127.588 E.03764
G1 X125.524 Y127.752 E.02234
G1 X126.377 Y128.102 E.03436
G1 X126.983 Y128.416 E.02543
G1 X127.66 Y128.869 E.03031
G1 X128.133 Y129.237 E.02234
G1 X128.763 Y129.845 E.0326
G1 X129.332 Y130.533 E.03323
G1 X129.843 Y131.321 E.03499
G1 X130.089 Y131.77 E.01908
G1 X130.466 Y132.707 E.03761
G1 X130.642 Y133.281 E.02235
G1 X130.812 Y134.187 E.03435
G1 X130.878 Y134.867 E.02543
G1 X130.885 Y135.423 E.02069
G1 X130.823 Y136.227 E.03006
G1 X130.68 Y137.021 E.03005
G1 X130.513 Y137.624 E.0233
G1 X130.238 Y138.359 E.02921
G1 X129.978 Y138.901 E.02239
G1 X129.565 Y139.595 E.03006
G1 X129.085 Y140.241 E.03
G1 X128.541 Y140.837 E.03005
G1 X128.078 Y141.258 E.0233
G1 X127.455 Y141.732 E.02916
G1 X126.768 Y142.153 E.03001
G1 X126.204 Y142.423 E.02329
G1 X125.233 Y142.785 E.03859
G1 X124.45 Y142.974 E.02999
G1 X123.652 Y143.081 E.02999
G1 X122.779 Y143.104 E.03254
G1 X122.252 Y143.073 E.01966
G1 X121.177 Y142.887 E.04065
G1 X120.667 Y142.755 E.01961
G1 X119.689 Y142.372 E.03912
G1 X118.902 Y141.951 E.03322
G1 X118.28 Y141.531 E.02798
G1 X117.866 Y141.208 E.01954
G1 X117.282 Y140.654 E.02999
G1 X116.758 Y140.042 E.02999
G1 X116.179 Y139.166 E.03914
G1 X115.799 Y138.419 E.03118
G1 X115.595 Y137.934 E.01961
G1 X115.307 Y136.924 E.03913
G1 X115.17 Y136.098 E.03117
G1 X115.121 Y135.579 E.01943
M73 P2 R17
G1 X115.134 Y134.765 E.03033
G1 X115.185 Y134.167 E.02235
G1 X115.366 Y133.262 E.03436
G1 X115.562 Y132.603 E.02561
G1 X115.882 Y131.832 E.0311
G1 X116.248 Y131.149 E.02888
G1 X116.676 Y130.515 E.02849
G1 E-.5
;WIPE_START
G1 F12000
G1 X117.211 Y129.866
G1 X117.665 Y129.417
G1 X118.064 Y129.083
;WIPE_END
G1 Z.4 F24000
G1 X128.767 Y132.662 Z.4
G1 Z.2
G1 E.5 F1800
;TYPE:Inner wall
G1 X128.937 Y133.021 E.01479
G1 X129.247 Y134.192 E.04511
G1 X129.33 Y135.412 E.04557
G1 X129.18 Y136.602 E.04466
G1 X128.804 Y137.753 E.04511
G1 X128.245 Y138.762 E.04296
G1 X127.875 Y139.229 E.02221
G1 X127.437 Y139.74 E.02503
G1 X126.871 Y140.236 E.02806
G1 X126.28 Y140.641 E.02669
G1 X125.627 Y140.986 E.02748
G1 X125.141 Y141.185 E.01958
G1 X124.481 Y141.381 E.02563
G1 X123.765 Y141.51 E.02709
G1 X122.883 Y141.55 E.03291
G1 X121.765 Y141.422 E.04191
G1 X121.493 Y141.373 E.0103
G1 X120.469 Y141.027 E.04025
G1 X119.968 Y140.776 E.02088
G1 X119.424 Y140.441 E.0238
G1 X119.128 Y140.236 E.01338
G1 X118.636 Y139.814 E.02417
G1 X118.145 Y139.292 E.02668
G1 X117.629 Y138.57 E.03305
G1 X117.325 Y138.021 E.02339
G1 X117.092 Y137.449 E.02299
G1 X116.849 Y136.729 E.0283
G1 X116.745 Y136.178 E.02088
G1 X116.689 Y135.545 E.02369
G1 X116.669 Y135.032 E.01909
G1 X116.819 Y133.844 E.04463
G1 X117.209 Y132.655 E.04658
G1 X117.858 Y131.526 E.04853
G1 X118.562 Y130.706 E.04025
G1 X119.587 Y129.887 E.04887
G1 X120.607 Y129.357 E.04282
G1 X121.283 Y129.126 E.0266
G1 X121.977 Y128.972 E.02648
G1 X122.621 Y128.904 E.02409
G1 X123.216 Y128.892 E.02218
G1 X124.379 Y129.042 E.04366
G1 X125.53 Y129.418 E.04511
G1 X126.599 Y130.012 E.04557
G1 X127.516 Y130.785 E.04466
G1 X128.002 Y131.339 E.02743
G1 X128.365 Y131.865 E.02382
G1 X128.65 Y132.413 E.023
G1 X128.75 Y132.625 E.00875
G1 X128.348 Y132.859 F24000
;TYPE:Outer wall
G1 F1800
G1 X128.523 Y133.216 E.01481
G1 X128.804 Y134.304 E.04187
G1 X128.873 Y135.457 E.04301
M73 P3 R17
G1 X128.727 Y136.541 E.04074
G1 X128.371 Y137.607 E.04187
G1 X127.847 Y138.536 E.03971
G1 X127.09 Y139.442 E.04399
G1 X126.573 Y139.889 E.02546
G1 X126.024 Y140.263 E.02475
G1 X125.416 Y140.58 E.02553
G1 X124.705 Y140.838 E.02819
G1 X124.136 Y140.982 E.02185
G1 X123.575 Y141.066 E.02113
G1 X122.792 Y141.096 E.0292
G1 X121.826 Y140.969 E.03628
G1 X121.335 Y140.837 E.01893
G1 X120.615 Y140.594 E.0283
G1 X120.007 Y140.282 E.02546
G1 X119.447 Y139.905 E.02515
G1 X118.933 Y139.467 E.02515
G1 X118.481 Y138.981 E.02473
G1 X118.003 Y138.307 E.03078
G1 X117.73 Y137.81 E.02109
G1 X117.525 Y137.303 E.02038
G1 X117.282 Y136.583 E.0283
G1 X117.162 Y135.91 E.02546
G1 X117.126 Y135.016 E.03331
G1 X117.272 Y133.905 E.04176
G1 X117.632 Y132.826 E.04236
G1 X118.243 Y131.78 E.04511
G1 X118.909 Y131.003 E.03811
G1 X119.824 Y130.278 E.04349
G1 X120.783 Y129.78 E.04025
G1 X121.429 Y129.559 E.02546
G1 X122.073 Y129.419 E.02454
G1 X122.665 Y129.359 E.02215
G1 X123.216 Y129.349 E.02053
G1 X124.318 Y129.495 E.04139
G1 X125.384 Y129.851 E.04187
G1 X126.388 Y130.42 E.04301
G1 X127.219 Y131.132 E.04074
G1 X127.655 Y131.636 E.02483
G1 X127.986 Y132.121 E.02187
G1 X128.33 Y132.823 E.02911
G1 E-.5
;WIPE_START
G1 F12000
G1 X128.523 Y133.216
G1 X128.804 Y134.304
G1 X128.83 Y134.742
;WIPE_END
G1 Z.4 F24000
G1 X129.836 Y132.684
G1 Z.4
G1 Z.2
G1 E.5 F1800
;TYPE:Bottom surface
;WIDTH:0.500086
G1 F3009
G1 X125.552 Y128.4 E.22571
G1 X126.057 Y129.552 F24000
G1 F3009
G1 X124.913 Y128.408 E.06028
G1 X124.526 Y128.302 E.01495
G1 X124.087 Y128.228 E.0166
G1 X124.603 Y128.745 E.02722
G1 X123.839 Y128.627 E.02881
G1 X123.365 Y128.153 E.02497
G1 X123.12 Y128.137 E.00913
G1 X122.711 Y128.146 E.01525
G1 X123.115 Y128.549 E.02125
G1 X122.688 Y128.553 E.0159
G1 X122.493 Y128.574 E.00731
G1 X122.118 Y128.2 E.01972
G1 X121.828 Y128.233 E.01087
G1 X121.564 Y128.291 E.0101
G1 X121.908 Y128.636 E.01817
G1 X121.377 Y128.751 E.02025
G1 X121.041 Y128.415 E.0177
G1 X120.555 Y128.576 E.01906
G1 X120.881 Y128.902 E.01719
G1 X120.408 Y129.075 E.01879
G1 X120.099 Y128.766 E.01626
G1 X119.662 Y128.976 E.01805
G1 X119.983 Y129.297 E.01687
G1 X119.558 Y129.518 E.01786
G1 X119.252 Y129.213 E.01609
G1 X118.865 Y129.472 E.01736
G1 X119.17 Y129.777 E.01606
G1 X118.81 Y130.063 E.01714
G1 X118.503 Y129.756 E.01618
G1 X118.152 Y130.052 E.01709
G1 X118.45 Y130.35 E.01565
G1 X118.352 Y130.427 E.00465
G1 X118.135 Y130.682 E.01245
G1 X117.831 Y130.377 E.01604
G1 X117.533 Y130.726 E.01709
G1 X117.838 Y131.031 E.01605
G1 X117.541 Y131.38 E.01709
G1 X117.249 Y131.089 E.01537
G1 X116.99 Y131.477 E.01737
G1 X117.304 Y131.79 E.01652
G1 X117.071 Y132.204 E.01769
G1 X116.756 Y131.889 E.01661
G1 X116.57 Y132.241 E.01485
G1 X116.539 Y132.318 E.00309
G1 X116.855 Y132.634 E.01663
G1 X116.692 Y133.118 E.01902
G1 X116.353 Y132.779 E.01786
G1 X116.197 Y133.269 E.01916
G1 X116.53 Y133.602 E.01756
G1 X116.497 Y133.701 E.00388
G1 X116.435 Y134.154 E.01702
G1 X116.067 Y133.785 E.01939
G1 X115.97 Y134.32 E.02024
G1 X116.357 Y134.722 E.02078
G1 X116.328 Y134.93 E.00783
G1 X116.343 Y135.355 E.01582
G1 X115.923 Y134.935 E.02212
G1 X115.921 Y135.579 E.02402
G1 X116.374 Y136.032 E.02385
G1 X116.487 Y136.694 E.02502
G1 X116.534 Y136.839 E.00569
G1 X115.995 Y136.3 E.02842
G1 X116.179 Y137.131 E.03172
G1 X117.289 Y138.241 E.05847
G1 E-.5 F1800
;WIPE_START
G1 F12000
G1 X116.179 Y137.131
G1 X116.086 Y136.711
;WIPE_END
G1 Z.4 F24000
G1 X128.677 Y132.172 Z.4
G1 Z.2
G1 E.5 F1800
G1 F3009
G1 X129.82 Y133.315 E.0602
G1 X130.004 Y134.146 E.03171
G1 X129.444 Y133.586 E.02951
G1 X129.6 Y134.204 E.02374
G1 X129.61 Y134.398 E.00727
G1 X130.078 Y134.866 E.02464
G1 X130.076 Y135.511 E.02402
G1 X129.647 Y135.082 E.02258
G1 X129.671 Y135.514 E.01611
G1 X129.642 Y135.723 E.00787
G1 X130.029 Y136.125 E.02078
G1 X129.932 Y136.66 E.02024
G1 X129.564 Y136.292 E.01941
G1 X129.501 Y136.75 E.01722
G1 X129.469 Y136.843 E.00369
G1 X129.806 Y137.18 E.01775
G1 X129.644 Y137.664 E.01903
G1 X129.305 Y137.326 E.01784
G1 X129.141 Y137.808 E.01898
G1 X129.461 Y138.128 E.01687
G1 X129.272 Y138.523 E.0163
G1 X129.248 Y138.562 E.00171
G1 X128.93 Y138.244 E.01677
G1 X128.694 Y138.655 E.01764
G1 X129.007 Y138.968 E.01649
G1 X128.747 Y139.354 E.01735
G1 X128.459 Y139.066 E.01521
G1 X128.162 Y139.415 E.01709
G1 X128.472 Y139.725 E.01633
G1 X128.164 Y140.064 E.01705
G1 X127.862 Y139.762 E.01588
G1 X127.554 Y140.101 E.01705
G1 X127.843 Y140.39 E.01523
G1 X127.5 Y140.693 E.01706
