; HEADER_BLOCK_START
; generated by OrcaSlicer 2.1.1 on 2024-07-05 at 19:44:00
; total layer number: 122
; filament_density: 1.24
; filament_diameter: 1.75
; max_z_height: 24.40
; HEADER_BLOCK_END

; THUMBNAIL_BLOCK_START

;
; THUMBNAIL_BLOCK_END

; THUMBNAIL_BLOCK_START

;
; THUMBNAIL_BLOCK_END

; external perimeters extrusion width = 0.42mm
; perimeters extrusion width = 0.45mm
; infill extrusion width = 0.45mm
; solid infill extrusion width = 0.45mm
; top infill extrusion width = 0.42mm
; first layer extrusion width = 0.50mm

; external perimeters extrusion width = 0.42mm
; perimeters extrusion width = 0.45mm
; infill extrusion width = 0.45mm
; solid infill extrusion width = 0.45mm
; top infill extrusion width = 0.42mm
; first layer extrusion width = 0.50mm

; EXECUTABLE_BLOCK_START
EXCLUDE_OBJECT_DEFINE NAME=PigTeam_Esquisse_v14.stl_id_0_copy_0 CENTER=127.99,118.407 POLYGON=[[115.561,118.745],[115.569,118.427],[115.585,118.108],[115.61,117.79],[115.642,117.473],[115.683,117.157],[115.732,116.842],[115.789,116.529],[115.854,116.216],[115.927,115.906],[116.008,115.598],[116.096,115.292],[116.193,114.988],[116.297,114.687],[116.409,114.388],[116.529,114.093],[116.656,113.8],[116.791,113.511],[116.933,113.226],[117.082,112.944],[117.238,112.667],[117.402,112.393],[117.572,112.124],[117.75,111.859],[117.934,111.598],[120.562,107.922],[120.751,107.776],[120.943,107.635],[121.138,107.498],[121.337,107.365],[121.54,107.236],[121.746,107.112],[121.956,106.991],[122.17,106.875],[122.387,106.764],[122.608,106.657],[122.831,106.554],[123.057,106.456],[123.285,106.363],[123.516,106.274],[123.748,106.19],[123.982,106.11],[124.219,106.035],[124.458,105.965],[124.699,105.899],[124.942,105.838],[125.186,105.782],[125.431,105.731],[125.677,105.684],[125.924,105.642],[126.172,105.605],[126.421,105.572],[126.671,105.544],[126.922,105.522],[127.173,105.504],[127.425,105.49],[127.677,105.482],[127.929,105.479],[128.181,105.48],[128.433,105.486],[128.685,105.497],[128.936,105.513],[129.187,105.533],[129.438,105.559],[129.687,105.589],[129.936,105.624],[130.184,105.664],[130.431,105.708],[130.676,105.757],[130.92,105.811],[131.163,105.87],[131.404,105.934],[131.644,106.002],[131.881,106.075],[132.116,106.153],[132.349,106.235],[132.58,106.322],[132.809,106.413],[133.036,106.509],[133.26,106.61],[133.482,106.715],[133.7,106.825],[133.915,106.939],[134.126,107.057],[134.333,107.18],[134.537,107.307],[134.737,107.438],[134.933,107.573],[135.127,107.713],[135.317,107.857],[137.952,111.47],[138.139,111.728],[138.32,111.991],[138.494,112.258],[138.661,112.529],[138.821,112.805],[138.973,113.085],[139.119,113.368],[139.257,113.655],[139.388,113.946],[139.512,114.24],[139.627,114.537],[139.736,114.837],[139.836,115.139],[139.929,115.444],[140.014,115.752],[140.09,116.061],[140.159,116.372],[140.22,116.685],[140.273,117],[140.318,117.315],[140.355,117.632],[140.383,117.949],[140.404,118.267],[140.416,118.586],[140.42,118.905],[140.416,119.223],[140.404,119.542],[140.383,119.86],[140.355,120.178],[140.318,120.494],[140.273,120.81],[140.22,121.124],[140.159,121.437],[140.09,121.748],[140.014,122.058],[139.929,122.365],[139.836,122.67],[139.736,122.972],[139.627,123.272],[139.512,123.569],[139.388,123.863],[139.257,124.154],[139.119,124.441],[138.973,124.725],[138.821,125.004],[138.661,125.28],[138.494,125.552],[138.32,125.819],[138.139,126.081],[137.952,126.339],[137.758,126.592],[137.557,126.84],[137.351,127.083],[137.138,127.32],[136.919,127.552],[136.694,127.778],[136.464,127.999],[136.228,128.213],[135.987,128.421],[135.74,128.623],[135.488,128.819],[135.232,129.008],[134.97,129.19],[134.704,129.366],[134.434,129.534],[134.159,129.696],[133.88,129.851],[133.598,129.998],[133.311,130.138],[133.021,130.271],[132.728,130.396],[132.432,130.514],[132.133,130.624],[131.831,130.726],[131.527,130.821],[131.22,130.908],[130.911,130.987],[130.6,131.058],[130.288,131.121],[129.974,131.176],[129.658,131.222],[129.342,131.261],[129.025,131.292],[128.707,131.314],[128.388,131.328],[128.07,131.335],[127.751,131.333],[127.432,131.322],[127.114,131.304],[126.796,131.277],[126.479,131.243],[126.164,131.2],[125.849,131.149],[125.536,131.09],[125.224,131.023],[124.914,130.948],[124.606,130.865],[124.301,130.775],[123.997,130.676],[123.697,130.57],[123.399,130.456],[123.105,130.335],[122.813,130.206],[122.525,130.069],[122.24,129.925],[121.96,129.774],[121.683,129.616],[121.41,129.451],[121.142,129.279],[120.878,129.1],[120.619,128.914],[120.365,128.722],[120.116,128.523],[119.872,128.318],[119.633,128.106],[119.4,127.889],[119.172,127.666],[118.951,127.437],[118.735,127.202],[118.525,126.962],[118.321,126.717],[118.124,126.466],[117.934,126.211],[117.75,125.951],[117.572,125.686],[117.402,125.416],[117.238,125.143],[117.082,124.865],[116.933,124.583],[116.791,124.298],[116.656,124.009],[116.529,123.717],[116.409,123.421],[116.297,123.123],[116.193,122.822],[116.096,122.518],[116.008,122.212],[115.927,121.903],[115.854,121.593],[115.789,121.281],[115.732,120.967],[115.683,120.652],[115.642,120.336],[115.61,120.019],[115.585,119.701],[115.569,119.383],[115.561,119.064],[115.561,118.745]]
EXCLUDE_OBJECT_DEFINE NAME=PigTeam_Esquisse_v14.stl_id_1_copy_0 CENTER=102.01,111.593 POLYGON=[[89.5799,111.932],[89.5881,111.613],[89.6045,111.295],[89.629,110.977],[89.6616,110.66],[89.7024,110.344],[89.7512,110.029],[89.8081,109.715],[89.8731,109.403],[89.946,109.093],[90.0269,108.785],[90.1156,108.478],[90.2122,108.175],[90.3165,107.873],[90.4285,107.575],[90.5481,107.279],[90.6753,106.987],[90.8099,106.698],[90.9519,106.413],[91.1011,106.131],[91.2576,105.853],[91.4211,105.58],[91.5915,105.31],[91.7688,105.045],[91.9529,104.785],[94.5815,101.109],[94.7704,100.963],[94.9624,100.822],[95.1576,100.684],[95.3563,100.551],[95.5588,100.423],[95.7652,100.298],[95.9755,100.178],[96.1894,100.062],[96.4067,99.9508],[96.6272,99.8437],[96.8505,99.7412],[97.0764,99.6432],[97.3046,99.5498],[97.5349,99.461],[97.7672,99.3767],[98.0016,99.297],[98.2382,99.2219],[98.4771,99.1514],[98.7181,99.0857],[98.9608,99.0248],[99.2049,98.9687],[99.4502,98.9173],[99.6962,98.8707],[99.9432,98.8287],[100.191,98.7915],[100.44,98.759],[100.69,98.7312],[100.941,98.7084],[101.193,98.6904],[101.444,98.6772],[101.696,98.6689],[101.948,98.6654],[102.2,98.6667],[102.452,98.6728],[102.704,98.6837],[102.955,98.6994],[103.206,98.72],[103.457,98.7454],[103.706,98.7756],[103.955,98.8105],[104.203,98.8503],[104.45,98.8948],[104.695,98.9441],[104.94,98.9982],[105.182,99.0571],[105.424,99.1207],[105.663,99.1891],[105.9,99.2621],[106.135,99.3397],[106.368,99.4219],[106.6,99.5087],[106.829,99.6001],[107.055,99.6961],[107.279,99.7967],[107.501,99.9019],[107.719,100.012],[107.934,100.126],[108.145,100.244],[108.352,100.367],[108.556,100.493],[108.756,100.624],[108.952,100.76],[109.146,100.9],[109.336,101.044],[111.971,104.657],[112.158,104.915],[112.339,105.177],[112.513,105.445],[112.68,105.716],[112.84,105.992],[112.993,106.271],[113.138,106.555],[113.277,106.842],[113.407,107.133],[113.531,107.427],[113.647,107.724],[113.755,108.024],[113.855,108.326],[113.948,108.631],[114.033,108.938],[114.11,109.248],[114.179,109.559],[114.239,109.872],[114.292,110.186],[114.337,110.502],[114.374,110.819],[114.402,111.136],[114.423,111.454],[114.435,111.773],[114.439,112.091],[114.435,112.41],[114.423,112.729],[114.402,113.047],[114.374,113.364],[114.337,113.681],[114.292,113.997],[114.239,114.311],[114.179,114.624],[114.11,114.935],[114.033,115.244],[113.948,115.552],[113.855,115.857],[113.755,116.159],[113.647,116.459],[113.531,116.756],[113.407,117.05],[113.277,117.341],[113.138,117.628],[112.993,117.911],[112.84,118.191],[112.68,118.467],[112.513,118.738],[112.339,119.006],[112.158,119.268],[111.971,119.526],[111.777,119.779],[111.577,120.027],[111.37,120.27],[111.157,120.507],[110.938,120.739],[110.714,120.965],[110.483,121.185],[110.247,121.4],[110.006,121.608],[109.759,121.81],[109.507,122.005],[109.251,122.194],[108.989,122.377],[108.723,122.552],[108.453,122.721],[108.178,122.883],[107.899,123.037],[107.617,123.185],[107.33,123.325],[107.041,123.458],[106.747,123.583],[106.451,123.701],[106.152,123.811],[105.85,123.913],[105.546,124.008],[105.239,124.095],[104.93,124.174],[104.619,124.244],[104.307,124.307],[103.993,124.362],[103.678,124.409],[103.361,124.448],[103.044,124.478],[102.726,124.501],[102.408,124.515],[102.089,124.521],[101.77,124.519],[101.451,124.509],[101.133,124.491],[100.816,124.464],[100.499,124.43],[100.183,124.387],[99.8681,124.336],[99.5548,124.277],[99.2431,124.21],[98.9333,124.135],[98.6255,124.052],[98.3199,123.962],[98.0167,123.863],[97.7161,123.757],[97.4184,123.643],[97.1237,123.521],[96.8322,123.392],[96.5441,123.256],[96.2597,123.112],[95.9789,122.961],[95.7022,122.803],[95.4296,122.638],[95.1613,122.465],[94.8976,122.286],[94.6385,122.101],[94.3843,121.908],[94.135,121.71],[93.891,121.505],[93.6523,121.293],[93.4191,121.076],[93.1915,120.853],[92.9697,120.624],[92.7539,120.389],[92.5442,120.149],[92.3407,119.904],[92.1435,119.653],[91.9529,119.398],[91.7688,119.137],[91.5915,118.873],[91.4211,118.603],[91.2576,118.33],[91.1011,118.052],[90.9519,117.77],[90.8099,117.485],[90.6753,117.196],[90.5481,116.903],[90.4285,116.608],[90.3165,116.31],[90.2122,116.008],[90.1156,115.705],[90.0269,115.398],[89.946,115.09],[89.8731,114.78],[89.8081,114.468],[89.7512,114.154],[89.7024,113.839],[89.6616,113.523],[89.629,113.206],[89.6045,112.888],[89.5881,112.57],[89.5799,112.251],[89.5799,111.932]]
M73 P0 R27
;TYPE:Custom
M220 S100
G90 ; use absolute coordinates
M83 ; extruder relative mode
M104 S150 ; set temporary nozzle temp to prevent oozing during homing
M140 S55 ; set final bed temp
G4 S30 ; allow partial nozzle warmup
G28 ; home all axis and restore leveling
BED_MESH_CALIBRATE PROFILE=adaptive ADAPTIVE=1 ADAPTIVE_MARGIN=0
G1 Z25 F240
G1 X10.0 Y30 F3000
M104 S210 ; set final nozzle temp
M190 S55 ; wait for bed temp to stabilize
M109 S210 ; wait for nozzle temp to stabilize
G1 Z0.28 F240
G92 E0 ; Move Z Axis up
G1 Z2.0 F5000 ; Move to start position
G1 X5 Y30 Z0.28 F300 ; Draw the first line
G1 X5 Y200 Z0.28 F1500 E15 ; Move to side a little
G1 X5.4 Y200 Z0.28 F5000.0 ; Draw the second line
M73 P1 R27
G1 X5.4 Y50 Z0.28 F1500.0 E30 ; Reset Extruder
G92 E0 ; Move Z Axis up
G1 Z2.0 F3000
M117 Start Printing..
G90
G21
M83 ; use relative distances for extrusion
; filament start gcode
M106 S0
;LAYER_CHANGE
;Z:0.2
;HEIGHT:0.2
;BEFORE_LAYER_CHANGE
;0.2
G92 E0

M73 P1 R26
G1 E-.5 F1800
;_SET_FAN_SPEED_CHANGING_LAYER
SET_VELOCITY_LIMIT ACCEL=1000
SET_VELOCITY_LIMIT SQUARE_CORNER_VELOCITY=7
; printing object PigTeam Esquisse v14.stl id:0 copy 0
EXCLUDE_OBJECT_START NAME=PigTeam_Esquisse_v14.stl_id_0_copy_0
G1 Z.2 F24000
G1 X130.048 Y134.447
G1 Z.2
G1 E.5 F1800
;TYPE:Inner wall
;WIDTH:0.499999
G1 X130.527 Y133.869 E.02852
G1 X130.951 Y133.448 E.02273
G1 X131.509 Y132.978 E.02773
G1 X132.078 Y132.594 E.02609
G1 X132.634 Y132.277 E.02431
G1 X133.327 Y131.969 E.02884
G1 X134.117 Y131.719 E.03148
G1 X134.935 Y131.556 E.03172
G1 X135.76 Y131.483 E.03149
G1 X136.322 Y131.489 E.02133
G1 X136.87 Y131.528 E.02087
G1 X137.816 Y131.711 E.03664
G1 X138.349 Y131.86 E.02103
G1 X139.16 Y132.191 E.03329
G1 X139.73 Y132.485 E.0244
G1 X140.373 Y132.915 E.02938
G1 X140.811 Y133.253 E.02103
G1 X141.409 Y133.827 E.0315
G1 X141.949 Y134.478 E.03214
G1 X142.393 Y135.151 E.03065
G1 X142.66 Y135.634 E.02098
G1 X143.021 Y136.527 E.03661
G1 X143.185 Y137.056 E.02103
G1 X143.348 Y137.916 E.03328
G1 X143.411 Y138.555 E.0244
G1 X143.4 Y139.328 E.02938
G1 X143.355 Y139.879 E.02103
G1 X143.197 Y140.693 E.0315
G1 X143.001 Y141.362 E.02652
G1 X142.8 Y141.877 E.02099
G1 X142.552 Y142.388 E.02159
G1 X142.14 Y143.07 E.03028
G1 X141.703 Y143.653 E.0277
G1 X141.189 Y144.212 E.02885
G1 X140.756 Y144.604 E.02219
G1 X140.163 Y145.051 E.02821
G1 X139.429 Y145.485 E.03242
G1 X138.587 Y145.857 E.03501
G1 X138.114 Y146.024 E.01906
G1 X137.377 Y146.203 E.02883
G1 X136.625 Y146.307 E.02883
G1 X135.866 Y146.333 E.02887
G1 X135.307 Y146.303 E.02129
G1 X134.548 Y146.192 E.02914
G1 X133.812 Y146.007 E.02883
G1 X132.877 Y145.642 E.03816
G1 X132.252 Y145.317 E.02677
G1 X131.771 Y145.019 E.02151
G1 X131.169 Y144.557 E.02883
G1 X130.618 Y144.036 E.02883
G1 X130.122 Y143.461 E.02883
G1 X129.568 Y142.624 E.03816
G1 X129.243 Y141.999 E.02677
G1 X129.021 Y141.478 E.02152
G1 X128.745 Y140.513 E.03815
G1 X128.624 Y139.819 E.02676
G1 X128.568 Y139.255 E.02156
G1 X128.58 Y138.482 E.02939
G1 X128.625 Y137.93 E.02103
G1 X128.795 Y137.071 E.03328
G1 X128.976 Y136.456 E.02436
G1 X129.276 Y135.727 E.02997
G1 X129.619 Y135.084 E.0277
G1 X130.024 Y134.479 E.02766
G1 X129.694 Y134.157 F24000
;TYPE:Outer wall
G1 F1800
G1 X130.201 Y133.548 E.03013
G1 X130.656 Y133.099 E.02428
G1 X131.247 Y132.604 E.02931
G1 X131.85 Y132.198 E.02762
G1 X132.447 Y131.86 E.02606
G1 X133.184 Y131.535 E.03061
G1 X134.018 Y131.272 E.03325
G1 X134.883 Y131.102 E.03349
G1 X135.75 Y131.026 E.03307
G1 X136.436 Y131.039 E.0261
G1 X136.945 Y131.077 E.01939
G1 X137.937 Y131.27 E.03841
G1 X138.514 Y131.434 E.0228
G1 X139.368 Y131.784 E.03506
G1 X139.974 Y132.098 E.02595
G1 X140.65 Y132.551 E.03093
G1 X141.124 Y132.919 E.0228
G1 X141.754 Y133.527 E.03327
G1 X142.322 Y134.215 E.03391
G1 X142.834 Y135.003 E.0357
G1 X143.08 Y135.452 E.01947
G1 X143.457 Y136.389 E.03838
G1 X143.633 Y136.963 E.02281
G1 X143.803 Y137.869 E.03506
G1 X143.868 Y138.549 E.02595
G1 X143.856 Y139.363 E.03093
G1 X143.805 Y139.96 E.0228
G1 X143.637 Y140.82 E.03327
G1 X143.427 Y141.528 E.02807
G1 X143.212 Y142.074 E.02232
G1 X142.945 Y142.622 E.02314
G1 X142.507 Y143.342 E.03206
G1 X142.04 Y143.962 E.02948
G1 X141.497 Y144.55 E.03044
G1 X141.033 Y144.967 E.02373
G1 X140.402 Y145.44 E.02996
G1 X139.627 Y145.897 E.03419
G1 X138.741 Y146.287 E.03678
G1 X138.224 Y146.467 E.02083
G1 X137.441 Y146.656 E.03061
G1 X136.643 Y146.763 E.03061
G1 X135.769 Y146.786 E.0332
G1 X135.243 Y146.755 E.02005
G1 X134.438 Y146.636 E.03091
G1 X133.658 Y146.438 E.03061
G1 X132.679 Y146.054 E.03994
G1 X131.893 Y145.633 E.0339
G1 X131.27 Y145.213 E.02855
G1 X130.856 Y144.89 E.01994
G1 X130.273 Y144.336 E.03061
G1 X129.748 Y143.724 E.03061
G1 X129.169 Y142.848 E.03994
G1 X128.789 Y142.101 E.03182
G1 X128.585 Y141.616 E.02001
G1 X128.297 Y140.606 E.03992
G1 X128.161 Y139.78 E.03181
G1 X128.111 Y139.261 E.01983
G1 X128.124 Y138.447 E.03094
G1 X128.175 Y137.849 E.0228
G1 X128.356 Y136.944 E.03506
G1 X128.552 Y136.285 E.02614
G1 X128.872 Y135.514 E.03174
G1 X129.238 Y134.83 E.02947
G1 X129.671 Y134.19 E.02938
G1 X130.815 Y135.267 F24000
;TYPE:Inner wall
G1 F1800
G1 X130.849 Y135.208 E.00257
G1 X131.552 Y134.388 E.04107
G1 X132.577 Y133.568 E.04987
G1 X133.598 Y133.039 E.0437
G1 X134.273 Y132.808 E.02715
G1 X134.968 Y132.654 E.02702
G1 X135.611 Y132.586 E.02458
G1 X136.206 Y132.574 E.02264
G1 X137.369 Y132.724 E.04456
G1 X138.52 Y133.1 E.04603
G1 X139.59 Y133.694 E.0465
G1 X140.507 Y134.467 E.04557
G1 X140.992 Y135.021 E.02799
G1 X141.356 Y135.547 E.02431
G1 X141.64 Y136.095 E.02347
G1 X141.927 Y136.703 E.02554
G1 X142.238 Y137.874 E.04603
G1 X142.32 Y139.094 E.0465
G1 X142.17 Y140.284 E.04557
G1 X141.967 Y141 E.02829
G1 X141.684 Y141.68 E.02799
G1 X141.328 Y142.315 E.02765
G1 X140.507 Y143.343 E.05002
G1 X139.686 Y144.046 E.04107
G1 X139.051 Y144.45 E.02863
G1 X138.414 Y144.742 E.02661
G1 X137.825 Y144.959 E.02387
G1 X137.205 Y145.114 E.02429
G1 X136.664 Y145.202 E.02082
G1 X135.8 Y145.235 E.03289
G1 X135.062 Y145.17 E.02814
G1 X134.35 Y145.023 E.02765
G1 X133.524 Y144.733 E.03328
G1 X132.958 Y144.458 E.02389
G1 X132.414 Y144.123 E.02429
G1 X132.119 Y143.918 E.01365
G1 X131.626 Y143.496 E.02466
G1 X131.136 Y142.974 E.02722
G1 X130.619 Y142.252 E.03372
G1 X130.315 Y141.703 E.02387
G1 X130.082 Y141.131 E.02346
G1 X129.839 Y140.411 E.02888
G1 X129.735 Y139.86 E.02131
G1 X129.679 Y139.226 E.02418
G1 X129.659 Y138.714 E.01948
G1 X129.81 Y137.526 E.04554
G1 X130.199 Y136.337 E.04753
G1 X130.795 Y135.301 E.04542
M73 P2 R26
G1 X131.213 Y135.496 F24000
;TYPE:Outer wall
