; HEADER_BLOCK_START
; generated by OrcaSlicer 2.1.1 on 2024-08-16 at 08:30:24
; total layer number: 0
; filament_density: 1.24
; filament_diameter: 1.75
; max_z_height: 0.20
; HEADER_BLOCK_END

; THUMBNAIL_BLOCK_START

;
; THUMBNAIL_BLOCK_END

; THUMBNAIL_BLOCK_START

;
; THUMBNAIL_BLOCK_END

; external perimeters extrusion width = 0.42mm
; perimeters extrusion width = 0.45mm
; infill extrusion width = 0.45mm
; solid infill extrusion width = 0.45mm
; top infill extrusion width = 0.42mm
; first layer extrusion width = 0.50mm

; EXECUTABLE_BLOCK_START
EXCLUDE_OBJECT_DEFINE NAME=Orca-PA-Calibration-Test CENTER=0,0 POLYGON=[[25,25],[205,25],[205,205],[25,205],[25,25]]
M73 P0 R8
;TYPE:Custom
M220 S100
G90 ; use absolute coordinates
M83 ; extruder relative mode
M104 S150 ; set temporary nozzle temp to prevent oozing during homing
M140 S55 ; set final bed temp
G4 S30 ; allow partial nozzle warmup
G28 ; home all axis and restore leveling
BED_MESH_CALIBRATE PROFILE=adaptive ADAPTIVE=1 ADAPTIVE_MARGIN=0
G1 Z25 F240
G1 X10.0 Y30 F3000
M104 S205 ; set final nozzle temp
M190 S55 ; wait for bed temp to stabilize
M109 S205 ; wait for nozzle temp to stabilize
M73 P1 R8
G1 Z0.28 F240
G92 E0 ; Move Z Axis up
G1 Z2.0 F5000 ; Move to start position
M73 P2 R8
G1 X5 Y30 Z0.28 F300 ; Draw the first line
G1 X5 Y200 Z0.28 F1500 E15 ; Move to side a little
G1 X5.4 Y200 Z0.28 F5000.0 ; Draw the second line
M73 P4 R8
G1 X5.4 Y50 Z0.28 F1500.0 E30 ; Reset Extruder
G92 E0 ; Move Z Axis up
G1 Z2.0 F3000
M117 Start Printing..
G90
G21
M83 ; use relative distances for extrusion
; filament start gcode
SET_PRESSURE_ADVANCE ADVANCE=0.05; Override pressure advance value
SET_VELOCITY_LIMIT ACCEL=2000
SET_VELOCITY_LIMIT SQUARE_CORNER_VELOCITY=7
M73 P5 R8
G1 Z.2 F24000
G1 E-.5 F1800
G1 X65 Y204.25 F24000
G1 E.5 F1800
G1 F600
G1 X65 Y25.75 E9.92204
SET_PRESSURE_ADVANCE ADVANCE=0; Override pressure advance value
G1 E-.5 F1800
M73 P8 R7
G1 X65 Y25.75 F24000
G1 E.5 F1800
G1 F600
G1 X85 Y25.75 E.92643
G1 F4020
M73 P9 R7
G1 X125 Y25.75 E1.85285
G1 F600
G1 X145 Y25.75 E.92643
SET_PRESSURE_ADVANCE ADVANCE=0.002; Override pressure advance value
G1 E-.5 F1800
G1 X65 Y29.25 F24000
G1 E.5 F1800
G1 F600
G1 X85 Y29.25 E.92643
G1 F4020
M73 P10 R7
G1 X125 Y29.25 E1.85285
G1 F600
G1 X145 Y29.25 E.92643
SET_PRESSURE_ADVANCE ADVANCE=0.004; Override pressure advance value
G1 E-.5 F1800
G1 X65 Y32.75 F24000
G1 E.5 F1800
G1 F600
G1 X85 Y32.75 E.92643
G1 F4020
M73 P11 R7
G1 X125 Y32.75 E1.85285
G1 F600
G1 X145 Y32.75 E.92643
SET_PRESSURE_ADVANCE ADVANCE=0.006; Override pressure advance value
G1 E-.5 F1800
G1 X65 Y36.25 F24000
G1 E.5 F1800
G1 F600
G1 X85 Y36.25 E.92643
G1 F4020
M73 P12 R7
G1 X125 Y36.25 E1.85285
G1 F600
G1 X145 Y36.25 E.92643
SET_PRESSURE_ADVANCE ADVANCE=0.008; Override pressure advance value
G1 E-.5 F1800
G1 X65 Y39.75 F24000
G1 E.5 F1800
G1 F600
G1 X85 Y39.75 E.92643
G1 F4020
M73 P13 R7
G1 X125 Y39.75 E1.85285
G1 F600
G1 X145 Y39.75 E.92643
SET_PRESSURE_ADVANCE ADVANCE=0.01; Override pressure advance value
G1 E-.5 F1800
G1 X65 Y43.25 F24000
G1 E.5 F1800
G1 F600
G1 X85 Y43.25 E.92643
G1 F4020
G1 X125 Y43.25 E1.85285
G1 F600
M73 P14 R7
G1 X145 Y43.25 E.92643
SET_PRESSURE_ADVANCE ADVANCE=0.012; Override pressure advance value
G1 E-.5 F1800
G1 X65 Y46.75 F24000
G1 E.5 F1800
G1 F600
G1 X85 Y46.75 E.92643
G1 F4020
G1 X125 Y46.75 E1.85285
G1 F600
M73 P15 R7
G1 X145 Y46.75 E.92643
SET_PRESSURE_ADVANCE ADVANCE=0.014; Override pressure advance value
G1 E-.5 F1800
G1 X65 Y50.25 F24000
G1 E.5 F1800
G1 F600
G1 X85 Y50.25 E.92643
G1 F4020
G1 X125 Y50.25 E1.85285
G1 F600
M73 P16 R7
G1 X145 Y50.25 E.92643
SET_PRESSURE_ADVANCE ADVANCE=0.016; Override pressure advance value
G1 E-.5 F1800
G1 X65 Y53.75 F24000
G1 E.5 F1800
G1 F600
G1 X85 Y53.75 E.92643
G1 F4020
G1 X125 Y53.75 E1.85285
G1 F600
G1 X145 Y53.75 E.92643
SET_PRESSURE_ADVANCE ADVANCE=0.018; Override pressure advance value
G1 E-.5 F1800
M73 P17 R7
G1 X65 Y57.25 F24000
G1 E.5 F1800
G1 F600
G1 X85 Y57.25 E.92643
G1 F4020
G1 X125 Y57.25 E1.85285
G1 F600
G1 X145 Y57.25 E.92643
SET_PRESSURE_ADVANCE ADVANCE=0.02; Override pressure advance value
G1 E-.5 F1800
M73 P18 R7
G1 X65 Y60.75 F24000
G1 E.5 F1800
G1 F600
G1 X85 Y60.75 E.92643
G1 F4020
G1 X125 Y60.75 E1.85285
G1 F600
G1 X145 Y60.75 E.92643
SET_PRESSURE_ADVANCE ADVANCE=0.022; Override pressure advance value
G1 E-.5 F1800
M73 P19 R7
G1 X65 Y64.25 F24000
G1 E.5 F1800
G1 F600
G1 X85 Y64.25 E.92643
G1 F4020
G1 X125 Y64.25 E1.85285
G1 F600
G1 X145 Y64.25 E.92643
SET_PRESSURE_ADVANCE ADVANCE=0.024; Override pressure advance value
G1 E-.5 F1800
M73 P20 R6
G1 X65 Y67.75 F24000
G1 E.5 F1800
G1 F600
G1 X85 Y67.75 E.92643
G1 F4020
G1 X125 Y67.75 E1.85285
G1 F600
G1 X145 Y67.75 E.92643
SET_PRESSURE_ADVANCE ADVANCE=0.026; Override pressure advance value
G1 E-.5 F1800
M73 P21 R6
G1 X65 Y71.25 F24000
G1 E.5 F1800
G1 F600
G1 X85 Y71.25 E.92643
G1 F4020
G1 X125 Y71.25 E1.85285
G1 F600
G1 X145 Y71.25 E.92643
SET_PRESSURE_ADVANCE ADVANCE=0.028; Override pressure advance value
G1 E-.5 F1800
M73 P22 R6
G1 X65 Y74.75 F24000
G1 E.5 F1800
G1 F600
G1 X85 Y74.75 E.92643
G1 F4020
G1 X125 Y74.75 E1.85285
G1 F600
G1 X145 Y74.75 E.92643
SET_PRESSURE_ADVANCE ADVANCE=0.03; Override pressure advance value
G1 E-.5 F1800
M73 P23 R6
G1 X65 Y78.25 F24000
G1 E.5 F1800
G1 F600
G1 X85 Y78.25 E.92643
G1 F4020
G1 X125 Y78.25 E1.85285
G1 F600
G1 X145 Y78.25 E.92643
SET_PRESSURE_ADVANCE ADVANCE=0.032; Override pressure advance value
G1 E-.5 F1800
M73 P24 R6
G1 X65 Y81.75 F24000
G1 E.5 F1800
G1 F600
G1 X85 Y81.75 E.92643
G1 F4020
G1 X125 Y81.75 E1.85285
G1 F600
G1 X145 Y81.75 E.92643
SET_PRESSURE_ADVANCE ADVANCE=0.034; Override pressure advance value
G1 E-.5 F1800
M73 P25 R6
G1 X65 Y85.25 F24000
G1 E.5 F1800
G1 F600
G1 X85 Y85.25 E.92643
G1 F4020
G1 X125 Y85.25 E1.85285
G1 F600
G1 X145 Y85.25 E.92643
SET_PRESSURE_ADVANCE ADVANCE=0.036; Override pressure advance value
G1 E-.5 F1800
M73 P26 R6
G1 X65 Y88.75 F24000
G1 E.5 F1800
G1 F600
G1 X85 Y88.75 E.92643
G1 F4020
G1 X125 Y88.75 E1.85285
G1 F600
G1 X145 Y88.75 E.92643
SET_PRESSURE_ADVANCE ADVANCE=0.038; Override pressure advance value
G1 E-.5 F1800
M73 P27 R6
G1 X65 Y92.25 F24000
G1 E.5 F1800
G1 F600
G1 X85 Y92.25 E.92643
G1 F4020
G1 X125 Y92.25 E1.85285
G1 F600
G1 X145 Y92.25 E.92643
SET_PRESSURE_ADVANCE ADVANCE=0.04; Override pressure advance value
G1 E-.5 F1800
G1 X65 Y95.75 F24000
G1 E.5 F1800
M73 P28 R6
G1 F600
G1 X85 Y95.75 E.92643
G1 F4020
G1 X125 Y95.75 E1.85285
G1 F600
G1 X145 Y95.75 E.92643
SET_PRESSURE_ADVANCE ADVANCE=0.042; Override pressure advance value
G1 E-.5 F1800
G1 X65 Y99.25 F24000
G1 E.5 F1800
M73 P29 R6
G1 F600
G1 X85 Y99.25 E.92643
G1 F4020
G1 X125 Y99.25 E1.85285
G1 F600
G1 X145 Y99.25 E.92643
SET_PRESSURE_ADVANCE ADVANCE=0.044; Override pressure advance value
G1 E-.5 F1800
G1 X65 Y102.75 F24000
G1 E.5 F1800
M73 P30 R6
G1 F600
G1 X85 Y102.75 E.92643
G1 F4020
G1 X125 Y102.75 E1.85285
G1 F600
G1 X145 Y102.75 E.92643
SET_PRESSURE_ADVANCE ADVANCE=0.046; Override pressure advance value
G1 E-.5 F1800
G1 X65 Y106.25 F24000
G1 E.5 F1800
G1 F600
G1 X85 Y106.25 E.92643
G1 F4020
M73 P31 R6
G1 X125 Y106.25 E1.85285
G1 F600
G1 X145 Y106.25 E.92643
SET_PRESSURE_ADVANCE ADVANCE=0.048; Override pressure advance value
G1 E-.5 F1800
M73 P31 R5
G1 X65 Y109.75 F24000
G1 E.5 F1800
G1 F600
G1 X85 Y109.75 E.92643
G1 F4020
M73 P32 R5
G1 X125 Y109.75 E1.85285
G1 F600
G1 X145 Y109.75 E.92643
SET_PRESSURE_ADVANCE ADVANCE=0.05; Override pressure advance value
G1 E-.5 F1800
G1 X65 Y113.25 F24000
G1 E.5 F1800
G1 F600
G1 X85 Y113.25 E.92643
G1 F4020
M73 P33 R5
G1 X125 Y113.25 E1.85285
G1 F600
G1 X145 Y113.25 E.92643
SET_PRESSURE_ADVANCE ADVANCE=0.052; Override pressure advance value
G1 E-.5 F1800
G1 X65 Y116.75 F24000
G1 E.5 F1800
G1 F600
G1 X85 Y116.75 E.92643
G1 F4020
M73 P34 R5
G1 X125 Y116.75 E1.85285
G1 F600
G1 X145 Y116.75 E.92643
SET_PRESSURE_ADVANCE ADVANCE=0.054; Override pressure advance value
G1 E-.5 F1800
G1 X65 Y120.25 F24000
G1 E.5 F1800
G1 F600
G1 X85 Y120.25 E.92643
G1 F4020
M73 P35 R5
G1 X125 Y120.25 E1.85285
G1 F600
G1 X145 Y120.25 E.92643
SET_PRESSURE_ADVANCE ADVANCE=0.056; Override pressure advance value
G1 E-.5 F1800
G1 X65 Y123.75 F24000
G1 E.5 F1800
G1 F600
G1 X85 Y123.75 E.92643
G1 F4020
M73 P36 R5
G1 X125 Y123.75 E1.85285
G1 F600
G1 X145 Y123.75 E.92643
SET_PRESSURE_ADVANCE ADVANCE=0.058; Override pressure advance value
G1 E-.5 F1800
G1 X65 Y127.25 F24000
G1 E.5 F1800
G1 F600
G1 X85 Y127.25 E.92643
G1 F4020
M73 P37 R5
G1 X125 Y127.25 E1.85285
G1 F600
G1 X145 Y127.25 E.92643
SET_PRESSURE_ADVANCE ADVANCE=0.06; Override pressure advance value
G1 E-.5 F1800
G1 X65 Y130.75 F24000
G1 E.5 F1800
G1 F600
G1 X85 Y130.75 E.92643
G1 F4020
M73 P38 R5
G1 X125 Y130.75 E1.85285
G1 F600
G1 X145 Y130.75 E.92643
SET_PRESSURE_ADVANCE ADVANCE=0.062; Override pressure advance value
G1 E-.5 F1800
G1 X65 Y134.25 F24000
G1 E.5 F1800
G1 F600
G1 X85 Y134.25 E.92643
G1 F4020
M73 P39 R5
G1 X125 Y134.25 E1.85285
G1 F600
G1 X145 Y134.25 E.92643
SET_PRESSURE_ADVANCE ADVANCE=0.064; Override pressure advance value
G1 E-.5 F1800
G1 X65 Y137.75 F24000
G1 E.5 F1800
G1 F600
G1 X85 Y137.75 E.92643
G1 F4020
M73 P40 R5
G1 X125 Y137.75 E1.85285
G1 F600
G1 X145 Y137.75 E.92643
SET_PRESSURE_ADVANCE ADVANCE=0.066; Override pressure advance value
G1 E-.5 F1800
G1 X65 Y141.25 F24000
G1 E.5 F1800
G1 F600
G1 X85 Y141.25 E.92643
G1 F4020
M73 P41 R5
G1 X125 Y141.25 E1.85285
G1 F600
G1 X145 Y141.25 E.92643
SET_PRESSURE_ADVANCE ADVANCE=0.068; Override pressure advance value
G1 E-.5 F1800
G1 X65 Y144.75 F24000
G1 E.5 F1800
G1 F600
G1 X85 Y144.75 E.92643
G1 F4020
G1 X125 Y144.75 E1.85285
G1 F600
M73 P42 R5
G1 X145 Y144.75 E.92643
SET_PRESSURE_ADVANCE ADVANCE=0.07; Override pressure advance value
G1 E-.5 F1800
G1 X65 Y148.25 F24000
G1 E.5 F1800
G1 F600
G1 X85 Y148.25 E.92643
G1 F4020
M73 P42 R4
G1 X125 Y148.25 E1.85285
G1 F600
M73 P43 R4
G1 X145 Y148.25 E.92643
SET_PRESSURE_ADVANCE ADVANCE=0.072; Override pressure advance value
G1 E-.5 F1800
G1 X65 Y151.75 F24000
G1 E.5 F1800
G1 F600
G1 X85 Y151.75 E.92643
G1 F4020
G1 X125 Y151.75 E1.85285
G1 F600
M73 P44 R4
G1 X145 Y151.75 E.92643
SET_PRESSURE_ADVANCE ADVANCE=0.074; Override pressure advance value
G1 E-.5 F1800
G1 X65 Y155.25 F24000
G1 E.5 F1800
G1 F600
G1 X85 Y155.25 E.92643
G1 F4020
G1 X125 Y155.25 E1.85285
G1 F600
G1 X145 Y155.25 E.92643
SET_PRESSURE_ADVANCE ADVANCE=0.076; Override pressure advance value
G1 E-.5 F1800
M73 P45 R4
G1 X65 Y158.75 F24000
G1 E.5 F1800
G1 F600
G1 X85 Y158.75 E.92643
G1 F4020
G1 X125 Y158.75 E1.85285
G1 F600
G1 X145 Y158.75 E.92643
SET_PRESSURE_ADVANCE ADVANCE=0.078; Override pressure advance value
G1 E-.5 F1800
M73 P46 R4
G1 X65 Y162.25 F24000
G1 E.5 F1800
G1 F600
G1 X85 Y162.25 E.92643
G1 F4020
G1 X125 Y162.25 E1.85285
G1 F600
G1 X145 Y162.25 E.92643
SET_PRESSURE_ADVANCE ADVANCE=0.08; Override pressure advance value
G1 E-.5 F1800
M73 P47 R4
G1 X65 Y165.75 F24000
G1 E.5 F1800
G1 F600
G1 X85 Y165.75 E.92643
G1 F4020
G1 X125 Y165.75 E1.85285
G1 F600
G1 X145 Y165.75 E.92643
SET_PRESSURE_ADVANCE ADVANCE=0.082; Override pressure advance value
G1 E-.5 F1800
M73 P48 R4
G1 X65 Y169.25 F24000
G1 E.5 F1800
G1 F600
G1 X85 Y169.25 E.92643
G1 F4020
G1 X125 Y169.25 E1.85285
G1 F600
G1 X145 Y169.25 E.92643
SET_PRESSURE_ADVANCE ADVANCE=0.084; Override pressure advance value
G1 E-.5 F1800
M73 P49 R4
G1 X65 Y172.75 F24000
G1 E.5 F1800
G1 F600
G1 X85 Y172.75 E.92643
G1 F4020
G1 X125 Y172.75 E1.85285
G1 F600
G1 X145 Y172.75 E.92643
SET_PRESSURE_ADVANCE ADVANCE=0.086; Override pressure advance value
G1 E-.5 F1800
M73 P50 R4
G1 X65 Y176.25 F24000
G1 E.5 F1800
G1 F600
G1 X85 Y176.25 E.92643
G1 F4020
G1 X125 Y176.25 E1.85285
G1 F600
G1 X145 Y176.25 E.92643
SET_PRESSURE_ADVANCE ADVANCE=0.088; Override pressure advance value
G1 E-.5 F1800
M73 P51 R4
G1 X65 Y179.75 F24000
G1 E.5 F1800
G1 F600
G1 X85 Y179.75 E.92643
G1 F4020
G1 X125 Y179.75 E1.85285
G1 F600
G1 X145 Y179.75 E.92643
SET_PRESSURE_ADVANCE ADVANCE=0.09; Override pressure advance value
G1 E-.5 F1800
M73 P52 R4
G1 X65 Y183.25 F24000
G1 E.5 F1800
G1 F600
G1 X85 Y183.25 E.92643
G1 F4020
G1 X125 Y183.25 E1.85285
G1 F600
G1 X145 Y183.25 E.92643
SET_PRESSURE_ADVANCE ADVANCE=0.092; Override pressure advance value
G1 E-.5 F1800
M73 P53 R4
G1 X65 Y186.75 F24000
G1 E.5 F1800
G1 F600
G1 X85 Y186.75 E.92643
G1 F4020
G1 X125 Y186.75 E1.85285
G1 F600
G1 X145 Y186.75 E.92643
SET_PRESSURE_ADVANCE ADVANCE=0.094; Override pressure advance value
G1 E-.5 F1800
M73 P54 R4
G1 X65 Y190.25 F24000
G1 E.5 F1800
G1 F600
G1 X85 Y190.25 E.92643
G1 F4020
M73 P54 R3
G1 X125 Y190.25 E1.85285
G1 F600
G1 X145 Y190.25 E.92643
SET_PRESSURE_ADVANCE ADVANCE=0.096; Override pressure advance value
G1 E-.5 F1800
M73 P55 R3
G1 X65 Y193.75 F24000
G1 E.5 F1800
G1 F600
G1 X85 Y193.75 E.92643
G1 F4020
G1 X125 Y193.75 E1.85285
G1 F600
G1 X145 Y193.75 E.92643
SET_PRESSURE_ADVANCE ADVANCE=0.098; Override pressure advance value
G1 E-.5 F1800
G1 X65 Y197.25 F24000
G1 E.5 F1800
M73 P56 R3
G1 F600
G1 X85 Y197.25 E.92643
G1 F4020
G1 X125 Y197.25 E1.85285
G1 F600
G1 X145 Y197.25 E.92643
SET_PRESSURE_ADVANCE ADVANCE=0.1; Override pressure advance value
G1 E-.5 F1800
G1 X65 Y200.75 F24000
G1 E.5 F1800
M73 P57 R3
G1 F600
G1 X85 Y200.75 E.92643
G1 F4020
G1 X125 Y200.75 E1.85285
G1 F600
G1 X145 Y200.75 E.92643
SET_PRESSURE_ADVANCE ADVANCE=0; Override pressure advance value
G1 E-.5 F1800
G1 X145 Y22.25 F24000
G1 E.5 F1800
M73 P58 R3
G1 F4020
G1 X145 Y204.25 E8.26188
G1 F4020
G1 X169 Y204.25 E1.08948
G1 F4020
G1 X169 Y22.25 E8.26188
G1 F4020
M73 P59 R3
G1 X145 Y22.25 E1.08948
G1 E-.5 F1800
G1 X145.557 Y22.807 F24000
G1 E.5 F1800
G1 F4020
G1 X145.557 Y203.693 E8.2113
G1 F4020
G1 X168.443 Y203.693 E1.0389
G1 F4020
G1 X168.443 Y22.807 E8.2113
G1 F4020
M73 P60 R3
G1 X145.557 Y22.807 E1.0389
G1 E-.5 F1800
G1 X145.957 Y23.207 F24000
G1 E.5 F1800
G1 E-.5 F1800
G1 X146.745 Y23.207 F24000
G1 E.5 F1800
G1 F4020
G1 X145.957 Y23.995 E.05058
G1 E-.5 F1800
G1 X145.957 Y24.783 F24000
G1 E.5 F1800
G1 F4020
G1 X147.533 Y23.207 E.10115
G1 E-.5 F1800
G1 X148.321 Y23.207 F24000
G1 E.5 F1800
G1 F4020
G1 X145.957 Y25.571 E.15173
G1 E-.5 F1800
G1 X145.957 Y26.358 F24000
G1 E.5 F1800
G1 F4020
G1 X149.108 Y23.207 E.20231
G1 E-.5 F1800
G1 X149.896 Y23.207 F24000
G1 E.5 F1800
G1 F4020
G1 X145.957 Y27.146 E.25289
G1 E-.5 F1800
G1 X145.957 Y27.934 F24000
G1 E.5 F1800
G1 F4020
G1 X150.684 Y23.207 E.30346
G1 E-.5 F1800
G1 X151.472 Y23.207 F24000
G1 E.5 F1800
G1 F4020
G1 X145.957 Y28.722 E.35404
G1 E-.5 F1800
G1 X145.957 Y29.51 F24000
G1 E.5 F1800
G1 F4020
G1 X152.26 Y23.207 E.40462
G1 E-.5 F1800
G1 X153.048 Y23.207 F24000
G1 E.5 F1800
G1 F4020
G1 X145.957 Y30.298 E.45519
G1 E-.5 F1800
G1 X145.957 Y31.085 F24000
G1 E.5 F1800
G1 F4020
G1 X153.835 Y23.207 E.50577
G1 E-.5 F1800
G1 X154.623 Y23.207 F24000
G1 E.5 F1800
G1 F4020
G1 X145.957 Y31.873 E.55635
G1 E-.5 F1800
G1 X145.957 Y32.661 F24000
G1 E.5 F1800
G1 F4020
G1 X155.411 Y23.207 E.60693
G1 E-.5 F1800
G1 X156.199 Y23.207 F24000
G1 E.5 F1800
G1 F4020
G1 X145.957 Y33.449 E.6575
G1 E-.5 F1800
M73 P61 R3
G1 X145.957 Y34.237 F24000
G1 E.5 F1800
G1 F4020
G1 X156.987 Y23.207 E.70808
G1 E-.5 F1800
G1 X157.775 Y23.207 F24000
G1 E.5 F1800
G1 F4020
G1 X145.957 Y35.025 E.75866
G1 E-.5 F1800
G1 X145.957 Y35.812 F24000
G1 E.5 F1800
G1 F4020
G1 X158.562 Y23.207 E.80923
G1 E-.5 F1800
G1 X159.35 Y23.207 F24000
G1 E.5 F1800
G1 F4020
G1 X145.957 Y36.6 E.85981
G1 E-.5 F1800
G1 X145.957 Y37.388 F24000
G1 E.5 F1800
G1 F4020
G1 X160.138 Y23.207 E.91039
G1 E-.5 F1800
G1 X160.926 Y23.207 F24000
G1 E.5 F1800
G1 F4020
G1 X145.957 Y38.176 E.96097
G1 E-.5 F1800
G1 X145.957 Y38.964 F24000
G1 E.5 F1800
G1 F4020
G1 X161.714 Y23.207 E1.01154
G1 E-.5 F1800
G1 X162.502 Y23.207 F24000
G1 E.5 F1800
G1 F4020
G1 X145.957 Y39.752 E1.06212
G1 E-.5 F1800
G1 X145.957 Y40.539 F24000
G1 E.5 F1800
G1 F4020
G1 X163.289 Y23.207 E1.1127
G1 E-.5 F1800
G1 X164.077 Y23.207 F24000
G1 E.5 F1800
G1 F4020
G1 X145.957 Y41.327 E1.16328
G1 E-.5 F1800
G1 X145.957 Y42.115 F24000
G1 E.5 F1800
G1 F4020
G1 X164.865 Y23.207 E1.21385
G1 E-.5 F1800
