; HEADER_BLOCK_START
; generated by OrcaSlicer 2.0.0 on 2024-05-24 at 16:27:54
; total layer number: 50
; filament_density: 1.24
; filament_diameter: 1.75
; max_z_height: 10.00
; HEADER_BLOCK_END

; THUMBNAIL_BLOCK_START

;
; THUMBNAIL_BLOCK_END

; THUMBNAIL_BLOCK_START

;
; THUMBNAIL_BLOCK_END

; external perimeters extrusion width = 0.40mm
; perimeters extrusion width = 0.42mm
; infill extrusion width = 0.45mm
; solid infill extrusion width = 0.42mm
; top infill extrusion width = 0.40mm
; first layer extrusion width = 0.50mm

; EXECUTABLE_BLOCK_START
EXCLUDE_OBJECT_DEFINE NAME=Rangement_servante_piste_v18_dessus.stl_id_0_copy_0 CENTER=115,115 POLYGON=[[7.5,52.5],[222.5,52.5],[222.5,177.5],[111.1,177.5],[22.5,172.5],[12.5,162.5],[7.5,119.2],[7.5,52.5]]
M73 P0 R127
;TYPE:Custom
M220 S100
G90 ; use absolute coordinates
M83 ; extruder relative mode
M104 S150 ; set temporary nozzle temp to prevent oozing during homing
M140 S55 ; set final bed temp
G4 S30 ; allow partial nozzle warmup
G28 ; home all axis and restore leveling
G1 Z25 F240
G1 X10.0 Y30 F3000
M104 S210 ; set final nozzle temp
M190 S55 ; wait for bed temp to stabilize
M109 S210 ; wait for nozzle temp to stabilize
G1 Z0.28 F240
G92 E0 ; Move Z Axis up
G1 Z2.0 F5000 ; Move to start position
M73 P0 R126
G1 X5 Y30 Z0.28 F300 ; Draw the first line
G1 X5 Y200 Z0.28 F1500 E15 ; Move to side a little
G1 X5.4 Y200 Z0.28 F5000.0 ; Draw the second line
G1 X5.4 Y50 Z0.28 F1500.0 E30 ; Reset Extruder
G92 E0 ; Move Z Axis up
G1 Z2.0 F3000
M117 Start Printing..
G90
G21
M83 ; use relative distances for extrusion
; filament start gcode
M106 S0
;LAYER_CHANGE
;Z:0.2
;HEIGHT:0.2
;BEFORE_LAYER_CHANGE
;0.2
G92 E0

G1 E-.5 F2400
;_SET_FAN_SPEED_CHANGING_LAYER
SET_VELOCITY_LIMIT ACCEL=500 ACCEL_TO_DECEL=250
SET_VELOCITY_LIMIT SQUARE_CORNER_VELOCITY=7
; printing object Rangement servante piste v18 dessus.stl id:0 copy 0
EXCLUDE_OBJECT_START NAME=Rangement_servante_piste_v18_dessus.stl_id_0_copy_0
G1 Z.2 F18000
G1 X16.761 Y74.461
G1 Z.2
G1 E.5 F2400
;TYPE:Inner wall
;WIDTH:0.564381
G1 F1800
G1 X16.239 Y74.461 E.02216
G1 X16.239 Y73.779 E.02899
;WIDTH:0.5818
G1 X16.248 Y73.248 E.0233
G1 X16.517 Y73.248 E.01183
G1 X16.73 Y73.225 E.00941
;WIDTH:0.535193
G1 X16.943 Y73.201 E.00859
;WIDTH:0.488585
G1 X17.156 Y73.178 E.00778
;WIDTH:0.441978
G1 X17.369 Y73.155 E.00697
G1 X17.221 Y73.263 E.00596
;WIDTH:0.488585
G1 X17.073 Y73.371 E.00666
;WIDTH:0.535193
G1 X16.925 Y73.48 E.00735
;WIDTH:0.5818
G1 X16.777 Y73.588 E.00805
G1 X16.761 Y73.779 E.0084
;WIDTH:0.564381
G1 X16.761 Y74.421 E.02729
G1 E-.35 F2400
;WIPE_START
G1 F1800
G1 X16.239 Y74.461 E-.07845
G1 X16.239 Y73.984 E-.07155
;WIPE_END
G1 Z.4 F18000
G1 X46.155 Y80.908 Z.4
G1 Z.2
G1 E.5 F2400
;WIDTH:0.499999
G1 F1800
G1 X46.176 Y80.918 E.00086
G1 X47.142 Y81.496 E.04193
G1 X48.05 Y82.162 E.04193
G1 X48.891 Y82.91 E.04193
G1 X49.658 Y83.734 E.04193
G1 X50.326 Y84.6 E.04073
G1 X50.8 Y85.346 E.03293
G1 X51.359 Y86.394 E.04425
G1 X51.777 Y87.402 E.04062
G1 X51.938 Y87.877 E.01869
G1 X52.17 Y88.68 E.03112
G1 X52.336 Y89.536 E.03248
G1 X52.416 Y90.106 E.02145
G1 X52.492 Y90.905 E.02989
G1 X52.495 Y92.031 E.04192
G1 X52.392 Y93.152 E.04192
G1 X52.231 Y94.016 E.03275
G1 X52.105 Y94.548 E.02037
G1 X51.876 Y95.34 E.0307
G1 X51.538 Y96.206 E.03461
G1 X51.031 Y97.254 E.04337
G1 X50.418 Y98.259 E.04385
G1 X49.66 Y99.264 E.04688
G1 X48.891 Y100.09 E.04205
G1 X48.049 Y100.838 E.04193
G1 X47.142 Y101.504 E.04193
G1 X46.176 Y102.082 E.04193
G1 X45.189 Y102.553 E.04073
G1 X44.134 Y102.943 E.04192
G1 X43.046 Y103.233 E.04192
G1 X41.936 Y103.42 E.04192
G1 X40.814 Y103.502 E.04192
G1 X39.688 Y103.479 E.04192
G1 X38.57 Y103.35 E.04192
G1 X37.469 Y103.117 E.04192
G1 X36.803 Y102.911 E.02596
G1 X36.116 Y102.669 E.02714
G1 X35.356 Y102.349 E.03072
G1 X34.639 Y101.968 E.03022
G1 X34.062 Y101.623 E.02506
G1 X33.423 Y101.199 E.02854
G1 X32.529 Y100.481 E.04274
G1 X31.716 Y99.687 E.04231
G1 X30.988 Y98.829 E.04193
G1 X30.343 Y97.906 E.04193
G1 X29.788 Y96.926 E.04193
G1 X29.327 Y95.899 E.04193
G1 X28.982 Y94.886 E.03989
G1 X28.703 Y93.741 E.04389
G1 X28.545 Y92.624 E.04199
G1 X28.492 Y91.5 E.04193
G1 X28.545 Y90.376 E.04193
G1 X28.703 Y89.261 E.04193
G1 X28.964 Y88.166 E.04193
G1 X29.327 Y87.101 E.04193
G1 X29.788 Y86.074 E.04193
G1 X30.343 Y85.094 E.04193
G1 X30.988 Y84.171 E.04193
G1 X31.716 Y83.313 E.04193
G1 X32.521 Y82.526 E.04193
G1 X33.396 Y81.819 E.04193
G1 X34.334 Y81.196 E.04193
G1 X35.326 Y80.664 E.04193
G1 X36.364 Y80.227 E.04193
G1 X37.437 Y79.889 E.04193
G1 X38.538 Y79.653 E.04193
G1 X39.656 Y79.522 E.04193
G1 X40.727 Y79.497 E.0399
G1 X41.903 Y79.574 E.04389
G1 X43.015 Y79.758 E.04199
G1 X44.103 Y80.046 E.04193
G1 X45.16 Y80.433 E.04193
G1 X46.119 Y80.891 E.03958
G1 X45.961 Y81.322 F18000
;TYPE:Outer wall
G1 F1800
G1 X46.889 Y81.878 E.04027
G1 X47.762 Y82.518 E.04033
G1 X48.571 Y83.238 E.04033
G1 X49.309 Y84.03 E.04033
G1 X49.964 Y84.879 E.03993
G1 X50.413 Y85.59 E.03134
G1 X50.952 Y86.601 E.04265
G1 X51.352 Y87.569 E.03903
G1 X51.666 Y88.579 E.03938
G1 X51.782 Y89.069 E.01878
G1 X51.934 Y89.87 E.03036
G1 X52.012 Y90.687 E.03056
G1 X52.038 Y91.233 E.02038
G1 X52.038 Y92.031 E.02969
G1 X51.961 Y92.851 E.03069
G1 X51.887 Y93.379 E.01986
G1 X51.736 Y94.173 E.03009
G1 X51.499 Y94.996 E.03192
G1 X51.113 Y96.038 E.04139
G1 X50.623 Y97.047 E.04178
G1 X50.032 Y98.015 E.04225
G1 X49.31 Y98.97 E.04457
G1 X48.571 Y99.762 E.04036
G1 X47.762 Y100.482 E.04033
G1 X46.889 Y101.122 E.04033
G1 X45.96 Y101.678 E.04033
G1 X44.992 Y102.14 E.03993
G1 X43.976 Y102.514 E.04033
G1 X42.929 Y102.791 E.04033
G1 X41.861 Y102.969 E.04033
G1 X40.781 Y103.046 E.04033
G1 X39.699 Y103.022 E.04033
G1 X38.624 Y102.896 E.04033
G1 X37.565 Y102.671 E.04033
G1 X36.293 Y102.247 E.0499
G1 X35.533 Y101.927 E.03072
G1 X34.856 Y101.565 E.02863
G1 X34.314 Y101.242 E.02347
G1 X33.676 Y100.818 E.02854
G1 X32.828 Y100.134 E.0406
G1 X32.051 Y99.375 E.04046
G1 X31.35 Y98.549 E.04033
G1 X30.73 Y97.661 E.04033
G1 X30.196 Y96.72 E.04033
G1 X29.753 Y95.732 E.04033
G1 X29.421 Y94.758 E.03834
G1 X29.152 Y93.654 E.04229
G1 X29 Y92.582 E.04035
G1 X28.95 Y91.5 E.04033
G1 X29 Y90.418 E.04033
G1 X29.152 Y89.346 E.04033
G1 X29.404 Y88.293 E.04033
G1 X29.753 Y87.268 E.04033
G1 X30.196 Y86.28 E.04033
G1 X30.73 Y85.339 E.04033
G1 X31.35 Y84.451 E.04033
G1 X32.051 Y83.625 E.04033
G1 X32.825 Y82.868 E.04033
G1 X33.667 Y82.188 E.04033
G1 X34.569 Y81.589 E.04033
G1 X35.523 Y81.077 E.04033
G1 X36.521 Y80.657 E.04033
G1 X37.554 Y80.332 E.04033
G1 X38.613 Y80.105 E.04033
G1 X39.688 Y79.978 E.04033
G1 X40.717 Y79.954 E.03834
G1 X41.85 Y80.029 E.04229
G1 X42.919 Y80.206 E.04035
G1 X43.966 Y80.482 E.04033
G1 X44.983 Y80.855 E.04033
G1 X45.925 Y81.305 E.0389
G1 E-.35 F2400
;WIPE_START
G1 F1800
G1 X46.785 Y81.816 E-.15
;WIPE_END
G1 Z.4 F18000
G1 X66.505 Y82.542 Z.4
G1 Z.2
G1 E.5 F2400
;TYPE:Inner wall
G1 F1800
G1 X66.521 Y82.526 E.00086
G1 X67.396 Y81.819 E.04193
G1 X68.334 Y81.196 E.04193
G1 X69.326 Y80.664 E.04193
G1 X70.364 Y80.227 E.04193
G1 X71.437 Y79.889 E.04193
G1 X72.538 Y79.653 E.04193
G1 X73.656 Y79.522 E.04193
G1 X74.727 Y79.497 E.0399
G1 X75.903 Y79.574 E.04389
G1 X77.015 Y79.758 E.04199
G1 X78.103 Y80.046 E.04193
G1 X79.16 Y80.433 E.04193
G1 X80.176 Y80.918 E.04193
G1 X81.142 Y81.496 E.04193
G1 X82.05 Y82.162 E.04193
G1 X82.891 Y82.91 E.04193
G1 X83.658 Y83.734 E.04193
G1 X84.326 Y84.6 E.04073
G1 X84.8 Y85.346 E.03293
G1 X85.359 Y86.394 E.04425
G1 X85.777 Y87.402 E.04062
G1 X85.938 Y87.877 E.01869
G1 X86.17 Y88.68 E.03112
G1 X86.336 Y89.536 E.03248
G1 X86.416 Y90.106 E.02145
G1 X86.492 Y90.905 E.02989
G1 X86.495 Y92.031 E.04192
G1 X86.392 Y93.152 E.04192
G1 X86.231 Y94.016 E.03275
G1 X86.105 Y94.548 E.02037
G1 X85.938 Y95.123 E.02229
G1 X85.777 Y95.598 E.01869
G1 X85.466 Y96.388 E.03162
G1 X85.031 Y97.254 E.03608
G1 X84.418 Y98.259 E.04385
G1 X83.678 Y99.241 E.0458
G1 X82.946 Y100.03 E.0401
G1 X82.107 Y100.787 E.0421
G1 X81.325 Y101.369 E.03631
G1 X80.204 Y102.065 E.04915
G1 X79.189 Y102.553 E.04192
G1 X78.134 Y102.943 E.04192
G1 X77.046 Y103.233 E.04192
G1 X75.872 Y103.428 E.04431
G1 X74.814 Y103.502 E.03953
G1 X74.108 Y103.489 E.02629
G1 X73.345 Y103.442 E.02845
G1 X72.57 Y103.35 E.02907
G1 X71.723 Y103.172 E.03224
G1 X71.061 Y102.992 E.02556
G1 X70.394 Y102.783 E.02602
G1 X69.533 Y102.423 E.03477
G1 X68.363 Y101.819 E.04905
G1 X67.459 Y101.223 E.04035
G1 X66.543 Y100.492 E.04363
G1 X65.777 Y99.747 E.03981
G1 X65.01 Y98.855 E.0438
G1 X64.422 Y98.018 E.03812
G1 X63.881 Y97.091 E.03996
G1 X63.421 Y96.108 E.04043
G1 X63.047 Y95.078 E.0408
G1 X62.902 Y94.572 E.01961
G1 X62.71 Y93.77 E.0307
G1 X62.586 Y92.912 E.03228
G1 X62.531 Y92.33 E.02178
G1 X62.494 Y91.532 E.02976
G1 X62.531 Y90.67 E.03215
G1 X62.586 Y90.088 E.02178
G1 X62.698 Y89.293 E.02989
G1 X62.902 Y88.428 E.0331
G1 X63.047 Y87.922 E.01961
G1 X63.317 Y87.131 E.03112
G1 X63.702 Y86.265 E.03529
G1 X64.329 Y85.115 E.0488
G1 X64.988 Y84.171 E.04286
G1 X65.716 Y83.313 E.04193
G1 X66.476 Y82.57 E.03958
G1 X66.824 Y82.869 F18000
;TYPE:Outer wall
G1 F1800
G1 X66.825 Y82.868 E.00006
G1 X67.667 Y82.188 E.04033
G1 X68.569 Y81.589 E.04033
G1 X69.523 Y81.077 E.04033
G1 X70.521 Y80.657 E.04033
G1 X71.554 Y80.332 E.04033
G1 X72.613 Y80.105 E.04033
G1 X73.688 Y79.978 E.04033
G1 X74.717 Y79.954 E.03834
G1 X75.85 Y80.029 E.04229
G1 X76.919 Y80.206 E.04035
G1 X77.966 Y80.482 E.04033
G1 X78.983 Y80.855 E.04033
G1 X79.96 Y81.322 E.04033
G1 X80.889 Y81.878 E.04033
G1 X81.762 Y82.518 E.04033
G1 X82.571 Y83.238 E.04033
G1 X83.309 Y84.03 E.04033
G1 X83.964 Y84.879 E.03993
G1 X84.413 Y85.59 E.03134
G1 X84.952 Y86.601 E.04265
G1 X85.352 Y87.569 E.03903
G1 X85.666 Y88.579 E.03938
G1 X85.782 Y89.069 E.01877
G1 X85.934 Y89.87 E.03036
G1 X86.012 Y90.687 E.03056
G1 X86.038 Y91.233 E.02038
G1 X86.038 Y92.031 E.0297
G1 X85.961 Y92.851 E.03069
G1 X85.887 Y93.379 E.01986
G1 X85.736 Y94.173 E.03009
G1 X85.499 Y94.996 E.03192
G1 X85.113 Y96.038 E.04139
G1 X84.623 Y97.047 E.04178
G1 X84.032 Y98.015 E.04225
G1 X83.316 Y98.962 E.04421
G1 X82.612 Y99.719 E.0385
G1 X81.803 Y100.445 E.0405
G1 X81.054 Y101.001 E.03471
G1 X79.969 Y101.673 E.04755
G1 X78.992 Y102.14 E.04033
G1 X77.976 Y102.514 E.04033
G1 X76.929 Y102.791 E.04033
G1 X75.84 Y102.972 E.04112
G1 X74.781 Y103.046 E.03953
G1 X74.119 Y103.032 E.0247
G1 X73.399 Y102.988 E.02686
G1 X72.624 Y102.896 E.02907
G1 X71.819 Y102.725 E.03065
G1 X71.198 Y102.556 E.02396
G1 X70.532 Y102.347 E.02602
G1 X69.71 Y102.002 E.03317
G1 X68.579 Y101.416 E.04745
G1 X67.711 Y100.842 E.03875
G1 X66.834 Y100.138 E.0419
G1 X66.096 Y99.42 E.03835
G1 X65.303 Y98.481 E.04579
G1 X64.737 Y97.67 E.03682
G1 X64.279 Y96.865 E.03448
G1 X63.838 Y95.921 E.03883
G1 X63.48 Y94.931 E.03921
G1 X63.212 Y93.904 E.03954
G1 X63.115 Y93.392 E.01939
G1 X63.002 Y92.592 E.03009
G1 X62.963 Y91.774 E.03049
G1 X62.963 Y91.226 E.02045
G1 X63 Y90.429 E.0297
G1 X63.115 Y89.608 E.03089
G1 X63.212 Y89.096 E.01939
G1 X63.401 Y88.304 E.03036
G1 X63.681 Y87.479 E.03242
G1 X64.119 Y86.453 E.04158
G1 X64.719 Y85.355 E.04657
G1 X65.35 Y84.451 E.04109
G1 X66.051 Y83.625 E.04033
G1 X66.795 Y82.897 E.03878
G1 E-.35 F2400
;WIPE_START
G1 F1800
G1 X66.825 Y82.868 E-.00624
G1 X67.57 Y82.266 E-.14376
;WIPE_END
G1 Z.4 F18000
G1 X113.139 Y80.425 Z.4
G1 Z.2
G1 E.5 F2400
;TYPE:Inner wall
G1 F1800
G1 X113.16 Y80.433 E.00086
G1 X114.176 Y80.918 E.04193
G1 X115.142 Y81.496 E.04193
G1 X116.05 Y82.162 E.04193
G1 X116.891 Y82.91 E.04193
G1 X117.658 Y83.734 E.04193
G1 X118.326 Y84.6 E.04073
G1 X118.8 Y85.346 E.03293
G1 X119.359 Y86.394 E.04425
G1 X119.777 Y87.402 E.04062
G1 X119.938 Y87.877 E.01869
G1 X120.17 Y88.68 E.03112
G1 X120.336 Y89.536 E.03248
G1 X120.416 Y90.106 E.02145
G1 X120.492 Y90.905 E.02989
G1 X120.495 Y92.031 E.04192
G1 X120.392 Y93.152 E.04192
G1 X120.231 Y94.016 E.03275
G1 X120.105 Y94.548 E.02037
G1 X119.876 Y95.34 E.0307
G1 X119.538 Y96.206 E.0346
G1 X119.031 Y97.254 E.04337
G1 X118.418 Y98.259 E.04385
G1 X117.636 Y99.29 E.04819
G1 X116.913 Y100.066 E.03953
G1 X116.024 Y100.857 E.04431
G1 X115.168 Y101.485 E.03953
G1 X114.534 Y101.868 E.02759
G1 X113.67 Y102.323 E.03639
G1 X113.189 Y102.553 E.01983
G1 X112.11 Y102.953 E.04287
G1 X111.092 Y103.221 E.03919
G1 X109.913 Y103.425 E.04458
G1 X108.782 Y103.505 E.04225
G1 X107.656 Y103.478 E.04193
G1 X106.538 Y103.347 E.04193
G1 X105.437 Y103.111 E.04193
G1 X104.394 Y102.783 E.04073
G1 X103.356 Y102.349 E.04192
G1 X102.363 Y101.819 E.04192
G1 X101.397 Y101.182 E.04309
G1 X100.546 Y100.494 E.04076
G1 X99.739 Y99.71 E.04192
G1 X99.009 Y98.853 E.04192
G1 X98.422 Y98.018 E.03803
G1 X97.881 Y97.091 E.03996
G1 X97.421 Y96.108 E.04042
G1 X97.047 Y95.078 E.04081
G1 X96.902 Y94.572 E.01961
G1 X96.71 Y93.77 E.0307
G1 X96.586 Y92.913 E.03228
G1 X96.531 Y92.33 E.02178
G1 X96.494 Y91.532 E.02976
G1 X96.531 Y90.67 E.03215
G1 X96.586 Y90.087 E.02178
G1 X96.698 Y89.293 E.02989
G1 X96.902 Y88.428 E.03309
G1 X97.047 Y87.922 E.01961
G1 X97.317 Y87.131 E.03112
G1 X97.702 Y86.265 E.03529
G1 X98.329 Y85.115 E.0488
G1 X98.988 Y84.171 E.04286
G1 X99.716 Y83.313 E.04193
G1 X100.521 Y82.526 E.04193
G1 X101.396 Y81.819 E.04193
G1 X102.334 Y81.196 E.04193
G1 X103.326 Y80.664 E.04193
G1 X104.364 Y80.227 E.04193
G1 X105.437 Y79.889 E.04193
G1 X106.538 Y79.653 E.04193
G1 X107.656 Y79.522 E.04193
G1 X108.727 Y79.497 E.0399
G1 X109.903 Y79.574 E.04389
G1 X111.015 Y79.758 E.04199
G1 X112.103 Y80.046 E.04193
G1 X113.101 Y80.412 E.03958
G1 X112.984 Y80.856 F18000
;TYPE:Outer wall
G1 F1800
G1 X113.96 Y81.322 E.04027
G1 X114.889 Y81.878 E.04033
G1 X115.762 Y82.518 E.04033
G1 X116.571 Y83.238 E.04033
G1 X117.309 Y84.03 E.04033
G1 X117.964 Y84.879 E.03993
G1 X118.413 Y85.59 E.03134
G1 X118.952 Y86.601 E.04265
G1 X119.352 Y87.569 E.03903
G1 X119.666 Y88.579 E.03938
G1 X119.782 Y89.069 E.01877
G1 X119.934 Y89.87 E.03036
G1 X120.012 Y90.687 E.03056
G1 X120.038 Y91.233 E.02038
G1 X120.038 Y92.031 E.02969
G1 X119.961 Y92.851 E.03069
G1 X119.887 Y93.379 E.01986
G1 X119.736 Y94.173 E.03009
G1 X119.499 Y94.996 E.03192
G1 X119.113 Y96.038 E.04139
G1 X118.623 Y97.047 E.04178
G1 X118.032 Y98.015 E.04225
G1 X117.584 Y98.614 E.02783
G1 X116.866 Y99.446 E.04095
G1 X116.074 Y100.205 E.04086
G1 X115.753 Y100.488 E.01594
G1 X114.897 Y101.116 E.03953
G1 X114.299 Y101.475 E.026
G1 X113.473 Y101.911 E.03479
G1 X112.992 Y102.14 E.01983
G1 X111.968 Y102.517 E.04065
G1 X110.976 Y102.779 E.03822
G1 X109.856 Y102.971 E.0423
G1 X108.771 Y103.047 E.04054
G1 X107.688 Y103.022 E.04033
G1 X106.613 Y102.895 E.04033
G1 X105.554 Y102.668 E.04033
G1 X104.532 Y102.347 E.03993
G1 X103.533 Y101.927 E.04033
G1 X102.579 Y101.416 E.04033
G1 X101.667 Y100.812 E.04072
G1 X100.834 Y100.138 E.03993
G1 X100.058 Y99.383 E.04033
G1 X99.357 Y98.557 E.04033
G1 X98.796 Y97.756 E.03643
G1 X98.279 Y96.865 E.03837
G1 X97.838 Y95.921 E.03883
G1 X97.48 Y94.931 E.03921
G1 X97.212 Y93.904 E.03954
G1 X97.115 Y93.392 E.01939
G1 X97.002 Y92.592 E.03009
G1 X96.963 Y91.774 E.03049
G1 X96.963 Y91.226 E.02045
G1 X97 Y90.429 E.0297
G1 X97.115 Y89.608 E.03089
G1 X97.212 Y89.096 E.01939
G1 X97.401 Y88.304 E.03036
G1 X97.681 Y87.479 E.03242
G1 X98.119 Y86.453 E.04158
G1 X98.719 Y85.355 E.04657
G1 X99.35 Y84.451 E.04109
G1 X100.051 Y83.625 E.04033
G1 X100.825 Y82.868 E.04033
G1 X101.667 Y82.188 E.04033
G1 X102.569 Y81.589 E.04033
G1 X103.523 Y81.077 E.04033
G1 X104.521 Y80.657 E.04033
G1 X105.554 Y80.332 E.04033
G1 X106.613 Y80.105 E.04033
G1 X107.688 Y79.978 E.04033
G1 X108.717 Y79.954 E.03834
G1 X109.85 Y80.029 E.04229
G1 X110.919 Y80.206 E.04035
G1 X111.966 Y80.482 E.04033
G1 X112.946 Y80.842 E.0389
G1 E-.35 F2400
;WIPE_START
G1 F1800
G1 X113.85 Y81.27 E-.15
;WIPE_END
G1 Z.4 F18000
G1 X115.179 Y128.502 Z.4
G1 Z.2
G1 E.5 F2400
;TYPE:Inner wall
G1 F1800
G1 X114.884 Y129.628 E.04336
G1 X114.48 Y130.763 E.04489
G1 X113.98 Y131.859 E.04489
G1 X113.387 Y132.909 E.04489
G1 X112.706 Y133.903 E.04489
G1 X111.942 Y134.835 E.04489
G1 X111.436 Y135.356 E.02703
G1 X111.067 Y135.731 E.01959
G1 X110.166 Y136.505 E.04426
G1 X109.212 Y137.192 E.04379
G1 X108.126 Y137.84 E.04708
G1 X107.095 Y138.34 E.04269
G1 X105.95 Y138.782 E.04572
