; HEADER_BLOCK_START
; generated by OrcaSlicer 2.0.0 on 2024-05-25 at 19:00:04
; total layer number: 50
; filament_density: 1.24
; filament_diameter: 1.75
; max_z_height: 10.00
; HEADER_BLOCK_END

; THUMBNAIL_BLOCK_START

;
; THUMBNAIL_BLOCK_END

; THUMBNAIL_BLOCK_START

;
; THUMBNAIL_BLOCK_END

; external perimeters extrusion width = 0.40mm
; perimeters extrusion width = 0.42mm
; infill extrusion width = 0.45mm
; solid infill extrusion width = 0.42mm
; top infill extrusion width = 0.40mm
; first layer extrusion width = 0.50mm

; EXECUTABLE_BLOCK_START
EXCLUDE_OBJECT_DEFINE NAME=Rangement_servante_piste_v18.stl_id_0_copy_0 CENTER=115,115 POLYGON=[[7.5,52.5],[222.5,52.5],[222.5,177.5],[111.1,177.5],[12.5,172.5],[7.5,119.2],[7.5,52.5]]
M73 P0 R52
;TYPE:Custom
M220 S100
G90 ; use absolute coordinates
M83 ; extruder relative mode
M104 S150 ; set temporary nozzle temp to prevent oozing during homing
M140 S55 ; set final bed temp
G4 S30 ; allow partial nozzle warmup
G28 ; home all axis and restore leveling
G1 Z25 F240
G1 X10.0 Y30 F3000
M104 S210 ; set final nozzle temp
M190 S55 ; wait for bed temp to stabilize
M109 S210 ; wait for nozzle temp to stabilize
G1 Z0.28 F240
G92 E0 ; Move Z Axis up
G1 Z2.0 F5000 ; Move to start position
G1 X5 Y30 Z0.28 F300 ; Draw the first line
G1 X5 Y200 Z0.28 F1500 E15 ; Move to side a little
G1 X5.4 Y200 Z0.28 F5000.0 ; Draw the second line
G1 X5.4 Y50 Z0.28 F1500.0 E30 ; Reset Extruder
G92 E0 ; Move Z Axis up
G1 Z2.0 F3000
M117 Start Printing..
G90
G21
M83 ; use relative distances for extrusion
; filament start gcode
M106 S0
;LAYER_CHANGE
;Z:0.2
;HEIGHT:0.2
;BEFORE_LAYER_CHANGE
;0.2
G92 E0

G1 E-.5 F2400
;_SET_FAN_SPEED_CHANGING_LAYER
SET_VELOCITY_LIMIT ACCEL=500 ACCEL_TO_DECEL=250
SET_VELOCITY_LIMIT SQUARE_CORNER_VELOCITY=7
; printing object Rangement servante piste v18.stl id:0 copy 0
EXCLUDE_OBJECT_START NAME=Rangement_servante_piste_v18.stl_id_0_copy_0
G1 Z.2 F18000
G1 X16.761 Y74.461
G1 Z.2
G1 E.5 F2400
;TYPE:Inner wall
;WIDTH:0.564381
G1 F1800
G1 X16.239 Y74.461 E.02216
G1 X16.239 Y73.779 E.02899
;WIDTH:0.5818
G1 X16.248 Y73.248 E.0233
G1 X16.517 Y73.248 E.01183
G1 X16.73 Y73.225 E.00941
;WIDTH:0.535193
G1 X16.943 Y73.201 E.00859
;WIDTH:0.488585
G1 X17.156 Y73.178 E.00778
;WIDTH:0.441978
G1 X17.369 Y73.155 E.00697
G1 X17.221 Y73.263 E.00596
;WIDTH:0.488585
G1 X17.073 Y73.371 E.00666
;WIDTH:0.535193
G1 X16.925 Y73.48 E.00735
;WIDTH:0.5818
G1 X16.777 Y73.588 E.00805
G1 X16.761 Y73.779 E.0084
;WIDTH:0.564381
G1 X16.761 Y74.421 E.02729
G1 E-.35 F2400
;WIPE_START
G1 F1800
G1 X16.239 Y74.461 E-.07845
G1 X16.239 Y73.984 E-.07155
;WIPE_END
G1 Z.4 F18000
G1 X228.763 Y191.164 Z.4
G1 Z.2
M73 P0 R51
G1 E.5 F2400
G1 F1800
G1 X228.634 Y191.239 E.00633
G1 X123.079 Y191.239 E4.48531
G1 X122.759 Y191.223 E.0136
;WIDTH:0.53219
M73 P1 R51
G1 X122.439 Y191.207 E.01276
;WIDTH:0.499999
G1 X121.161 Y191.207 E.04762
;WIDTH:0.53219
G1 X120.841 Y191.223 E.01276
;WIDTH:0.56438
G1 X120.521 Y191.239 E.0136
G1 X22.479 Y191.239 E4.16608
G1 X22.236 Y191.123 E.01143
;WIDTH:0.53219
G1 X21.994 Y191.006 E.01072
G1 X21.877 Y190.82 E.00874
;WIDTH:0.564381
G1 X21.761 Y190.635 E.00932
G1 X21.761 Y137.779 E2.24599
G1 X21.777 Y137.459 E.0136
;WIDTH:0.53219
G1 X21.793 Y137.139 E.01276
;WIDTH:0.499999
G1 X21.793 Y135.861 E.04762
;WIDTH:0.53219
G1 X21.777 Y135.541 E.01276
;WIDTH:0.564381
G1 X21.761 Y135.221 E.0136
G1 X21.761 Y74.479 E2.58112
G1 X21.876 Y74.237 E.01138
;WIDTH:0.53219
G1 X21.992 Y73.995 E.01068
G1 X22.179 Y73.878 E.00878
;WIDTH:0.564381
G1 X22.365 Y73.761 E.00936
G1 X228.521 Y73.761 E8.76009
G1 X228.764 Y73.877 E.01143
;WIDTH:0.53219
G1 X229.006 Y73.994 E.01072
G1 X229.123 Y74.236 E.01072
;WIDTH:0.56438
G1 X229.239 Y74.479 E.01143
G1 X229.239 Y190.521 E4.93094
;WIDTH:0.571794
G1 X229.232 Y190.646 E.00538
G1 X229.094 Y190.849 E.01057
;WIDTH:0.535897
G1 X228.956 Y191.052 E.00985
;WIDTH:0.53219
G1 X228.797 Y191.144 E.00734
G1 X228.521 Y190.75 F18000
;TYPE:Outer wall
;WIDTH:0.499999
G1 F1800
G1 X22.479 Y190.75 E7.67431
G1 X22.317 Y190.683 E.00651
G1 X22.25 Y190.521 E.00651
G1 X22.25 Y74.479 E4.32215
G1 X22.316 Y74.317 E.00649
G1 X22.479 Y74.25 E.00654
G1 X228.521 Y74.25 E7.67431
G1 X228.683 Y74.317 E.00651
M73 P2 R51
G1 X228.75 Y74.479 E.00651
G1 X228.75 Y190.521 E4.32215
G1 X228.666 Y190.698 E.00728
G1 X228.559 Y190.737 E.00424
G1 X228.521 Y191.761 F18000
;TYPE:Inner wall
;WIDTH:0.56438
G1 F1800
G1 X122.967 Y191.761 E4.48528
G1 X122.82 Y191.843 E.00713
;WIDTH:0.53219
G1 X122.674 Y191.925 E.00669
;WIDTH:0.499999
G1 X122.451 Y192.203 E.01328
G1 X122.393 Y192.479 E.01048
G1 X122.393 Y195.521 E.11334
G1 X122.451 Y195.797 E.01048
G1 X122.674 Y196.075 E.01328
;WIDTH:0.53219
G1 X122.876 Y196.157 E.00871
;WIDTH:0.564381
G1 X123.079 Y196.239 E.00928
G1 X123.761 Y196.239 E.02899
G1 X123.761 Y196.761 E.02216
G1 X122.759 Y196.777 E.04258
;WIDTH:0.53219
G1 X122.439 Y196.793 E.01276
;WIDTH:0.499999
G1 X121.161 Y196.793 E.04762
;WIDTH:0.53219
G1 X120.841 Y196.777 E.01276
;WIDTH:0.56438
G1 X119.839 Y196.761 E.04258
G1 X119.839 Y196.239 E.02216
G1 X120.1 Y196.239 E.01108
;WIDTH:0.571795
G1 X120.646 Y196.232 E.02354
G1 X120.786 Y196.154 E.00692
;WIDTH:0.535897
G1 X120.926 Y196.075 E.00645
;WIDTH:0.499999
G1 X121.149 Y195.797 E.01328
G1 X121.207 Y195.521 E.01048
G1 X121.207 Y192.479 E.11334
G1 X121.149 Y192.203 E.01048
G1 X120.926 Y191.925 E.01328
;WIDTH:0.53219
G1 X120.724 Y191.843 E.00871
;WIDTH:0.564381
G1 X120.521 Y191.761 E.00928
G1 X22.479 Y191.761 E4.16609
G1 X21.843 Y191.777 E.02702
;WIDTH:0.53219
G1 X21.207 Y191.793 E.02535
;WIDTH:0.499999
G1 X21.207 Y191.332 E.01716
;WIDTH:0.53219
G1 X21.223 Y190.927 E.01617
;WIDTH:0.564381
G1 X21.239 Y190.521 E.01724
G1 X21.239 Y137.779 E2.24118
G1 X21.157 Y137.576 E.00928
;WIDTH:0.53219
G1 X21.075 Y137.374 E.00871
;WIDTH:0.499999
G1 X20.797 Y137.151 E.01328
G1 X20.521 Y137.093 E.01048
G1 X17.479 Y137.093 E.11334
G1 X17.203 Y137.151 E.01048
G1 X16.925 Y137.374 E.01328
;WIDTH:0.53219
G1 X16.843 Y137.576 E.00871
;WIDTH:0.564381
G1 X16.761 Y137.779 E.00928
G1 X16.761 Y138.461 E.02899
G1 X16.239 Y138.461 E.02216
G1 X16.223 Y137.459 E.04258
;WIDTH:0.53219
G1 X16.207 Y137.139 E.01276
;WIDTH:0.499999
G1 X16.207 Y135.861 E.04762
;WIDTH:0.53219
G1 X16.223 Y135.541 E.01276
;WIDTH:0.564381
G1 X16.239 Y134.539 E.04258
G1 X16.761 Y134.539 E.02216
G1 X16.761 Y134.8 E.01108
;WIDTH:0.571796
G1 X16.768 Y135.346 E.02354
G1 X16.846 Y135.486 E.00692
;WIDTH:0.535898
G1 X16.925 Y135.626 E.00645
;WIDTH:0.499999
G1 X17.203 Y135.849 E.01328
G1 X17.479 Y135.907 E.01048
G1 X20.521 Y135.907 E.11334
G1 X20.797 Y135.849 E.01048
G1 X21.075 Y135.626 E.01328
;WIDTH:0.535897
G1 X21.154 Y135.486 E.00645
;WIDTH:0.571794
G1 X21.232 Y135.346 E.00692
G1 X21.239 Y135.221 E.00538
;WIDTH:0.564381
G1 X21.239 Y74.479 E2.58112
G1 X21.222 Y74.096 E.01627
;WIDTH:0.53219
G1 X21.204 Y73.713 E.01527
;WIDTH:0.499999
G1 X20.976 Y73.526 E.01099
;WIDTH:0.461948
G1 X20.749 Y73.338 E.01007
;WIDTH:0.423897
G1 X20.521 Y73.15 E.00916
G1 X20.902 Y73.169 E.01184
;WIDTH:0.461948
G1 X21.283 Y73.188 E.01302
;WIDTH:0.499999
G1 X21.664 Y73.207 E.01421
;WIDTH:0.53219
G1 X22.071 Y73.223 E.01625
;WIDTH:0.564381
G1 X22.479 Y73.239 E.01731
G1 X228.521 Y73.239 E8.75527
G1 X229.157 Y73.223 E.02702
;WIDTH:0.53219
M73 P2 R50
G1 X229.793 Y73.207 E.02535
;WIDTH:0.499999
G1 X229.793 Y73.668 E.01716
;WIDTH:0.53219
G1 X229.777 Y74.073 E.01617
;WIDTH:0.56438
G1 X229.761 Y74.479 E.01724
G1 X229.761 Y190.758 E4.941
G1 X229.777 Y191.047 E.01229
;WIDTH:0.53219
M73 P3 R50
G1 X229.793 Y191.336 E.01153
;WIDTH:0.499999
G1 X229.812 Y191.717 E.01421
;WIDTH:0.461946
G1 X229.831 Y192.098 E.01302
;WIDTH:0.423893
G1 X229.85 Y192.479 E.01184
G1 X229.662 Y192.251 E.00916
;WIDTH:0.461946
G1 X229.474 Y192.024 E.01007
;WIDTH:0.499999
G1 X229.287 Y191.796 E.01099
G1 X229.221 Y191.793 E.00243
;WIDTH:0.53219
G1 X228.871 Y191.777 E.01397
;WIDTH:0.56438
G1 X228.561 Y191.763 E.01319
G1 E-.35 F2400
;WIPE_START
G1 F1800
G1 X227.561 Y191.763 E-.15
;WIPE_END
G1 Z.4 F18000
G1 X228.539 Y196.761 Z.4
G1 Z.2
G1 E.5 F2400
;WIDTH:0.564381
G1 F1800
G1 X228.539 Y196.239 E.02216
G1 X228.8 Y196.239 E.01108
;WIDTH:0.5818
G1 X229.412 Y196.223 E.02688
G1 X229.52 Y196.075 E.00805
;WIDTH:0.535191
G1 X229.629 Y195.927 E.00735
;WIDTH:0.488582
G1 X229.737 Y195.779 E.00666
;WIDTH:0.441973
G1 X229.845 Y195.631 E.00596
G1 X229.822 Y195.911 E.00915
;WIDTH:0.488582
G1 X229.799 Y196.191 E.01021
;WIDTH:0.535191
G1 X229.775 Y196.472 E.01128
;WIDTH:0.5818
G1 X229.752 Y196.752 E.01235
G1 X229.221 Y196.761 E.0233
;WIDTH:0.564381
G1 X228.579 Y196.761 E.02729
G1 E-.35 F2400
;WIPE_START
G1 F1800
G1 X228.539 Y196.239 E-.07845
G1 X228.8 Y196.239 E-.03911
G1 X229.016 Y196.233 E-.03244
;WIPE_END
G1 Z.4 F18000
G1 X122.85 Y195.54 Z.4
G1 Z.2
G1 E.5 F2400
;TYPE:Outer wall
;WIDTH:0.499999
G1 F1800
G1 X122.944 Y195.706 E.0071
G1 X123.079 Y195.75 E.00529
G1 X124.25 Y195.75 E.04363
G1 X124.25 Y197.25 E.05587
G1 X119.35 Y197.25 E.18251
G1 X119.35 Y195.75 E.05587
G1 X120.521 Y195.75 E.04363
G1 X120.656 Y195.706 E.00529
G1 X120.731 Y195.613 E.00443
G1 X120.75 Y195.521 E.00349
G1 X120.75 Y192.438 E.11486
G1 X120.656 Y192.294 E.00639
G1 X120.521 Y192.25 E.00529
G1 X20.75 Y192.25 E3.7161
G1 X20.75 Y137.779 E2.02885
G1 X20.706 Y137.644 E.00529
G1 X20.613 Y137.569 E.00443
G1 X20.521 Y137.55 E.00349
G1 X17.46 Y137.55 E.11402
G1 X17.294 Y137.644 E.0071
G1 X17.25 Y137.779 E.00529
G1 X17.25 Y138.95 E.04363
G1 X15.75 Y138.95 E.05587
G1 X15.75 Y134.05 E.18251
G1 X17.25 Y134.05 E.05587
G1 X17.25 Y135.221 E.04363
G1 X17.294 Y135.356 E.00529
G1 X17.387 Y135.431 E.00443
G1 X17.479 Y135.45 E.00349
G1 X20.562 Y135.45 E.11486
G1 X20.706 Y135.356 E.00639
G1 X20.75 Y135.221 E.00529
G1 X20.75 Y73.779 E2.28851
G1 X20.521 Y73.55 E.01204
G1 X17.479 Y73.55 E.11334
G1 X17.258 Y73.719 E.01034
G1 X17.25 Y74.95 E.04586
G1 X15.75 Y74.95 E.05587
G1 X15.75 Y72.75 E.08194
G1 X230.25 Y72.75 E7.9893
G1 X230.25 Y197.25 E4.63715
G1 X228.05 Y197.25 E.08194
G1 X228.05 Y195.75 E.05587
G1 X229.281 Y195.742 E.04587
G1 X229.45 Y195.521 E.01034
G1 X229.45 Y192.479 E.11334
G1 X229.221 Y192.25 E.01204
G1 X123.079 Y192.25 E3.95341
G1 X122.944 Y192.294 E.00529
G1 X122.869 Y192.387 E.00443
G1 X122.85 Y192.479 E.00349
G1 X122.85 Y195.5 E.11253
G1 E-.35 F2400
;WIPE_START
G1 F1800
G1 X122.944 Y195.706 E-.03396
G1 X123.079 Y195.75 E-.02129
G1 X123.71 Y195.75 E-.09476
;WIPE_END
G1 Z.4 F18000
G1 X229.845 Y195.631 Z.4
G1 Z.2
G1 E.5 F2400
;TYPE:Inner wall
;WIDTH:0.395364
G1 F1800
G1 X229.85 Y195.521 E.00315
;WIDTH:0.38584
G1 X229.85 Y192.479 E.08503
G1 E-.35 F2400
;WIPE_START
G1 F1800
G1 X229.85 Y193.479 E-.15
;WIPE_END
G1 Z.4 F18000
G1 X17.369 Y73.155 Z.4
G1 Z.2
M73 P4 R50
G1 E.5 F2400
;WIDTH:0.39537
G1 F1800
G1 X17.479 Y73.15 E.00315
;WIDTH:0.385846
G1 X20.521 Y73.15 E.08503
G1 E-.35 F2400
;WIPE_START
G1 F1800
G1 X19.521 Y73.15 E-.15
;WIPE_END
G1 Z.4 F18000
G1 X22.013 Y73.82
G1 Z.4
G1 Z.2
G1 E.5 F2400
;TYPE:Bottom surface
;WIDTH:0.517297
G1 F3600
G1 X21.537 Y73.344 E.02602
G1 X21.412 Y73.436 F18000
;TYPE:Gap infill
;WIDTH:0.131426
G1 F1800
G1 X21.309 Y73.497 E.00086
G1 X21.459 Y73.661 E.0016
G1 X21.715 Y74.021 E.00318
G1 E-.35 F2400
;WIPE_START
G1 F1800
G1 X21.459 Y73.661 E-.08449
G1 X21.309 Y73.497 E-.04255
G1 X21.412 Y73.436 E-.02296
;WIPE_END
G1 Z.4 F18000
G1 X21.168 Y135.717 Z.4
G1 Z.2
G1 E.5 F2400
;TYPE:Bottom surface
;WIDTH:0.531615
G1 F3600
G1 X21.45 Y136 E.01591
G1 X21.45 Y136.691 E.02752
G1 X20.926 Y136.167 E.02953
G1 X20.741 Y136.227 E.00772
G1 X20.318 Y136.25 E.0169
G1 X20.89 Y136.822 E.03221
G1 X20.741 Y136.773 E.0062
G1 X20.528 Y136.75 E.00856
G1 X20.127 Y136.75 E.01595
G1 X19.626 Y136.249 E.02823
G1 X18.934 Y136.248 E.02755
G1 X19.436 Y136.75 E.02827
G1 X18.745 Y136.75 E.02752
G1 X18.242 Y136.247 E.02832
G1 X17.55 Y136.247 E.02755
G1 X18.054 Y136.75 E.02836
G1 X17.373 Y136.761 E.0271
G1 X16.55 Y135.937 E.04637
G1 X16.55 Y136.629 E.02752
G1 X17.038 Y137.117 E.02751
G1 X17.292 Y136.23 F18000
;TYPE:Gap infill
;WIDTH:0.113141
G1 F1800
G1 X16.986 Y135.991 E.00222
G1 E-.35 F2400
;WIPE_START
G1 F1800
G1 X17.292 Y136.23 E-.15
;WIPE_END
G1 Z.4 F18000
G1 X122.134 Y191.344 Z.4
G1 Z.2
G1 E.5 F2400
;TYPE:Bottom surface
;WIDTH:0.512795
G1 F3600
G1 X122.454 Y191.664 E.01731
G1 X122.158 Y192.032 E.0181
G1 X121.676 Y191.55 E.02613
G1 X121.166 Y191.55 E.01949
G1 X121.028 Y191.567 E.00534
G1 X122.05 Y192.589 E.05535
G1 X122.05 Y193.253 E.02544
G1 X121.55 Y192.753 E.02709
G1 X121.55 Y193.418 E.02544
G1 X122.05 Y193.918 E.02709
G1 X122.05 Y194.582 E.02544
G1 X121.55 Y194.082 E.02709
G1 X121.55 Y194.747 E.02544
G1 X122.256 Y195.453 E.03823
G1 X122.751 Y196.613 F18000
G1 F3600
G1 X121.55 Y195.411 E.06507
G1 X121.527 Y195.741 E.01267
G1 X121.442 Y195.968 E.00925
G1 X121.924 Y196.45 E.02613
G1 X121.26 Y196.45 E.02544
G1 X121 Y196.19 E.01409
G1 E-.35 F2400
;WIPE_START
G1 F3600
G1 X121.26 Y196.45 E-.0552
G1 X121.892 Y196.45 E-.0948
;WIPE_END
G1 Z.4 F18000
G1 X229.656 Y191.62 Z.4
G1 Z.2
G1 E.5 F2400
;WIDTH:0.591415
G1 F3600
G1 X229.116 Y191.081 E.03412
; stop printing object Rangement servante piste v18.stl id:0 copy 0
M106 S255
;LAYER_CHANGE
;Z:0.4
;HEIGHT:0.2
;BEFORE_LAYER_CHANGE
;0.4
G92 E0

G1 E-.35 F2400
;WIPE_START
G1 F3600
G1 X229.656 Y191.62 E-.15
;WIPE_END
EXCLUDE_OBJECT_END NAME=Rangement_servante_piste_v18.stl_id_0_copy_0
;_SET_FAN_SPEED_CHANGING_LAYER
SET_VELOCITY_LIMIT ACCEL=5000 ACCEL_TO_DECEL=2500
M104 S205 ; set nozzle temperature
M140 S55 ; set bed temperature
; printing object Rangement servante piste v18.stl id:0 copy 0
SET_VELOCITY_LIMIT SQUARE_CORNER_VELOCITY=8
EXCLUDE_OBJECT_START NAME=Rangement_servante_piste_v18.stl_id_0_copy_0
G1 Z.4 F18000
G1 X16.933 Y74.633 Z.4
G1 E.5 F2400
SET_VELOCITY_LIMIT SQUARE_CORNER_VELOCITY=7
;TYPE:Inner wall
;WIDTH:0.419999
G1 F3600
G1 X16.067 Y74.633 E.0266
G1 X16.067 Y73.067 E.04811
G1 X16.517 Y73.067 E.01384
;WIDTH:0.463842
G1 X16.73 Y73.089 E.00734
;WIDTH:0.507685
G1 X16.943 Y73.111 E.00811
;WIDTH:0.551528
G1 X17.156 Y73.133 E.00887
;WIDTH:0.59537
G1 X17.369 Y73.155 E.00964
G1 X17.265 Y73.275 E.00716
;WIDTH:0.551528
G1 X17.161 Y73.395 E.00659
;WIDTH:0.507685
G1 X17.056 Y73.515 E.00603
;WIDTH:0.463842
G1 X16.952 Y73.635 E.00546
;WIDTH:0.419999
G1 X16.933 Y73.779 E.00443
G1 X16.933 Y74.593 E.02502
SET_VELOCITY_LIMIT SQUARE_CORNER_VELOCITY=8
G1 E-.35 F2400
;WIPE_START
G1 F3600
G1 X16.067 Y74.633 E-.13002
G1 X16.067 Y74.5 E-.01998
;WIPE_END
G1 Z.6 F18000
G1 X228.638 Y191.025 Z.6
G1 Z.4
G1 E.5 F2400
SET_VELOCITY_LIMIT SQUARE_CORNER_VELOCITY=7
G1 F3600
G1 X228.521 Y191.067 E.0038
G1 X22.479 Y191.067 E6.33111
G1 X22.093 Y190.907 E.01283
G1 X21.933 Y190.6 E.01064
G1 X21.933 Y74.479 E3.56808
G1 X22.091 Y74.094 E.01278
G1 X22.4 Y73.933 E.01069
G1 X228.521 Y73.933 E6.33353
G1 X228.907 Y74.093 E.01283
G1 X229.067 Y74.479 E.01283
G1 X229.059 Y190.616 E3.56857
G1 X228.868 Y190.943 E.01166
G1 X228.676 Y191.012 E.00626
SET_VELOCITY_LIMIT SQUARE_CORNER_VELOCITY=8
G1 X228.521 Y190.7 F18000
SET_VELOCITY_LIMIT ACCEL=2000 ACCEL_TO_DECEL=1000
;TYPE:Outer wall
;WIDTH:0.399999
G1 F3600
G1 X22.479 Y190.7 E5.99532
G1 X22.352 Y190.648 E.00398
M73 P4 R49
G1 X22.3 Y190.521 E.00398
G1 X22.3 Y74.479 E3.37655
G1 X22.352 Y74.353 E.00396
G1 X22.479 Y74.3 E.00399
G1 X228.521 Y74.3 E5.99532
G1 X228.648 Y74.352 E.00398
G1 X228.7 Y74.479 E.00398
G1 X228.7 Y190.521 E3.37655
G1 X228.635 Y190.659 E.00444
G1 X228.559 Y190.687 E.00234
SET_VELOCITY_LIMIT ACCEL=5000 ACCEL_TO_DECEL=2500
G1 E-.35 F2400
;WIPE_START
G1 F3600
G1 X227.559 Y190.687 E-.15
;WIPE_END
G1 Z.6 F18000
G1 X122.549 Y195.6 Z.6
G1 Z.4
G1 E.5 F2400
SET_VELOCITY_LIMIT SQUARE_CORNER_VELOCITY=7
;TYPE:Inner wall
;WIDTH:0.419999
G1 F3600
G1 X122.579 Y195.741 E.00443
G1 X122.756 Y195.962 E.00872
G1 X123.079 Y196.067 E.01041
G1 X123.933 Y196.067 E.02625
G1 X123.933 Y196.933 E.0266
G1 X119.667 Y196.933 E.13108
G1 X119.667 Y196.067 E.0266
G1 X120.521 Y196.067 E.02625
G1 X120.844 Y195.962 E.01041
G1 X121.021 Y195.741 E.00872
G1 X121.067 Y195.521 E.00688
G1 X121.067 Y192.479 E.0935
G1 X121.021 Y192.259 E.00688
G1 X120.844 Y192.038 E.00872
G1 X120.521 Y191.933 E.01041
G1 X21.067 Y191.933 E3.05595
