; HEADER_BLOCK_START
; generated by OrcaSlicer 2.0.0 on 2024-06-17 at 08:15:48
; total layer number: 65
; filament_density: 1.24
; filament_diameter: 1.75
; max_z_height: 13.00
; HEADER_BLOCK_END

; THUMBNAIL_BLOCK_START

;
; THUMBNAIL_BLOCK_END

; THUMBNAIL_BLOCK_START

;
; THUMBNAIL_BLOCK_END

; external perimeters extrusion width = 0.40mm
; perimeters extrusion width = 0.42mm
; infill extrusion width = 0.45mm
; solid infill extrusion width = 0.42mm
; top infill extrusion width = 0.40mm
; first layer extrusion width = 0.50mm

; EXECUTABLE_BLOCK_START
EXCLUDE_OBJECT_DEFINE NAME=repose_pied.stl_id_0_copy_0 CENTER=115,115 POLYGON=[[101.75,115],[101.758,114.543],[101.782,114.086],[101.821,113.63],[101.876,113.176],[101.947,112.724],[102.033,112.275],[102.135,111.829],[102.252,111.387],[102.384,110.949],[102.532,110.516],[102.694,110.088],[102.871,109.667],[103.062,109.251],[103.268,108.842],[103.487,108.441],[103.72,108.048],[103.967,107.662],[104.227,107.286],[104.5,106.919],[104.785,106.561],[105.082,106.214],[105.391,105.877],[105.712,105.55],[106.044,105.235],[106.386,104.932],[106.739,104.641],[107.101,104.362],[107.473,104.095],[107.854,103.842],[108.243,103.602],[108.641,103.376],[109.046,103.163],[109.458,102.965],[109.877,102.781],[110.301,102.611],[110.732,102.456],[111.167,102.316],[111.607,102.192],[112.052,102.082],[112.499,101.988],[112.95,101.91],[113.403,101.847],[113.858,101.799],[114.314,101.768],[114.771,101.752],[115.229,101.752],[115.686,101.768],[116.142,101.799],[116.597,101.847],[117.05,101.91],[117.501,101.988],[117.948,102.082],[118.393,102.192],[118.833,102.316],[119.268,102.456],[119.699,102.611],[120.123,102.781],[120.542,102.965],[120.954,103.163],[121.359,103.376],[121.757,103.602],[122.146,103.842],[122.527,104.095],[122.899,104.362],[123.261,104.641],[123.614,104.932],[123.956,105.235],[124.288,105.55],[124.609,105.877],[124.918,106.214],[125.215,106.561],[125.5,106.919],[125.773,107.286],[126.033,107.662],[126.28,108.048],[126.513,108.441],[126.732,108.842],[126.938,109.251],[127.129,109.667],[127.306,110.088],[127.468,110.516],[127.616,110.949],[127.748,111.387],[127.865,111.829],[127.967,112.275],[128.053,112.724],[128.124,113.176],[128.179,113.63],[128.218,114.086],[128.242,114.543],[128.25,115],[128.242,115.457],[128.218,115.914],[128.179,116.37],[128.124,116.824],[128.053,117.276],[127.967,117.725],[127.865,118.171],[127.748,118.613],[127.616,119.051],[127.468,119.484],[127.306,119.912],[127.129,120.333],[126.938,120.749],[126.732,121.158],[126.513,121.559],[126.28,121.952],[126.033,122.338],[125.773,122.714],[125.5,123.081],[125.215,123.439],[124.918,123.786],[124.609,124.123],[124.288,124.45],[123.956,124.765],[123.614,125.068],[123.261,125.359],[122.899,125.638],[122.527,125.905],[122.146,126.158],[121.757,126.398],[121.359,126.624],[120.954,126.837],[120.542,127.035],[120.123,127.219],[119.699,127.389],[119.268,127.544],[118.833,127.684],[118.393,127.808],[117.948,127.918],[117.501,128.012],[117.05,128.09],[116.597,128.153],[116.142,128.201],[115.686,128.232],[115.229,128.248],[114.771,128.248],[114.314,128.232],[113.858,128.201],[113.403,128.153],[112.95,128.09],[112.499,128.012],[112.052,127.918],[111.607,127.808],[111.167,127.684],[110.732,127.544],[110.301,127.389],[109.877,127.219],[109.458,127.035],[109.046,126.837],[108.641,126.624],[108.243,126.398],[107.854,126.158],[107.473,125.905],[107.101,125.638],[106.739,125.359],[106.386,125.068],[106.044,124.765],[105.712,124.45],[105.391,124.123],[105.082,123.786],[104.785,123.439],[104.5,123.081],[104.227,122.714],[103.967,122.338],[103.72,121.952],[103.487,121.559],[103.268,121.158],[103.062,120.749],[102.871,120.333],[102.694,119.912],[102.532,119.484],[102.384,119.051],[102.252,118.613],[102.135,118.171],[102.033,117.725],[101.947,117.276],[101.876,116.824],[101.821,116.37],[101.782,115.914],[101.758,115.457],[101.75,115]]
M73 P0 R12
;TYPE:Custom
M220 S100
G90 ; use absolute coordinates
M83 ; extruder relative mode
M104 S150 ; set temporary nozzle temp to prevent oozing during homing
M140 S75 ; set final bed temp
G4 S30 ; allow partial nozzle warmup
G28 ; home all axis and restore leveling
BED_MESH_CALIBRATE PROFILE=adaptive ADAPTIVE=1 ADAPTIVE_MARGIN=0
G1 Z25 F240
G1 X10.0 Y30 F3000
M104 S257 ; set final nozzle temp
M190 S75 ; wait for bed temp to stabilize
M109 S257 ; wait for nozzle temp to stabilize
G1 Z0.28 F240
G92 E0 ; Move Z Axis up
G1 Z2.0 F5000 ; Move to start position
M73 P1 R12
G1 X5 Y30 Z0.28 F300 ; Draw the first line
G1 X5 Y200 Z0.28 F1500 E15 ; Move to side a little
G1 X5.4 Y200 Z0.28 F5000.0 ; Draw the second line
M73 P2 R12
G1 X5.4 Y50 Z0.28 F1500.0 E30 ; Reset Extruder
G92 E0 ; Move Z Axis up
G1 Z2.0 F3000
M117 Start Printing..
G90
G21
M83 ; use relative distances for extrusion
; filament start gcode
M106 S0
;LAYER_CHANGE
;Z:0.2
;HEIGHT:0.2
;BEFORE_LAYER_CHANGE
;0.2
G92 E0

M73 P3 R12
G1 E-.5 F2400
;_SET_FAN_SPEED_CHANGING_LAYER
SET_VELOCITY_LIMIT ACCEL=500 ACCEL_TO_DECEL=250
SET_VELOCITY_LIMIT SQUARE_CORNER_VELOCITY=7
; printing object repose pied.stl id:0 copy 0
EXCLUDE_OBJECT_START NAME=repose_pied.stl_id_0_copy_0
G1 Z.2 F18000
G1 X131.897 Y143.008
G1 Z.2
G1 E.5 F2400
;TYPE:Inner wall
;WIDTH:0.499999
G1 F1800
G1 X131.094 Y143.825 E.04265
G1 X130.137 Y144.615 E.04622
G1 X129.207 Y145.239 E.04172
G1 X128.384 Y145.696 E.03506
G1 X127.24 Y146.199 E.04656
G1 X126.576 Y146.427 E.02614
G1 X126.068 Y146.575 E.0197
G1 X125.375 Y146.736 E.02649
G1 X124.856 Y146.83 E.01966
G1 X124.032 Y146.93 E.03092
G1 X123.207 Y146.973 E.03078
G1 X122.385 Y146.959 E.03063
G1 X121.264 Y146.847 E.04194
G1 X120.332 Y146.674 E.03531
G1 X119.65 Y146.495 E.02628
G1 X119.151 Y146.34 E.01944
G1 X117.986 Y145.874 E.04673
G1 X117.257 Y145.508 E.0304
G1 X116.29 Y144.917 E.04218
G1 X115.863 Y144.616 E.01947
G1 X115.306 Y144.174 E.02649
G1 X114.911 Y143.83 E.01949
G1 X114.117 Y143.028 E.04207
G1 X113.508 Y142.301 E.03531
G1 X113.096 Y141.728 E.02628
G1 X112.808 Y141.286 E.01966
G1 X112.4 Y140.57 E.0307
G1 X111.879 Y139.439 E.04639
G1 X111.477 Y138.259 E.04639
G1 X111.281 Y137.462 E.03059
G1 X111.158 Y136.771 E.02613
G1 X111.053 Y135.823 E.03554
G1 X111.027 Y135.118 E.02628
G1 X111.032 Y134.596 E.01944
G1 X111.14 Y133.346 E.04673
G1 X111.281 Y132.537 E.03058
G1 X111.479 Y131.735 E.03078
G1 X111.732 Y130.947 E.03084
G1 X111.992 Y130.288 E.02636
G1 X112.209 Y129.807 E.01966
G1 X112.595 Y129.072 E.03092
G1 X113.029 Y128.369 E.03078
G1 X113.51 Y127.696 E.0308
G1 X114.037 Y127.058 E.03083
G1 X114.523 Y126.544 E.02636
G1 X114.903 Y126.177 E.01966
G1 X115.534 Y125.637 E.03092
G1 X116.198 Y125.144 E.03081
G1 X116.788 Y124.764 E.02613
G1 X117.616 Y124.304 E.03529
G1 X118.76 Y123.801 E.04656
G1 X119.424 Y123.573 E.02614
G1 X119.932 Y123.425 E.0197
G1 X120.625 Y123.264 E.02649
G1 X121.138 Y123.171 E.01944
G1 X122.382 Y123.042 E.04656
G1 X123.502 Y123.037 E.04172
G1 X124.447 Y123.113 E.03531
G1 X125.144 Y123.22 E.02628
G1 X125.662 Y123.325 E.0197
G1 X126.35 Y123.505 E.02649
G1 X126.849 Y123.66 E.01944
G1 X128.009 Y124.123 E.04652
G1 X129.111 Y124.702 E.04638
G1 X129.803 Y125.145 E.03061
G1 X130.373 Y125.566 E.02636
G1 X130.778 Y125.895 E.01945
G1 X131.684 Y126.755 E.04652
G1 X132.493 Y127.701 E.04639
G1 X132.969 Y128.365 E.0304
G1 X133.55 Y129.337 E.04218
G1 X133.788 Y129.801 E.01943
G1 X134.119 Y130.556 E.0307
G1 X134.523 Y131.741 E.04661
G1 X134.719 Y132.538 E.03059
G1 X134.842 Y133.229 E.02613
G1 X134.961 Y134.558 E.0497
G1 X134.968 Y135.404 E.03153
G1 X134.86 Y136.654 E.04673
G1 X134.719 Y137.463 E.03058
G1 X134.521 Y138.265 E.03078
G1 X134.268 Y139.052 E.0308
G1 X133.962 Y139.821 E.03083
G1 X133.656 Y140.46 E.02636
G1 X133.406 Y140.926 E.0197
G1 X133.035 Y141.532 E.02649
G1 X132.742 Y141.964 E.01944
G1 X131.963 Y142.941 E.04652
G1 X131.925 Y142.979 E.00203
G1 X132.223 Y143.328 F18000
;TYPE:Outer wall
G1 F1800
G1 X131.403 Y144.162 E.04354
G1 X130.411 Y144.982 E.04795
G1 X129.445 Y145.629 E.04328
M73 P4 R12
G1 X128.587 Y146.106 E.03656
G1 X127.406 Y146.625 E.04806
G1 X126.714 Y146.863 E.02725
G1 X126.184 Y147.018 E.02058
G1 X125.468 Y147.183 E.02737
G1 X124.925 Y147.282 E.02056
G1 X124.071 Y147.386 E.03202
G1 X123.215 Y147.43 E.03195
G1 X122.358 Y147.416 E.03192
G1 X121.2 Y147.3 E.04335
G1 X120.232 Y147.12 E.03664
G1 X119.523 Y146.935 E.0273
G1 X118.998 Y146.771 E.0205
G1 X117.798 Y146.292 E.04812
G1 X117.035 Y145.907 E.03184
G1 X116.039 Y145.299 E.04344
G1 X115.589 Y144.982 E.0205
G1 X115.013 Y144.526 E.02737
G1 X114.598 Y144.164 E.02051
G1 X113.778 Y143.336 E.0434
G1 X113.147 Y142.582 E.03664
G1 X112.719 Y141.987 E.0273
G1 X112.417 Y141.524 E.02057
G1 X111.993 Y140.779 E.03194
G1 X111.454 Y139.608 E.04801
G1 X111.038 Y138.388 E.04801
G1 X110.833 Y137.557 E.03189
G1 X110.706 Y136.836 E.02725
G1 X110.597 Y135.857 E.03672
G1 X110.57 Y135.124 E.0273
G1 X110.575 Y134.574 E.0205
G1 X110.686 Y133.287 E.04812
G1 X110.834 Y132.443 E.0319
G1 X111.039 Y131.61 E.03195
G1 X111.301 Y130.792 E.03199
G1 X111.571 Y130.11 E.02733
G1 X111.798 Y129.607 E.02057
G1 X112.198 Y128.846 E.03201
G1 X112.648 Y128.115 E.03195
G1 X113.148 Y127.418 E.03197
G1 X113.695 Y126.756 E.03198
G1 X114.198 Y126.222 E.02733
G1 X114.596 Y125.839 E.02057
G1 X115.249 Y125.28 E.03202
G1 X115.938 Y124.768 E.03196
G1 X116.553 Y124.372 E.02725
G1 X117.412 Y123.894 E.03664
G1 X118.594 Y123.375 E.04806
G1 X119.286 Y123.137 E.02725
G1 X119.816 Y122.982 E.02058
G1 X120.532 Y122.817 E.02737
G1 X121.073 Y122.718 E.0205
G1 X122.357 Y122.585 E.04807
G1 X123.519 Y122.58 E.04328
G1 X124.5 Y122.659 E.03664
G1 X125.224 Y122.77 E.0273
G1 X125.766 Y122.879 E.02058
G1 X126.477 Y123.065 E.02737
G1 X127.002 Y123.229 E.0205
G1 X128.2 Y123.708 E.04806
G1 X129.341 Y124.307 E.048
G1 X130.063 Y124.769 E.03191
G1 X130.653 Y125.204 E.02733
G1 X131.08 Y125.551 E.0205
G1 X132.016 Y126.44 E.04805
G1 X132.853 Y127.419 E.048
G1 X133.351 Y128.114 E.03184
G1 X133.95 Y129.115 E.04344
G1 X134.201 Y129.605 E.02049
G1 X134.546 Y130.39 E.03194
G1 X134.962 Y131.612 E.04808
G1 X135.167 Y132.443 E.03189
G1 X135.294 Y133.164 E.02725
G1 X135.359 Y133.748 E.02191
G1 X135.418 Y134.541 E.02959
G1 X135.425 Y135.426 E.03298
G1 X135.314 Y136.713 E.04812
G1 X135.166 Y137.557 E.0319
G1 X134.961 Y138.39 E.03195
G1 X134.699 Y139.207 E.03197
G1 X134.38 Y140.005 E.03198
G1 X134.064 Y140.667 E.02733
G1 X133.803 Y141.153 E.02058
G1 X133.419 Y141.78 E.02737
G1 X133.11 Y142.235 E.0205
G1 X132.305 Y143.244 E.04805
G1 X132.251 Y143.3 E.00291
G1 E-.35 F2400
;WIPE_START
G1 F1800
G1 X131.55 Y144.013 E-.15
;WIPE_END
G1 Z.4 F18000
G1 X129.645 Y125.207
G1 Z.4
G1 Z.2
G1 E.5 F2400
;TYPE:Bottom surface
;WIDTH:0.507726
G1 F3600
G1 X131.466 Y127.027 E.09752
G1 X132.223 Y127.913 E.04414
G1 X132.682 Y128.553 E.02982
G1 X133.198 Y129.417 E.03815
G1 X128.604 Y124.823 E.2461
G1 X127.865 Y124.435 E.0316
G1 X127.355 Y124.232 E.02079
G1 X133.797 Y130.673 E.34502
G1 X134.137 Y131.67 E.03991
G1 X126.321 Y123.855 E.41865
G1 X125.438 Y123.629 E.03452
G1 X134.372 Y132.564 E.47857
G1 X134.511 Y133.36 E.03061
G1 X124.641 Y123.49 E.52869
G1 X123.908 Y123.414 E.02792
G1 X134.593 Y134.099 E.57234
G1 X134.626 Y134.79 E.0262
G1 X123.218 Y123.381 E.61109
G1 X122.563 Y123.384 E.02481
G1 X134.621 Y135.441 E.64586
G1 X134.568 Y136.046 E.023
G1 X121.953 Y123.431 E.67574
G1 X121.357 Y123.493 E.02267
G1 X134.513 Y136.648 E.70467
G1 X134.415 Y137.208 E.02152
G1 X120.79 Y123.583 E.72983
G1 X120.253 Y123.702 E.02086
G1 X134.296 Y137.746 E.75224
G1 X134.16 Y138.268 E.02041
M73 P5 R12
G1 X119.733 Y123.84 E.77281
G1 X119.236 Y124 E.01978
G1 X134.001 Y138.765 E.79088
G1 X133.823 Y139.244 E.01937
G1 X118.756 Y124.177 E.80706
G1 X118.299 Y124.378 E.01889
G1 X133.633 Y139.713 E.82138
G1 X133.421 Y140.157 E.01867
G1 X117.842 Y124.579 E.83445
G1 X117.414 Y124.808 E.01839
G1 X133.197 Y140.591 E.84538
G1 X132.955 Y141.006 E.01821
G1 X116.992 Y125.043 E.85505
G1 X116.591 Y125.299 E.01803
G1 X132.703 Y141.411 E.86303
G1 X132.434 Y141.8 E.0179
G1 X116.202 Y125.568 E.86944
G1 X115.825 Y125.848 E.0178
G1 X132.142 Y142.166 E.87403
G1 X131.851 Y142.531 E.01772
G1 X115.466 Y126.147 E.87764
G1 X115.113 Y126.451 E.01765
G1 X131.542 Y142.88 E.88
G1 X131.216 Y143.211 E.01761
G1 X114.778 Y126.774 E.88047
G1 X114.459 Y127.111 E.01761
G1 X130.89 Y143.543 E.88015
G1 X130.533 Y143.843 E.01767
G1 X114.15 Y127.46 E.87755
G1 X113.853 Y127.82 E.01768
G1 X130.173 Y144.141 E.8742
G1 X129.802 Y144.427 E.01775
M73 P6 R12
G1 X113.573 Y128.198 E.86931
G1 X113.314 Y128.559 E.01683
G1 X113.3 Y128.582 E.00103
G1 X129.409 Y144.691 E.86285
G1 X129.014 Y144.954 E.01795
G1 X113.049 Y128.989 E.85515
G1 X112.808 Y129.404 E.01821
G1 X128.592 Y145.188 E.84545
G1 X128.164 Y145.418 E.01838
G1 X112.582 Y129.836 E.83467
G1 X112.371 Y130.282 E.01871
G1 X127.708 Y145.619 E.82149
G1 X127.251 Y145.82 E.01889
G1 X112.179 Y130.748 E.80731
G1 X112.002 Y131.228 E.01938
G1 X126.772 Y145.997 E.79114
G1 X126.275 Y146.158 E.01978
G1 X111.842 Y131.725 E.77308
G1 X111.706 Y132.246 E.0204
G1 X125.755 Y146.296 E.75255
G1 X125.218 Y146.416 E.02085
G1 X111.586 Y132.784 E.73019
G1 X111.488 Y133.344 E.02152
G1 X124.654 Y146.509 E.70522
G1 X124.068 Y146.581 E.02236
G1 X111.432 Y133.945 E.67683
G1 X111.38 Y134.55 E.023
G1 X123.447 Y146.617 E.64639
G1 X122.796 Y146.623 E.02468
G1 X111.373 Y135.2 E.61186
G1 X111.406 Y135.89 E.02616
G1 X122.101 Y146.586 E.57291
G1 X121.371 Y146.513 E.02781
M73 P7 R12
G1 X111.488 Y136.629 E.5294
G1 X111.625 Y137.424 E.03053
G1 X120.57 Y146.369 E.47917
G1 X119.693 Y146.15 E.03424
G1 X111.858 Y138.315 E.41966
G1 X112.197 Y139.311 E.03986
G1 X118.661 Y145.775 E.3462
G1 X118.127 Y145.562 E.02177
G1 X117.45 Y145.221 E.02871
G1 X112.788 Y140.559 E.2497
G1 X113.1 Y141.108 E.0239
G1 X113.379 Y141.535 E.0193
G1 X113.779 Y142.09 E.02594
G1 X114.37 Y142.797 E.03489
G1 X116.386 Y144.815 E.10804
G1 E-.35 F2400
;WIPE_START
G1 F3600
G1 X115.679 Y144.107 E-.15
;WIPE_END
G1 Z.4 F18000
G1 X112.697 Y140.336 Z.4
G1 Z.2
G1 E.5 F2400
;TYPE:Gap infill
;WIDTH:0.256933
G1 F1800
G1 X112.602 Y140.2 E.00289
;WIDTH:0.211458
G1 X112.508 Y140.065 E.00228
;WIDTH:0.165983
G1 X112.413 Y139.929 E.00166
;WIDTH:0.143246
G1 X112.318 Y139.793 E.00135
G1 E-.35 F2400
;WIPE_START
G1 F1800
G1 X112.413 Y139.929 E-.15
;WIPE_END
G1 Z.4 F18000
G1 X116.795 Y144.929 Z.4
G1 Z.2
G1 E.5 F2400
;WIDTH:0.114534
G1 F1800
G1 X116.649 Y144.814 E.00109
;WIDTH:0.131296
G1 X116.502 Y144.699 E.00134
G1 E-.35 F2400
;WIPE_START
G1 F1800
G1 X116.649 Y144.814 E-.15
;WIPE_END
G1 Z.4 F18000
G1 X133.693 Y130.209 Z.4
G1 Z.2
G1 E.5 F2400
;WIDTH:0.116483
G1 F1800
G1 X133.631 Y130.118 E.00066
;WIDTH:0.153904
G1 X133.568 Y130.027 E.001
;WIDTH:0.191325
G1 X133.506 Y129.935 E.00134
;WIDTH:0.228948
G1 X133.398 Y129.788 E.00277
;WIDTH:0.247859
G1 X133.291 Y129.64 E.00305
G1 E-.35 F2400
;WIPE_START
G1 F1800
G1 X133.398 Y129.788 E-.15
;WIPE_END
G1 Z.4 F18000
G1 X129.529 Y125.323 Z.4
G1 Z.2
G1 E.5 F2400
;WIDTH:0.149465
G1 F1800
G1 X129.369 Y125.194 E.00178
;WIDTH:0.132234
G1 X129.21 Y125.066 E.00149
G1 E-.35 F2400
;WIPE_START
G1 F1800
G1 X129.369 Y125.194 E-.15
;WIPE_END
G1 Z.4 F18000
G1 X127.137 Y124.14 Z.4
G1 Z.2
G1 E.5 F2400
;WIDTH:0.118203
G1 F1800
G1 X126.7 Y123.875 E.00314
; stop printing object repose pied.stl id:0 copy 0
M106 S45
;LAYER_CHANGE
;Z:0.4
;HEIGHT:0.2
;BEFORE_LAYER_CHANGE
;0.4
G92 E0

G1 E-.35 F2400
;WIPE_START
G1 F1800
G1 X127.137 Y124.14 E-.15
;WIPE_END
EXCLUDE_OBJECT_END NAME=repose_pied.stl_id_0_copy_0
;_SET_FAN_SPEED_CHANGING_LAYER
SET_VELOCITY_LIMIT ACCEL=5000 ACCEL_TO_DECEL=2500
M140 S70 ; set bed temperature
; printing object repose pied.stl id:0 copy 0
SET_VELOCITY_LIMIT SQUARE_CORNER_VELOCITY=8
EXCLUDE_OBJECT_START NAME=repose_pied.stl_id_0_copy_0
G1 Z.4 F18000
G1 X132.202 Y143.294 Z.4
G1 E.5 F2400
SET_VELOCITY_LIMIT SQUARE_CORNER_VELOCITY=7
;TYPE:Inner wall
;WIDTH:0.419999
M73 P7 R11
G1 F3600
G1 X131.377 Y144.134 E.03617
G1 X130.388 Y144.951 E.03942
G1 X129.32 Y145.661 E.03942
G1 X128.184 Y146.258 E.03942
G1 X126.988 Y146.735 E.03956
G1 X126.173 Y146.981 E.02615
G1 X125.344 Y147.17 E.02615
G1 X124.063 Y147.348 E.03971
G1 X123.214 Y147.392 E.02613
