; HEADER_BLOCK_START
; generated by OrcaSlicer 2.0.0 on 2024-06-17 at 07:49:58
; total layer number: 65
; filament_density: 1.24
; filament_diameter: 1.75
; max_z_height: 13.00
; HEADER_BLOCK_END

; THUMBNAIL_BLOCK_START

;
; THUMBNAIL_BLOCK_END

; THUMBNAIL_BLOCK_START

;
; THUMBNAIL_BLOCK_END

; external perimeters extrusion width = 0.40mm
; perimeters extrusion width = 0.42mm
; infill extrusion width = 0.45mm
; solid infill extrusion width = 0.42mm
; top infill extrusion width = 0.40mm
; first layer extrusion width = 0.50mm

; EXECUTABLE_BLOCK_START
EXCLUDE_OBJECT_DEFINE NAME=repose_pied.stl_id_0_copy_0 CENTER=115,115 POLYGON=[[101.75,115],[101.758,114.543],[101.782,114.086],[101.821,113.63],[101.876,113.176],[101.947,112.724],[102.033,112.275],[102.135,111.829],[102.252,111.387],[102.384,110.949],[102.532,110.516],[102.694,110.088],[102.871,109.667],[103.062,109.251],[103.268,108.842],[103.487,108.441],[103.72,108.048],[103.967,107.662],[104.227,107.286],[104.5,106.919],[104.785,106.561],[105.082,106.214],[105.391,105.877],[105.712,105.55],[106.044,105.235],[106.386,104.932],[106.739,104.641],[107.101,104.362],[107.473,104.095],[107.854,103.842],[108.243,103.602],[108.641,103.376],[109.046,103.163],[109.458,102.965],[109.877,102.781],[110.301,102.611],[110.732,102.456],[111.167,102.316],[111.607,102.192],[112.052,102.082],[112.499,101.988],[112.95,101.91],[113.403,101.847],[113.858,101.799],[114.314,101.768],[114.771,101.752],[115.229,101.752],[115.686,101.768],[116.142,101.799],[116.597,101.847],[117.05,101.91],[117.501,101.988],[117.948,102.082],[118.393,102.192],[118.833,102.316],[119.268,102.456],[119.699,102.611],[120.123,102.781],[120.542,102.965],[120.954,103.163],[121.359,103.376],[121.757,103.602],[122.146,103.842],[122.527,104.095],[122.899,104.362],[123.261,104.641],[123.614,104.932],[123.956,105.235],[124.288,105.55],[124.609,105.877],[124.918,106.214],[125.215,106.561],[125.5,106.919],[125.773,107.286],[126.033,107.662],[126.28,108.048],[126.513,108.441],[126.732,108.842],[126.938,109.251],[127.129,109.667],[127.306,110.088],[127.468,110.516],[127.616,110.949],[127.748,111.387],[127.865,111.829],[127.967,112.275],[128.053,112.724],[128.124,113.176],[128.179,113.63],[128.218,114.086],[128.242,114.543],[128.25,115],[128.242,115.457],[128.218,115.914],[128.179,116.37],[128.124,116.824],[128.053,117.276],[127.967,117.725],[127.865,118.171],[127.748,118.613],[127.616,119.051],[127.468,119.484],[127.306,119.912],[127.129,120.333],[126.938,120.749],[126.732,121.158],[126.513,121.559],[126.28,121.952],[126.033,122.338],[125.773,122.714],[125.5,123.081],[125.215,123.439],[124.918,123.786],[124.609,124.123],[124.288,124.45],[123.956,124.765],[123.614,125.068],[123.261,125.359],[122.899,125.638],[122.527,125.905],[122.146,126.158],[121.757,126.398],[121.359,126.624],[120.954,126.837],[120.542,127.035],[120.123,127.219],[119.699,127.389],[119.268,127.544],[118.833,127.684],[118.393,127.808],[117.948,127.918],[117.501,128.012],[117.05,128.09],[116.597,128.153],[116.142,128.201],[115.686,128.232],[115.229,128.248],[114.771,128.248],[114.314,128.232],[113.858,128.201],[113.403,128.153],[112.95,128.09],[112.499,128.012],[112.052,127.918],[111.607,127.808],[111.167,127.684],[110.732,127.544],[110.301,127.389],[109.877,127.219],[109.458,127.035],[109.046,126.837],[108.641,126.624],[108.243,126.398],[107.854,126.158],[107.473,125.905],[107.101,125.638],[106.739,125.359],[106.386,125.068],[106.044,124.765],[105.712,124.45],[105.391,124.123],[105.082,123.786],[104.785,123.439],[104.5,123.081],[104.227,122.714],[103.967,122.338],[103.72,121.952],[103.487,121.559],[103.268,121.158],[103.062,120.749],[102.871,120.333],[102.694,119.912],[102.532,119.484],[102.384,119.051],[102.252,118.613],[102.135,118.171],[102.033,117.725],[101.947,117.276],[101.876,116.824],[101.821,116.37],[101.782,115.914],[101.758,115.457],[101.75,115]]
M73 P0 R12
;TYPE:Custom
M220 S100
G90 ; use absolute coordinates
M83 ; extruder relative mode
M104 S150 ; set temporary nozzle temp to prevent oozing during homing
M140 S75 ; set final bed temp
G4 S30 ; allow partial nozzle warmup
G28 ; home all axis and restore leveling
BED_MESH_CALIBRATE PROFILE=adaptive ADAPTIVE=1 ADAPTIVE_MARGIN=0
G1 Z25 F240
G1 X10.0 Y30 F3000
M104 S257 ; set final nozzle temp
M190 S75 ; wait for bed temp to stabilize
M109 S257 ; wait for nozzle temp to stabilize
G1 Z0.28 F240
G92 E0 ; Move Z Axis up
G1 Z2.0 F5000 ; Move to start position
M73 P1 R12
G1 X5 Y30 Z0.28 F300 ; Draw the first line
G1 X5 Y200 Z0.28 F1500 E15 ; Move to side a little
G1 X5.4 Y200 Z0.28 F5000.0 ; Draw the second line
M73 P2 R11
G1 X5.4 Y50 Z0.28 F1500.0 E30 ; Reset Extruder
G92 E0 ; Move Z Axis up
G1 Z2.0 F3000
M117 Start Printing..
G90
G21
M83 ; use relative distances for extrusion
; filament start gcode
M106 S0
;LAYER_CHANGE
;Z:0.2
;HEIGHT:0.2
;BEFORE_LAYER_CHANGE
;0.2
G92 E0

M73 P3 R11
G1 E-.5 F2400
;_SET_FAN_SPEED_CHANGING_LAYER
SET_VELOCITY_LIMIT ACCEL=500 ACCEL_TO_DECEL=250
SET_VELOCITY_LIMIT SQUARE_CORNER_VELOCITY=7
; printing object repose pied.stl id:0 copy 0
EXCLUDE_OBJECT_START NAME=repose_pied.stl_id_0_copy_0
G1 Z.2 F18000
G1 X134.696 Y132.458
G1 Z.2
G1 E.5 F2400
;TYPE:Inner wall
;WIDTH:0.499999
G1 F1800
G1 X134.732 Y132.608 E.00576
G1 X134.872 Y133.501 E.03364
G1 X134.952 Y134.317 E.03055
G1 X134.968 Y135.404 E.0405
G1 X134.86 Y136.654 E.04673
G1 X134.719 Y137.463 E.03058
G1 X134.521 Y138.265 E.03078
G1 X134.268 Y139.052 E.0308
G1 X133.962 Y139.821 E.03083
G1 X133.656 Y140.46 E.02636
G1 X133.406 Y140.926 E.0197
G1 X133.035 Y141.532 E.02649
G1 X132.742 Y141.964 E.01944
G1 X131.963 Y142.941 E.04652
G1 X131.094 Y143.825 E.04617
G1 X130.137 Y144.615 E.04622
G1 X129.207 Y145.239 E.04172
G1 X128.384 Y145.696 E.03506
G1 X127.24 Y146.199 E.04656
G1 X126.576 Y146.427 E.02614
G1 X126.068 Y146.575 E.0197
G1 X125.375 Y146.736 E.02649
G1 X124.856 Y146.83 E.01966
G1 X124.032 Y146.93 E.03092
G1 X123.207 Y146.973 E.03078
G1 X122.385 Y146.959 E.03063
G1 X121.264 Y146.847 E.04194
G1 X120.332 Y146.674 E.03531
G1 X119.65 Y146.495 E.02628
G1 X119.151 Y146.34 E.01944
G1 X117.986 Y145.874 E.04673
G1 X117.257 Y145.508 E.0304
G1 X116.29 Y144.917 E.04218
G1 X115.863 Y144.616 E.01947
G1 X115.306 Y144.174 E.02649
G1 X114.911 Y143.83 E.01949
M73 P4 R11
G1 X114.117 Y143.028 E.04207
G1 X113.508 Y142.301 E.03531
G1 X113.096 Y141.728 E.02628
G1 X112.808 Y141.286 E.01966
G1 X112.4 Y140.57 E.0307
G1 X111.879 Y139.439 E.04639
G1 X111.477 Y138.259 E.04639
G1 X111.281 Y137.462 E.03059
G1 X111.158 Y136.771 E.02613
G1 X111.053 Y135.823 E.03554
G1 X111.027 Y135.118 E.02628
G1 X111.032 Y134.596 E.01944
G1 X111.14 Y133.346 E.04673
G1 X111.281 Y132.537 E.03058
G1 X111.479 Y131.735 E.03078
G1 X111.732 Y130.947 E.03084
G1 X111.992 Y130.288 E.02636
G1 X112.209 Y129.807 E.01966
G1 X112.595 Y129.072 E.03092
G1 X113.029 Y128.369 E.03078
G1 X113.51 Y127.696 E.0308
G1 X114.037 Y127.058 E.03083
G1 X114.523 Y126.544 E.02636
G1 X114.903 Y126.177 E.01966
G1 X115.534 Y125.637 E.03092
G1 X116.198 Y125.144 E.03081
G1 X116.788 Y124.764 E.02613
G1 X117.616 Y124.304 E.03529
G1 X118.76 Y123.801 E.04656
G1 X119.424 Y123.573 E.02614
G1 X119.932 Y123.425 E.0197
G1 X120.625 Y123.264 E.02649
G1 X121.138 Y123.171 E.01944
G1 X122.382 Y123.042 E.04656
G1 X123.502 Y123.037 E.04172
G1 X124.447 Y123.113 E.03531
G1 X125.144 Y123.22 E.02628
G1 X125.662 Y123.325 E.0197
G1 X126.351 Y123.505 E.02649
G1 X126.849 Y123.66 E.01944
G1 X128.009 Y124.123 E.04652
G1 X129.111 Y124.702 E.04638
G1 X129.803 Y125.145 E.03061
G1 X130.373 Y125.566 E.02636
G1 X130.778 Y125.895 E.01945
G1 X131.684 Y126.755 E.04652
G1 X132.493 Y127.701 E.04639
G1 X132.969 Y128.365 E.0304
G1 X133.55 Y129.337 E.04218
G1 X133.788 Y129.801 E.01943
G1 X134.119 Y130.556 E.0307
G1 X134.348 Y131.227 E.02642
G1 X134.596 Y132.04 E.03163
G1 X134.687 Y132.419 E.01453
G1 X135.14 Y132.352 F18000
;TYPE:Outer wall
G1 F1800
G1 X135.182 Y132.529 E.00677
G1 X135.326 Y133.451 E.03476
G1 X135.409 Y134.3 E.03179
G1 X135.425 Y135.426 E.04195
G1 X135.314 Y136.713 E.04812
G1 X135.166 Y137.557 E.0319
G1 X134.961 Y138.39 E.03195
G1 X134.699 Y139.207 E.03197
G1 X134.38 Y140.005 E.03198
G1 X134.064 Y140.667 E.02733
G1 X133.803 Y141.153 E.02058
G1 X133.419 Y141.78 E.02737
G1 X133.11 Y142.235 E.0205
G1 X132.305 Y143.244 E.04805
G1 X131.403 Y144.162 E.04794
G1 X130.411 Y144.982 E.04795
G1 X129.445 Y145.629 E.04328
G1 X128.587 Y146.106 E.03656
G1 X127.406 Y146.625 E.04806
G1 X126.714 Y146.863 E.02725
G1 X126.184 Y147.018 E.02058
G1 X125.468 Y147.183 E.02737
G1 X124.925 Y147.282 E.02056
G1 X124.071 Y147.386 E.03202
G1 X123.215 Y147.43 E.03195
G1 X122.358 Y147.416 E.03192
G1 X121.2 Y147.3 E.04335
G1 X120.232 Y147.12 E.03664
G1 X119.523 Y146.935 E.0273
G1 X118.998 Y146.771 E.0205
G1 X117.798 Y146.292 E.04812
G1 X117.035 Y145.907 E.03184
G1 X116.039 Y145.299 E.04344
G1 X115.589 Y144.982 E.0205
G1 X115.013 Y144.526 E.02737
G1 X114.598 Y144.164 E.02051
G1 X113.778 Y143.336 E.0434
G1 X113.147 Y142.582 E.03664
G1 X112.719 Y141.987 E.0273
G1 X112.417 Y141.524 E.02057
G1 X111.993 Y140.779 E.03194
G1 X111.454 Y139.608 E.04801
G1 X111.038 Y138.388 E.04801
G1 X110.833 Y137.557 E.03189
G1 X110.706 Y136.836 E.02725
G1 X110.597 Y135.857 E.03672
G1 X110.57 Y135.124 E.0273
G1 X110.575 Y134.574 E.0205
G1 X110.686 Y133.287 E.04812
G1 X110.834 Y132.443 E.0319
G1 X111.039 Y131.61 E.03195
G1 X111.301 Y130.792 E.03199
G1 X111.571 Y130.11 E.02733
G1 X111.798 Y129.607 E.02057
G1 X112.198 Y128.846 E.03201
G1 X112.648 Y128.115 E.03195
G1 X113.148 Y127.418 E.03197
G1 X113.695 Y126.756 E.03198
G1 X114.198 Y126.222 E.02733
G1 X114.596 Y125.839 E.02057
G1 X115.249 Y125.28 E.03202
G1 X115.938 Y124.768 E.03196
G1 X116.553 Y124.372 E.02725
G1 X117.412 Y123.894 E.03664
G1 X118.594 Y123.375 E.04806
G1 X119.286 Y123.137 E.02725
G1 X119.816 Y122.982 E.02058
G1 X120.532 Y122.817 E.02737
G1 X121.073 Y122.718 E.0205
G1 X122.357 Y122.585 E.04807
G1 X123.519 Y122.58 E.04328
G1 X124.5 Y122.659 E.03664
G1 X125.224 Y122.77 E.0273
G1 X125.766 Y122.879 E.02058
G1 X126.477 Y123.065 E.02737
G1 X127.002 Y123.229 E.0205
G1 X128.2 Y123.708 E.04806
G1 X129.341 Y124.307 E.048
G1 X130.063 Y124.769 E.03191
G1 X130.653 Y125.204 E.02733
G1 X131.08 Y125.551 E.0205
G1 X132.016 Y126.44 E.04805
G1 X132.853 Y127.419 E.048
G1 X133.351 Y128.114 E.03184
G1 X133.95 Y129.115 E.04344
G1 X134.201 Y129.605 E.02049
G1 X134.546 Y130.39 E.03194
G1 X134.781 Y131.08 E.02716
G1 X135.04 Y131.93 E.0331
G1 X135.131 Y132.313 E.01465
G1 E-.35 F2400
;WIPE_START
G1 F1800
G1 X135.182 Y132.529 E-.03325
G1 X135.302 Y133.298 E-.11675
;WIPE_END
G1 Z.4 F18000
G1 X124.554 Y127.512 Z.4
G1 Z.2
G1 E.5 F2400
;TYPE:Inner wall
G1 F1800
G1 X124.766 Y127.55 E.00802
G1 X125.473 Y127.754 E.02742
G1 X126.25 Y128.082 E.0314
G1 X126.944 Y128.444 E.02915
G1 X127.707 Y128.962 E.03435
G1 X128.26 Y129.436 E.02714
G1 X128.765 Y129.962 E.02714
G1 X129.091 Y130.372 E.01952
G1 X129.614 Y131.144 E.03473
G1 X129.915 Y131.72 E.02422
G1 X130.225 Y132.465 E.03005
G1 X130.372 Y132.957 E.01915
G1 X130.574 Y133.878 E.03511
G1 X130.64 Y134.542 E.02485
G1 X130.649 Y135.301 E.02826
G1 X130.583 Y136.057 E.02829
G1 X130.48 Y136.609 E.02091
G1 X130.246 Y137.473 E.03335
G1 X129.978 Y138.151 E.02714
G1 X129.647 Y138.8 E.02714
G1 X129.203 Y139.465 E.02978
G1 X128.71 Y140.091 E.02966
G1 X128.141 Y140.667 E.03017
G1 X127.51 Y141.184 E.03038
G1 X126.912 Y141.579 E.0267
G1 X126.432 Y141.837 E.02031
G1 X125.649 Y142.179 E.0318
G1 X124.913 Y142.41 E.02876
G1 X124.123 Y142.573 E.03003
G1 X123.397 Y142.646 E.02719
G1 X122.668 Y142.649 E.02714
G1 X121.943 Y142.583 E.02714
G1 X121.227 Y142.448 E.02714
G1 X120.527 Y142.246 E.02714
G1 X119.854 Y141.98 E.02694
G1 X119.297 Y141.697 E.02329
G1 X118.645 Y141.294 E.02855
G1 X118.022 Y140.816 E.02923
G1 X117.246 Y140.05 E.0406
G1 X116.782 Y139.468 E.02773
G1 X116.473 Y138.991 E.02116
G1 X116.049 Y138.21 E.0331
G1 X115.775 Y137.535 E.02714
G1 X115.628 Y137.043 E.01915
G1 X115.426 Y136.122 E.03511
G1 X115.36 Y135.458 E.02485
G1 X115.351 Y134.699 E.02826
G1 X115.417 Y133.943 E.02829
G1 X115.52 Y133.391 E.02091
G1 X115.754 Y132.527 E.03335
G1 X115.988 Y131.933 E.02376
G1 X116.353 Y131.2 E.03051
G1 X116.952 Y130.306 E.04009
G1 X117.292 Y129.906 E.01955
G1 X117.849 Y129.342 E.02951
G1 X118.532 Y128.782 E.03291
G1 X119.067 Y128.435 E.02373
G1 X119.568 Y128.163 E.02126
G1 X120.351 Y127.821 E.0318
G1 X121.087 Y127.59 E.02876
G1 X121.853 Y127.431 E.02912
G1 X122.603 Y127.354 E.0281
G1 X123.332 Y127.351 E.02714
G1 X123.991 Y127.411 E.02466
G1 X124.515 Y127.505 E.01982
G1 X124.473 Y127.962 F18000
;TYPE:Outer wall
G1 F1800
G1 X124.68 Y127.999 E.00782
G1 X125.345 Y128.193 E.0258
G1 X126.07 Y128.502 E.02938
G1 X126.715 Y128.84 E.02713
G1 X127.442 Y129.334 E.03273
G1 X127.961 Y129.782 E.02552
G1 X128.434 Y130.277 E.02552
G1 X128.858 Y130.815 E.02552
G1 X129.23 Y131.391 E.02552
G1 X129.509 Y131.93 E.0226
G1 X129.8 Y132.635 E.02843
G1 X129.994 Y133.292 E.02552
G1 X130.125 Y133.965 E.02552
G1 X130.185 Y134.585 E.02323
G1 X130.192 Y135.301 E.02665
G1 X130.128 Y136.014 E.02667
G1 X130.031 Y136.523 E.01929
G1 X129.807 Y137.345 E.03173
G1 X129.554 Y137.981 E.02552
G1 X129.241 Y138.59 E.02552
G1 X128.824 Y139.209 E.02776
G1 X128.365 Y139.791 E.02764
G1 X127.826 Y140.336 E.02855
G1 X127.228 Y140.825 E.02876
G1 X126.665 Y141.194 E.02508
G1 X126.222 Y141.43 E.01869
G1 X125.48 Y141.754 E.03018
G1 X124.784 Y141.972 E.02714
G1 X124.037 Y142.125 E.02841
G1 X123.353 Y142.191 E.02557
G1 X122.668 Y142.192 E.02552
G1 X121.986 Y142.128 E.02552
G1 X121.313 Y141.999 E.02552
G1 X120.655 Y141.807 E.02552
G1 X120.024 Y141.556 E.02533
G1 X119.506 Y141.29 E.02168
G1 X118.892 Y140.909 E.02692
G1 X118.304 Y140.457 E.02761
G1 X117.57 Y139.727 E.03858
G1 X117.142 Y139.185 E.02571
G1 X116.857 Y138.744 E.01954
G1 X116.455 Y138.001 E.03148
G1 X116.2 Y137.365 E.02552
G1 X116.006 Y136.708 E.02552
M73 P5 R11
G1 X115.875 Y136.035 E.02552
G1 X115.815 Y135.415 E.02323
G1 X115.808 Y134.699 E.02665
G1 X115.872 Y133.986 E.02667
G1 X115.969 Y133.477 E.01929
G1 X116.193 Y132.655 E.03173
G1 X116.413 Y132.103 E.02214
G1 X116.759 Y131.41 E.02889
G1 X117.331 Y130.562 E.03807
G1 X117.782 Y130.039 E.02571
G1 X118.164 Y129.673 E.01973
G1 X118.815 Y129.142 E.03129
G1 X119.314 Y128.82 E.02211
G1 X119.778 Y128.57 E.01964
G1 X120.52 Y128.246 E.03018
G1 X121.216 Y128.028 E.02714
G1 X121.939 Y127.88 E.0275
G1 X122.647 Y127.809 E.02648
G1 X123.332 Y127.808 E.02552
G1 X123.948 Y127.866 E.02304
G1 X124.434 Y127.954 E.0184
G1 E-.35 F2400
;WIPE_START
G1 F1800
G1 X124.68 Y127.999 E-.03748
G1 X125.345 Y128.193 E-.10389
G1 X125.397 Y128.215 E-.00863
;WIPE_END
G1 Z.4 F18000
G1 X129.645 Y125.207
G1 Z.4
G1 Z.2
G1 E.5 F2400
;TYPE:Bottom surface
;WIDTH:0.507726
G1 F3600
G1 X131.466 Y127.027 E.09752
G1 X132.223 Y127.913 E.04414
G1 X132.682 Y128.553 E.02982
G1 X133.198 Y129.417 E.03815
G1 X128.604 Y124.823 E.2461
G1 X127.865 Y124.435 E.0316
G1 X127.355 Y124.232 E.02079
G1 X133.797 Y130.673 E.34502
G1 X134.137 Y131.67 E.03991
G1 X126.321 Y123.855 E.41865
G1 X125.438 Y123.629 E.03452
G1 X134.372 Y132.564 E.47857
G1 X134.511 Y133.36 E.03061
G1 X124.641 Y123.49 E.52869
G1 X123.908 Y123.414 E.02792
G1 X134.593 Y134.099 E.57234
G1 X134.626 Y134.79 E.0262
G1 X123.223 Y123.386 E.61083
G1 X122.564 Y123.385 E.02495
G1 X134.621 Y135.441 E.64581
G1 X134.568 Y136.046 E.023
G1 X130.33 Y131.808 E.22703
G1 X130.562 Y132.388 E.02366
G1 X130.69 Y132.825 E.01725
G1 X134.513 Y136.648 E.20478
G1 X134.415 Y137.208 E.02152
G1 X130.883 Y133.676 E.18919
G1 X130.915 Y133.84 E.00632
G1 X130.971 Y134.421 E.02212
G1 X134.296 Y137.746 E.17809
G1 X134.16 Y138.268 E.02041
G1 X130.99 Y135.097 E.16983
G1 X130.989 Y135.416 E.01209
G1 X130.959 Y135.723 E.01169
G1 X134.001 Y138.765 E.16292
G1 X133.823 Y139.244 E.01937
G1 X130.886 Y136.308 E.15731
G1 X130.78 Y136.859 E.02126
G1 X133.633 Y139.713 E.15286
G1 X133.421 Y140.157 E.01867
G1 X130.631 Y137.368 E.14942
G1 X130.464 Y137.858 E.01961
G1 X133.197 Y140.591 E.14639
G1 X132.955 Y141.006 E.01821
G1 X130.275 Y138.326 E.14355
G1 X130.051 Y138.76 E.01848
G1 X132.703 Y141.411 E.14202
