; HEADER_BLOCK_START
; generated by OrcaSlicer 2.0.0 on 2024-06-17 at 11:30:28
; total layer number: 75
; filament_density: 1.24
; filament_diameter: 1.75
; max_z_height: 15.00
; HEADER_BLOCK_END

; THUMBNAIL_BLOCK_START

;
; THUMBNAIL_BLOCK_END

; THUMBNAIL_BLOCK_START

;
; THUMBNAIL_BLOCK_END

; external perimeters extrusion width = 0.40mm
; perimeters extrusion width = 0.42mm
; infill extrusion width = 0.45mm
; solid infill extrusion width = 0.42mm
; top infill extrusion width = 0.40mm
; first layer extrusion width = 0.50mm

; EXECUTABLE_BLOCK_START
EXCLUDE_OBJECT_DEFINE NAME=repose_pied.stl_id_0_copy_0 CENTER=115,115 POLYGON=[[101.75,115],[101.758,114.538],[101.782,114.076],[101.823,113.615],[101.879,113.156],[101.951,112.699],[102.04,112.245],[102.144,111.795],[102.263,111.348],[102.399,110.906],[102.549,110.468],[102.715,110.036],[102.896,109.611],[103.091,109.192],[103.301,108.78],[103.525,108.375],[103.763,107.979],[104.015,107.591],[104.281,107.212],[104.559,106.842],[104.85,106.483],[105.153,106.134],[105.469,105.796],[105.796,105.469],[106.134,105.153],[106.483,104.85],[106.842,104.559],[107.212,104.281],[107.591,104.015],[107.979,103.763],[108.375,103.525],[108.78,103.301],[109.192,103.091],[109.611,102.896],[110.036,102.715],[110.468,102.549],[110.906,102.399],[111.348,102.263],[111.795,102.144],[112.245,102.04],[112.699,101.951],[113.156,101.879],[113.615,101.823],[114.076,101.782],[114.538,101.758],[115,101.75],[115.462,101.758],[115.924,101.782],[116.385,101.823],[116.844,101.879],[117.301,101.951],[117.755,102.04],[118.205,102.144],[118.652,102.263],[119.094,102.399],[119.532,102.549],[119.964,102.715],[120.389,102.896],[120.808,103.091],[121.22,103.301],[121.625,103.525],[122.021,103.763],[122.409,104.015],[122.788,104.281],[123.158,104.559],[123.517,104.85],[123.866,105.153],[124.204,105.469],[124.531,105.796],[124.847,106.134],[125.15,106.483],[125.441,106.842],[125.719,107.212],[125.985,107.591],[126.237,107.979],[126.475,108.375],[126.699,108.78],[126.909,109.192],[127.104,109.611],[127.285,110.036],[127.451,110.468],[127.601,110.906],[127.737,111.348],[127.856,111.795],[127.96,112.245],[128.049,112.699],[128.121,113.156],[128.177,113.615],[128.218,114.076],[128.242,114.538],[128.25,115],[128.242,115.462],[128.218,115.924],[128.177,116.385],[128.121,116.844],[128.049,117.301],[127.96,117.755],[127.856,118.205],[127.737,118.652],[127.601,119.094],[127.451,119.532],[127.285,119.964],[127.104,120.389],[126.909,120.808],[126.699,121.22],[126.475,121.625],[126.237,122.021],[125.985,122.409],[125.719,122.788],[125.441,123.158],[125.15,123.517],[124.847,123.866],[124.531,124.204],[124.204,124.531],[123.866,124.847],[123.517,125.15],[123.158,125.441],[122.788,125.719],[122.409,125.985],[122.021,126.237],[121.625,126.475],[121.22,126.699],[120.808,126.909],[120.389,127.104],[119.964,127.285],[119.532,127.451],[119.094,127.601],[118.652,127.737],[118.205,127.856],[117.755,127.96],[117.301,128.049],[116.844,128.121],[116.385,128.177],[115.924,128.218],[115.462,128.242],[115,128.25],[114.538,128.242],[114.076,128.218],[113.615,128.177],[113.156,128.121],[112.699,128.049],[112.245,127.96],[111.795,127.856],[111.348,127.737],[110.906,127.601],[110.468,127.451],[110.036,127.285],[109.611,127.104],[109.192,126.909],[108.78,126.699],[108.375,126.475],[107.979,126.237],[107.591,125.985],[107.212,125.719],[106.842,125.441],[106.483,125.15],[106.134,124.847],[105.796,124.531],[105.469,124.204],[105.153,123.866],[104.85,123.517],[104.559,123.158],[104.281,122.788],[104.015,122.409],[103.763,122.021],[103.525,121.625],[103.301,121.22],[103.091,120.808],[102.896,120.389],[102.715,119.964],[102.549,119.532],[102.399,119.094],[102.263,118.652],[102.144,118.205],[102.04,117.755],[101.951,117.301],[101.879,116.844],[101.823,116.385],[101.782,115.924],[101.758,115.462],[101.75,115]]
M73 P0 R15
;TYPE:Custom
M220 S100
G90 ; use absolute coordinates
M83 ; extruder relative mode
M104 S150 ; set temporary nozzle temp to prevent oozing during homing
M140 S75 ; set final bed temp
G4 S30 ; allow partial nozzle warmup
G28 ; home all axis and restore leveling
BED_MESH_CALIBRATE PROFILE=adaptive ADAPTIVE=1 ADAPTIVE_MARGIN=0
G1 Z25 F240
G1 X10.0 Y30 F3000
M104 S257 ; set final nozzle temp
M190 S75 ; wait for bed temp to stabilize
M109 S257 ; wait for nozzle temp to stabilize
G1 Z0.28 F240
G92 E0 ; Move Z Axis up
G1 Z2.0 F5000 ; Move to start position
M73 P1 R15
G1 X5 Y30 Z0.28 F300 ; Draw the first line
G1 X5 Y200 Z0.28 F1500 E15 ; Move to side a little
G1 X5.4 Y200 Z0.28 F5000.0 ; Draw the second line
M73 P2 R15
G1 X5.4 Y50 Z0.28 F1500.0 E30 ; Reset Extruder
G92 E0 ; Move Z Axis up
G1 Z2.0 F3000
M117 Start Printing..
G90
G21
M83 ; use relative distances for extrusion
; filament start gcode
M106 S0
;LAYER_CHANGE
;Z:0.2
;HEIGHT:0.2
;BEFORE_LAYER_CHANGE
;0.2
G92 E0

G1 E-.5 F2400
;_SET_FAN_SPEED_CHANGING_LAYER
SET_VELOCITY_LIMIT ACCEL=500 ACCEL_TO_DECEL=250
SET_VELOCITY_LIMIT SQUARE_CORNER_VELOCITY=7
; printing object repose pied.stl id:0 copy 0
EXCLUDE_OBJECT_START NAME=repose_pied.stl_id_0_copy_0
G1 Z.2 F18000
G1 X132.098 Y139.833
G1 Z.2
G1 E.5 F2400
;TYPE:Inner wall
;WIDTH:0.499999
G1 F1800
M73 P3 R15
G1 X131.414 Y140.944 E.04858
G1 X130.89 Y141.626 E.03206
G1 X130.352 Y142.214 E.02967
G1 X129.866 Y142.676 E.02497
G1 X129.35 Y143.114 E.0252
G1 X128.455 Y143.741 E.04071
G1 X127.842 Y144.094 E.02634
G1 X126.854 Y144.555 E.04061
G1 X126.184 Y144.799 E.02657
G1 X125.493 Y144.997 E.02677
G1 X124.788 Y145.147 E.02685
G1 X124.219 Y145.23 E.0214
G1 X123.72 Y145.278 E.01869
G1 X123.143 Y145.301 E.02149
G1 X122.641 Y145.297 E.01869
G1 X122.066 Y145.26 E.02149
G1 X121.567 Y145.203 E.01868
G1 X120.998 Y145.106 E.0215
G1 X120.51 Y144.998 E.01863
G1 X119.816 Y144.799 E.02688
G1 X119.146 Y144.555 E.02657
G1 X118.158 Y144.094 E.04061
G1 X117.54 Y143.738 E.02655
G1 X116.943 Y143.335 E.02685
G1 X116.318 Y142.838 E.02973
G1 X115.821 Y142.385 E.02503
G1 X115.349 Y141.901 E.0252
G1 X114.91 Y141.359 E.02595
G1 X114.439 Y140.723 E.02949
G1 X114.074 Y140.134 E.0258
G1 X113.741 Y139.506 E.02647
G1 X113.433 Y138.808 E.02842
G1 X113.197 Y138.159 E.02574
G1 X113.004 Y137.499 E.02559
G1 X112.82 Y136.575 E.03509
G1 X112.759 Y136.045 E.0199
G1 X112.707 Y135.334 E.02653
G1 X112.703 Y134.647 E.02559
G1 X112.78 Y133.708 E.03509
G1 X112.923 Y132.855 E.03223
G1 X113.094 Y132.166 E.02645
G1 X113.447 Y131.14 E.04039
G1 X113.906 Y130.158 E.04039
G1 X114.262 Y129.54 E.02655
G1 X114.662 Y128.947 E.02663
G1 X115.249 Y128.214 E.035
G1 X115.845 Y127.586 E.03223
G1 X116.373 Y127.111 E.02645
G1 X117.245 Y126.454 E.04067
G1 X117.726 Y126.151 E.02117
G1 X118.161 Y125.904 E.01863
G1 X118.804 Y125.59 E.02667
G1 X119.822 Y125.199 E.04061
G1 X120.507 Y125.003 E.02655
G1 X121.205 Y124.854 E.02658
G1 X122.283 Y124.722 E.04045
G1 X123.216 Y124.701 E.03477
G1 X124.074 Y124.753 E.03201
G1 X125.142 Y124.922 E.04027
G1 X126.191 Y125.203 E.04044
G1 X126.726 Y125.395 E.02117
G1 X127.188 Y125.586 E.01863
G1 X127.837 Y125.903 E.02688
G1 X128.457 Y126.26 E.02664
G1 X129.054 Y126.674 E.02705
G1 X129.616 Y127.102 E.02633
G1 X130.413 Y127.844 E.04055
G1 X131.029 Y128.545 E.03477
G1 X131.544 Y129.241 E.03223
G1 X131.92 Y129.843 E.02645
G1 X132.415 Y130.815 E.04061
G1 X132.682 Y131.476 E.02655
G1 X132.904 Y132.16 E.02679
G1 X133.077 Y132.854 E.02664
G1 X133.23 Y133.787 E.03522
G1 X133.287 Y134.513 E.02712
G1 X133.297 Y135.353 E.03127
G1 X133.22 Y136.292 E.03509
G1 X133.077 Y137.145 E.03223
G1 X132.906 Y137.834 E.02645
G1 X132.553 Y138.86 E.04039
G1 X132.115 Y139.797 E.03853
G1 X132.501 Y140.051 F18000
;TYPE:Outer wall
G1 F1800
G1 X131.791 Y141.203 E.05044
G1 X131.242 Y141.918 E.03356
G1 X130.843 Y142.365 E.02231
G1 X130.475 Y142.74 E.01958
G1 X130.03 Y143.145 E.02239
G1 X129.627 Y143.478 E.01949
G1 X128.701 Y144.127 E.04213
G1 X128.053 Y144.5 E.02783
G1 X127.029 Y144.978 E.04209
G1 X126.325 Y145.234 E.02791
G1 X125.603 Y145.441 E.02796
G1 X124.868 Y145.597 E.028
G1 X124.274 Y145.683 E.02235
G1 X123.751 Y145.735 E.01958
G1 X123.15 Y145.758 E.02239
G1 X122.625 Y145.754 E.01958
G1 X122.025 Y145.715 E.02239
G1 X121.503 Y145.656 E.01958
G1 X120.91 Y145.554 E.02239
G1 X120.398 Y145.441 E.01956
G1 X119.675 Y145.234 E.02801
G1 X118.971 Y144.978 E.02791
G1 X117.946 Y144.5 E.0421
G1 X117.298 Y144.126 E.02789
G1 X116.675 Y143.705 E.028
G1 X116.2 Y143.338 E.02235
G1 X115.8 Y142.997 E.01958
G1 X115.366 Y142.581 E.02239
G1 X115.005 Y142.202 E.01949
G1 X114.293 Y141.323 E.04213
G1 X113.874 Y140.702 E.0279
G1 X113.499 Y140.052 E.02798
G1 X113.17 Y139.377 E.02796
G1 X112.888 Y138.68 E.028
G1 X112.7 Y138.11 E.02235
G1 X112.56 Y137.606 E.0195
G1 X112.368 Y136.646 E.03644
G1 X112.265 Y135.749 E.03364
G1 X112.242 Y135.15 E.02231
G1 X112.246 Y134.627 E.0195
G1 X112.326 Y133.652 E.03644
G1 X112.475 Y132.762 E.03361
G1 X112.656 Y132.036 E.02787
G1 X113.023 Y130.969 E.04203
G1 X113.5 Y129.946 E.04203
G1 X113.874 Y129.298 E.02789
G1 X114.294 Y128.676 E.02793
G1 X114.905 Y127.913 E.03641
G1 X115.526 Y127.259 E.03361
G1 X116.082 Y126.758 E.02787
G1 X116.985 Y126.078 E.04211
G1 X117.491 Y125.758 E.02228
G1 X117.947 Y125.499 E.01956
G1 X118.622 Y125.17 E.02794
G1 X119.677 Y124.765 E.0421
G1 X120.397 Y124.559 E.02789
G1 X121.13 Y124.403 E.02792
G1 X122.25 Y124.266 E.04204
G1 X123.225 Y124.243 E.03633
G1 X124.124 Y124.298 E.03355
G1 X125.237 Y124.475 E.04199
G1 X126.328 Y124.767 E.04204
G1 X126.891 Y124.969 E.02228
G1 X127.376 Y125.169 E.01956
G1 X128.052 Y125.499 E.02801
G1 X128.701 Y125.874 E.02793
G1 X129.506 Y126.431 E.03648
G1 X129.915 Y126.755 E.01941
G1 X130.741 Y127.525 E.04207
G1 X131.385 Y128.258 E.03633
G1 X131.922 Y128.984 E.03361
G1 X132.318 Y129.618 E.02787
G1 X132.831 Y130.625 E.0421
G1 X133.112 Y131.319 E.02789
G1 X133.344 Y132.034 E.02798
G1 X133.525 Y132.762 E.02793
G1 X133.684 Y133.728 E.03647
G1 X133.744 Y134.495 E.02867
G1 X133.754 Y135.373 E.0327
G1 X133.674 Y136.348 E.03644
G1 X133.525 Y137.238 E.03361
G1 X133.344 Y137.964 E.02787
G1 X132.977 Y139.031 E.04203
G1 X132.518 Y140.014 E.04041
G1 E-.35 F2400
;WIPE_START
G1 F1800
G1 X131.996 Y140.867 E-.15
;WIPE_END
G1 Z.4 F18000
G1 X128.617 Y126.538
G1 Z.4
G1 Z.2
G1 E.5 F2400
;TYPE:Bottom surface
;WIDTH:0.505978
G1 F3600
G1 X130.195 Y128.116 E.08417
G1 X130.762 Y128.761 E.03241
G1 X131.26 Y129.434 E.0316
G1 X131.621 Y130.012 E.02573
G1 X131.813 Y130.389 E.01595
G1 X127.585 Y126.161 E.2256
G1 X127.048 Y125.899 E.02258
G1 X126.419 Y125.649 E.02554
G1 X132.358 Y131.588 E.31693
G1 X132.575 Y132.255 E.02644
G1 X132.643 Y132.528 E.01065
G1 X125.483 Y125.369 E.38207
G1 X125.071 Y125.258 E.0161
G1 X124.651 Y125.192 E.01603
G1 X132.811 Y133.352 E.43546
G1 X132.918 Y134.113 E.02899
G1 X123.89 Y125.085 E.48174
G1 X123.194 Y125.044 E.02631
G1 X132.956 Y134.806 E.52093
G1 X132.945 Y135.45 E.02431
G1 X122.554 Y125.059 E.55453
G1 X122.308 Y125.064 E.00928
G1 X121.949 Y125.108 E.01366
G1 X132.896 Y136.056 E.58417
G1 X132.816 Y136.631 E.02191
G1 X121.365 Y125.18 E.61104
G1 X120.818 Y125.287 E.02106
G1 X132.714 Y137.184 E.63485
G1 X132.584 Y137.708 E.02038
G1 X120.296 Y125.42 E.65574
G1 X119.797 Y125.576 E.01972
G1 X132.418 Y138.197 E.67351
G1 X132.25 Y138.685 E.01944
M73 P4 R15
G1 X119.324 Y125.758 E.68981
G1 X118.857 Y125.946 E.01899
G1 X132.046 Y139.135 E.70382
G1 X131.838 Y139.582 E.01859
G1 X118.416 Y126.16 E.7162
G1 X117.994 Y126.393 E.0182
G1 X131.596 Y139.995 E.72586
G1 X131.346 Y140.4 E.01796
G1 X117.589 Y126.642 E.73415
G1 X117.205 Y126.913 E.01773
G1 X131.092 Y140.8 E.74104
G1 X130.807 Y141.171 E.01762
G1 X116.831 Y127.195 E.7458
G1 X116.468 Y127.486 E.01758
G1 X130.514 Y141.532 E.74954
G1 X130.203 Y141.876 E.01749
G1 X116.124 Y127.797 E.7513
G1 X115.802 Y128.13 E.01748
G1 X129.876 Y142.204 E.75105
G1 X129.533 Y142.516 E.01749
G1 X115.485 Y128.468 E.74963
G1 X115.194 Y128.832 E.01758
G1 X129.176 Y142.813 E.74611
G1 X128.793 Y143.085 E.01772
G1 X114.906 Y129.199 E.74105
G1 X114.642 Y129.59 E.0178
G1 X128.408 Y143.355 E.73457
G1 X128.003 Y143.606 E.01795
G1 X114.394 Y129.997 E.72621
G1 X114.162 Y130.419 E.01819
G1 X127.581 Y143.838 E.71607
G1 X127.134 Y144.046 E.01859
G1 X113.954 Y130.866 E.70335
G1 X113.749 Y131.316 E.01867
G1 X126.685 Y144.252 E.69028
G1 X126.205 Y144.427 E.01928
G1 X113.582 Y131.803 E.67361
G1 X113.416 Y132.293 E.01949
G1 X125.704 Y144.58 E.6557
G1 X125.182 Y144.713 E.02033
G1 X113.285 Y132.817 E.63482
G1 X113.184 Y133.37 E.02123
M73 P5 R15
G1 X124.636 Y144.823 E.61114
G1 X124.06 Y144.901 E.02196
G1 X113.104 Y133.945 E.58461
G1 X113.055 Y134.551 E.02291
G1 X123.45 Y144.946 E.55472
G1 X122.805 Y144.956 E.02434
G1 X113.044 Y135.195 E.52086
G1 X113.087 Y135.893 E.02637
M73 P5 R14
G1 X122.113 Y144.919 E.48168
G1 X121.359 Y144.82 E.0287
G1 X113.183 Y136.643 E.43632
G1 X113.351 Y137.467 E.03171
G1 X120.532 Y144.648 E.38321
G1 X119.922 Y144.473 E.02396
G1 X119.577 Y144.347 E.01386
G1 X113.643 Y138.413 E.31664
G1 X113.901 Y139.051 E.02596
G1 X114.162 Y139.588 E.02251
G1 X118.407 Y143.832 E.22652
G1 X117.722 Y143.447 E.02967
G1 X117.144 Y143.057 E.02633
G1 X116.704 Y142.717 E.02095
G1 X116.336 Y142.403 E.01825
G1 X116.028 Y142.108 E.0161
G1 X114.527 Y140.607 E.08012
G1 E-.35 F2400
;WIPE_START
G1 F3600
G1 X115.234 Y141.314 E-.15
;WIPE_END
G1 Z.4 F18000
G1 X132.291 Y131.148 Z.4
G1 Z.2
G1 E.5 F2400
;TYPE:Gap infill
;WIDTH:0.211612
G1 F1800
G1 X132.096 Y130.879 E.00456
;WIDTH:0.23417
G1 X131.901 Y130.611 E.00517
G1 E-.35 F2400
;WIPE_START
G1 F1800
G1 X132.096 Y130.879 E-.15
;WIPE_END
G1 Z.4 F18000
G1 X128.502 Y126.654 Z.4
G1 Z.2
G1 E.5 F2400
;WIDTH:0.15214
G1 F1800
G1 X128.309 Y126.493 E.00224
;WIDTH:0.135259
G1 X128.174 Y126.388 E.00129
G1 E-.35 F2400
;WIPE_START
G1 F1800
G1 X128.309 Y126.493 E-.15
;WIPE_END
G1 Z.4 F18000
G1 X126.191 Y125.576 Z.4
G1 Z.2
G1 E.5 F2400
;WIDTH:0.239004
G1 F1800
G1 X125.837 Y125.366 E.00658
G1 E-.35 F2400
;WIPE_START
G1 F1800
G1 X126.191 Y125.576 E-.15
;WIPE_END
G1 Z.4 F18000
G1 X114.642 Y140.492 Z.4
G1 Z.2
G1 E.5 F2400
;WIDTH:0.151967
G1 F1800
G1 X114.496 Y140.314 E.00204
;WIDTH:0.135946
G1 X114.39 Y140.176 E.00132
G1 E-.35 F2400
;WIPE_START
G1 F1800
G1 X114.496 Y140.314 E-.15
;WIPE_END
G1 Z.4 F18000
G1 X119.15 Y144.28 Z.4
G1 Z.2
G1 E.5 F2400
;WIDTH:0.119179
G1 F1800
G1 X119.02 Y144.189 E.00098
;WIDTH:0.161995
G1 X118.891 Y144.098 E.00154
;WIDTH:0.204812
G1 X118.761 Y144.007 E.00209
;WIDTH:0.226221
G1 X118.631 Y143.916 E.00237
; stop printing object repose pied.stl id:0 copy 0
M106 S45
;LAYER_CHANGE
;Z:0.4
;HEIGHT:0.2
;BEFORE_LAYER_CHANGE
;0.4
G92 E0

G1 E-.35 F2400
;WIPE_START
G1 F1800
G1 X118.761 Y144.007 E-.15
;WIPE_END
EXCLUDE_OBJECT_END NAME=repose_pied.stl_id_0_copy_0
;_SET_FAN_SPEED_CHANGING_LAYER
SET_VELOCITY_LIMIT ACCEL=5000 ACCEL_TO_DECEL=2500
M140 S70 ; set bed temperature
; printing object repose pied.stl id:0 copy 0
SET_VELOCITY_LIMIT SQUARE_CORNER_VELOCITY=8
EXCLUDE_OBJECT_START NAME=repose_pied.stl_id_0_copy_0
G1 Z.4 F18000
G1 X133.98 Y135.045 Z.4
G1 E.5 F2400
SET_VELOCITY_LIMIT SQUARE_CORNER_VELOCITY=7
;TYPE:Inner wall
;WIDTH:0.419999
G1 F1865.918
G1 X133.946 Y135.874 E.02549
G1 F1753.694
G1 X133.862 Y136.642 E.02374
G1 X133.747 Y137.283 E.02001
G1 F1755.008
G1 X133.562 Y138.022 E.02341
G1 F1758.478
G1 X133.138 Y139.231 E.03937
G1 F1756.448
G1 X132.877 Y139.811 E.01954
G1 X132.317 Y140.822 E.03551
G1 F1760.762
G1 X131.655 Y141.766 E.03543
G1 F1756.092
G1 X131.083 Y142.439 E.02714
G1 F1755.665
G1 X130.634 Y142.901 E.0198
G1 X129.969 Y143.492 E.02734
G1 X129.46 Y143.887 E.0198
G1 X128.719 Y144.379 E.02733
G1 F1756.115
G1 X128.163 Y144.698 E.0197
G1 X127.386 Y145.06 E.02634
G1 F1753.684
G1 X126.649 Y145.361 E.02446
G1 X126.031 Y145.56 E.01995
G1 F1755.644
G1 X125.166 Y145.769 E.02734
G1 F1756.184
G1 X124.534 Y145.879 E.01971
G1 X123.378 Y145.98 E.03566
G1 F1755.814
G1 X122.617 Y145.98 E.02338
G1 X121.854 Y145.926 E.0235
G1 F1756.185
G1 X120.974 Y145.797 E.02733
G1 X120.347 Y145.661 E.01971
G1 X119.643 Y145.446 E.02262
G1 F1890.939
G1 X118.845 Y145.164 E.02601
G1 X118.171 Y144.861 E.02271
G1 F1902.14
G1 X117.502 Y144.504 E.0233
G1 F1905.325
G1 X116.856 Y144.1 E.02341
G1 F1906.538
