; HEADER_BLOCK_START
; generated by OrcaSlicer 2.0.0 on 2024-05-19 at 08:30:50
; total layer number: 107
; filament_density: 1.24
; filament_diameter: 1.75
; max_z_height: 21.40
; HEADER_BLOCK_END

; THUMBNAIL_BLOCK_START

;
; THUMBNAIL_BLOCK_END

; THUMBNAIL_BLOCK_START

;
; THUMBNAIL_BLOCK_END

; external perimeters extrusion width = 0.40mm
; perimeters extrusion width = 0.42mm
; infill extrusion width = 0.45mm
; solid infill extrusion width = 0.42mm
; top infill extrusion width = 0.40mm
; first layer extrusion width = 0.50mm

; EXECUTABLE_BLOCK_START
EXCLUDE_OBJECT_DEFINE NAME=retraction_tower.stl_id_0_copy_0 CENTER=110,110 POLYGON=[[90,105.5],[90.1022,104.724],[90.4019,104],[90.8787,103.379],[91.5,102.902],[92.2235,102.602],[93,102.5],[127,102.5],[127.776,102.602],[128.5,102.902],[129.121,103.379],[129.598,104],[129.898,104.724],[130,105.5],[130,114.5],[129.898,115.276],[129.598,116],[129.121,116.621],[128.5,117.098],[127.776,117.398],[127,117.5],[93,117.5],[92.2235,117.398],[91.5,117.098],[90.8787,116.621],[90.4019,116],[90.1022,115.276],[90,114.5],[90,105.5]]
M73 P0 R8
;TYPE:Custom
M220 S100
G90 ; use absolute coordinates
M83 ; extruder relative mode
M104 S150 ; set temporary nozzle temp to prevent oozing during homing
M140 S55 ; set final bed temp
G4 S30 ; allow partial nozzle warmup
G28 ; home all axis and restore leveling
G1 Z25 F240
G1 X10.0 Y30 F3000
M104 S210 ; set final nozzle temp
M190 S55 ; wait for bed temp to stabilize
M109 S210 ; wait for nozzle temp to stabilize
M73 P1 R8
G1 Z0.28 F240
G92 E0 ; Move Z Axis up
G1 Z2.0 F5000 ; Move to start position
M73 P2 R8
G1 X10 Y30 Z0.28 F300 ; Draw the first line
G1 X10 Y200 Z0.28 F1500 E15 ; Move to side a little
G1 X10.4 Y200 Z0.28 F5000.0 ; Draw the second line
M73 P3 R8
G1 X10.4 Y50 Z0.28 F1500.0 E30 ; Reset Extruder
G92 E0 ; Move Z Axis up
G1 Z2.0 F3000
M117 Start Printing..
G90
G21
M83 ; use relative distances for extrusion
; filament start gcode
M106 S0
;LAYER_CHANGE
;Z:0.2
;HEIGHT:0.2
;BEFORE_LAYER_CHANGE
;0.2
G92 E0

M73 P5 R8
G1 E-.5 F2400
;_SET_FAN_SPEED_CHANGING_LAYER
; Calib_Retraction_tower: Z_HEIGHT: 0.2, length:0
SET_VELOCITY_LIMIT ACCEL=500 ACCEL_TO_DECEL=250
SET_VELOCITY_LIMIT SQUARE_CORNER_VELOCITY=7
G1 Z.2 F18000
G1 X97.105 Y121.067
G1 Z.2
G1 E.5 F2400
;TYPE:Skirt
;WIDTH:0.5
G1 F3000
G1 X97.726 Y120.59 E.02917
G1 X98.385 Y120.21 E.02833
G1 X99.108 Y119.91 E.02917
G1 X99.843 Y119.713 E.02834
G1 X101 Y119.586 E.04335
G1 X135.38 Y119.611 E1.28054
G1 X136.157 Y119.713 E.02917
G1 X136.892 Y119.91 E.02834
G1 X137.615 Y120.21 E.02917
G1 X138.274 Y120.59 E.02833
G1 X138.895 Y121.067 E.02917
G1 X139.433 Y121.605 E.02833
G1 X139.91 Y122.226 E.02917
G1 X140.29 Y122.885 E.02834
G1 X140.59 Y123.608 E.02917
G1 X140.787 Y124.343 E.02834
G1 X140.889 Y125.12 E.02917
G1 X140.914 Y134.5 E.34938
G1 X140.787 Y135.657 E.04335
G1 X140.59 Y136.392 E.02834
G1 X140.29 Y137.115 E.02917
G1 X139.91 Y137.774 E.02834
G1 X139.433 Y138.395 E.02917
G1 X138.895 Y138.933 E.02834
G1 X138.274 Y139.41 E.02917
G1 X137.615 Y139.79 E.02833
G1 X136.892 Y140.09 E.02917
G1 X136.157 Y140.287 E.02834
G1 X135 Y140.414 E.04335
G1 X101 Y140.414 E1.26637
G1 X99.843 Y140.287 E.04335
G1 X99.108 Y140.09 E.02834
G1 X98.385 Y139.79 E.02917
G1 X97.726 Y139.41 E.02833
G1 X97.105 Y138.933 E.02917
G1 X96.567 Y138.395 E.02834
G1 X96.09 Y137.774 E.02917
G1 X95.71 Y137.115 E.02833
G1 X95.41 Y136.392 E.02917
G1 X95.213 Y135.657 E.02834
G1 X95.086 Y134.5 E.04335
G1 X95.086 Y125.5 E.33522
G1 X95.213 Y124.343 E.04335
G1 X95.41 Y123.608 E.02834
G1 X95.71 Y122.885 E.02917
G1 X96.09 Y122.226 E.02833
G1 X96.567 Y121.605 E.02917
G1 X97.076 Y121.095 E.02685
G1 X97.383 Y121.429 F18000
G1 F3000
G1 X98.56 Y120.632 E.05295
G1 X99.903 Y120.166 E.05295
G1 X101 Y120.043 E.04112
G1 X135.321 Y120.064 E1.27832
G1 X136.717 Y120.332 E.05295
G1 X137.44 Y120.632 E.02917
G1 X138.617 Y121.429 E.05295
G1 X139.071 Y121.883 E.02389
G1 X139.868 Y123.06 E.05295
G1 X140.334 Y124.403 E.05295
G1 X140.436 Y125.179 E.02917
G1 X140.457 Y134.5 E.34716
G1 X140.334 Y135.597 E.04112
G1 X139.868 Y136.94 E.05295
G1 X139.547 Y137.496 E.02389
G1 X138.617 Y138.571 E.05295
G1 X137.44 Y139.368 E.05295
M73 P6 R8
G1 X136.097 Y139.834 E.05295
G1 X135 Y139.957 E.04112
G1 X101 Y139.957 E1.26637
G1 X99.903 Y139.834 E.04112
G1 X99.283 Y139.668 E.02389
G1 X98.004 Y139.047 E.05295
G1 X96.929 Y138.117 E.05295
G1 X96.132 Y136.94 E.05295
G1 X95.666 Y135.597 E.05295
G1 X95.543 Y134.5 E.04112
G1 X95.543 Y125.5 E.33522
G1 X95.666 Y124.403 E.04112
G1 X96.132 Y123.06 E.05295
G1 X96.929 Y121.883 E.05295
G1 X97.355 Y121.458 E.0224
; printing object retraction_tower.stl id:0 copy 0
;WIPE_START
G1 X98.18 Y120.892
;WIPE_END
EXCLUDE_OBJECT_START NAME=retraction_tower.stl_id_0_copy_0
G1 X137.209 Y124.908 F18000
;TYPE:Inner wall
;WIDTH:0.499999
G1 F1800
G1 X137.293 Y125.71 E.03005
G1 X137.293 Y134.454 E.32565
G1 X137.209 Y135.092 E.02398
G1 X136.98 Y135.643 E.02224
G1 X136.617 Y136.117 E.02224
G1 X136.143 Y136.48 E.02224
G1 X135.592 Y136.709 E.02224
G1 X134.954 Y136.793 E.02398
G1 X101.046 Y136.793 E1.26292
G1 X100.408 Y136.709 E.02398
G1 X99.857 Y136.48 E.02224
G1 X99.383 Y136.117 E.02223
G1 X99.02 Y135.643 E.02224
G1 X98.791 Y135.092 E.02224
G1 X98.707 Y134.454 E.02398
G1 X98.707 Y125.546 E.33176
G1 X98.791 Y124.908 E.02398
G1 X99.02 Y124.357 E.02224
G1 X99.383 Y123.883 E.02224
G1 X99.857 Y123.52 E.02224
G1 X100.408 Y123.291 E.02224
G1 X101.046 Y123.207 E.02398
G1 X134.954 Y123.207 E1.26292
G1 X135.592 Y123.291 E.02398
G1 X136.143 Y123.52 E.02224
G1 X136.617 Y123.883 E.02224
G1 X136.98 Y124.357 E.02224
M73 P7 R8
G1 X137.194 Y124.871 E.02075
G1 X137.654 Y124.789 F18000
;TYPE:Outer wall
G1 F1800
G1 X137.75 Y125.71 E.03451
G1 X137.75 Y134.484 E.32677
G1 X137.654 Y135.211 E.02733
G1 X137.38 Y135.874 E.02672
G1 X136.943 Y136.443 E.02672
G1 X136.374 Y136.88 E.02672
G1 X135.711 Y137.154 E.02672
G1 X134.984 Y137.25 E.02733
G1 X101.016 Y137.25 E1.26515
G1 X100.289 Y137.154 E.02733
G1 X99.626 Y136.88 E.02672
G1 X99.057 Y136.443 E.02672
G1 X98.62 Y135.874 E.02672
G1 X98.346 Y135.211 E.02672
G1 X98.25 Y134.484 E.02733
G1 X98.25 Y125.516 E.33399
G1 X98.346 Y124.789 E.02733
G1 X98.62 Y124.126 E.02672
G1 X99.057 Y123.557 E.02672
G1 X99.626 Y123.12 E.02672
G1 X100.289 Y122.846 E.02672
G1 X101.016 Y122.75 E.02733
G1 X134.984 Y122.75 E1.26515
G1 X135.711 Y122.846 E.02733
G1 X136.374 Y123.12 E.02672
G1 X136.943 Y123.557 E.02672
G1 X137.38 Y124.126 E.02672
G1 X137.639 Y124.752 E.02523
;WIPE_START
G1 X137.75 Y125.71
G1 X137.75 Y125.745
;WIPE_END
G1 X134.945 Y123.344 F18000
;TYPE:Bottom surface
;WIDTH:0.50014
G1 F3600
G1 X136.917 Y125.316 E.10387
G1 X136.95 Y125.569 E.00951
G1 X136.95 Y125.996 E.0159
G1 X134.504 Y123.55 E.12887
G1 X133.858 Y123.55 E.02409
G1 X136.95 Y126.642 E.16294
G1 X136.95 Y127.289 E.02409
G1 X133.211 Y123.55 E.19701
G1 X132.565 Y123.55 E.02409
G1 X136.95 Y127.935 E.23108
G1 X136.95 Y128.582 E.02409
G1 X131.918 Y123.55 E.26515
G1 X131.271 Y123.55 E.02409
G1 X136.95 Y129.229 E.29922
G1 X136.95 Y129.875 E.02409
M73 P8 R8
G1 X130.625 Y123.55 E.33329
G1 X129.978 Y123.55 E.02409
G1 X136.95 Y130.522 E.36736
G1 X136.95 Y131.168 E.02409
G1 X129.332 Y123.55 E.40143
G1 X128.685 Y123.55 E.02409
G1 X136.95 Y131.815 E.4355
G1 X136.95 Y132.462 E.02409
G1 X128.038 Y123.55 E.46957
G1 X127.392 Y123.55 E.02409
G1 X136.95 Y133.108 E.50364
G1 X136.95 Y133.755 E.02409
G1 X126.745 Y123.55 E.53771
G1 X126.098 Y123.55 E.02409
G1 X136.95 Y134.402 E.57178
G1 X136.878 Y134.976 E.02158
G1 X125.452 Y123.55 E.60206
G1 X124.805 Y123.55 E.02409
M73 P8 R7
G1 X136.694 Y135.439 E.62643
G1 X136.42 Y135.811 E.01723
G1 X124.159 Y123.55 E.64604
G1 X123.512 Y123.55 E.02409
G1 X136.068 Y136.106 E.66159
G1 X135.971 Y136.181 E.00459
G1 X135.635 Y136.32 E.01352
G1 X122.865 Y123.55 E.67285
G1 X122.219 Y123.55 E.02409
G1 X135.097 Y136.428 E.67856
G1 X134.931 Y136.45 E.00624
M73 P9 R7
G1 X134.472 Y136.45 E.01709
G1 X121.572 Y123.55 E.67972
G1 X120.926 Y123.55 E.02409
G1 X133.826 Y136.45 E.67972
G1 X133.179 Y136.45 E.02409
G1 X120.279 Y123.55 E.67972
G1 X119.632 Y123.55 E.02409
G1 X132.533 Y136.45 E.67972
G1 X131.886 Y136.45 E.02409
G1 X118.986 Y123.55 E.67972
G1 X118.339 Y123.55 E.02409
G1 X131.239 Y136.45 E.67972
G1 X130.593 Y136.45 E.02409
G1 X117.693 Y123.55 E.67972
G1 X117.046 Y123.55 E.02409
G1 X129.946 Y136.45 E.67972
G1 X129.3 Y136.45 E.02409
G1 X116.399 Y123.55 E.67972
G1 X115.753 Y123.55 E.02409
G1 X128.653 Y136.45 E.67972
G1 X128.006 Y136.45 E.02409
G1 X115.106 Y123.55 E.67972
G1 X114.46 Y123.55 E.02409
G1 X127.36 Y136.45 E.67972
G1 X126.713 Y136.45 E.02409
M73 P10 R7
G1 X113.813 Y123.55 E.67972
G1 X113.166 Y123.55 E.02409
G1 X126.067 Y136.45 E.67972
G1 X125.42 Y136.45 E.02409
G1 X112.52 Y123.55 E.67972
G1 X111.873 Y123.55 E.02409
G1 X124.773 Y136.45 E.67972
G1 X124.127 Y136.45 E.02409
G1 X111.227 Y123.55 E.67972
G1 X110.58 Y123.55 E.02409
G1 X123.48 Y136.45 E.67972
G1 X122.834 Y136.45 E.02409
G1 X109.933 Y123.55 E.67972
G1 X109.287 Y123.55 E.02409
G1 X122.187 Y136.45 E.67972
G1 X121.54 Y136.45 E.02409
G1 X108.64 Y123.55 E.67972
G1 X107.993 Y123.55 E.02409
G1 X120.894 Y136.45 E.67972
G1 X120.247 Y136.45 E.02409
G1 X107.347 Y123.55 E.67972
G1 X106.7 Y123.55 E.02409
G1 X119.6 Y136.45 E.67972
G1 X118.954 Y136.45 E.02409
M73 P11 R7
G1 X106.054 Y123.55 E.67972
G1 X105.407 Y123.55 E.02409
G1 X118.307 Y136.45 E.67972
G1 X117.661 Y136.45 E.02409
G1 X104.76 Y123.55 E.67972
G1 X104.114 Y123.55 E.02409
G1 X117.014 Y136.45 E.67972
G1 X116.367 Y136.45 E.02409
G1 X103.467 Y123.55 E.67972
G1 X102.821 Y123.55 E.02409
G1 X115.721 Y136.45 E.67972
G1 X115.074 Y136.45 E.02409
G1 X102.174 Y123.55 E.67972
G1 X101.527 Y123.55 E.02409
G1 X114.428 Y136.45 E.67972
G1 X113.781 Y136.45 E.02409
G1 X100.903 Y123.572 E.67856
G1 X100.498 Y123.625 E.01522
G1 X100.365 Y123.68 E.00537
G1 X113.134 Y136.45 E.67285
G1 X112.488 Y136.45 E.02409
G1 X99.932 Y123.894 E.66158
G1 X99.627 Y124.127 E.01429
G1 X99.58 Y124.189 E.00289
G1 X111.841 Y136.45 E.64604
G1 X111.195 Y136.45 E.02409
M73 P12 R7
G1 X99.306 Y124.561 E.62642
G1 X99.122 Y125.024 E.01855
G1 X110.548 Y136.45 E.60206
G1 X109.901 Y136.45 E.02409
G1 X99.05 Y125.599 E.57177
G1 X99.05 Y126.245 E.02409
G1 X109.255 Y136.45 E.5377
G1 X108.608 Y136.45 E.02409
G1 X99.05 Y126.892 E.50363
G1 X99.05 Y127.538 E.02409
G1 X107.962 Y136.45 E.46956
G1 X107.315 Y136.45 E.02409
G1 X99.05 Y128.185 E.43549
G1 X99.05 Y128.832 E.02409
G1 X106.668 Y136.45 E.40142
G1 X106.022 Y136.45 E.02409
G1 X99.05 Y129.478 E.36735
G1 X99.05 Y130.125 E.02409
G1 X105.375 Y136.45 E.33328
G1 X104.729 Y136.45 E.02409
G1 X99.05 Y130.771 E.29921
G1 X99.05 Y131.418 E.02409
G1 X104.082 Y136.45 E.26514
G1 X103.435 Y136.45 E.02409
G1 X99.05 Y132.065 E.23107
G1 X99.05 Y132.711 E.02409
G1 X102.789 Y136.45 E.197
G1 X102.142 Y136.45 E.02409
G1 X99.05 Y133.358 E.16293
G1 X99.05 Y134.004 E.02409
G1 X101.496 Y136.45 E.12886
G1 X101.069 Y136.45 E.0159
G1 X100.816 Y136.417 E.00952
G1 X98.844 Y134.446 E.10387
;WIPE_START
G1 X99.551 Y135.153
;WIPE_END
G1 X100.524 Y136.475 F18000
;TYPE:Gap infill
;WIDTH:0.105795
G1 F1800
G1 X100.477 Y136.452 E.00027
;WIDTH:0.134269
G1 X100.39 Y136.393 E.00078
;WIDTH:0.175166
G1 X100.303 Y136.335 E.00113
;WIDTH:0.216064
G1 X100.216 Y136.277 E.00148
;WIDTH:0.256961
G1 X100.128 Y136.219 E.00183
;WIDTH:0.297859
G1 X100.041 Y136.161 E.00218
;WIDTH:0.334569
G1 X99.854 Y135.997 E.00591
;WIDTH:0.356255
G1 X99.667 Y135.833 E.00635
M73 P13 R7
G1 X99.339 Y135.459 E.0127
;WIDTH:0.297857
G1 X99.281 Y135.372 E.00218
;WIDTH:0.256959
G1 X99.223 Y135.284 E.00183
;WIDTH:0.216062
G1 X99.165 Y135.197 E.00148
;WIDTH:0.175165
G1 X99.107 Y135.11 E.00113
;WIDTH:0.134268
G1 X99.048 Y135.023 E.00078
;WIDTH:0.11382
G1 X99.025 Y134.976 E.0003
;WIPE_START
G1 X99.048 Y135.023
;WIPE_END
G1 X136.943 Y124.863 F18000
;WIDTH:0.334671
G1 F1800
G1 X136.638 Y124.515 E.01101
;WIDTH:0.358771
G1 X136.333 Y124.167 E.01191
G1 X135.959 Y123.84 E.0128
;WIDTH:0.297953
G1 X135.872 Y123.781 E.00218
;WIDTH:0.257057
G1 X135.784 Y123.723 E.00183
;WIDTH:0.216161
G1 X135.697 Y123.665 E.00148
;WIDTH:0.175265
G1 X135.61 Y123.607 E.00113
;WIDTH:0.134369
G1 X135.523 Y123.548 E.00078
;WIDTH:0.113922
G1 X135.476 Y123.525 E.0003
;WIPE_START
G1 X135.523 Y123.548
;WIPE_END
G1 X136.975 Y125.024 F18000
;WIDTH:0.0977706
G1 F1800
G1 X136.562 Y124.186 E.00418
; stop printing object retraction_tower.stl id:0 copy 0
M106 S255
;LAYER_CHANGE
;Z:0.4
;HEIGHT:0.2
;BEFORE_LAYER_CHANGE
;0.4
G92 E0

;WIPE_START
G1 F1800
G1 X136.975 Y125.024
;WIPE_END
EXCLUDE_OBJECT_END NAME=retraction_tower.stl_id_0_copy_0
;_SET_FAN_SPEED_CHANGING_LAYER
; Calib_Retraction_tower: Z_HEIGHT: 0.4, length:0
SET_VELOCITY_LIMIT ACCEL=5000 ACCEL_TO_DECEL=2500
M104 S205 ; set nozzle temperature
M140 S55 ; set bed temperature
SET_VELOCITY_LIMIT SQUARE_CORNER_VELOCITY=8
G1 X140.702 Y124.026 Z.4 F18000
SET_VELOCITY_LIMIT SQUARE_CORNER_VELOCITY=7
;TYPE:Skirt
;WIDTH:0.5
G1 F3000
G1 X140.787 Y124.343 E.01225
G1 X140.889 Y125.12 E.02917
G1 X140.914 Y134.5 E.34938
G1 X140.787 Y135.657 E.04335
G1 X140.59 Y136.392 E.02834
G1 X140.29 Y137.115 E.02917
G1 X139.91 Y137.774 E.02834
G1 X139.433 Y138.395 E.02917
G1 X138.895 Y138.933 E.02834
G1 X138.274 Y139.41 E.02917
G1 X137.615 Y139.79 E.02833
G1 X136.892 Y140.09 E.02917
G1 X136.157 Y140.287 E.02834
G1 X135 Y140.414 E.04335
G1 X101 Y140.414 E1.26637
G1 X99.843 Y140.287 E.04335
G1 X99.108 Y140.09 E.02834
G1 X98.385 Y139.79 E.02917
G1 X97.726 Y139.41 E.02833
G1 X97.105 Y138.933 E.02917
G1 X96.567 Y138.395 E.02834
G1 X96.09 Y137.774 E.02917
G1 X95.71 Y137.115 E.02833
G1 X95.41 Y136.392 E.02917
G1 X95.213 Y135.657 E.02834
G1 X95.086 Y134.5 E.04335
G1 X95.086 Y125.5 E.33522
G1 X95.213 Y124.343 E.04335
G1 X95.41 Y123.608 E.02834
G1 X95.71 Y122.885 E.02917
G1 X96.09 Y122.226 E.02833
G1 X96.567 Y121.605 E.02917
G1 X97.105 Y121.067 E.02834
G1 X97.726 Y120.59 E.02917
G1 X98.385 Y120.21 E.02833
G1 X99.108 Y119.91 E.02917
G1 X99.843 Y119.713 E.02834
G1 X101 Y119.586 E.04335
G1 X135.38 Y119.611 E1.28054
G1 X136.157 Y119.713 E.02917
G1 X136.892 Y119.91 E.02834
G1 X137.615 Y120.21 E.02917
G1 X138.274 Y120.59 E.02833
G1 X138.895 Y121.067 E.02917
G1 X139.433 Y121.605 E.02833
G1 X139.91 Y122.226 E.02917
G1 X140.29 Y122.885 E.02834
G1 X140.59 Y123.608 E.02917
G1 X140.692 Y123.987 E.0146
SET_VELOCITY_LIMIT SQUARE_CORNER_VELOCITY=8
G1 X140.243 Y124.142 F18000
SET_VELOCITY_LIMIT SQUARE_CORNER_VELOCITY=7
G1 F3000
G1 X140.334 Y124.403 E.01027
G1 X140.436 Y125.179 E.02917
G1 X140.457 Y134.5 E.34716
G1 X140.334 Y135.597 E.04112
G1 X139.868 Y136.94 E.05295
G1 X139.547 Y137.496 E.02389
G1 X138.617 Y138.571 E.05295
G1 X137.44 Y139.368 E.05295
G1 X136.097 Y139.834 E.05295
G1 X135 Y139.957 E.04112
G1 X101 Y139.957 E1.26637
G1 X99.903 Y139.834 E.04112
G1 X99.283 Y139.668 E.02389
G1 X98.004 Y139.047 E.05295
G1 X96.929 Y138.117 E.05295
G1 X96.132 Y136.94 E.05295
G1 X95.666 Y135.597 E.05295
G1 X95.543 Y134.5 E.04112
G1 X95.543 Y125.5 E.33522
G1 X95.666 Y124.403 E.04112
G1 X96.132 Y123.06 E.05295
G1 X96.929 Y121.883 E.05295
G1 X97.383 Y121.429 E.02389
G1 X98.56 Y120.632 E.05295
G1 X99.903 Y120.166 E.05295
G1 X101 Y120.043 E.04112
G1 X135.321 Y120.064 E1.27832
G1 X136.717 Y120.332 E.05295
M73 P14 R7
G1 X137.44 Y120.632 E.02917
G1 X138.617 Y121.429 E.05295
G1 X139.071 Y121.883 E.02389
G1 X139.868 Y123.06 E.05295
G1 X140.23 Y124.104 E.04119
; printing object retraction_tower.stl id:0 copy 0
SET_VELOCITY_LIMIT SQUARE_CORNER_VELOCITY=8
;WIPE_START
G1 X140.334 Y124.403
G1 X140.423 Y125.081
;WIPE_END
EXCLUDE_OBJECT_START NAME=retraction_tower.stl_id_0_copy_0
G1 X137.345 Y124.872 F18000
SET_VELOCITY_LIMIT SQUARE_CORNER_VELOCITY=7
;TYPE:Inner wall
;WIDTH:0.419999
G1 F3600
G1 X137.433 Y125.71 E.02592
G1 X137.433 Y134.463 E.26894
G1 X137.345 Y135.128 E.02063
G1 X137.103 Y135.714 E.01948
G1 X136.717 Y136.217 E.01948
G1 X136.214 Y136.603 E.01948
G1 X135.628 Y136.845 E.01948
G1 X134.963 Y136.933 E.02063
G1 X101.037 Y136.933 E1.04244
G1 X100.372 Y136.845 E.02063
G1 X99.786 Y136.603 E.01948
G1 X99.283 Y136.217 E.01948
G1 X98.897 Y135.714 E.01948
G1 X98.655 Y135.128 E.01948
G1 X98.567 Y134.463 E.02063
