; HEADER_BLOCK_START
; generated by OrcaSlicer 2.0.0 on 2024-06-21 at 08:04:38
; total layer number: 107
; filament_density: 1.24
; filament_diameter: 1.75
; max_z_height: 21.40
; HEADER_BLOCK_END

; THUMBNAIL_BLOCK_START

;
; THUMBNAIL_BLOCK_END

; THUMBNAIL_BLOCK_START

;
; THUMBNAIL_BLOCK_END

; external perimeters extrusion width = 0.40mm
; perimeters extrusion width = 0.42mm
; infill extrusion width = 0.45mm
; solid infill extrusion width = 0.42mm
; top infill extrusion width = 0.40mm
; first layer extrusion width = 0.50mm

; EXECUTABLE_BLOCK_START
EXCLUDE_OBJECT_DEFINE NAME=retraction_tower.stl_id_0_copy_0 CENTER=115,115 POLYGON=[[95,110.5],[95.1022,109.724],[95.4019,109],[95.8787,108.379],[96.5,107.902],[97.2235,107.602],[98,107.5],[132,107.5],[132.776,107.602],[133.5,107.902],[134.121,108.379],[134.598,109],[134.898,109.724],[135,110.5],[135,119.5],[134.898,120.276],[134.598,121],[134.121,121.621],[133.5,122.098],[132.776,122.398],[132,122.5],[98,122.5],[97.2235,122.398],[96.5,122.098],[95.8787,121.621],[95.4019,121],[95.1022,120.276],[95,119.5],[95,110.5]]
M73 P0 R8
;TYPE:Custom
M220 S100
G90 ; use absolute coordinates
M83 ; extruder relative mode
M104 S150 ; set temporary nozzle temp to prevent oozing during homing
M140 S75 ; set final bed temp
G4 S30 ; allow partial nozzle warmup
G28 ; home all axis and restore leveling
BED_MESH_CALIBRATE PROFILE=adaptive ADAPTIVE=1 ADAPTIVE_MARGIN=0
G1 Z25 F240
G1 X10.0 Y30 F3000
M104 S235 ; set final nozzle temp
M190 S75 ; wait for bed temp to stabilize
M109 S235 ; wait for nozzle temp to stabilize
M73 P1 R8
G1 Z0.28 F240
G92 E0 ; Move Z Axis up
G1 Z2.0 F5000 ; Move to start position
M73 P2 R8
G1 X5 Y30 Z0.28 F300 ; Draw the first line
G1 X5 Y200 Z0.28 F1500 E15 ; Move to side a little
G1 X5.4 Y200 Z0.28 F5000.0 ; Draw the second line
M73 P4 R8
G1 X5.4 Y50 Z0.28 F1500.0 E30 ; Reset Extruder
G92 E0 ; Move Z Axis up
G1 Z2.0 F3000
M117 Start Printing..
G90
G21
M83 ; use relative distances for extrusion
; filament start gcode
M106 S0
;LAYER_CHANGE
;Z:0.2
;HEIGHT:0.2
;BEFORE_LAYER_CHANGE
;0.2
G92 E0

M73 P5 R8
G1 E-.5 F2400
;_SET_FAN_SPEED_CHANGING_LAYER
; Calib_Retraction_tower: Z_HEIGHT: 0.2, length:0.5
SET_VELOCITY_LIMIT ACCEL=500 ACCEL_TO_DECEL=250
SET_VELOCITY_LIMIT SQUARE_CORNER_VELOCITY=7
; printing object retraction_tower.stl id:0 copy 0
EXCLUDE_OBJECT_START NAME=retraction_tower.stl_id_0_copy_0
G1 Z.2 F18000
G1 X142.209 Y129.908
G1 Z.2
G1 E.5 F2400
;TYPE:Inner wall
;WIDTH:0.499999
G1 F1800
G1 X142.293 Y130.71 E.02759
G1 X142.293 Y139.454 E.29907
G1 X142.209 Y140.092 E.02202
G1 X141.98 Y140.643 E.02042
G1 X141.617 Y141.117 E.02042
G1 X141.143 Y141.48 E.02042
G1 X140.592 Y141.709 E.02042
G1 X139.954 Y141.793 E.02202
G1 X106.046 Y141.793 E1.15982
G1 X105.408 Y141.709 E.02202
G1 X104.857 Y141.48 E.02042
G1 X104.383 Y141.117 E.02042
G1 X104.02 Y140.643 E.02042
G1 X103.791 Y140.092 E.02042
G1 X103.707 Y139.454 E.02202
G1 X103.707 Y130.546 E.30468
G1 X103.791 Y129.908 E.02202
G1 X104.02 Y129.357 E.02042
G1 X104.383 Y128.883 E.02042
G1 X104.857 Y128.52 E.02042
G1 X105.408 Y128.291 E.02042
G1 X106.046 Y128.207 E.02202
G1 X139.954 Y128.207 E1.15982
G1 X140.592 Y128.291 E.02202
M73 P6 R8
G1 X141.143 Y128.52 E.02042
G1 X141.617 Y128.883 E.02042
G1 X141.98 Y129.357 E.02042
G1 X142.194 Y129.871 E.01905
G1 X142.654 Y129.789 F18000
;TYPE:Outer wall
G1 F1800
G1 X142.75 Y130.71 E.03169
G1 X142.75 Y139.484 E.30009
G1 X142.654 Y140.211 E.0251
G1 X142.38 Y140.874 E.02454
G1 X141.943 Y141.443 E.02454
G1 X141.374 Y141.88 E.02454
G1 X140.711 Y142.154 E.02454
G1 X139.984 Y142.25 E.0251
G1 X106.016 Y142.25 E1.16187
G1 X105.289 Y142.154 E.0251
G1 X104.626 Y141.88 E.02454
G1 X104.057 Y141.443 E.02454
G1 X103.62 Y140.874 E.02454
G1 X103.346 Y140.211 E.02454
G1 X103.25 Y139.484 E.0251
G1 X103.25 Y130.516 E.30673
G1 X103.346 Y129.789 E.0251
G1 X103.62 Y129.126 E.02454
G1 X104.057 Y128.557 E.02454
G1 X104.626 Y128.12 E.02454
G1 X105.289 Y127.846 E.02454
G1 X106.016 Y127.75 E.0251
G1 X139.984 Y127.75 E1.16187
G1 X140.711 Y127.846 E.0251
G1 X141.374 Y128.12 E.02454
G1 X141.943 Y128.557 E.02454
G1 X142.38 Y129.126 E.02454
G1 X142.639 Y129.752 E.02317
G1 E-.35 F2400
;WIPE_START
G1 F1800
G1 X142.75 Y130.71 E-.14475
G1 X142.75 Y130.745 E-.00525
;WIPE_END
G1 Z.4 F18000
G1 X139.945 Y128.344
G1 Z.4
G1 Z.2
G1 E.5 F2400
;TYPE:Bottom surface
;WIDTH:0.50014
G1 F3600
G1 X141.917 Y130.316 E.0954
G1 X141.95 Y130.569 E.00873
G1 X141.95 Y130.996 E.0146
G1 X139.504 Y128.55 E.11835
G1 X138.858 Y128.55 E.02212
G1 X141.95 Y131.642 E.14964
G1 X141.95 Y132.289 E.02212
G1 X138.211 Y128.55 E.18092
G1 X137.565 Y128.55 E.02212
G1 X141.95 Y132.935 E.21221
G1 X141.95 Y133.582 E.02212
M73 P7 R8
G1 X136.918 Y128.55 E.2435
G1 X136.271 Y128.55 E.02212
G1 X141.95 Y134.229 E.27479
G1 X141.95 Y134.875 E.02212
G1 X135.625 Y128.55 E.30608
G1 X134.978 Y128.55 E.02212
G1 X141.95 Y135.522 E.33737
G1 X141.95 Y136.168 E.02212
G1 X134.332 Y128.55 E.36866
G1 X133.685 Y128.55 E.02212
G1 X141.95 Y136.815 E.39995
G1 X141.95 Y137.462 E.02212
G1 X133.038 Y128.55 E.43123
G1 X132.392 Y128.55 E.02212
G1 X141.95 Y138.108 E.46252
G1 X141.95 Y138.755 E.02212
G1 X131.745 Y128.55 E.49381
G1 X131.098 Y128.55 E.02212
G1 X141.95 Y139.402 E.5251
G1 X141.878 Y139.976 E.01982
G1 X130.452 Y128.55 E.55292
G1 X129.805 Y128.55 E.02212
G1 X141.694 Y140.439 E.57529
G1 X141.42 Y140.811 E.01582
G1 X129.159 Y128.55 E.5933
G1 X128.512 Y128.55 E.02212
G1 X141.068 Y141.106 E.60758
G1 X140.971 Y141.181 E.00421
G1 X140.635 Y141.32 E.01241
G1 X127.865 Y128.55 E.61792
G1 X127.219 Y128.55 E.02212
M73 P8 R8
G1 X140.097 Y141.428 E.62317
G1 X139.931 Y141.45 E.00573
G1 X139.472 Y141.45 E.0157
G1 X126.572 Y128.55 E.62423
G1 X125.926 Y128.55 E.02212
G1 X138.826 Y141.45 E.62423
M73 P8 R7
G1 X138.179 Y141.45 E.02212
G1 X125.279 Y128.55 E.62423
G1 X124.632 Y128.55 E.02212
G1 X137.533 Y141.45 E.62423
G1 X136.886 Y141.45 E.02212
G1 X123.986 Y128.55 E.62423
G1 X123.339 Y128.55 E.02212
G1 X136.239 Y141.45 E.62423
G1 X135.593 Y141.45 E.02212
G1 X122.693 Y128.55 E.62423
G1 X122.046 Y128.55 E.02212
G1 X134.946 Y141.45 E.62423
G1 X134.3 Y141.45 E.02212
G1 X121.399 Y128.55 E.62423
G1 X120.753 Y128.55 E.02212
G1 X133.653 Y141.45 E.62423
G1 X133.006 Y141.45 E.02212
G1 X120.106 Y128.55 E.62423
G1 X119.46 Y128.55 E.02212
M73 P9 R7
G1 X132.36 Y141.45 E.62423
G1 X131.713 Y141.45 E.02212
G1 X118.813 Y128.55 E.62423
G1 X118.166 Y128.55 E.02212
G1 X131.067 Y141.45 E.62423
G1 X130.42 Y141.45 E.02212
G1 X117.52 Y128.55 E.62423
G1 X116.873 Y128.55 E.02212
G1 X129.773 Y141.45 E.62423
G1 X129.127 Y141.45 E.02212
G1 X116.227 Y128.55 E.62423
G1 X115.58 Y128.55 E.02212
G1 X128.48 Y141.45 E.62423
G1 X127.834 Y141.45 E.02212
G1 X114.933 Y128.55 E.62423
G1 X114.287 Y128.55 E.02212
G1 X127.187 Y141.45 E.62423
G1 X126.54 Y141.45 E.02212
G1 X113.64 Y128.55 E.62423
G1 X112.993 Y128.55 E.02212
G1 X125.894 Y141.45 E.62423
G1 X125.247 Y141.45 E.02212
G1 X112.347 Y128.55 E.62423
G1 X111.7 Y128.55 E.02212
M73 P10 R7
G1 X124.6 Y141.45 E.62423
G1 X123.954 Y141.45 E.02212
G1 X111.054 Y128.55 E.62423
G1 X110.407 Y128.55 E.02212
G1 X123.307 Y141.45 E.62423
G1 X122.661 Y141.45 E.02212
G1 X109.76 Y128.55 E.62423
G1 X109.114 Y128.55 E.02212
G1 X122.014 Y141.45 E.62423
G1 X121.367 Y141.45 E.02212
G1 X108.467 Y128.55 E.62423
G1 X107.821 Y128.55 E.02212
G1 X120.721 Y141.45 E.62423
G1 X120.074 Y141.45 E.02212
G1 X107.174 Y128.55 E.62423
G1 X106.527 Y128.55 E.02212
G1 X119.428 Y141.45 E.62423
G1 X118.781 Y141.45 E.02212
G1 X105.903 Y128.572 E.62317
G1 X105.498 Y128.625 E.01398
G1 X105.365 Y128.68 E.00493
G1 X118.134 Y141.45 E.61792
G1 X117.488 Y141.45 E.02212
G1 X104.932 Y128.894 E.60758
G1 X104.627 Y129.127 E.01312
M73 P11 R7
G1 X104.58 Y129.189 E.00266
G1 X116.841 Y141.45 E.5933
G1 X116.195 Y141.45 E.02212
G1 X104.306 Y129.561 E.57529
G1 X104.122 Y130.024 E.01703
G1 X115.548 Y141.45 E.55291
G1 X114.901 Y141.45 E.02212
G1 X104.05 Y130.599 E.52509
G1 X104.05 Y131.245 E.02212
G1 X114.255 Y141.45 E.49381
G1 X113.608 Y141.45 E.02212
G1 X104.05 Y131.892 E.46252
G1 X104.05 Y132.538 E.02212
G1 X112.962 Y141.45 E.43123
G1 X112.315 Y141.45 E.02212
G1 X104.05 Y133.185 E.39994
G1 X104.05 Y133.832 E.02212
G1 X111.668 Y141.45 E.36865
G1 X111.022 Y141.45 E.02212
G1 X104.05 Y134.478 E.33736
G1 X104.05 Y135.125 E.02212
G1 X110.375 Y141.45 E.30607
G1 X109.729 Y141.45 E.02212
G1 X104.05 Y135.771 E.27478
G1 X104.05 Y136.418 E.02212
G1 X109.082 Y141.45 E.2435
G1 X108.435 Y141.45 E.02212
G1 X104.05 Y137.065 E.21221
G1 X104.05 Y137.711 E.02212
G1 X107.789 Y141.45 E.18092
G1 X107.142 Y141.45 E.02212
M73 P12 R7
G1 X104.05 Y138.358 E.14963
G1 X104.05 Y139.004 E.02212
G1 X106.496 Y141.45 E.11834
G1 X106.069 Y141.45 E.0146
G1 X105.816 Y141.417 E.00874
G1 X103.844 Y139.446 E.09539
G1 E-.35 F2400
;WIPE_START
G1 F3600
G1 X104.551 Y140.153 E-.15
;WIPE_END
G1 Z.4 F18000
G1 X105.524 Y141.475 Z.4
G1 Z.2
G1 E.5 F2400
;TYPE:Gap infill
;WIDTH:0.105795
G1 F1800
G1 X105.477 Y141.452 E.00025
;WIDTH:0.134269
G1 X105.39 Y141.393 E.00072
;WIDTH:0.175166
G1 X105.303 Y141.335 E.00104
;WIDTH:0.216064
G1 X105.216 Y141.277 E.00136
;WIDTH:0.256961
G1 X105.128 Y141.219 E.00168
;WIDTH:0.297859
G1 X105.041 Y141.161 E.002
;WIDTH:0.334569
G1 X104.854 Y140.997 E.00543
;WIDTH:0.356255
G1 X104.667 Y140.833 E.00583
G1 X104.339 Y140.459 E.01166
;WIDTH:0.297857
G1 X104.281 Y140.372 E.002
;WIDTH:0.256959
G1 X104.223 Y140.284 E.00168
;WIDTH:0.216062
G1 X104.165 Y140.197 E.00136
;WIDTH:0.175165
G1 X104.107 Y140.11 E.00104
;WIDTH:0.134268
G1 X104.048 Y140.023 E.00072
;WIDTH:0.11382
G1 X104.025 Y139.976 E.00028
G1 E-.43015 F2400
;WIPE_START
G1 F1800
G1 X104.048 Y140.023 E-.06985
;WIPE_END
G1 Z.4 F18000
G1 X141.943 Y129.863 Z.4
G1 Z.2
G1 E.5 F2400
;WIDTH:0.334671
G1 F1800
G1 X141.638 Y129.515 E.01011
;WIDTH:0.358771
G1 X141.333 Y129.167 E.01094
G1 X140.959 Y128.84 E.01176
;WIDTH:0.297953
G1 X140.872 Y128.781 E.002
;WIDTH:0.257057
G1 X140.784 Y128.723 E.00168
;WIDTH:0.216161
G1 X140.697 Y128.665 E.00136
;WIDTH:0.175265
G1 X140.61 Y128.607 E.00104
;WIDTH:0.134369
G1 X140.523 Y128.548 E.00072
;WIDTH:0.113922
G1 X140.476 Y128.525 E.00028
G1 E-.42993 F2400
;WIPE_START
G1 F1800
G1 X140.523 Y128.548 E-.07007
;WIPE_END
G1 Z.4 F18000
G1 X141.975 Y130.024 Z.4
G1 Z.2
G1 E.5 F2400
;WIDTH:0.0977706
G1 F1800
G1 X141.562 Y129.186 E.00384
; stop printing object retraction_tower.stl id:0 copy 0
M106 S45
;LAYER_CHANGE
;Z:0.4
;HEIGHT:0.2
;BEFORE_LAYER_CHANGE
;0.4
G92 E0

G1 E-.35 F2400
;WIPE_START
G1 F1800
G1 X141.975 Y130.024 E-.15
;WIPE_END
EXCLUDE_OBJECT_END NAME=retraction_tower.stl_id_0_copy_0
;_SET_FAN_SPEED_CHANGING_LAYER
; Calib_Retraction_tower: Z_HEIGHT: 0.4, length:0.5
SET_VELOCITY_LIMIT ACCEL=5000 ACCEL_TO_DECEL=2500
M140 S70 ; set bed temperature
; printing object retraction_tower.stl id:0 copy 0
SET_VELOCITY_LIMIT SQUARE_CORNER_VELOCITY=8
EXCLUDE_OBJECT_START NAME=retraction_tower.stl_id_0_copy_0
G1 Z.4 F18000
G1 X142.345 Y129.872 Z.4
G1 E.5 F2400
SET_VELOCITY_LIMIT SQUARE_CORNER_VELOCITY=7
;TYPE:Inner wall
;WIDTH:0.419999
G1 F3600
G1 X142.433 Y130.71 E.0238
G1 X142.433 Y139.463 E.24698
G1 X142.345 Y140.128 E.01894
G1 X142.103 Y140.714 E.01789
G1 X141.717 Y141.217 E.01789
G1 X141.214 Y141.603 E.01789
G1 X140.628 Y141.845 E.01789
G1 X139.963 Y141.933 E.01894
G1 X106.037 Y141.933 E.95734
G1 X105.372 Y141.845 E.01894
G1 X104.786 Y141.603 E.01789
G1 X104.283 Y141.217 E.01789
G1 X103.897 Y140.714 E.01789
G1 X103.655 Y140.128 E.01789
G1 X103.567 Y139.463 E.01894
G1 X103.567 Y130.537 E.25187
G1 X103.655 Y129.872 E.01894
G1 X103.897 Y129.286 E.01789
G1 X104.283 Y128.783 E.01789
G1 X104.786 Y128.397 E.01789
G1 X105.372 Y128.155 E.01789
G1 X106.037 Y128.067 E.01894
G1 X139.963 Y128.067 E.95734
G1 X140.628 Y128.155 E.01894
G1 X141.214 Y128.397 E.01789
G1 X141.717 Y128.783 E.01789
G1 X142.103 Y129.286 E.01789
G1 X142.33 Y129.835 E.01676
SET_VELOCITY_LIMIT SQUARE_CORNER_VELOCITY=8
G1 X142.703 Y129.776 F18000
SET_VELOCITY_LIMIT ACCEL=2000 ACCEL_TO_DECEL=1000
;TYPE:Outer wall
;WIDTH:0.399999
G1 F3600
G1 X142.8 Y130.71 E.02511
G1 X142.8 Y139.487 E.23453
G1 X142.703 Y140.224 E.01987
G1 X142.423 Y140.899 E.01952
G1 X141.979 Y141.479 E.01952
G1 X141.399 Y141.923 E.01952
G1 X140.724 Y142.203 E.01952
G1 X139.987 Y142.3 E.01987
G1 X106.013 Y142.3 E.90785
G1 X105.276 Y142.203 E.01987
G1 X104.601 Y141.923 E.01952
G1 X104.021 Y141.479 E.01952
G1 X103.577 Y140.899 E.01952
G1 X103.297 Y140.224 E.01952
G1 X103.2 Y139.487 E.01987
G1 X103.2 Y130.513 E.2398
G1 X103.297 Y129.776 E.01987
G1 X103.577 Y129.101 E.01952
G1 X104.021 Y128.521 E.01952
G1 X104.601 Y128.077 E.01952
G1 X105.276 Y127.797 E.01952
G1 X106.013 Y127.7 E.01987
G1 X139.987 Y127.7 E.90785
G1 X140.724 Y127.797 E.01987
M73 P13 R7
G1 X141.399 Y128.077 E.01952
G1 X141.979 Y128.521 E.01952
G1 X142.423 Y129.101 E.01952
G1 X142.688 Y129.739 E.01845
G1 E-.35 F2400
;WIPE_START
G1 F3600
G1 X142.8 Y130.71 E-.14671
G1 X142.8 Y130.732 E-.00329
;WIPE_END
SET_VELOCITY_LIMIT ACCEL=5000 ACCEL_TO_DECEL=2500
G1 Z.6 F18000
G1 X142.286 Y139.713
G1 Z.6
G1 Z.4
G1 E.5 F2400
;TYPE:Internal solid infill
;WIDTH:0.420032
G1 F6000
G1 X140.411 Y141.589 E.07485
G1 X139.944 Y141.65 E.01327
G1 X139.816 Y141.65 E.00363
G1 X142.15 Y139.316 E.09316
G1 X142.15 Y138.782 E.01505
G1 X139.282 Y141.65 E.11445
G1 X138.749 Y141.65 E.01505
G1 X142.15 Y138.249 E.13573
G1 X142.15 Y137.716 E.01505
G1 X138.216 Y141.65 E.15702
G1 X137.683 Y141.65 E.01505
G1 X142.15 Y137.183 E.17831
G1 X142.15 Y136.649 E.01505
G1 X137.149 Y141.65 E.19959
G1 X136.616 Y141.65 E.01505
G1 X142.15 Y136.116 E.22088
G1 X142.15 Y135.583 E.01505
G1 X136.083 Y141.65 E.24216
G1 X135.549 Y141.65 E.01505
G1 X142.15 Y135.049 E.26345
G1 X142.15 Y134.516 E.01505
G1 X135.016 Y141.65 E.28473
G1 X134.483 Y141.65 E.01505
G1 X142.15 Y133.983 E.30602
G1 X142.15 Y133.449 E.01505
G1 X133.949 Y141.65 E.3273
G1 X133.416 Y141.65 E.01505
G1 X142.15 Y132.916 E.34859
G1 X142.15 Y132.383 E.01505
G1 X132.883 Y141.65 E.36987
G1 X132.349 Y141.65 E.01505
G1 X142.15 Y131.849 E.39116
G1 X142.15 Y131.316 E.01505
G1 X131.816 Y141.65 E.41244
G1 X131.283 Y141.65 E.01505
G1 X142.15 Y130.783 E.43373
G1 X142.15 Y130.556 E.00641
G1 X142.114 Y130.285 E.0077
G1 X130.749 Y141.65 E.45359
G1 X130.216 Y141.65 E.01505
G1 X142.026 Y129.84 E.47135
G1 X141.87 Y129.463 E.01152
G1 X129.683 Y141.65 E.4864
G1 X129.149 Y141.65 E.01505
G1 X141.645 Y129.154 E.49872
G1 X141.515 Y128.985 E.00603
G1 X141.383 Y128.883 E.0047
G1 X128.616 Y141.65 E.50953
G1 X128.083 Y141.65 E.01505
G1 X141.081 Y128.652 E.51878
G1 X140.706 Y128.493 E.01148
G1 X127.55 Y141.65 E.52511
G1 X127.016 Y141.65 E.01505
G1 X140.273 Y128.393 E.5291
G1 X139.944 Y128.35 E.00936
G1 X139.783 Y128.35 E.00455
G1 X126.483 Y141.65 E.53082
G1 X125.95 Y141.65 E.01505
G1 X139.25 Y128.35 E.53082
G1 X138.716 Y128.35 E.01505
G1 X125.416 Y141.65 E.53082
G1 X124.883 Y141.65 E.01505
M73 P14 R7
G1 X138.183 Y128.35 E.53082
G1 X137.65 Y128.35 E.01505
G1 X124.35 Y141.65 E.53082
G1 X123.816 Y141.65 E.01505
G1 X137.117 Y128.35 E.53082
G1 X136.583 Y128.35 E.01505
G1 X123.283 Y141.65 E.53082
G1 X122.75 Y141.65 E.01505
G1 X136.05 Y128.35 E.53082
G1 X135.517 Y128.35 E.01505
G1 X122.216 Y141.65 E.53082
G1 X121.683 Y141.65 E.01505
G1 X134.983 Y128.35 E.53082
G1 X134.45 Y128.35 E.01505
G1 X121.15 Y141.65 E.53082
G1 X120.616 Y141.65 E.01505
G1 X133.917 Y128.35 E.53082
G1 X133.383 Y128.35 E.01505
G1 X120.083 Y141.65 E.53082
G1 X119.55 Y141.65 E.01505
G1 X132.85 Y128.35 E.53082
G1 X132.317 Y128.35 E.01505
G1 X119.016 Y141.65 E.53082
G1 X118.483 Y141.65 E.01505
G1 X131.783 Y128.35 E.53082
G1 X131.25 Y128.35 E.01505
G1 X117.95 Y141.65 E.53082
G1 X117.416 Y141.65 E.01505
G1 X130.717 Y128.35 E.53082
G1 X130.183 Y128.35 E.01505
G1 X116.883 Y141.65 E.53082
G1 X116.35 Y141.65 E.01505
G1 X129.65 Y128.35 E.53082
G1 X129.117 Y128.35 E.01505
G1 X115.817 Y141.65 E.53082
G1 X115.283 Y141.65 E.01505
G1 X128.583 Y128.35 E.53082
G1 X128.05 Y128.35 E.01505
G1 X114.75 Y141.65 E.53082
G1 X114.217 Y141.65 E.01505
G1 X127.517 Y128.35 E.53082
G1 X126.984 Y128.35 E.01505
G1 X113.683 Y141.65 E.53082
G1 X113.15 Y141.65 E.01505
G1 X126.45 Y128.35 E.53082
