; HEADER_BLOCK_START
; generated by OrcaSlicer 2.0.0 on 2024-06-17 at 18:29:33
; total layer number: 25
; filament_density: 1.24
; filament_diameter: 1.75
; max_z_height: 5.00
; HEADER_BLOCK_END

; THUMBNAIL_BLOCK_START

;
; THUMBNAIL_BLOCK_END

; THUMBNAIL_BLOCK_START

;
; THUMBNAIL_BLOCK_END

; external perimeters extrusion width = 0.40mm
; perimeters extrusion width = 0.42mm
; infill extrusion width = 0.45mm
; solid infill extrusion width = 0.42mm
; top infill extrusion width = 0.40mm
; first layer extrusion width = 0.50mm

; external perimeters extrusion width = 0.40mm
; perimeters extrusion width = 0.42mm
; infill extrusion width = 0.45mm
; solid infill extrusion width = 0.42mm
; top infill extrusion width = 0.40mm
; first layer extrusion width = 0.50mm

; EXECUTABLE_BLOCK_START
EXCLUDE_OBJECT_DEFINE NAME=Rondelle.stl_id_0_copy_0 CENTER=132.994,115.378 POLYGON=[[115.994,115.234],[116.009,114.663],[116.042,114.092],[116.095,113.524],[116.167,112.957],[116.258,112.393],[116.367,111.833],[116.496,111.276],[116.643,110.724],[116.808,110.177],[116.992,109.637],[117.194,109.102],[117.414,108.575],[117.651,108.055],[117.905,107.544],[118.177,107.042],[118.465,106.549],[118.77,106.066],[119.091,105.593],[119.428,105.132],[119.779,104.682],[120.146,104.244],[120.527,103.818],[120.923,103.406],[121.332,103.007],[121.754,102.623],[122.188,102.252],[122.635,101.897],[123.094,101.556],[123.564,101.231],[124.044,100.923],[124.535,100.63],[125.035,100.354],[125.544,100.095],[126.062,99.8538],[126.587,99.6297],[127.12,99.4234],[127.659,99.235],[128.204,99.0649],[128.755,98.9133],[129.31,98.7802],[129.87,98.6658],[130.433,98.5703],[130.999,98.4937],[131.568,98.4363],[132.137,98.3979],[132.708,98.3787],[133.279,98.3787],[133.85,98.3979],[134.42,98.4363],[134.988,98.4937],[135.554,98.5703],[136.118,98.6658],[136.677,98.7801],[137.233,98.9133],[137.783,99.0649],[138.329,99.235],[138.868,99.4234],[139.4,99.6297],[139.926,99.8538],[140.443,100.095],[140.952,100.354],[141.453,100.63],[141.943,100.923],[142.424,101.231],[142.894,101.556],[143.352,101.897],[143.799,102.252],[144.234,102.623],[144.656,103.007],[145.065,103.406],[145.46,103.818],[145.842,104.244],[146.208,104.682],[146.56,105.132],[146.897,105.593],[147.217,106.066],[147.522,106.549],[147.811,107.042],[148.082,107.544],[148.337,108.055],[148.574,108.575],[148.794,109.102],[148.996,109.637],[149.179,110.177],[149.345,110.724],[149.492,111.276],[149.62,111.833],[149.73,112.393],[149.821,112.957],[149.893,113.524],[149.945,114.092],[149.979,114.663],[149.993,115.234],[149.988,115.805],[149.964,116.375],[149.921,116.945],[149.859,117.513],[149.778,118.078],[149.678,118.64],[149.558,119.199],[149.421,119.753],[149.264,120.303],[149.09,120.846],[148.897,121.384],[148.686,121.915],[148.458,122.438],[148.212,122.954],[147.948,123.461],[147.668,123.959],[147.372,124.447],[147.059,124.925],[146.73,125.392],[146.386,125.848],[146.027,126.292],[145.653,126.723],[145.264,127.142],[144.862,127.548],[144.447,127.939],[144.018,128.317],[143.577,128.68],[143.124,129.028],[142.66,129.361],[142.185,129.678],[141.699,129.978],[141.204,130.263],[140.699,130.53],[140.186,130.78],[139.664,131.013],[139.135,131.228],[138.599,131.426],[138.057,131.605],[137.509,131.766],[136.955,131.908],[136.398,132.032],[135.836,132.137],[135.272,132.223],[134.705,132.29],[134.135,132.338],[133.565,132.367],[132.994,132.376],[132.423,132.367],[131.852,132.338],[131.283,132.29],[130.716,132.223],[130.151,132.137],[129.59,132.032],[129.032,131.908],[128.479,131.766],[127.931,131.605],[127.389,131.426],[126.853,131.228],[126.324,131.013],[125.802,130.78],[125.289,130.53],[124.784,130.263],[124.289,129.978],[123.803,129.678],[123.328,129.361],[122.863,129.028],[122.41,128.68],[121.97,128.317],[121.541,127.939],[121.125,127.548],[120.723,127.142],[120.335,126.723],[119.961,126.292],[119.602,125.848],[119.257,125.392],[118.929,124.925],[118.616,124.447],[118.319,123.959],[118.039,123.461],[117.776,122.954],[117.53,122.438],[117.302,121.915],[117.091,121.384],[116.898,120.846],[116.723,120.303],[116.567,119.753],[116.429,119.199],[116.31,118.64],[116.21,118.078],[116.129,117.513],[116.066,116.945],[116.023,116.375],[115.999,115.805],[115.994,115.234]]
EXCLUDE_OBJECT_DEFINE NAME=Rondelle.stl_id_1_copy_0 CENTER=97.006,114.623 POLYGON=[[80.0068,114.838],[80.0092,114.267],[80.0308,113.696],[80.0715,113.126],[80.1314,112.558],[80.2103,111.992],[80.3081,111.43],[80.4249,110.871],[80.5603,110.316],[80.7143,109.766],[80.8867,109.221],[81.0773,108.683],[81.2858,108.151],[81.5122,107.627],[81.756,107.11],[82.017,106.602],[82.2949,106.103],[82.5894,105.614],[82.9003,105.134],[83.227,104.666],[83.5693,104.209],[83.9267,103.763],[84.299,103.33],[84.6855,102.909],[85.086,102.502],[85.4999,102.109],[85.9268,101.729],[86.3663,101.364],[86.8177,101.014],[87.2806,100.68],[87.7545,100.361],[88.2389,100.058],[88.7331,99.772],[89.2367,99.5025],[89.7491,99.25],[90.2696,99.0149],[90.7978,98.7975],[91.3329,98.5979],[91.8745,98.4163],[92.4219,98.2531],[92.9744,98.1084],[93.5315,97.9823],[94.0925,97.875],[94.6568,97.7866],[95.2237,97.7172],[95.7927,97.6669],[96.363,97.6357],[96.934,97.6237],[97.5051,97.6309],[98.0757,97.6573],[98.6451,97.7028],[99.2126,97.7674],[99.7776,97.8511],[100.339,97.9537],[100.898,98.0751],[101.451,98.2152],[102,98.3738],[102.543,98.5508],[103.08,98.7459],[103.61,98.9589],[104.132,99.1896],[104.647,99.4377],[105.153,99.703],[105.649,99.9851],[106.136,100.284],[106.613,100.599],[107.078,100.929],[107.533,101.275],[107.975,101.637],[108.405,102.012],[108.823,102.402],[109.226,102.806],[109.617,103.224],[109.992,103.654],[110.354,104.096],[110.7,104.551],[111.03,105.016],[111.345,105.493],[111.644,105.98],[111.926,106.476],[112.191,106.982],[112.439,107.497],[112.67,108.019],[112.883,108.549],[113.078,109.086],[113.255,109.629],[113.414,110.178],[113.554,110.731],[113.675,111.29],[113.778,111.851],[113.862,112.416],[113.926,112.984],[113.972,113.553],[113.998,114.124],[114.005,114.695],[113.993,115.266],[113.962,115.836],[113.912,116.405],[113.842,116.972],[113.754,117.536],[113.647,118.098],[113.521,118.655],[113.376,119.207],[113.213,119.754],[113.031,120.296],[112.832,120.831],[112.614,121.359],[112.379,121.88],[112.127,122.392],[111.857,122.896],[111.571,123.39],[111.268,123.874],[110.949,124.348],[110.615,124.811],[110.265,125.263],[109.9,125.702],[109.52,126.129],[109.127,126.543],[108.72,126.943],[108.299,127.33],[107.866,127.702],[107.42,128.06],[106.963,128.402],[106.495,128.729],[106.015,129.04],[105.526,129.334],[105.027,129.612],[104.519,129.873],[104.002,130.117],[103.478,130.343],[102.946,130.552],[102.408,130.742],[101.863,130.915],[101.313,131.069],[100.758,131.204],[100.199,131.321],[99.6366,131.419],[99.0709,131.498],[98.5029,131.557],[97.9332,131.598],[97.3624,131.62],[96.7912,131.622],[96.2203,131.605],[95.6503,131.569],[95.0818,131.514],[94.5154,131.44],[93.9519,131.347],[93.3918,131.235],[92.8358,131.104],[92.2845,130.955],[91.7386,130.787],[91.1985,130.601],[90.6651,130.397],[90.1388,130.175],[89.6202,129.936],[89.11,129.679],[88.6087,129.405],[88.1169,129.115],[87.6351,128.808],[87.1639,128.485],[86.7038,128.147],[86.2553,127.793],[85.8189,127.424],[85.3952,127.041],[84.9846,126.644],[84.5876,126.234],[84.2046,125.81],[83.836,125.374],[83.4823,124.925],[83.1438,124.465],[82.8211,123.994],[82.5143,123.512],[82.2239,123.02],[81.9501,122.519],[81.6934,122.009],[81.4539,121.49],[81.232,120.964],[81.0279,120.43],[80.8419,119.89],[80.6741,119.344],[80.5247,118.793],[80.3939,118.237],[80.2819,117.677],[80.1888,117.114],[80.1146,116.547],[80.0595,115.979],[80.0236,115.409],[80.0068,114.838]]
M73 P0 R25
;TYPE:Custom
M220 S100
G90 ; use absolute coordinates
M83 ; extruder relative mode
M104 S150 ; set temporary nozzle temp to prevent oozing during homing
M140 S75 ; set final bed temp
G4 S30 ; allow partial nozzle warmup
G28 ; home all axis and restore leveling
BED_MESH_CALIBRATE PROFILE=adaptive ADAPTIVE=1 ADAPTIVE_MARGIN=0
G1 Z25 F240
G1 X10.0 Y30 F3000
M104 S257 ; set final nozzle temp
M190 S75 ; wait for bed temp to stabilize
M109 S257 ; wait for nozzle temp to stabilize
M73 P0 R24
G1 Z0.28 F240
G92 E0 ; Move Z Axis up
G1 Z2.0 F5000 ; Move to start position
G1 X5 Y30 Z0.28 F300 ; Draw the first line
G1 X5 Y200 Z0.28 F1500 E15 ; Move to side a little
G1 X5.4 Y200 Z0.28 F5000.0 ; Draw the second line
M73 P1 R24
G1 X5.4 Y50 Z0.28 F1500.0 E30 ; Reset Extruder
G92 E0 ; Move Z Axis up
G1 Z2.0 F3000
M117 Start Printing..
G90
G21
M83 ; use relative distances for extrusion
; filament start gcode
M106 S0
;LAYER_CHANGE
;Z:0.2
;HEIGHT:0.2
;BEFORE_LAYER_CHANGE
;0.2
G92 E0

G1 E-.5 F2400
;_SET_FAN_SPEED_CHANGING_LAYER
SET_VELOCITY_LIMIT ACCEL=500 ACCEL_TO_DECEL=250
SET_VELOCITY_LIMIT SQUARE_CORNER_VELOCITY=7
; printing object Rondelle.stl id:0 copy 0
EXCLUDE_OBJECT_START NAME=Rondelle.stl_id_0_copy_0
G1 Z.2 F18000
G1 X156.711 Y135.663
G1 Z.2
G1 E.5 F2400
;TYPE:Inner wall
;WIDTH:0.499999
G1 F1800
G1 X156.713 Y135.752 E.00334
G1 X156.651 Y136.825 E.04
G1 X156.594 Y137.347 E.01956
G1 X156.519 Y137.867 E.01959
G1 X156.313 Y138.92 E.03994
G1 X156.188 Y139.424 E.01937
G1 X155.876 Y140.452 E.04
G1 X155.699 Y140.943 E.01943
G1 X155.414 Y141.64 E.02807
G1 X155.057 Y142.409 E.03157
G1 X154.814 Y142.876 E.01962
G1 X154.555 Y143.334 E.01956
G1 X153.982 Y144.238 E.03987
G1 X153.545 Y144.844 E.02785
G1 X153.02 Y145.505 E.03144
G1 X152.523 Y146.065 E.0279
G1 X151.936 Y146.668 E.03135
G1 X151.143 Y147.386 E.03984
G1 X150.741 Y147.715 E.01934
G1 X149.876 Y148.351 E.04
G1 X149.437 Y148.641 E.01956
G1 X148.99 Y148.915 E.01956
G1 X148.047 Y149.43 E.04001
G1 X147.579 Y149.655 E.01934
G1 X146.589 Y150.071 E.04
G1 X146.101 Y150.248 E.01934
G1 X145.079 Y150.56 E.03978
G1 X144.045 Y150.801 E.03956
G1 X142.993 Y150.973 E.0397
G1 X142.469 Y151.031 E.01964
G1 X141.945 Y151.071 E.01956
G1 X140.871 Y151.1 E.04001
G1 X140.352 Y151.087 E.01934
G1 X139.287 Y151.007 E.03978
G1 X138.23 Y150.855 E.03978
G1 X137.721 Y150.756 E.01934
G1 X136.678 Y150.496 E.04001
G1 X136.176 Y150.344 E.01956
G1 X135.679 Y150.175 E.01956
G1 X134.686 Y149.779 E.03978
G1 X133.723 Y149.318 E.03978
G1 X133.267 Y149.07 E.01934
G1 X132.35 Y148.511 E.04
G1 X131.916 Y148.215 E.01956
G1 X131.492 Y147.905 E.01956
G1 X130.659 Y147.227 E.04
G1 X130.274 Y146.879 E.01934
G1 X129.513 Y146.12 E.04
G1 X129.165 Y145.736 E.01934
G1 X128.489 Y144.909 E.03978
G1 X127.874 Y144.043 E.03956
G1 X127.316 Y143.132 E.03978
G1 X127.066 Y142.674 E.01943
G1 X126.734 Y141.997 E.02807
G1 X126.396 Y141.22 E.03157
G1 X126.211 Y140.734 E.0194
G1 X125.881 Y139.718 E.03978
G1 X125.621 Y138.682 E.03978
G1 X125.52 Y138.17 E.01943
M73 P2 R24
G1 X125.406 Y137.425 E.02807
G1 X125.317 Y136.588 E.03134
G1 X125.271 Y135.52 E.03984
G1 X125.274 Y135 E.01934
G1 X125.337 Y133.928 E.04
G1 X125.393 Y133.412 E.01934
G1 X125.564 Y132.352 E.04
G1 X125.672 Y131.844 E.01934
G1 X125.949 Y130.806 E.04
G1 X126.11 Y130.306 E.01956
G1 X126.288 Y129.81 E.01965
G1 X126.574 Y129.112 E.02807
G1 X126.931 Y128.343 E.03157
G1 X127.172 Y127.879 E.01949
G1 X127.549 Y127.227 E.02807
G1 X128.004 Y126.516 E.03143
G1 X128.443 Y125.909 E.02791
G1 X128.967 Y125.247 E.03144
G1 X129.465 Y124.687 E.0279
G1 X130.052 Y124.084 E.03134
G1 X130.845 Y123.366 E.03984
G1 X131.247 Y123.038 E.01934
G1 X132.112 Y122.401 E.04
G1 X132.55 Y122.112 E.01956
G1 X132.998 Y121.837 E.01956
G1 X133.941 Y121.323 E.04001
G1 X134.409 Y121.098 E.01934
G1 X135.396 Y120.683 E.03987
G1 X136.101 Y120.435 E.02785
G1 X136.913 Y120.191 E.03157
G1 X137.418 Y120.065 E.0194
G1 X138.468 Y119.857 E.03987
G1 X139.209 Y119.756 E.02785
G1 X140.053 Y119.681 E.03157
G1 X140.576 Y119.658 E.01949
G1 X141.329 Y119.658 E.02807
G1 X142.176 Y119.697 E.03157
G1 X142.694 Y119.745 E.01939
G1 X143.758 Y119.897 E.04001
G1 X144.267 Y119.997 E.01934
G1 X145.309 Y120.256 E.04001
G1 X145.809 Y120.408 E.01943
G1 X146.519 Y120.658 E.02807
G1 X147.3 Y120.973 E.03135
G1 X148.265 Y121.435 E.03984
G1 X148.723 Y121.683 E.01942
G1 X149.638 Y122.242 E.03992
G1 X150.072 Y122.538 E.01956
G1 X150.495 Y122.848 E.01956
G1 X151.326 Y123.524 E.03987
G1 X151.876 Y124.03 E.02784
G1 X152.473 Y124.631 E.03157
G1 X152.823 Y125.017 E.0194
G1 X153.499 Y125.844 E.03978
G1 X154.114 Y126.71 E.03956
G1 X154.672 Y127.621 E.03978
G1 X154.922 Y128.079 E.01943
G1 X155.253 Y128.755 E.02807
G1 X155.591 Y129.532 E.03157
G1 X155.777 Y130.019 E.0194
G1 X156.106 Y131.035 E.03978
G1 X156.366 Y132.071 E.03978
G1 X156.468 Y132.583 E.01943
G1 X156.581 Y133.328 E.02807
G1 X156.671 Y134.165 E.03134
G1 X156.71 Y135.623 E.05433
G1 X157.167 Y135.65 F18000
;TYPE:Outer wall
G1 F1800
G1 X157.17 Y135.767 E.00436
G1 X157.106 Y136.863 E.04086
G1 X157.047 Y137.404 E.02028
G1 X156.97 Y137.944 E.02031
G1 X156.76 Y139.019 E.0408
G1 X156.628 Y139.546 E.02023
G1 X156.31 Y140.596 E.04087
G1 X156.126 Y141.107 E.02023
G1 X155.833 Y141.823 E.02882
G1 X155.467 Y142.611 E.03235
G1 X155.216 Y143.094 E.0203
G1 X154.948 Y143.569 E.02028
G1 X154.361 Y144.494 E.04082
G1 X153.909 Y145.12 E.02875
G1 X153.37 Y145.8 E.0323
G1 X152.857 Y146.377 E.02876
G1 X152.253 Y146.998 E.03227
G1 X151.441 Y147.733 E.04081
G1 X151.021 Y148.076 E.0202
G1 X150.137 Y148.726 E.04087
G1 X149.683 Y149.026 E.02028
G1 X149.219 Y149.311 E.02028
G1 X148.255 Y149.836 E.04087
G1 X147.767 Y150.072 E.0202
G1 X146.755 Y150.497 E.04087
G1 X146.245 Y150.681 E.0202
G1 X145.198 Y151.002 E.04079
G1 X144.134 Y151.25 E.04071
G1 X143.055 Y151.426 E.04071
G1 X142.512 Y151.486 E.02036
G1 X141.969 Y151.528 E.02028
G1 X140.872 Y151.557 E.04087
G1 X140.33 Y151.544 E.0202
G1 X139.238 Y151.462 E.04079
G1 X138.154 Y151.306 E.04079
G1 X137.621 Y151.202 E.0202
G1 X136.557 Y150.937 E.04087
G1 X136.036 Y150.779 E.02028
G1 X135.52 Y150.603 E.02028
G1 X134.503 Y150.198 E.04079
G1 X133.515 Y149.725 E.04079
G1 X133.038 Y149.467 E.0202
G1 X132.102 Y148.895 E.04087
G1 X131.652 Y148.588 E.02028
G1 X131.213 Y148.267 E.02028
G1 X130.362 Y147.574 E.04087
G1 X129.959 Y147.211 E.0202
G1 X129.182 Y146.436 E.04087
G1 X128.818 Y146.034 E.0202
G1 X128.125 Y145.186 E.04079
G1 X127.492 Y144.295 E.04071
G1 X126.92 Y143.361 E.04079
G1 X126.66 Y142.884 E.02023
G1 X126.319 Y142.189 E.02882
G1 X125.973 Y141.393 E.03235
G1 X125.78 Y140.886 E.02022
G1 X125.442 Y139.844 E.04079
G1 X125.175 Y138.782 E.04079
G1 X125.07 Y138.249 E.02023
G1 X124.953 Y137.484 E.02883
G1 X124.861 Y136.622 E.03227
G1 X124.813 Y135.528 E.04081
G1 X124.818 Y134.985 E.0202
G1 X124.881 Y133.89 E.04086
G1 X124.94 Y133.351 E.0202
G1 X125.114 Y132.268 E.04087
G1 X125.227 Y131.737 E.0202
G1 X125.51 Y130.677 E.04086
G1 X125.677 Y130.159 E.02028
G1 X125.862 Y129.646 E.02031
G1 X126.155 Y128.929 E.02882
G1 X126.52 Y128.141 E.03235
G1 X126.772 Y127.659 E.02025
G1 X127.159 Y126.989 E.02883
G1 X127.626 Y126.259 E.0323
G1 X128.078 Y125.633 E.02877
G1 X128.617 Y124.953 E.0323
G1 X129.13 Y124.376 E.02877
G1 X129.735 Y123.755 E.03227
G1 X130.547 Y123.02 E.04081
G1 X130.967 Y122.677 E.0202
G1 X131.85 Y122.026 E.04087
G1 X132.305 Y121.726 E.02028
G1 X132.769 Y121.442 E.02028
G1 X133.732 Y120.916 E.04087
G1 X134.221 Y120.681 E.0202
G1 X135.231 Y120.256 E.04082
G1 X135.959 Y120.001 E.02875
G1 X136.791 Y119.751 E.03235
G1 X137.318 Y119.618 E.02022
G1 X138.393 Y119.406 E.04082
G1 X139.158 Y119.302 E.02875
G1 X140.023 Y119.224 E.03235
G1 X140.566 Y119.201 E.02025
G1 X141.34 Y119.201 E.02882
G1 X142.207 Y119.241 E.03235
G1 X142.748 Y119.291 E.02022
G1 X143.834 Y119.447 E.04087
G1 X144.366 Y119.551 E.0202
G1 X145.431 Y119.816 E.04087
G1 X145.951 Y119.973 E.02023
G1 X146.681 Y120.23 E.02882
G1 X147.484 Y120.554 E.03227
G1 X148.473 Y121.027 E.04081
G1 X148.951 Y121.287 E.02028
G1 X149.886 Y121.858 E.04078
G1 X150.336 Y122.164 E.02028
G1 X150.775 Y122.486 E.02028
G1 X151.625 Y123.178 E.04082
G1 X152.193 Y123.7 E.02875
G1 X152.805 Y124.316 E.03235
G1 X153.169 Y124.719 E.02022
G1 X153.862 Y125.567 E.04079
G1 X154.495 Y126.458 E.04071
G1 X155.068 Y127.392 E.04079
G1 X155.328 Y127.869 E.02023
G1 X155.668 Y128.563 E.02882
G1 X156.015 Y129.36 E.03235
G1 X156.208 Y129.867 E.02022
