; HEADER_BLOCK_START
; generated by OrcaSlicer 2.1.1 on 2024-09-21 at 11:50:14
; total layer number: 37
; filament_density: 1.24
; filament_diameter: 1.75
; max_z_height: 7.40
; HEADER_BLOCK_END

; THUMBNAIL_BLOCK_START

;
; THUMBNAIL_BLOCK_END

; THUMBNAIL_BLOCK_START

;
; THUMBNAIL_BLOCK_END

; external perimeters extrusion width = 0.42mm
; perimeters extrusion width = 0.45mm
; infill extrusion width = 0.45mm
; solid infill extrusion width = 0.45mm
; top infill extrusion width = 0.42mm
; first layer extrusion width = 0.50mm

; external perimeters extrusion width = 0.42mm
; perimeters extrusion width = 0.45mm
; infill extrusion width = 0.45mm
; solid infill extrusion width = 0.45mm
; top infill extrusion width = 0.42mm
; first layer extrusion width = 0.50mm

; external perimeters extrusion width = 0.42mm
; perimeters extrusion width = 0.45mm
; infill extrusion width = 0.45mm
; solid infill extrusion width = 0.45mm
; top infill extrusion width = 0.42mm
; first layer extrusion width = 0.50mm

; external perimeters extrusion width = 0.42mm
; perimeters extrusion width = 0.45mm
; infill extrusion width = 0.45mm
; solid infill extrusion width = 0.45mm
; top infill extrusion width = 0.42mm
; first layer extrusion width = 0.50mm

; EXECUTABLE_BLOCK_START
EXCLUDE_OBJECT_DEFINE NAME=Rondelles_poly_v5.step_id_0_copy_0 CENTER=125.999,126.001 POLYGON=[[115.999,126.001],[116.005,125.656],[116.023,125.311],[116.053,124.967],[116.095,124.624],[116.148,124.283],[116.213,123.944],[116.29,123.608],[116.378,123.274],[116.478,122.943],[116.589,122.617],[116.712,122.294],[116.845,121.976],[116.99,121.662],[117.145,121.354],[117.31,121.051],[117.486,120.754],[117.673,120.463],[117.869,120.179],[118.075,119.902],[118.29,119.632],[118.514,119.37],[118.748,119.115],[118.99,118.869],[119.24,118.631],[119.498,118.402],[119.764,118.182],[120.038,117.972],[120.319,117.771],[120.606,117.58],[120.9,117.399],[121.2,117.228],[121.506,117.067],[121.817,116.918],[122.133,116.779],[122.453,116.651],[122.778,116.534],[123.107,116.428],[123.439,116.334],[123.774,116.252],[124.112,116.181],[124.452,116.121],[124.794,116.074],[125.137,116.038],[125.482,116.014],[125.827,116.002],[126.172,116.002],[126.517,116.014],[126.861,116.038],[127.205,116.074],[127.547,116.121],[127.887,116.181],[128.225,116.252],[128.56,116.334],[128.892,116.428],[129.221,116.534],[129.545,116.651],[129.866,116.779],[130.182,116.918],[130.493,117.067],[130.799,117.228],[131.099,117.399],[131.393,117.58],[131.68,117.771],[131.961,117.972],[132.234,118.183],[132.5,118.402],[132.759,118.631],[133.009,118.869],[133.251,119.115],[133.484,119.37],[133.709,119.632],[133.924,119.902],[134.13,120.179],[134.326,120.463],[134.512,120.754],[134.688,121.051],[134.854,121.354],[135.009,121.662],[135.153,121.976],[135.287,122.294],[135.409,122.617],[135.52,122.944],[135.62,123.274],[135.709,123.608],[135.786,123.944],[135.851,124.283],[135.904,124.624],[135.946,124.967],[135.975,125.311],[135.993,125.656],[135.999,126.001],[135.993,126.346],[135.975,126.691],[135.946,127.035],[135.904,127.377],[135.851,127.718],[135.786,128.057],[135.709,128.394],[135.62,128.728],[135.52,129.058],[135.409,129.385],[135.287,129.708],[135.153,130.026],[135.009,130.34],[134.854,130.648],[134.688,130.951],[134.512,131.248],[134.326,131.539],[134.13,131.823],[133.924,132.1],[133.709,132.37],[133.484,132.632],[133.251,132.886],[133.009,133.133],[132.759,133.37],[132.5,133.599],[132.234,133.819],[131.961,134.03],[131.68,134.231],[131.392,134.422],[131.099,134.603],[130.799,134.774],[130.493,134.934],[130.182,135.084],[129.866,135.223],[129.545,135.351],[129.22,135.468],[128.892,135.573],[128.56,135.667],[128.224,135.75],[127.887,135.821],[127.547,135.88],[127.205,135.928],[126.861,135.964],[126.517,135.987],[126.172,135.999],[125.827,135.999],[125.482,135.987],[125.137,135.964],[124.794,135.928],[124.452,135.88],[124.112,135.821],[123.774,135.75],[123.439,135.667],[123.107,135.573],[122.778,135.468],[122.453,135.351],[122.133,135.223],[121.817,135.084],[121.506,134.934],[121.2,134.774],[120.9,134.603],[120.606,134.422],[120.319,134.231],[120.038,134.03],[119.764,133.819],[119.498,133.599],[119.24,133.37],[118.99,133.133],[118.748,132.886],[118.514,132.632],[118.29,132.37],[118.075,132.1],[117.869,131.823],[117.673,131.539],[117.486,131.248],[117.31,130.951],[117.145,130.648],[116.99,130.34],[116.845,130.026],[116.712,129.708],[116.589,129.385],[116.478,129.058],[116.378,128.728],[116.29,128.394],[116.213,128.057],[116.148,127.718],[116.095,127.377],[116.053,127.035],[116.023,126.691],[116.005,126.346],[115.999,126.001]]
EXCLUDE_OBJECT_DEFINE NAME=Rondelles_poly_v5.step_id_1_copy_0 CENTER=104.001,125.999 POLYGON=[[94.0023,126.172],[94.0023,125.827],[94.0142,125.482],[94.038,125.137],[94.0737,124.794],[94.1212,124.452],[94.1805,124.112],[94.2515,123.774],[94.3341,123.439],[94.4283,123.107],[94.5338,122.778],[94.6507,122.453],[94.7786,122.133],[94.9176,121.817],[95.0674,121.506],[95.2278,121.2],[95.3987,120.9],[95.5798,120.606],[95.771,120.319],[95.972,120.038],[96.1825,119.764],[96.4024,119.498],[96.6313,119.24],[96.869,118.99],[97.1152,118.748],[97.3696,118.514],[97.6319,118.29],[97.9018,118.075],[98.179,117.869],[98.4631,117.673],[98.7538,117.486],[99.0507,117.31],[99.3536,117.145],[99.662,116.99],[99.9756,116.845],[100.294,116.712],[100.617,116.589],[100.944,116.478],[101.274,116.378],[101.608,116.29],[101.944,116.213],[102.283,116.148],[102.624,116.095],[102.967,116.053],[103.311,116.023],[103.656,116.005],[104.001,115.999],[104.346,116.005],[104.691,116.023],[105.035,116.053],[105.377,116.095],[105.718,116.148],[106.057,116.213],[106.394,116.29],[106.728,116.378],[107.058,116.478],[107.385,116.589],[107.708,116.712],[108.026,116.845],[108.34,116.99],[108.648,117.145],[108.951,117.31],[109.248,117.487],[109.539,117.673],[109.823,117.869],[110.1,118.075],[110.37,118.29],[110.632,118.514],[110.886,118.748],[111.133,118.99],[111.37,119.24],[111.599,119.498],[111.819,119.764],[112.03,120.038],[112.231,120.319],[112.422,120.606],[112.603,120.9],[112.774,121.2],[112.934,121.506],[113.084,121.817],[113.223,122.133],[113.351,122.453],[113.468,122.778],[113.573,123.107],[113.667,123.439],[113.75,123.774],[113.821,124.112],[113.88,124.452],[113.928,124.794],[113.964,125.137],[113.987,125.482],[113.999,125.827],[113.999,126.172],[113.987,126.517],[113.964,126.861],[113.928,127.205],[113.88,127.547],[113.821,127.887],[113.75,128.225],[113.667,128.56],[113.573,128.892],[113.468,129.221],[113.351,129.545],[113.223,129.866],[113.084,130.182],[112.934,130.493],[112.774,130.799],[112.603,131.099],[112.422,131.393],[112.231,131.68],[112.03,131.961],[111.819,132.234],[111.599,132.5],[111.37,132.759],[111.133,133.009],[110.886,133.251],[110.632,133.484],[110.37,133.709],[110.1,133.924],[109.823,134.13],[109.539,134.326],[109.248,134.512],[108.951,134.688],[108.648,134.854],[108.34,135.009],[108.026,135.153],[107.708,135.287],[107.385,135.409],[107.058,135.521],[106.728,135.62],[106.394,135.709],[106.057,135.786],[105.718,135.851],[105.377,135.904],[105.035,135.946],[104.691,135.976],[104.346,135.993],[104.001,135.999],[103.656,135.993],[103.311,135.975],[102.967,135.946],[102.624,135.904],[102.283,135.851],[101.944,135.786],[101.608,135.709],[101.274,135.62],[100.943,135.52],[100.617,135.409],[100.294,135.287],[99.9755,135.153],[99.6619,135.009],[99.3535,134.854],[99.0507,134.688],[98.7537,134.512],[98.463,134.326],[98.1789,134.13],[97.9018,133.924],[97.6319,133.709],[97.3696,133.484],[97.1151,133.251],[96.8689,133.009],[96.6312,132.759],[96.4023,132.5],[96.1825,132.234],[95.9719,131.961],[95.7709,131.68],[95.5798,131.392],[95.3986,131.099],[95.2278,130.799],[95.0673,130.493],[94.9176,130.182],[94.7786,129.866],[94.6506,129.545],[94.5338,129.22],[94.4283,128.892],[94.3341,128.56],[94.2515,128.225],[94.1805,127.887],[94.1212,127.547],[94.0737,127.205],[94.038,126.861],[94.0142,126.517],[94.0023,126.172]]
EXCLUDE_OBJECT_DEFINE NAME=Rondelles_poly_v5.step_id_2_copy_0 CENTER=125.999,104.004 POLYGON=[[115.999,104.004],[116.005,103.659],[116.023,103.314],[116.053,102.97],[116.095,102.627],[116.148,102.286],[116.213,101.947],[116.29,101.611],[116.378,101.277],[116.478,100.946],[116.589,100.62],[116.712,100.297],[116.845,99.9785],[116.99,99.6649],[117.145,99.3565],[117.31,99.0537],[117.486,98.7567],[117.673,98.466],[117.869,98.1819],[118.075,97.9047],[118.29,97.6348],[118.514,97.3725],[118.748,97.1181],[118.99,96.8719],[119.24,96.6342],[119.498,96.4053],[119.764,96.1854],[120.038,95.9749],[120.319,95.7739],[120.606,95.5828],[120.9,95.4016],[121.2,95.2307],[121.506,95.0703],[121.817,94.9205],[122.133,94.7816],[122.453,94.6536],[122.778,94.5368],[123.107,94.4312],[123.439,94.3371],[123.774,94.2545],[124.112,94.1835],[124.452,94.1242],[124.794,94.0767],[125.137,94.041],[125.482,94.0172],[125.827,94.0053],[126.172,94.0053],[126.517,94.0172],[126.861,94.041],[127.205,94.0767],[127.547,94.1242],[127.887,94.1835],[128.225,94.2545],[128.56,94.3371],[128.892,94.4313],[129.221,94.5368],[129.545,94.6536],[129.866,94.7816],[130.182,94.9206],[130.493,95.0703],[130.799,95.2308],[131.099,95.4017],[131.393,95.5828],[131.68,95.774],[131.961,95.9749],[132.234,96.1855],[132.5,96.4054],[132.759,96.6343],[133.009,96.872],[133.251,97.1182],[133.484,97.3726],[133.709,97.6349],[133.924,97.9048],[134.13,98.182],[134.326,98.4661],[134.512,98.7568],[134.688,99.0537],[134.854,99.3566],[135.009,99.665],[135.153,99.9785],[135.287,100.297],[135.409,100.62],[135.52,100.946],[135.62,101.277],[135.709,101.611],[135.786,101.947],[135.851,102.286],[135.904,102.627],[135.946,102.97],[135.975,103.314],[135.993,103.659],[135.999,104.004],[135.993,104.349],[135.975,104.694],[135.946,105.038],[135.904,105.38],[135.851,105.721],[135.786,106.06],[135.709,106.397],[135.62,106.731],[135.52,107.061],[135.409,107.388],[135.287,107.711],[135.153,108.029],[135.009,108.343],[134.854,108.651],[134.688,108.954],[134.512,109.251],[134.326,109.542],[134.13,109.826],[133.924,110.103],[133.709,110.373],[133.484,110.635],[133.251,110.889],[133.009,111.136],[132.759,111.373],[132.5,111.602],[132.234,111.822],[131.961,112.033],[131.68,112.234],[131.392,112.425],[131.099,112.606],[130.799,112.777],[130.493,112.937],[130.182,113.087],[129.866,113.226],[129.545,113.354],[129.22,113.471],[128.892,113.576],[128.56,113.67],[128.224,113.753],[127.887,113.824],[127.547,113.883],[127.205,113.931],[126.861,113.967],[126.517,113.99],[126.172,114.002],[125.827,114.002],[125.482,113.99],[125.137,113.967],[124.794,113.931],[124.452,113.883],[124.112,113.824],[123.774,113.753],[123.439,113.67],[123.107,113.576],[122.778,113.471],[122.453,113.354],[122.133,113.226],[121.817,113.087],[121.506,112.937],[121.2,112.777],[120.9,112.606],[120.606,112.425],[120.319,112.234],[120.038,112.033],[119.764,111.822],[119.498,111.602],[119.24,111.373],[118.99,111.136],[118.748,110.889],[118.514,110.635],[118.29,110.373],[118.075,110.103],[117.869,109.826],[117.673,109.542],[117.486,109.251],[117.31,108.954],[117.145,108.651],[116.99,108.343],[116.845,108.029],[116.712,107.711],[116.589,107.388],[116.478,107.061],[116.378,106.731],[116.29,106.397],[116.213,106.06],[116.148,105.721],[116.095,105.38],[116.053,105.038],[116.023,104.694],[116.005,104.349],[115.999,104.004]]
EXCLUDE_OBJECT_DEFINE NAME=Rondelles_poly_v5.step_id_3_copy_0 CENTER=104,104 POLYGON=[[94.0007,104.087],[94.0037,103.741],[94.0186,103.397],[94.0454,103.052],[94.084,102.709],[94.1345,102.368],[94.1967,102.028],[94.2706,101.691],[94.3562,101.357],[94.4532,101.025],[94.5615,100.698],[94.6812,100.374],[94.8119,100.054],[94.9536,99.7394],[95.106,99.4297],[95.2691,99.1254],[95.4426,98.8269],[95.6262,98.5346],[95.8199,98.2488],[96.0233,97.9699],[96.2362,97.6982],[96.4583,97.4339],[96.6895,97.1775],[96.9293,96.9292],[97.1776,96.6894],[97.434,96.4583],[97.6982,96.2361],[97.97,96.0232],[98.2489,95.8198],[98.5347,95.6262],[98.827,95.4425],[99.1255,95.269],[99.4297,95.106],[99.7395,94.9535],[100.054,94.8118],[100.374,94.6811],[100.698,94.5615],[101.025,94.4531],[101.357,94.3561],[101.691,94.2706],[102.028,94.1967],[102.368,94.1345],[102.709,94.084],[103.052,94.0454],[103.397,94.0186],[103.741,94.0037],[104.087,94.0007],[104.432,94.0097],[104.776,94.0305],[105.12,94.0632],[105.462,94.1078],[105.803,94.1641],[106.141,94.2322],[106.477,94.3119],[106.81,94.4032],[107.14,94.5059],[107.466,94.6199],[107.787,94.7451],[108.105,94.8814],[108.417,95.0284],[108.724,95.1862],[109.025,95.3545],[109.321,95.5331],[109.61,95.7218],[109.892,95.9203],[110.168,96.1285],[110.436,96.3461],[110.696,96.5728],[110.948,96.8083],[111.192,97.0524],[111.428,97.3048],[111.655,97.5651],[111.872,97.8332],[112.08,98.1086],[112.279,98.391],[112.468,98.68],[112.646,98.9755],[112.814,99.2769],[112.972,99.5839],[113.119,99.8962],[113.256,100.213],[113.381,100.535],[113.495,100.861],[113.597,101.191],[113.689,101.524],[113.768,101.859],[113.837,102.198],[113.893,102.538],[113.937,102.881],[113.97,103.224],[113.991,103.569],[114,103.914],[113.997,104.259],[113.982,104.604],[113.955,104.948],[113.917,105.291],[113.866,105.633],[113.804,105.972],[113.73,106.31],[113.645,106.644],[113.548,106.975],[113.439,107.303],[113.32,107.627],[113.189,107.946],[113.047,108.261],[112.895,108.571],[112.732,108.875],[112.558,109.174],[112.374,109.466],[112.181,109.752],[111.977,110.031],[111.765,110.303],[111.542,110.567],[111.311,110.823],[111.071,111.071],[110.823,111.311],[110.567,111.542],[110.302,111.765],[110.031,111.977],[109.752,112.181],[109.466,112.375],[109.174,112.558],[108.875,112.732],[108.571,112.895],[108.261,113.047],[107.946,113.189],[107.627,113.32],[107.303,113.439],[106.975,113.548],[106.644,113.645],[106.31,113.73],[105.972,113.804],[105.633,113.866],[105.291,113.917],[104.948,113.955],[104.604,113.982],[104.259,113.997],[103.914,114],[103.569,113.991],[103.224,113.97],[102.881,113.937],[102.538,113.893],[102.198,113.837],[101.859,113.768],[101.523,113.689],[101.191,113.597],[100.861,113.495],[100.535,113.381],[100.213,113.256],[99.8962,113.119],[99.5839,112.972],[99.2768,112.814],[98.9754,112.646],[98.68,112.468],[98.3909,112.279],[98.1085,112.08],[97.8331,111.872],[97.5651,111.655],[97.3047,111.428],[97.0524,111.192],[96.8083,110.948],[96.5727,110.696],[96.3461,110.436],[96.1285,110.168],[95.9203,109.892],[95.7218,109.61],[95.5331,109.321],[95.3545,109.025],[95.1862,108.724],[95.0284,108.417],[94.8813,108.104],[94.7451,107.787],[94.6199,107.466],[94.5059,107.14],[94.4032,106.81],[94.3119,106.477],[94.2322,106.141],[94.1641,105.803],[94.1078,105.462],[94.0632,105.12],[94.0305,104.776],[94.0097,104.432],[94.0007,104.087]]
M73 P0 R20
;TYPE:Custom
M220 S100
G90 ; use absolute coordinates
M83 ; extruder relative mode
M104 S150 ; set temporary nozzle temp to prevent oozing during homing
M140 S75 ; set final bed temp
G4 S30 ; allow partial nozzle warmup
G28 ; home all axis and restore leveling
BED_MESH_CALIBRATE PROFILE=adaptive ADAPTIVE=1 ADAPTIVE_MARGIN=0
G1 Z25 F240
G1 X10.0 Y30 F3000
M104 S257 ; set final nozzle temp
M190 S75 ; wait for bed temp to stabilize
M109 S257 ; wait for nozzle temp to stabilize
G1 Z0.28 F240
G92 E0 ; Move Z Axis up
G1 Z2.0 F5000 ; Move to start position
M73 P1 R20
G1 X5 Y30 Z0.28 F300 ; Draw the first line
G1 X5 Y200 Z0.28 F1500 E15 ; Move to side a little
G1 X5.4 Y200 Z0.28 F5000.0 ; Draw the second line
G1 X5.4 Y50 Z0.28 F1500.0 E30 ; Reset Extruder
G92 E0 ; Move Z Axis up
G1 Z2.0 F3000
M117 Start Printing..
G90
G21
M83 ; use relative distances for extrusion
; filament start gcode
M106 S0
;LAYER_CHANGE
;Z:0.2
;HEIGHT:0.2
;BEFORE_LAYER_CHANGE
;0.2
G92 E0

M73 P2 R20
G1 E-.5 F1800
;_SET_FAN_SPEED_CHANGING_LAYER
SET_VELOCITY_LIMIT ACCEL=1000
SET_VELOCITY_LIMIT SQUARE_CORNER_VELOCITY=7
;CUSTOM_GCODE
M220 S75
; printing object Rondelles poly v5.step id:3 copy 0
EXCLUDE_OBJECT_START NAME=Rondelles_poly_v5.step_id_3_copy_0
G1 Z.2 F24000
G1 X99.936 Y111.763
G1 Z.2
M73 P2 R19
G1 E.5 F1800
;TYPE:Brim
;WIDTH:0.5
G1 X100.364 Y111.355 E.02202
G1 X101.073 Y110.738 E.03499
