; HEADER_BLOCK_START
; generated by OrcaSlicer 2.2.0 on 2024-11-20 at 14:16:13
; total layer number: 48
; filament_density: 1.27
; filament_diameter: 1.75
; max_z_height: 4.80
; HEADER_BLOCK_END

; THUMBNAIL_BLOCK_START

;
; THUMBNAIL_BLOCK_END

; THUMBNAIL_BLOCK_START

;
; THUMBNAIL_BLOCK_END

; external perimeters extrusion width = 0.42mm
; perimeters extrusion width = 0.45mm
; infill extrusion width = 0.45mm
; solid infill extrusion width = 0.45mm
; top infill extrusion width = 0.42mm
; first layer extrusion width = 0.50mm

; external perimeters extrusion width = 0.42mm
; perimeters extrusion width = 0.45mm
; infill extrusion width = 0.45mm
; solid infill extrusion width = 0.45mm
; top infill extrusion width = 0.42mm
; first layer extrusion width = 0.50mm

; external perimeters extrusion width = 0.42mm
; perimeters extrusion width = 0.45mm
; infill extrusion width = 0.45mm
; solid infill extrusion width = 0.45mm
; top infill extrusion width = 0.42mm
; first layer extrusion width = 0.50mm

; external perimeters extrusion width = 0.42mm
; perimeters extrusion width = 0.45mm
; infill extrusion width = 0.45mm
; solid infill extrusion width = 0.45mm
; top infill extrusion width = 0.42mm
; first layer extrusion width = 0.50mm

; EXECUTABLE_BLOCK_START
EXCLUDE_OBJECT_DEFINE NAME=Rouleau.stl_id_0_copy_0 CENTER=127.296,115 POLYGON=[[124.197,126.5],[124.197,113],[124.847,103.5],[124.853,103.429],[124.868,103.359],[124.893,103.292],[124.927,103.23],[124.97,103.173],[125.02,103.122],[125.077,103.079],[125.14,103.045],[125.206,103.02],[125.276,103.005],[125.346,103],[126.857,103],[129.246,103],[129.316,103.005],[129.386,103.02],[129.453,103.045],[129.515,103.079],[129.572,103.122],[129.623,103.173],[129.666,103.23],[129.7,103.292],[129.725,103.359],[129.74,103.429],[129.745,103.5],[130.395,113],[130.395,126.5],[130.39,126.571],[130.375,126.641],[130.35,126.708],[130.316,126.77],[130.273,126.827],[130.222,126.878],[130.165,126.921],[130.103,126.955],[130.036,126.98],[129.966,126.995],[129.895,127],[129.071,127],[124.697,127],[124.626,126.995],[124.556,126.98],[124.49,126.955],[124.427,126.921],[124.37,126.878],[124.32,126.827],[124.277,126.77],[124.243,126.708],[124.218,126.641],[124.203,126.571],[124.197,126.5]]
EXCLUDE_OBJECT_DEFINE NAME=Rouleau.stl_id_1_copy_0 CENTER=119.099,115 POLYGON=[[116,126.5],[116,113],[116.65,103.5],[116.655,103.429],[116.67,103.359],[116.695,103.292],[116.729,103.23],[116.772,103.173],[116.822,103.122],[116.88,103.079],[116.942,103.045],[117.009,103.02],[117.079,103.005],[117.149,103],[118.66,103],[121.049,103],[121.119,103.005],[121.189,103.02],[121.255,103.045],[121.318,103.079],[121.375,103.122],[121.425,103.173],[121.468,103.23],[121.502,103.292],[121.527,103.359],[121.542,103.429],[121.548,103.5],[122.197,113],[122.197,126.5],[122.192,126.571],[122.177,126.641],[122.152,126.708],[122.118,126.77],[122.075,126.827],[122.025,126.878],[121.968,126.921],[121.905,126.955],[121.838,126.98],[121.769,126.995],[121.698,127],[120.874,127],[116.5,127],[116.429,126.995],[116.359,126.98],[116.292,126.955],[116.23,126.921],[116.172,126.878],[116.122,126.827],[116.079,126.77],[116.045,126.708],[116.02,126.641],[116.005,126.571],[116,126.5]]
EXCLUDE_OBJECT_DEFINE NAME=Rouleau.stl_id_2_copy_0 CENTER=110.901,115 POLYGON=[[107.803,126.5],[107.803,113],[108.453,103.5],[108.458,103.429],[108.473,103.359],[108.498,103.292],[108.532,103.23],[108.575,103.173],[108.625,103.122],[108.682,103.079],[108.745,103.045],[108.811,103.02],[108.881,103.005],[108.951,103],[110.463,103],[112.851,103],[112.921,103.005],[112.991,103.02],[113.058,103.045],[113.12,103.079],[113.178,103.122],[113.228,103.173],[113.271,103.23],[113.305,103.292],[113.33,103.359],[113.345,103.429],[113.35,103.5],[114,113],[114,126.5],[113.995,126.571],[113.98,126.641],[113.955,126.708],[113.921,126.77],[113.878,126.827],[113.827,126.878],[113.77,126.921],[113.708,126.955],[113.641,126.98],[113.571,126.995],[113.5,127],[112.676,127],[108.302,127],[108.231,126.995],[108.162,126.98],[108.095,126.955],[108.032,126.921],[107.975,126.878],[107.925,126.827],[107.882,126.77],[107.848,126.708],[107.823,126.641],[107.808,126.571],[107.803,126.5]]
EXCLUDE_OBJECT_DEFINE NAME=Rouleau.stl_id_3_copy_0 CENTER=102.704,115 POLYGON=[[99.6051,126.5],[99.6051,113],[100.255,103.5],[100.26,103.429],[100.275,103.359],[100.3,103.292],[100.334,103.23],[100.377,103.173],[100.428,103.122],[100.485,103.079],[100.547,103.045],[100.614,103.02],[100.684,103.005],[100.754,103],[102.265,103],[104.654,103],[104.724,103.005],[104.794,103.02],[104.86,103.045],[104.923,103.079],[104.98,103.122],[105.03,103.173],[105.073,103.23],[105.107,103.292],[105.132,103.359],[105.147,103.429],[105.153,103.5],[105.803,113],[105.803,126.5],[105.797,126.571],[105.782,126.641],[105.757,126.708],[105.723,126.77],[105.68,126.827],[105.63,126.878],[105.573,126.921],[105.51,126.955],[105.444,126.98],[105.374,126.995],[105.303,127],[104.479,127],[100.105,127],[100.034,126.995],[99.9641,126.98],[99.8972,126.955],[99.8346,126.921],[99.7776,126.878],[99.7271,126.827],[99.6844,126.77],[99.6502,126.708],[99.6253,126.641],[99.6101,126.571],[99.6051,126.5]]
M73 P0 R13
;TYPE:Custom
M220 S100
G90 ; use absolute coordinates
M83 ; extruder relative mode
M104 S150 ; set temporary nozzle temp to prevent oozing during homing
M140 S70 ; set final bed temp
G4 S30 ; allow partial nozzle warmup
G28 ; home all axis and restore leveling
BED_MESH_CALIBRATE PROFILE=adaptive ADAPTIVE=1 ADAPTIVE_MARGIN=0
G1 Z25 F240
G1 X10.0 Y30 F3000
M104 S245 ; set final nozzle temp
M190 S70 ; wait for bed temp to stabilize
M109 S245 ; wait for nozzle temp to stabilize
G1 Z0.28 F240
G92 E0 ; Move Z Axis up
G1 Z2.0 F5000 ; Move to start position
M73 P1 R12
M73 P1 R12
G1 X5 Y30 Z0.28 F300 ; Draw the first line
G1 X5 Y200 Z0.28 F1500 E15 ; Move to side a little
G1 X5.4 Y200 Z0.28 F5000.0 ; Draw the second line
M73 P2 R12
M73 P2 R12
G1 X5.4 Y50 Z0.28 F1500.0 E30 ; Reset Extruder
G92 E0 ; Move Z Axis up
G1 Z2.0 F3000
M73 P3 R12
M117 Start Printing..
G90
G21
M83 ; use relative distances for extrusion
; filament start gcode
M106 S0
;LAYER_CHANGE
;Z:0.1
;HEIGHT:0.1
;BEFORE_LAYER_CHANGE
;0.1
G92 E0

M73 P3 R12
G1 E-.5 F1800
;_SET_FAN_SPEED_CHANGING_LAYER
SET_VELOCITY_LIMIT ACCEL=1000
SET_VELOCITY_LIMIT SQUARE_CORNER_VELOCITY=7
; printing object Rouleau.stl id:3 copy 0
EXCLUDE_OBJECT_START NAME=Rouleau.stl_id_3_copy_0
G1 Z.3 F24000
G1 X111.945 Y133.779
G1 Z.3
G1 Z.1
G1 E.5 F1800
;TYPE:Inner wall
;WIDTH:0.499999
G1 X111.943 Y145.938 E.22982
G1 X109.462 Y145.938 E.04688
G1 X109.462 Y133.779 E.22982
G1 X110.075 Y133.779 E.01158
G1 X110.306 Y133.741 E.00441
G1 X110.478 Y133.655 E.00364
G1 X110.704 Y133.271 E.00842
G1 X110.93 Y133.655 E.00842
G1 X111.102 Y133.741 E.00364
G1 X111.332 Y133.779 E.00441
G1 X111.905 Y133.779 E.01083
G1 X112.212 Y133.3 F24000
;TYPE:Outer wall
G1 F1800
G1 X112.424 Y133.3 E.004
G1 X112.421 Y146.417 E.24791
G1 X108.984 Y146.417 E.06497
G1 X108.984 Y133.3 E.24791
G1 X110.075 Y133.3 E.02063
G1 X110.21 Y133.259 E.00265
;WIDTH:0.549947
G1 X110.27 Y133.193 E.00186
;WIDTH:0.599894
G1 X110.33 Y133.127 E.00204
;WIDTH:0.649842
G1 X110.39 Y133.061 E.00221
G1 X110.39 Y123.658 E.23336
G1 X111.018 Y123.658 E.0156
G1 X111.018 Y133.061 E.23336
G1 X111.078 Y133.127 E.00221
;WIDTH:0.599894
G1 X111.138 Y133.193 E.00204
;WIDTH:0.549947
G1 X111.198 Y133.259 E.00186
;WIDTH:0.499999
G1 X111.332 Y133.3 E.00265
G1 X112.172 Y133.3 E.01587
G1 E-.5
;WIPE_START
G1 F12000
G1 X112.424 Y133.3
G1 X112.423 Y135.048
;WIPE_END
G1 Z.3 F24000
G1 X110.611 Y133.747
G1 Z.3
G1 Z.1
G1 E.5 F1800
;TYPE:Bottom surface
;WIDTH:0.522211
G1 F3600
G1 X111.586 Y134.721 E.02726
G1 X111.586 Y135.429 E.014
M73 P4 R12
M73 P4 R12
G1 X110.265 Y134.108 E.03696
G1 X110.085 Y134.137 E.0036
G1 X109.821 Y134.137 E.00522
G1 X109.821 Y134.373 E.00466
G1 X111.586 Y136.137 E.04935
G1 X111.586 Y136.845 E.014
G1 X109.821 Y135.081 E.04934
G1 X109.821 Y135.789 E.01401
G1 X111.585 Y137.553 E.04934
G1 X111.585 Y138.261 E.014
G1 X109.821 Y136.497 E.04934
G1 X109.821 Y137.206 E.01401
G1 X111.585 Y138.969 E.04933
G1 X111.585 Y139.677 E.014
G1 X109.821 Y137.914 E.04933
G1 X109.821 Y138.622 E.01401
G1 X111.585 Y140.386 E.04933
G1 X111.585 Y141.094 E.014
G1 X109.821 Y139.33 E.04932
G1 X109.821 Y140.038 E.01401
G1 X111.585 Y141.802 E.04932
G1 X111.585 Y142.51 E.014
G1 X109.821 Y140.746 E.04932
G1 X109.821 Y141.455 E.01401
G1 X111.585 Y143.218 E.04932
G1 X111.584 Y143.926 E.014
G1 X109.821 Y142.163 E.04931
G1 X109.821 Y142.871 E.01401
G1 X111.584 Y144.634 E.04931
G1 X111.584 Y145.342 E.014
G1 X109.821 Y143.579 E.04931
G1 X109.821 Y144.287 E.01401
G1 X111.113 Y145.579 E.03613
G1 X110.405 Y145.579 E.01401
G1 X109.606 Y144.78 E.02235
; stop printing object Rouleau.stl id:3 copy 0
; printing object Rouleau.stl id:2 copy 0
G1 E-.5 F1800
;WIPE_START
G1 F12000
G1 X110.405 Y145.579
G1 X111.113 Y145.579
G1 X110.999 Y145.465
;WIPE_END
EXCLUDE_OBJECT_END NAME=Rouleau.stl_id_3_copy_0
EXCLUDE_OBJECT_START NAME=Rouleau.stl_id_2_copy_0
G1 Z.3 F24000
G1 X120.142 Y133.779 Z.3
G1 Z.1
G1 E.5 F1800
;TYPE:Inner wall
;WIDTH:0.499999
G1 X120.14 Y145.938 E.22982
G1 X117.66 Y145.938 E.04688
G1 X117.66 Y133.779 E.22982
G1 X118.273 Y133.779 E.01158
G1 X118.503 Y133.741 E.00441
G1 X118.675 Y133.655 E.00364
G1 X118.901 Y133.271 E.00842
G1 X119.127 Y133.655 E.00842
G1 X119.299 Y133.741 E.00364
G1 X119.53 Y133.779 E.00441
G1 X120.102 Y133.779 E.01083
G1 X120.409 Y133.3 F24000
;TYPE:Outer wall
G1 F1800
G1 X120.621 Y133.3 E.004
G1 X120.619 Y146.417 E.24791
G1 X117.181 Y146.417 E.06497
G1 X117.181 Y133.3 E.24791
G1 X118.273 Y133.3 E.02063
G1 X118.407 Y133.259 E.00265
;WIDTH:0.549947
G1 X118.467 Y133.193 E.00186
;WIDTH:0.599894
G1 X118.527 Y133.127 E.00204
;WIDTH:0.649842
G1 X118.587 Y133.061 E.00221
G1 X118.587 Y123.658 E.23336
G1 X119.215 Y123.658 E.0156
G1 X119.215 Y133.061 E.23336
G1 X119.275 Y133.127 E.00221
;WIDTH:0.599894
G1 X119.335 Y133.193 E.00204
;WIDTH:0.549947
G1 X119.395 Y133.259 E.00186
;WIDTH:0.499999
G1 X119.53 Y133.3 E.00265
G1 X120.369 Y133.3 E.01587
G1 X118.809 Y133.747 F24000
;TYPE:Bottom surface
;WIDTH:0.522211
G1 F3600
G1 X119.783 Y134.721 E.02726
G1 X119.783 Y135.429 E.014
G1 X118.462 Y134.108 E.03696
G1 X118.283 Y134.137 E.0036
G1 X118.019 Y134.137 E.00522
G1 X118.019 Y134.373 E.00466
G1 X119.783 Y136.137 E.04935
G1 X119.783 Y136.845 E.014
G1 X118.019 Y135.081 E.04934
G1 X118.019 Y135.789 E.01401
G1 X119.783 Y137.553 E.04934
G1 X119.783 Y138.261 E.014
G1 X118.019 Y136.497 E.04934
G1 X118.019 Y137.206 E.01401
G1 X119.783 Y138.969 E.04933
G1 X119.783 Y139.677 E.014
G1 X118.019 Y137.914 E.04933
G1 X118.019 Y138.622 E.01401
G1 X119.782 Y140.386 E.04933
G1 X119.782 Y141.094 E.014
G1 X118.019 Y139.33 E.04932
G1 X118.019 Y140.038 E.01401
G1 X119.782 Y141.802 E.04932
G1 X119.782 Y142.51 E.014
G1 X118.019 Y140.746 E.04932
G1 X118.019 Y141.455 E.01401
G1 X119.782 Y143.218 E.04932
G1 X119.782 Y143.926 E.014
G1 X118.019 Y142.163 E.04931
G1 X118.019 Y142.871 E.01401
G1 X119.782 Y144.634 E.04931
G1 X119.782 Y145.342 E.014
G1 X118.019 Y143.579 E.04931
G1 X118.019 Y144.287 E.01401
G1 X119.311 Y145.579 E.03613
G1 X118.603 Y145.579 E.01401
G1 X117.804 Y144.78 E.02235
; stop printing object Rouleau.stl id:2 copy 0
; printing object Rouleau.stl id:1 copy 0
G1 E-.5 F1800
;WIPE_START
G1 F12000
G1 X118.603 Y145.579
G1 X119.311 Y145.579
G1 X119.196 Y145.465
;WIPE_END
EXCLUDE_OBJECT_END NAME=Rouleau.stl_id_2_copy_0
EXCLUDE_OBJECT_START NAME=Rouleau.stl_id_1_copy_0
G1 Z.3 F24000
G1 X128.34 Y133.779 Z.3
M73 P5 R12
M73 P5 R12
G1 Z.1
G1 E.5 F1800
;TYPE:Inner wall
;WIDTH:0.499999
G1 X128.338 Y145.938 E.22982
G1 X125.857 Y145.938 E.04688
G1 X125.857 Y133.779 E.22982
G1 X126.47 Y133.779 E.01158
G1 X126.701 Y133.741 E.00441
G1 X126.873 Y133.655 E.00364
G1 X127.099 Y133.271 E.00842
G1 X127.325 Y133.655 E.00842
G1 X127.497 Y133.741 E.00364
G1 X127.727 Y133.779 E.00441
G1 X128.3 Y133.779 E.01083
G1 X128.607 Y133.3 F24000
;TYPE:Outer wall
G1 F1800
G1 X128.819 Y133.3 E.004
G1 X128.816 Y146.417 E.24791
G1 X125.379 Y146.417 E.06497
G1 X125.379 Y133.3 E.24791
G1 X126.47 Y133.3 E.02063
G1 X126.605 Y133.259 E.00265
;WIDTH:0.549947
G1 X126.665 Y133.193 E.00186
;WIDTH:0.599894
G1 X126.725 Y133.127 E.00204
;WIDTH:0.649842
G1 X126.785 Y133.061 E.00221
G1 X126.785 Y123.658 E.23336
G1 X127.413 Y123.658 E.0156
G1 X127.413 Y133.061 E.23336
G1 X127.473 Y133.127 E.00221
;WIDTH:0.599894
G1 X127.533 Y133.193 E.00204
;WIDTH:0.549947
G1 X127.593 Y133.259 E.00186
;WIDTH:0.499999
G1 X127.727 Y133.3 E.00265
G1 X128.567 Y133.3 E.01587
G1 X127.006 Y133.747 F24000
;TYPE:Bottom surface
;WIDTH:0.522211
G1 F3600
G1 X127.981 Y134.721 E.02726
G1 X127.981 Y135.429 E.014
G1 X126.66 Y134.108 E.03696
G1 X126.48 Y134.137 E.0036
G1 X126.216 Y134.137 E.00522
G1 X126.216 Y134.373 E.00466
G1 X127.981 Y136.137 E.04935
G1 X127.981 Y136.845 E.014
G1 X126.216 Y135.081 E.04934
G1 X126.216 Y135.789 E.01401
G1 X127.98 Y137.553 E.04934
G1 X127.98 Y138.261 E.014
G1 X126.216 Y136.497 E.04934
G1 X126.216 Y137.206 E.01401
G1 X127.98 Y138.969 E.04933
G1 X127.98 Y139.677 E.014
G1 X126.216 Y137.914 E.04933
G1 X126.216 Y138.622 E.01401
G1 X127.98 Y140.386 E.04933
G1 X127.98 Y141.094 E.014
G1 X126.216 Y139.33 E.04932
G1 X126.216 Y140.038 E.01401
G1 X127.98 Y141.802 E.04932
G1 X127.98 Y142.51 E.014
G1 X126.216 Y140.746 E.04932
G1 X126.216 Y141.455 E.01401
G1 X127.979 Y143.218 E.04932
G1 X127.979 Y143.926 E.014
G1 X126.216 Y142.163 E.04931
G1 X126.216 Y142.871 E.01401
G1 X127.979 Y144.634 E.04931
G1 X127.979 Y145.342 E.014
G1 X126.216 Y143.579 E.04931
G1 X126.216 Y144.287 E.01401
G1 X127.508 Y145.579 E.03613
G1 X126.8 Y145.579 E.01401
G1 X126.001 Y144.78 E.02235
; stop printing object Rouleau.stl id:1 copy 0
; printing object Rouleau.stl id:0 copy 0
G1 E-.5 F1800
;WIPE_START
G1 F12000
G1 X126.8 Y145.579
G1 X127.508 Y145.579
G1 X127.394 Y145.465
;WIPE_END
EXCLUDE_OBJECT_END NAME=Rouleau.stl_id_1_copy_0
EXCLUDE_OBJECT_START NAME=Rouleau.stl_id_0_copy_0
G1 Z.3 F24000
G1 X136.537 Y133.779 Z.3
G1 Z.1
G1 E.5 F1800
;TYPE:Inner wall
;WIDTH:0.499999
G1 X136.535 Y145.938 E.22982
G1 X134.055 Y145.938 E.04688
G1 X134.055 Y133.779 E.22982
G1 X134.668 Y133.779 E.01158
G1 X134.898 Y133.741 E.00441
G1 X135.07 Y133.655 E.00364
G1 X135.296 Y133.271 E.00842
G1 X135.522 Y133.655 E.00842
G1 X135.694 Y133.741 E.00364
G1 X135.925 Y133.779 E.00441
G1 X136.497 Y133.779 E.01083
G1 X136.804 Y133.3 F24000
;TYPE:Outer wall
G1 F1800
G1 X137.016 Y133.3 E.004
G1 X137.014 Y146.417 E.24791
G1 X133.576 Y146.417 E.06497
G1 X133.576 Y133.3 E.24791
G1 X134.668 Y133.3 E.02063
M73 P6 R12
M73 P6 R12
G1 X134.802 Y133.259 E.00265
;WIDTH:0.549947
G1 X134.862 Y133.193 E.00186
;WIDTH:0.599894
G1 X134.922 Y133.127 E.00204
;WIDTH:0.649842
G1 X134.982 Y133.061 E.00221
G1 X134.982 Y123.658 E.23336
G1 X135.61 Y123.658 E.0156
G1 X135.61 Y133.061 E.23336
G1 X135.67 Y133.127 E.00221
;WIDTH:0.599894
G1 X135.73 Y133.193 E.00204
;WIDTH:0.549947
G1 X135.79 Y133.259 E.00186
;WIDTH:0.499999
G1 X135.925 Y133.3 E.00265
G1 X136.764 Y133.3 E.01587
G1 X135.204 Y133.747 F24000
;TYPE:Bottom surface
;WIDTH:0.522211
G1 F3600
G1 X136.178 Y134.721 E.02726
G1 X136.178 Y135.429 E.014
G1 X134.857 Y134.108 E.03696
G1 X134.678 Y134.137 E.0036
G1 X134.414 Y134.137 E.00522
G1 X134.414 Y134.373 E.00466
G1 X136.178 Y136.137 E.04935
G1 X136.178 Y136.845 E.014
G1 X134.414 Y135.081 E.04934
G1 X134.414 Y135.789 E.01401
G1 X136.178 Y137.553 E.04934
G1 X136.178 Y138.261 E.014
G1 X134.414 Y136.497 E.04934
G1 X134.414 Y137.206 E.01401
G1 X136.178 Y138.969 E.04933
G1 X136.178 Y139.677 E.014
G1 X134.414 Y137.914 E.04933
G1 X134.414 Y138.622 E.01401
G1 X136.177 Y140.386 E.04933
G1 X136.177 Y141.094 E.014
G1 X134.414 Y139.33 E.04932
G1 X134.414 Y140.038 E.01401
G1 X136.177 Y141.802 E.04932
G1 X136.177 Y142.51 E.014
G1 X134.414 Y140.746 E.04932
G1 X134.414 Y141.455 E.01401
G1 X136.177 Y143.218 E.04932
G1 X136.177 Y143.926 E.014
G1 X134.414 Y142.163 E.04931
G1 X134.414 Y142.871 E.01401
G1 X136.177 Y144.634 E.04931
G1 X136.177 Y145.342 E.014
G1 X134.414 Y143.579 E.04931
