; HEADER_BLOCK_START
; generated by OrcaSlicer 2.2.0 on 2024-11-20 at 14:06:01
; total layer number: 24
; filament_density: 1.27
; filament_diameter: 1.75
; max_z_height: 4.80
; HEADER_BLOCK_END

; THUMBNAIL_BLOCK_START

;
; THUMBNAIL_BLOCK_END

; THUMBNAIL_BLOCK_START

;
; THUMBNAIL_BLOCK_END

; external perimeters extrusion width = 0.42mm
; perimeters extrusion width = 0.45mm
; infill extrusion width = 0.45mm
; solid infill extrusion width = 0.45mm
; top infill extrusion width = 0.42mm
; first layer extrusion width = 0.50mm

; EXECUTABLE_BLOCK_START
EXCLUDE_OBJECT_DEFINE NAME=Rouleau.stl_id_0_copy_0 CENTER=115,115 POLYGON=[[103,112.786],[103.128,112.564],[103.133,112.555],[103.138,112.551],[103.143,112.55],[113,111.901],[126.5,111.901],[126.571,111.906],[126.641,111.922],[126.708,111.946],[126.77,111.981],[126.827,112.023],[126.878,112.074],[126.921,112.131],[126.955,112.193],[126.98,112.26],[126.995,112.33],[127,112.401],[127,117.599],[126.995,117.67],[126.98,117.74],[126.955,117.807],[126.921,117.869],[126.878,117.926],[126.827,117.977],[126.77,118.019],[126.708,118.054],[126.641,118.078],[126.571,118.094],[126.5,118.099],[113,118.099],[103.542,117.45],[103.536,117.448],[103,117.214],[103,112.786]]
M73 P0 R3
;TYPE:Custom
M220 S100
G90 ; use absolute coordinates
M83 ; extruder relative mode
M104 S150 ; set temporary nozzle temp to prevent oozing during homing
M140 S70 ; set final bed temp
G4 S30 ; allow partial nozzle warmup
G28 ; home all axis and restore leveling
BED_MESH_CALIBRATE PROFILE=adaptive ADAPTIVE=1 ADAPTIVE_MARGIN=0
G1 Z25 F240
G1 X10.0 Y30 F3000
M73 P3 R3
M104 S245 ; set final nozzle temp
M190 S70 ; wait for bed temp to stabilize
M109 S245 ; wait for nozzle temp to stabilize
M73 P3 R3
G1 Z0.28 F240
G92 E0 ; Move Z Axis up
G1 Z2.0 F5000 ; Move to start position
M73 P6 R3
M73 P6 R3
G1 X5 Y30 Z0.28 F300 ; Draw the first line
G1 X5 Y200 Z0.28 F1500 E15 ; Move to side a little
M73 P7 R3
M73 P7 R3
G1 X5.4 Y200 Z0.28 F5000.0 ; Draw the second line
M73 P10 R2
M73 P10 R2
G1 X5.4 Y50 Z0.28 F1500.0 E30 ; Reset Extruder
G92 E0 ; Move Z Axis up
G1 Z2.0 F3000
M73 P13 R2
M117 Start Printing..
G90
G21
M83 ; use relative distances for extrusion
; filament start gcode
M106 S0
;LAYER_CHANGE
;Z:0.2
;HEIGHT:0.2
;BEFORE_LAYER_CHANGE
;0.2
G92 E0

M73 P13 R2
G1 E-.5 F1800
;_SET_FAN_SPEED_CHANGING_LAYER
SET_VELOCITY_LIMIT ACCEL=1000
SET_VELOCITY_LIMIT SQUARE_CORNER_VELOCITY=7
; printing object Rouleau.stl id:0 copy 0
EXCLUDE_OBJECT_START NAME=Rouleau.stl_id_0_copy_0
G1 Z.4 F24000
G1 X121.74 Y135.685
G1 Z.4
M73 P14 R2
M73 P14 R2
G1 Z.2
G1 E.5 F1800
;TYPE:Inner wall
;WIDTH:0.499999
G1 X121.705 Y135.507 E.00658
G1 X121.598 Y135.331 E.00741
G1 X121.423 Y135.272 E.00668
;WIDTH:0.452014
G1 X121.247 Y135.214 E.00598
;WIDTH:0.404029
G1 X121.071 Y135.156 E.00528
;WIDTH:0.356044
G1 X116.685 Y135.156 E.1085
G1 X116.685 Y134.843 E.00774
G1 X121.071 Y134.843 E.10849
;WIDTH:0.404029
G1 X121.247 Y134.784 E.00528
;WIDTH:0.452014
G1 X121.423 Y134.726 E.00598
;WIDTH:0.499999
G1 X121.598 Y134.668 E.00668
G1 X121.704 Y134.492 E.00739
G1 X121.757 Y134.229 E.0097
G1 X121.757 Y133.68 E.01983
G1 X134.042 Y133.686 E.44356
G1 X134.042 Y136.32 E.09514
G1 X121.757 Y136.32 E.44356
G1 X121.757 Y135.769 E.0199
M73 P15 R2
M73 P15 R2
G1 X121.748 Y135.725 E.00166
G1 X121.3 Y135.769 F24000
;TYPE:Outer wall
G1 F1800
G1 X121.247 Y135.623 E.00561
G1 X121.071 Y135.541 E.007
G1 X116.3 Y135.541 E.17228
G1 X116.3 Y134.458 E.03911
G1 X121.071 Y134.458 E.17228
G1 X121.247 Y134.375 E.007
G1 X121.3 Y134.229 E.00561
G1 X121.3 Y133.223 E.03634
G1 X134.499 Y133.229 E.47656
G1 X134.499 Y136.745 E.12696
G1 X134.47 Y136.778 E.00158
G1 X121.3 Y136.778 E.47552
G1 X121.3 Y135.809 E.03495
G1 E-.5
;WIPE_START
G1 F12000
G1 X121.247 Y135.623
G1 X121.071 Y135.541
G1 X119.459 Y135.541
;WIPE_END
G1 Z.4 F24000
G1 X133.905 Y134.763
G1 Z.4
M73 P16 R2
M73 P16 R2
G1 Z.2
G1 E.5 F1800
;TYPE:Bottom surface
;WIDTH:0.507771
G1 F2308
G1 X133.17 Y134.028 E.03817
G1 X132.512 Y134.028 E.02415
G1 X133.699 Y135.215 E.06165
G1 X133.699 Y135.872 E.02414
G1 X131.854 Y134.027 E.0958
G1 X131.197 Y134.027 E.02415
G1 X133.147 Y135.978 E.1013
G1 X132.49 Y135.978 E.02414
G1 X130.539 Y134.027 E.10131
G1 X129.881 Y134.026 E.02415
G1 X131.832 Y135.978 E.10133
G1 X131.175 Y135.978 E.02414
G1 X129.223 Y134.026 E.10134
G1 X128.566 Y134.026 E.02415
G1 X130.518 Y135.978 E.10136
G1 X129.86 Y135.978 E.02414
G1 X127.908 Y134.025 E.10138
G1 X127.25 Y134.025 E.02415
G1 X129.203 Y135.978 E.10139
G1 X128.545 Y135.978 E.02414
G1 X126.593 Y134.025 E.10141
G1 X125.935 Y134.025 E.02415
G1 X127.888 Y135.978 E.10142
G1 X127.231 Y135.978 E.02414
G1 X125.277 Y134.024 E.10144
G1 X124.62 Y134.024 E.02415
G1 X126.573 Y135.978 E.10146
G1 X125.916 Y135.978 E.02414
M73 P17 R2
M73 P17 R2
G1 X123.962 Y134.024 E.10147
G1 X123.304 Y134.023 E.02415
G1 X125.258 Y135.978 E.10149
G1 X124.601 Y135.978 E.02414
G1 X122.646 Y134.023 E.1015
G1 X122.1 Y134.023 E.02007
G1 X122.1 Y134.134 E.00408
G1 X123.944 Y135.978 E.09575
G1 X123.286 Y135.978 E.02414
G1 X121.989 Y134.68 E.06739
G1 X121.848 Y134.913 E.00998
G1 X121.623 Y134.972 E.00854
G1 X122.835 Y136.183 E.06291
; stop printing object Rouleau.stl id:0 copy 0
;LAYER_CHANGE
;Z:0.4
;HEIGHT:0.2
;BEFORE_LAYER_CHANGE
;0.4
G92 E0

G1 E-.5 F1800
;WIPE_START
G1 F12000
G1 X121.623 Y134.972
G1 X121.848 Y134.913
G1 X121.876 Y134.866
;WIPE_END
EXCLUDE_OBJECT_END NAME=Rouleau.stl_id_0_copy_0
;_SET_FAN_SPEED_CHANGING_LAYER
SET_VELOCITY_LIMIT ACCEL=5000
M140 S70 ; set bed temperature
; printing object Rouleau.stl id:0 copy 0
EXCLUDE_OBJECT_START NAME=Rouleau.stl_id_0_copy_0
G1 Z.6 F24000
G1 X121.473 Y135.884 Z.6
G1 Z.4
G1 E.5 F1800
;TYPE:Inner wall
;WIDTH:0.449999
G1 F2870
G1 X121.373 Y135.776 E.00473
G1 X121.021 Y135.658 E.01193
G1 X116.602 Y135.658 E.14211
G1 X116.599 Y135.416 E.00777
G1 X116.543 Y134.879 E.01737
G1 X116.581 Y134.341 E.01733
G1 X121.021 Y134.341 E.14278
G1 X121.373 Y134.223 E.01193
G1 X121.507 Y134.079 E.0063
G1 X121.602 Y133.761 E.0107
G1 X121.602 Y133.324 E.01405
G1 X134.356 Y133.327 E.41011
G1 X134.356 Y136.67 E.10749
G1 X121.602 Y136.676 E.41011
G1 X121.602 Y136.238 E.01408
G1 X121.507 Y135.92 E.0107
M73 P18 R2
M73 P18 R2
G1 X121.501 Y135.913 E.00028
G1 X121.179 Y136.135 F24000
SET_VELOCITY_LIMIT ACCEL=2000
;TYPE:Outer wall
;WIDTH:0.419999
G1 F2870
G1 X121.021 Y136.05 E.00534
G1 F600
G1 X120.8 Y136.05 E.00658
SET_VELOCITY_LIMIT ACCEL=1000
;TYPE:Overhang wall
G1 X119.76 Y136.048 E.03098
G1 X117.25 Y136.043 E.07476
G1 X116.21 Y136.041 E.03098
SET_VELOCITY_LIMIT ACCEL=2000
;TYPE:Outer wall
G1 X116.21 Y135.841 E.00596
M106 S0
G1 F2870
G1 X116.209 Y135.457 E.01144
G1 X116.152 Y134.752 E.02107
G1 X116.195 Y134.158 E.01774
G1 F600
G1 X116.209 Y133.958 E.00597
SET_VELOCITY_LIMIT ACCEL=1000
;TYPE:Overhang wall
G1 X117.249 Y133.956 E.03098
G1 X119.76 Y133.951 E.07479
G1 X120.8 Y133.949 E.03098
SET_VELOCITY_LIMIT ACCEL=2000
;TYPE:Outer wall
G1 X121.021 Y133.949 E.00658
M106 S0
G1 F2870
G1 X121.136 Y133.911 E.00361
G1 X121.21 Y133.761 E.00498
G1 X121.21 Y132.931 E.02472
G1 X134.44 Y132.935 E.39408
G1 X134.624 Y132.993 E.00575
G1 X134.748 Y133.204 E.00729
G1 X134.748 Y136.803 E.1072
G1 X134.659 Y136.98 E.0059
G1 X134.531 Y137.062 E.00453
G1 X121.21 Y137.069 E.39679
M106 S0
G1 X121.21 Y136.238 E.02475
G1 X121.191 Y136.173 E.00202
G1 E-.5 F1800
;WIPE_START
G1 F12000
G1 X121.021 Y136.05
G1 X120.8 Y136.05
G1 X119.231 Y136.047
;WIPE_END
SET_VELOCITY_LIMIT ACCEL=5000
G1 Z.6 F24000
M73 P19 R2
M73 P19 R2
G1 X122.908 Y135
G1 Z.6
G1 Z.4
G1 E.5 F1800
;TYPE:Internal solid infill
;WIDTH:0.544984
G1 F2870
G1 X132.644 Y134.999 E.38613
G1 X122.528 Y135.249 F24000
;WIDTH:0.449999
G1 F2870
G1 X122.623 Y135.454 E.00728
G1 X133.134 Y135.449 E.33801
G1 X133.134 Y134.548 E.02898
G1 X122.623 Y134.545 E.33802
G1 X122.421 Y134.885 E.01273
G1 X122.315 Y134.999 E.00501
G1 X122.502 Y135.219 E.00927
G1 X122.187 Y135.473 F24000
G1 F2870
G1 X122.33 Y135.862 E.01333
G1 X133.542 Y135.856 E.36051
G1 X133.542 Y134.141 E.05515
G1 X122.33 Y134.138 E.36052
G1 X122.187 Y134.526 E.01331
G1 X121.848 Y134.884 E.01584
G1 X121.584 Y134.999 E.00927
G1 X121.848 Y135.115 E.00927
G1 X122.16 Y135.444 E.01456
G1 X121.847 Y135.696 F24000
;WIDTH:0.461409
G1 F2870
G1 X122.001 Y136.18 E.01679
G1 X122.009 Y136.269 E.00295
G1 X133.949 Y136.263 E.39469
G1 X133.949 Y133.734 E.08359
G1 X122.009 Y133.731 E.39469
G1 X121.872 Y134.25 E.01774
M73 P20 R2
M73 P20 R2
G1 X121.614 Y134.551 E.01312
G1 X121.038 Y134.772 E.02039
G1 X116.976 Y134.772 E.13426
G1 X117.01 Y135.227 E.01507
G1 X121.021 Y135.227 E.1326
G1 X121.561 Y135.422 E.01897
G1 X121.818 Y135.668 E.01177
G1 E-.5 F1800
;WIPE_START
G1 F12000
G1 X121.561 Y135.422
G1 X121.021 Y135.227
G1 X119.952 Y135.227
;WIPE_END
G1 Z.6 F24000
G1 X115.375 Y134.543 Z.6
G1 Z.4
G1 E.5 F1800
SET_VELOCITY_LIMIT ACCEL=2000
;TYPE:Outer wall
;WIDTH:0.478935
G1 F2870
G1 X115.393 Y134.825 E.0097
;WIDTH:0.508084
G1 X115.417 Y135.274 E.01654
;WIDTH:0.480589
G1 X115.424 Y135.442 E.00582
SET_VELOCITY_LIMIT ACCEL=5000
G1 X114.575 Y134.536 F24000
SET_VELOCITY_LIMIT ACCEL=2000
;WIDTH:0.479479
G1 F2870
G1 X114.591 Y134.801 E.00916
;WIDTH:0.511048
G1 X114.615 Y135.25 E.01663
;WIDTH:0.482572
G1 X114.623 Y135.434 E.0064
SET_VELOCITY_LIMIT ACCEL=5000
G1 X113.774 Y134.528 F24000
SET_VELOCITY_LIMIT ACCEL=2000
;WIDTH:0.478636
G1 F2870
G1 X113.79 Y134.793 E.00913
;WIDTH:0.511338
G1 X113.814 Y135.242 E.01664
;WIDTH:0.483651
G1 X113.822 Y135.426 E.00642
SET_VELOCITY_LIMIT ACCEL=5000
G1 X113.019 Y135.381 F24000
SET_VELOCITY_LIMIT ACCEL=2000
;WIDTH:0.512202
G1 F2870
G1 X112.99 Y134.785 E.02213
;WIDTH:0.478062
G1 X112.974 Y134.52 E.00911
SET_VELOCITY_LIMIT ACCEL=5000
G1 X112.173 Y134.512 F24000
SET_VELOCITY_LIMIT ACCEL=2000
;WIDTH:0.476401
G1 F2870
G1 X112.19 Y134.776 E.00907
;WIDTH:0.510932
G1 X112.215 Y135.251 E.01757
;WIDTH:0.479779
G1 X112.225 Y135.461 E.00727
SET_VELOCITY_LIMIT ACCEL=5000
G1 X111.424 Y135.332 F24000
SET_VELOCITY_LIMIT ACCEL=2000
;WIDTH:0.480922
G1 F2870
G1 X111.39 Y134.73 E.02084
; stop printing object Rouleau.stl id:0 copy 0
;LAYER_CHANGE
;Z:0.6
;HEIGHT:0.2
;BEFORE_LAYER_CHANGE
;0.6
G92 E0

G1 E-.5 F1800
;WIPE_START
G1 F12000
G1 X111.424 Y135.332
;WIPE_END
EXCLUDE_OBJECT_END NAME=Rouleau.stl_id_0_copy_0
;_SET_FAN_SPEED_CHANGING_LAYER
; printing object Rouleau.stl id:0 copy 0
SET_VELOCITY_LIMIT ACCEL=5000
EXCLUDE_OBJECT_START NAME=Rouleau.stl_id_0_copy_0
G1 Z.8 F24000
G1 X116.41 Y135.285 Z.8
G1 Z.6
G1 E.5 F1800
;TYPE:Inner wall
;WIDTH:0.449999
G1 F3050
G1 X116.347 Y135.176 E.00407
;WIDTH:0.463606
G1 F2940
G1 X115.931 Y134.998 E.01504
M106 S0
G1 X116.32 Y134.766 E.01505
;WIDTH:0.449999
G1 F3050
G1 X116.402 Y134.616 E.00551
G1 X116.526 Y134.055 E.01846
G1 X121.021 Y134.056 E.14454
G1 X121.327 Y133.969 E.01023
G1 X121.473 Y133.84 E.00626
G1 X121.602 Y133.476 E.01243
G1 X121.602 Y133.153 E.01038
G1 X134.365 Y133.153 E.41042
G1 X134.398 Y133.257 E.00349
G1 X134.393 Y136.841 E.11524
G1 X121.602 Y136.847 E.41131
G1 X121.602 Y136.523 E.0104
M73 P21 R2
M73 P21 R2
G1 X121.473 Y136.159 E.01243
G1 X121.327 Y136.03 E.00626
G1 X121.021 Y135.943 E.01023
G1 X116.602 Y135.943 E.14211
G1 X116.495 Y135.433 E.01676
G1 X116.43 Y135.32 E.00417
G1 X116.101 Y135.497 F24000
SET_VELOCITY_LIMIT ACCEL=2000
;TYPE:Outer wall
;WIDTH:0.419999
G1 F2580
G1 X115.933 Y135.396 E.00584
G1 X115.654 Y135.42 E.00834
G1 F3050
G1 X115.561 Y135.534 E.00438
G1 X115.454 Y136.005 E.01439
G1 X115.263 Y135.447 E.01757
G1 F2520
G1 X115.133 Y135.396 E.00416
G1 X114.854 Y135.42 E.00834
G1 F3050
G1 X114.761 Y135.533 E.00436
G1 X114.652 Y135.995 E.01414
G1 X114.52 Y135.551 E.0138
G1 X114.423 Y135.419 E.00488
G1 F2340
G1 X114.142 Y135.397 E.0084
G1 X114.014 Y135.447 E.00409
G1 F3050
G1 X113.846 Y135.987 E.01685
G1 X113.662 Y135.447 E.01699
G1 F2580
G1 X113.535 Y135.397 E.00407
G1 X113.253 Y135.419 E.00843
G1 F3050
G1 X113.161 Y135.534 E.00439
G1 X113.053 Y136.007 E.01445
G1 X112.863 Y135.448 E.01759
G1 F2580
G1 X112.736 Y135.398 E.00407
G1 X112.454 Y135.419 E.00842
G1 F3050
G1 X112.362 Y135.534 E.00439
G1 X112.262 Y135.97 E.01332
G1 X112.12 Y135.549 E.01323
G1 X112.023 Y135.419 E.00483
G1 F2280
G1 X111.743 Y135.396 E.00837
G1 X111.605 Y135.456 E.00448
G1 F3050
G1 X111.454 Y136.006 E.01699
G1 X111.316 Y135.535 E.01462
G1 X111.21 Y135.429 E.00447
G1 X111.226 Y134.497 E.02777
G1 X111.346 Y133.994 E.0154
G1 X111.484 Y134.466 E.01465
G1 F2700
G1 X111.649 Y134.603 E.00639
G1 X111.946 Y134.58 E.00887
G1 F3050
G1 X112.039 Y134.466 E.00438
G1 X112.146 Y133.995 E.01439
G1 X112.337 Y134.553 E.01757
G1 F2580
G1 X112.462 Y134.604 E.00402
G1 X112.747 Y134.581 E.00852
G1 F3050
G1 X112.839 Y134.467 E.00436
G1 X112.933 Y133.965 E.01521
G1 X113.138 Y134.553 E.01855
G1 F2580
G1 X113.262 Y134.603 E.00398
G1 X113.547 Y134.581 E.00851
G1 F3050
G1 X113.639 Y134.466 E.00439
G1 X113.747 Y133.993 E.01445
G1 X113.937 Y134.552 E.01759
G1 F2580
G1 X114.061 Y134.602 E.00398
G1 X114.346 Y134.581 E.00851
G1 F3050
G1 X114.438 Y134.466 E.00439
G1 X114.547 Y133.993 E.01446
G1 X114.737 Y134.552 E.01759
G1 F2580
G1 X114.861 Y134.602 E.00398
G1 X115.146 Y134.581 E.00851
G1 F3050
G1 X115.239 Y134.466 E.00441
G1 X115.347 Y133.994 E.01442
G1 X115.48 Y134.451 E.01418
G1 X115.576 Y134.581 E.00481
G1 F2340
G1 X115.858 Y134.603 E.00843
G1 X116.008 Y134.529 E.00498
G1 F3050
G1 X116.042 Y134.453 E.00248
G1 F2340
G1 X116.207 Y133.663 E.02404
G1 X121.021 Y133.664 E.14339
G1 F3050
G1 X121.121 Y133.636 E.00309
G1 X121.21 Y133.476 E.00545
G1 X121.21 Y132.761 E.0213
G1 X134.294 Y132.761 E.38973
G1 X134.598 Y132.796 E.00911
G1 X134.724 Y132.953 E.006
M106 S0
G1 X134.79 Y133.257 E.00927
G1 X134.785 Y136.768 E.10458
G1 X134.696 Y137.11 E.01053
G1 X134.533 Y137.233 E.00608
G1 X121.21 Y137.239 E.39685
M106 S0
G1 X121.21 Y136.523 E.02133
M73 P22 R2
M73 P22 R2
G1 X121.168 Y136.405 E.00373
G1 X121.021 Y136.335 E.00485
G1 F2340
G1 X116.21 Y136.335 E.1433
G1 X116.21 Y135.904 E.01284
G1 F3050
G1 X116.112 Y135.536 E.01134
SET_VELOCITY_LIMIT ACCEL=5000
G1 X115.931 Y134.998 F24000
;TYPE:Inner wall
;WIDTH:0.501222
G1 F2220
G1 X115.767 Y135.004 E.00594
;WIDTH:0.538837
G1 F2280
G1 X115.603 Y135.011 E.00643
;WIDTH:0.576452
G1 F3050
M106 S0
G1 X115.44 Y135.018 E.00688
G1 X115.362 Y134.982 E.00362
;WIDTH:0.577698
G1 X114.639 Y135.017 E.03055
G1 X114.562 Y134.982 E.00356
G1 X113.838 Y135.017 E.03063
G1 X113.763 Y134.983 E.00351
;WIDTH:0.57745
G1 X113.037 Y135.017 E.03066
;WIDTH:0.577602
G1 X112.962 Y134.983 E.00351
G1 X112.887 Y134.988 E.00314
;WIDTH:0.540334
G1 X112.813 Y134.993 E.00291
;WIDTH:0.503065
G1 F3000
G1 X112.739 Y134.998 E.0027
;WIDTH:0.502828
G1 F2220
G1 X112.572 Y135.004 E.00607
;WIDTH:0.539859
G1 F2280
G1 X112.405 Y135.011 E.00656
;WIDTH:0.57689
G1 F3050
M106 S0
G1 X112.238 Y135.017 E.00705
;WIDTH:0.577196
G1 X112.161 Y134.982 E.00357
G1 X111.979 Y134.99 E.00769
;WIDTH:0.543035
G1 F2100
G1 X111.797 Y134.998 E.0072
;WIDTH:0.508874
G1 F1860
G1 X111.614 Y135.006 E.00674
G1 E-.5 F1800
;WIPE_START
G1 F12000
G1 X111.797 Y134.998
G1 X111.979 Y134.99
G1 X112.161 Y134.982
G1 X112.238 Y135.017
G1 X112.405 Y135.011
G1 X112.572 Y135.004
G1 X112.739 Y134.998
G1 X112.813 Y134.993
G1 X112.887 Y134.988
G1 X112.962 Y134.983
G1 X113.037 Y135.017
G1 X113.597 Y134.991
;WIPE_END
G1 Z.8 F24000
G1 X121.798 Y135.914
G1 Z.8
G1 Z.6
G1 E.5 F1800
;TYPE:Internal solid infill
;WIDTH:0.449999
G1 F3050
M106 S0
G1 X121.992 Y136.44 E.018
G1 X124.211 Y136.438 E.07134
G1 X121.817 Y134.045 E.10883
G1 X121.569 Y134.295 E.01131
G1 X121.053 Y134.464 E.01746
G1 X116.854 Y134.463 E.13505
G1 X116.772 Y134.785 E.01068
G1 X116.682 Y134.948 E.006
G1 X116.823 Y135.161 E.00821
G1 X116.935 Y135.536 E.01259
G1 X121.021 Y135.536 E.1314
G1 X121.507 Y135.667 E.01618
G1 X121.768 Y135.888 E.011
G1 X122.674 Y135.549 F24000
;WIDTH:0.534034
G1 F3050
G1 X122.183 Y135.032 E.02767
G1 X121.804 Y134.681 E.02005
G1 X121.612 Y134.767 E.00814
;WIDTH:0.508248
G1 X121.465 Y134.783 E.00547
;WIDTH:0.470303
G1 X121.317 Y134.8 E.00502
;WIDTH:0.432358
G1 X121.169 Y134.817 E.00457
;WIDTH:0.376012
G1 X121.021 Y134.833 E.00391
G1 X117.147 Y134.833 E.10195
G1 X117.136 Y134.951 E.00313
