; HEADER_BLOCK_START
; generated by OrcaSlicer 2.0.0 on 2024-06-17 at 11:18:30
; total layer number: 50
; filament_density: 1.24
; filament_diameter: 1.75
; max_z_height: 10.00
; HEADER_BLOCK_END

; THUMBNAIL_BLOCK_START

;
; THUMBNAIL_BLOCK_END

; THUMBNAIL_BLOCK_START

;
; THUMBNAIL_BLOCK_END

; external perimeters extrusion width = 0.40mm
; perimeters extrusion width = 0.42mm
; infill extrusion width = 0.45mm
; solid infill extrusion width = 0.42mm
; top infill extrusion width = 0.40mm
; first layer extrusion width = 0.50mm

; EXECUTABLE_BLOCK_START
EXCLUDE_OBJECT_DEFINE NAME=Selecteur.stl_id_0_copy_0 CENTER=115,115 POLYGON=[[107.5,115],[107.505,114.735],[107.519,114.471],[107.542,114.207],[107.575,113.945],[107.617,113.683],[107.668,113.423],[107.728,113.166],[107.797,112.91],[107.875,112.657],[107.962,112.407],[108.058,112.16],[108.163,111.917],[108.276,111.678],[108.397,111.443],[108.527,111.212],[108.665,110.986],[108.81,110.765],[108.964,110.549],[109.124,110.339],[109.293,110.134],[109.468,109.936],[109.65,109.744],[109.839,109.558],[110.034,109.379],[110.236,109.208],[110.443,109.043],[110.656,108.886],[110.875,108.737],[111.098,108.595],[111.327,108.461],[111.56,108.336],[111.797,108.218],[112.038,108.11],[112.283,108.009],[112.532,107.918],[112.783,107.835],[113.038,107.761],[113.294,107.697],[113.553,107.641],[113.814,107.594],[114.076,107.557],[114.339,107.529],[114.603,107.511],[114.868,107.501],[115.132,107.501],[115.397,107.511],[115.661,107.529],[115.924,107.557],[116.186,107.594],[116.447,107.641],[116.706,107.697],[116.962,107.761],[117.217,107.835],[117.468,107.918],[117.717,108.009],[117.962,108.11],[118.203,108.218],[118.44,108.336],[118.673,108.461],[118.902,108.595],[119.125,108.737],[119.344,108.886],[119.557,109.043],[119.764,109.208],[119.966,109.379],[120.161,109.558],[120.35,109.744],[120.532,109.936],[120.707,110.134],[120.876,110.339],[121.036,110.549],[121.19,110.765],[121.335,110.986],[121.473,111.212],[121.603,111.443],[121.724,111.678],[121.837,111.917],[121.942,112.16],[122.038,112.407],[122.125,112.657],[122.203,112.91],[122.272,113.166],[122.332,113.423],[122.383,113.683],[122.425,113.945],[122.458,114.207],[122.481,114.471],[122.495,114.735],[122.5,115],[122.495,115.265],[122.481,115.529],[122.458,115.793],[122.425,116.055],[122.383,116.317],[122.332,116.577],[122.272,116.834],[122.203,117.09],[122.125,117.343],[122.038,117.593],[121.942,117.84],[121.837,118.083],[121.724,118.322],[121.603,118.557],[121.473,118.788],[121.335,119.014],[121.19,119.235],[121.036,119.451],[120.876,119.661],[120.707,119.866],[120.532,120.064],[120.35,120.256],[120.161,120.442],[119.966,120.621],[119.764,120.792],[119.557,120.957],[119.344,121.114],[119.125,121.263],[118.902,121.405],[118.673,121.539],[118.44,121.664],[118.203,121.782],[117.962,121.89],[117.717,121.991],[117.468,122.082],[117.217,122.165],[116.962,122.239],[116.706,122.303],[116.447,122.359],[116.186,122.406],[115.924,122.443],[115.661,122.471],[115.397,122.489],[115.132,122.499],[114.868,122.499],[114.603,122.489],[114.339,122.471],[114.076,122.443],[113.814,122.406],[113.553,122.359],[113.294,122.303],[113.038,122.239],[112.783,122.165],[112.532,122.082],[112.283,121.991],[112.038,121.89],[111.797,121.782],[111.56,121.664],[111.327,121.539],[111.098,121.405],[110.875,121.263],[110.656,121.114],[110.443,120.957],[110.236,120.792],[110.034,120.621],[109.839,120.442],[109.65,120.256],[109.468,120.064],[109.293,119.866],[109.124,119.661],[108.964,119.451],[108.81,119.235],[108.665,119.014],[108.527,118.788],[108.397,118.557],[108.276,118.322],[108.163,118.083],[108.058,117.84],[107.962,117.593],[107.875,117.343],[107.797,117.09],[107.728,116.834],[107.668,116.577],[107.617,116.317],[107.575,116.055],[107.542,115.793],[107.519,115.529],[107.505,115.265],[107.5,115]]
M73 P0 R6
;TYPE:Custom
M220 S100
G90 ; use absolute coordinates
M83 ; extruder relative mode
M104 S150 ; set temporary nozzle temp to prevent oozing during homing
M140 S75 ; set final bed temp
G4 S30 ; allow partial nozzle warmup
G28 ; home all axis and restore leveling
BED_MESH_CALIBRATE PROFILE=adaptive ADAPTIVE=1 ADAPTIVE_MARGIN=0
G1 Z25 F240
G1 X10.0 Y30 F3000
M104 S257 ; set final nozzle temp
M190 S75 ; wait for bed temp to stabilize
M109 S257 ; wait for nozzle temp to stabilize
M73 P1 R6
G1 Z0.28 F240
G92 E0 ; Move Z Axis up
G1 Z2.0 F5000 ; Move to start position
M73 P3 R6
G1 X5 Y30 Z0.28 F300 ; Draw the first line
G1 X5 Y200 Z0.28 F1500 E15 ; Move to side a little
G1 X5.4 Y200 Z0.28 F5000.0 ; Draw the second line
M73 P5 R5
G1 X5.4 Y50 Z0.28 F1500.0 E30 ; Reset Extruder
G92 E0 ; Move Z Axis up
G1 Z2.0 F3000
M117 Start Printing..
G90
G21
M83 ; use relative distances for extrusion
; filament start gcode
M106 S0
;LAYER_CHANGE
;Z:0.2
;HEIGHT:0.2
;BEFORE_LAYER_CHANGE
;0.2
G92 E0

M73 P7 R5
G1 E-.5 F2400
;_SET_FAN_SPEED_CHANGING_LAYER
SET_VELOCITY_LIMIT ACCEL=500 ACCEL_TO_DECEL=250
SET_VELOCITY_LIMIT SQUARE_CORNER_VELOCITY=7
; printing object Selecteur.stl id:0 copy 0
EXCLUDE_OBJECT_START NAME=Selecteur.stl_id_0_copy_0
G1 Z.2 F18000
G1 X118.138 Y138.868
G1 Z.2
G1 E.5 F2400
;TYPE:Inner wall
;WIDTH:0.499999
G1 F1800
G1 X117.74 Y138.318 E.02529
G1 X117.42 Y137.764 E.02384
G1 X117.157 Y137.153 E.02478
G1 X116.962 Y136.523 E.02455
G1 X116.835 Y135.876 E.02457
G1 X116.778 Y135.243 E.02366
G1 X116.791 Y134.583 E.0246
G1 X116.86 Y134.016 E.02125
G1 X116.999 Y133.373 E.02451
G1 X117.204 Y132.748 E.02451
G1 X117.475 Y132.148 E.02451
G1 X117.812 Y131.573 E.02483
G1 X118.193 Y131.056 E.02392
G1 X118.547 Y130.654 E.01996
G1 X118.972 Y130.263 E.02152
G1 X119.482 Y129.872 E.02391
G1 X119.935 Y129.585 E.01996
G1 X120.444 Y129.332 E.0212
G1 X121.058 Y129.093 E.02451
G1 X121.693 Y128.921 E.02451
G1 X122.351 Y128.816 E.02484
G1 X122.992 Y128.781 E.02391
G1 X123.528 Y128.8 E.01996
G1 X124.092 Y128.879 E.0212
G1 X124.733 Y129.028 E.02451
G1 X125.354 Y129.245 E.02451
G1 X125.949 Y129.526 E.02451
G1 X126.423 Y129.803 E.02044
G1 X126.865 Y130.129 E.02044
G1 X127.358 Y130.565 E.02452
G1 X127.808 Y131.057 E.02483
G1 X128.239 Y131.649 E.02729
G1 X128.581 Y132.237 E.02533
G1 X128.843 Y132.847 E.02474
G1 X129.038 Y133.477 E.02455
G1 X129.166 Y134.13 E.02478
G1 X129.217 Y134.89 E.02839
G1 X129.193 Y135.557 E.02484
G1 X129.103 Y136.192 E.02391
G1 X128.982 Y136.714 E.01996
G1 X128.796 Y137.252 E.0212
G1 X128.525 Y137.852 E.02451
G1 X128.193 Y138.42 E.02451
G1 X127.797 Y138.957 E.02484
G1 X127.364 Y139.431 E.02391
G1 X126.969 Y139.793 E.01996
G1 X126.511 Y140.132 E.0212
G1 X125.949 Y140.474 E.02451
G1 X125.346 Y140.758 E.02484
G1 X124.74 Y140.97 E.02391
G1 X124.221 Y141.102 E.01996
G1 X123.657 Y141.183 E.0212
G1 X123 Y141.218 E.02451
G1 X122.343 Y141.183 E.02451
G1 X121.799 Y141.106 E.02044
G1 X121.267 Y140.972 E.02044
G1 X120.646 Y140.755 E.02451
G1 X120.043 Y140.47 E.02484
G1 X119.495 Y140.136 E.02391
G1 X119.063 Y139.819 E.01996
G1 X118.642 Y139.435 E.0212
G1 X118.198 Y138.95 E.02451
G1 X118.162 Y138.9 E.00228
G1 X117.769 Y139.136 F18000
;TYPE:Outer wall
G1 F1800
G1 X117.358 Y138.57 E.02605
G1 X117.008 Y137.963 E.02609
G1 X116.728 Y137.311 E.02643
G1 X116.519 Y136.635 E.02635
G1 X116.382 Y135.941 E.02636
G1 X116.321 Y135.264 E.02528
G1 X116.335 Y134.551 E.02659
G1 X116.409 Y133.944 E.02276
G1 X116.557 Y133.253 E.02632
G1 X116.778 Y132.582 E.02632
G1 X117.069 Y131.938 E.02632
G1 X117.43 Y131.321 E.02663
G1 X117.839 Y130.766 E.02569
G1 X118.22 Y130.334 E.02143
G1 X118.676 Y129.915 E.02308
M73 P8 R5
G1 X119.223 Y129.495 E.02569
G1 X119.709 Y129.187 E.02143
G1 X120.256 Y128.915 E.02276
G1 X120.915 Y128.659 E.02632
G1 X121.597 Y128.474 E.02632
G1 X122.303 Y128.361 E.02664
G1 X122.992 Y128.324 E.02569
G1 X123.567 Y128.344 E.02143
G1 X124.172 Y128.429 E.02276
G1 X124.86 Y128.589 E.02632
G1 X125.527 Y128.822 E.02632
G1 X126.166 Y129.124 E.02632
G1 X126.675 Y129.421 E.02194
G1 X127.149 Y129.771 E.02194
G1 X127.678 Y130.239 E.02632
G1 X128.161 Y130.766 E.02664
G1 X128.621 Y131.397 E.02907
G1 X128.992 Y132.037 E.02758
G1 X129.272 Y132.689 E.02642
G1 X129.481 Y133.365 E.02635
G1 X129.618 Y134.061 E.02643
G1 X129.674 Y134.882 E.03064
G1 X129.648 Y135.597 E.02664
G1 X129.552 Y136.28 E.02569
G1 X129.421 Y136.84 E.02144
G1 X129.222 Y137.418 E.02276
G1 X128.931 Y138.062 E.02632
G1 X128.575 Y138.672 E.02631
G1 X128.15 Y139.247 E.02664
G1 X127.684 Y139.756 E.02569
G1 X127.26 Y140.145 E.02144
G1 X126.769 Y140.509 E.02276
G1 X126.166 Y140.876 E.02632
G1 X125.519 Y141.181 E.02664
G1 X124.868 Y141.409 E.02569
G1 X124.31 Y141.55 E.02143
G1 X123.706 Y141.638 E.02276
G1 X123 Y141.675 E.02632
G1 X122.294 Y141.638 E.02632
G1 X121.711 Y141.555 E.02194
G1 X121.14 Y141.411 E.02194
G1 X120.473 Y141.178 E.02632
G1 X119.826 Y140.872 E.02664
G1 X119.237 Y140.514 E.02569
G1 X118.774 Y140.173 E.02143
G1 X118.322 Y139.761 E.02276
G1 X117.845 Y139.24 E.02632
G1 X117.792 Y139.168 E.00333
G1 E-.35 F2400
;WIPE_START
G1 F1800
G1 X117.358 Y138.57 E-.11089
G1 X117.228 Y138.344 E-.03911
;WIPE_END
G1 Z.4 F18000
G1 X126.027 Y129.724
G1 Z.4
G1 Z.2
G1 E.5 F2400
;TYPE:Bottom surface
;WIDTH:0.512637
G1 F3402
G1 X127.381 Y131.077 E.07328
G1 X127.736 Y131.509 E.02139
G1 X128.068 Y132.011 E.02306
G1 X128.272 Y132.387 E.01636
G1 X128.457 Y132.818 E.01795
G1 X125.185 Y129.546 E.17709
G1 X124.936 Y129.444 E.01031
G1 X124.226 Y129.251 E.02819
G1 X128.746 Y133.771 E.2447
G1 X128.827 Y134.181 E.01599
G1 X128.867 Y134.556 E.01442
G1 X123.448 Y129.137 E.29332
G1 X122.771 Y129.125 E.02591
G1 X128.878 Y135.231 E.33056
G1 X128.823 Y135.84 E.02341
G1 X122.163 Y129.181 E.3605
G1 X121.608 Y129.29 E.02165
G1 X128.714 Y136.396 E.38467
G1 X128.562 Y136.908 E.02044
G1 X121.095 Y129.442 E.40416
G1 X120.869 Y129.516 E.00912
G1 X120.618 Y129.629 E.01052
G1 X128.376 Y137.387 E.41992
G1 X128.152 Y137.827 E.01892
M73 P9 R5
G1 X120.17 Y129.845 E.43207
G1 X119.759 Y130.098 E.01849
G1 X127.901 Y138.24 E.44074
G1 X127.624 Y138.627 E.01822
G1 X119.37 Y130.374 E.44676
G1 X119.012 Y130.68 E.01804
G1 X127.322 Y138.99 E.44985
G1 X126.988 Y139.32 E.01798
G1 X118.678 Y131.01 E.4498
G1 X118.376 Y131.372 E.01805
G1 X126.631 Y139.627 E.44684
G1 X126.241 Y139.901 E.01825
G1 X118.099 Y131.76 E.44071
G1 X117.848 Y132.173 E.0185
G1 X125.826 Y140.151 E.43187
G1 X125.383 Y140.373 E.01895
G1 X117.624 Y132.614 E.42001
G1 X117.438 Y133.092 E.01964
G1 X124.91 Y140.563 E.40444
G1 X124.396 Y140.714 E.0205
G1 X117.29 Y133.608 E.38463
G1 X117.248 Y133.763 E.00616
M73 P10 R5
G1 X117.184 Y134.166 E.0156
G1 X123.837 Y140.819 E.36016
G1 X123.229 Y140.875 E.02338
G1 X117.121 Y134.768 E.33061
G1 X117.121 Y135.227 E.01759
G1 X117.141 Y135.452 E.00863
G1 X122.55 Y140.86 E.29277
G1 X122.06 Y140.808 E.01884
G1 X121.778 Y140.753 E.01101
G1 X117.254 Y136.229 E.24488
G1 X117.295 Y136.439 E.00819
G1 X117.479 Y137.034 E.02384
G1 X117.543 Y137.182 E.00619
G1 X120.814 Y140.454 E.17707
G1 X120.487 Y140.32 E.01352
G1 X119.938 Y140.024 E.02387
G1 X119.441 Y139.685 E.02305
G1 X119.115 Y139.418 E.01611
G1 X117.71 Y138.014 E.07602
G1 X117.828 Y137.896 F18000
;TYPE:Gap infill
;WIDTH:0.14586
G1 F1800
G1 X117.736 Y137.772 E.00129
;WIDTH:0.129829
G1 X117.644 Y137.649 E.00109
G1 E-.35 F2400
;WIPE_START
G1 F1800
G1 X117.736 Y137.772 E-.15
;WIPE_END
G1 Z.4 F18000
G1 X125.909 Y129.841 Z.4
G1 Z.2
G1 E.5 F2400
;WIDTH:0.14586
G1 F1800
G1 X125.786 Y129.749 E.00129
;WIDTH:0.12983
G1 X125.662 Y129.657 E.00109
; stop printing object Selecteur.stl id:0 copy 0
M106 S48
;LAYER_CHANGE
;Z:0.4
;HEIGHT:0.2
;BEFORE_LAYER_CHANGE
;0.4
G92 E0

G1 E-.35 F2400
;WIPE_START
G1 F1800
G1 X125.786 Y129.749 E-.15
;WIPE_END
EXCLUDE_OBJECT_END NAME=Selecteur.stl_id_0_copy_0
;_SET_FAN_SPEED_CHANGING_LAYER
SET_VELOCITY_LIMIT ACCEL=5000 ACCEL_TO_DECEL=2500
M140 S70 ; set bed temperature
; printing object Selecteur.stl id:0 copy 0
SET_VELOCITY_LIMIT SQUARE_CORNER_VELOCITY=8
EXCLUDE_OBJECT_START NAME=Selecteur.stl_id_0_copy_0
G1 Z.4 F18000
G1 X117.783 Y139.094 Z.4
G1 E.5 F2400
SET_VELOCITY_LIMIT SQUARE_CORNER_VELOCITY=7
;TYPE:Inner wall
;WIDTH:0.419999
G1 F3600
G1 X117.519 Y138.75 E.01331
G1 X117.215 Y138.25 E.018
G1 X116.904 Y137.62 E.02158
G1 X116.661 Y136.961 E.02158
G1 X116.489 Y136.28 E.02158
G1 X116.396 Y135.702 E.01799
G1 X116.366 Y135.117 E.018
G1 X116.393 Y134.385 E.02251
G1 X116.487 Y133.721 E.02059
G1 X116.606 Y133.214 E.01602
G1 X116.815 Y132.597 E.02003
G1 X117.104 Y131.956 E.02158
G1 X117.39 Y131.445 E.018
G1 X117.73 Y130.968 E.01799
G1 X118.206 Y130.412 E.02251
G1 X118.692 Y129.95 E.02059
G1 X119.101 Y129.627 E.01602
G1 X119.649 Y129.273 E.02003
G1 X120.273 Y128.951 E.02158
G1 X120.927 Y128.697 E.02158
G1 X121.605 Y128.513 E.02158
G1 X122.329 Y128.398 E.02251
G1 X122.998 Y128.362 E.02059
G1 X123.519 Y128.382 E.01602
G1 X124.165 Y128.468 E.02003
G1 X124.849 Y128.627 E.02158
G1 X125.512 Y128.858 E.02158
G1 X126.174 Y129.173 E.02251
G1 X126.747 Y129.521 E.02059
G1 X127.166 Y129.831 E.01601
G1 X127.65 Y130.267 E.02003
G1 X128.125 Y130.785 E.02158
G1 X128.542 Y131.35 E.02158
G1 X128.847 Y131.85 E.018
G1 X129.096 Y132.38 E.018
G1 X129.348 Y133.068 E.02251
G1 X129.512 Y133.717 E.02059
G1 X129.594 Y134.232 E.01602
G1 X129.634 Y134.883 E.02003
G1 X129.607 Y135.615 E.02251
G1 X129.513 Y136.279 E.02059
G1 X129.394 Y136.786 E.01602
G1 X129.185 Y137.403 E.02003
G1 X128.896 Y138.044 E.02158
G1 X128.542 Y138.65 E.02158
G1 X128.105 Y139.239 E.02251
G1 X127.653 Y139.733 E.02059
G1 X127.268 Y140.085 E.01602
G1 X126.747 Y140.476 E.02003
G1 X126.147 Y140.842 E.02158
G1 X125.484 Y141.153 E.02251
G1 X124.851 Y141.374 E.02059
G1 X124.346 Y141.501 E.01601
G1 X123.701 Y141.598 E.02003
G1 X123 Y141.636 E.02158
G1 X122.268 Y141.595 E.02251
G1 X121.607 Y141.49 E.02059
G1 X121.102 Y141.361 E.01602
G1 X120.488 Y141.142 E.02003
G1 X119.853 Y140.842 E.02158
G1 X119.347 Y140.546 E.018
G1 X118.876 Y140.198 E.01799
G1 X118.35 Y139.733 E.02158
G1 X117.875 Y139.215 E.02158
G1 X117.807 Y139.126 E.00346
SET_VELOCITY_LIMIT SQUARE_CORNER_VELOCITY=8
G1 X117.491 Y139.317 F18000
SET_VELOCITY_LIMIT ACCEL=2000 ACCEL_TO_DECEL=1000
;TYPE:Outer wall
;WIDTH:0.399999
G1 F979.722
M106 S102
G1 X117.216 Y138.958 E.01316
G1 X116.895 Y138.43 E.01798
G1 F993.32
G1 X116.566 Y137.765 E.02159
G1 X116.31 Y137.07 E.02155
G1 X116.129 Y136.351 E.02157
G1 F979.713
G1 X116.031 Y135.741 E.01798
G1 X115.998 Y135.124 E.01798
G1 F991.853
G1 X116.027 Y134.353 E.02245
G1 F985.647
G1 X116.126 Y133.653 E.02057
G1 F984.682
G1 X116.253 Y133.115 E.01608
G1 X116.473 Y132.464 E.01999
G1 F993.322
G1 X116.778 Y131.788 E.02158
G1 F979.719
G1 X117.08 Y131.249 E.01798
G1 X117.438 Y130.745 E.01799
G1 F992.219
G1 X117.94 Y130.159 E.02245
G1 F987.17
G1 X118.452 Y129.672 E.02056
G1 F984.681
G1 X118.886 Y129.33 E.01608
G1 X119.463 Y128.956 E.02001
G1 F991.847
G1 X120.122 Y128.616 E.02158
G1 F993.318
G1 X120.813 Y128.348 E.02157
G1 X121.528 Y128.154 E.02156
G1 X122.29 Y128.033 E.02245
G1 F987.171
M73 P11 R5
G1 X122.996 Y127.995 E.02057
G1 F983.861
G1 X123.548 Y128.016 E.01607
G1 X124.23 Y128.106 E.02002
G1 F993.322
G1 X124.951 Y128.275 E.02155
G1 X125.651 Y128.519 E.02157
G1 F992.217
G1 X126.348 Y128.85 E.02245
G1 F987.169
G1 X126.952 Y129.217 E.02056
G1 F984.674
G1 X127.396 Y129.545 E.01606
G1 X127.908 Y130.005 E.02003
G1 F991.854
G1 X128.408 Y130.552 E.02156
G1 F993.322
G1 X128.848 Y131.148 E.02156
G1 F979.723
G1 X129.17 Y131.676 E.018
G1 X129.434 Y132.235 E.01799
G1 F993.327
G1 X129.699 Y132.959 E.02243
G1 F987.162
G1 X129.872 Y133.645 E.02059
G1 F984.673
G1 X129.959 Y134.19 E.01606
G1 X130.002 Y134.876 E.02
G1 F993.321
G1 X129.973 Y135.647 E.02245
G1 F987.163
G1 X129.874 Y136.347 E.02057
G1 F983.858
G1 X129.747 Y136.885 E.01608
G1 X129.527 Y137.536 E.01999
G1 F993.326
G1 X129.222 Y138.212 E.02158
G1 X128.848 Y138.852 E.02157
G1 X128.389 Y139.472 E.02245
G1 F987.167
G1 X127.912 Y139.994 E.02058
G1 F983.858
G1 X127.504 Y140.366 E.01607
G1 X126.954 Y140.779 E.02001
G1 F993.321
G1 X126.321 Y141.165 E.02157
G1 X125.623 Y141.493 E.02244
G1 F987.171
G1 X124.956 Y141.726 E.02056
G1 F983.852
G1 X124.42 Y141.86 E.01608
G1 X123.74 Y141.963 E.02001
G1 F993.318
G1 X123 Y142.003 E.02156
G1 X122.23 Y141.96 E.02244
G1 F987.169
