; HEADER_BLOCK_START
; generated by OrcaSlicer 2.2.0 on 2024-12-02 at 18:17:15
; total layer number: 70
; filament_density: 1.27
; filament_diameter: 1.75
; max_z_height: 22.01
; HEADER_BLOCK_END

; THUMBNAIL_BLOCK_START

;
; THUMBNAIL_BLOCK_END

; THUMBNAIL_BLOCK_START

;
; THUMBNAIL_BLOCK_END

; external perimeters extrusion width = 0.70mm
; perimeters extrusion width = 0.45mm
; infill extrusion width = 0.45mm
; solid infill extrusion width = 0.45mm
; top infill extrusion width = 0.42mm
; first layer extrusion width = 0.50mm

; EXECUTABLE_BLOCK_START
EXCLUDE_OBJECT_DEFINE NAME=SpeedTestStructure.step_id_0_copy_0 CENTER=115,115 POLYGON=[[25.0007,85],[25.0036,84.6687],[25.0066,84.5167],[25.0123,84.3248],[25.023,84.0582],[25.0241,84.0337],[25.0333,83.8587],[25.0474,83.6347],[25.0533,83.5513],[25.0621,83.4358],[25.08,83.2227],[25.0941,83.0697],[25.1124,82.8911],[25.1227,82.7953],[25.1351,82.6861],[25.1466,82.5893],[25.152,82.5448],[25.1593,82.4863],[25.1732,82.3793],[25.1804,82.3251],[25.1929,82.2342],[25.1944,82.2238],[25.2036,82.1586],[25.2085,82.1251],[25.2106,82.1102],[25.2124,82.0978],[25.2143,82.0852],[25.2172,82.0654],[25.2177,82.0621],[25.2179,82.061],[25.2284,81.9951],[25.2594,81.801],[25.2659,81.7601],[25.272,81.7217],[25.2741,81.7088],[25.2862,81.6329],[25.2931,81.5955],[25.3733,81.1575],[25.3811,81.1203],[25.4719,80.6843],[25.5819,80.2137],[25.7032,79.7458],[25.7137,79.7093],[25.8358,79.2811],[25.9796,78.8197],[25.9918,78.7837],[26.1345,78.3618],[26.3004,77.9079],[26.3143,77.8726],[26.4773,77.4581],[26.6649,77.0127],[26.8633,76.572],[27.0722,76.1362],[27.2916,75.7055],[27.3097,75.6721],[27.5214,75.2803],[27.7614,74.8608],[27.781,74.8283],[28.0114,74.4472],[28.2713,74.0397],[28.5411,73.6387],[28.8204,73.2443],[29.1092,72.8568],[29.4073,72.4763],[29.4314,72.447],[29.7144,72.1032],[29.7393,72.0744],[30.0305,71.7375],[30.3554,71.3797],[30.6888,71.0298],[31.0305,70.688],[31.058,70.6618],[31.3804,70.3546],[31.7383,70.0298],[32.1039,69.7137],[32.477,69.4065],[32.8575,69.1084],[33.245,68.8197],[33.276,68.7977],[33.6395,68.5403],[33.671,68.5191],[34.0405,68.2706],[34.4479,68.0106],[34.4804,67.991],[34.8616,67.7606],[35.2811,67.5206],[35.7063,67.2909],[36.1369,67.0715],[36.1712,67.055],[36.5727,66.8625],[36.6074,66.8469],[37.0135,66.6642],[37.4588,66.4765],[37.9086,66.2997],[37.9443,66.2866],[38.3626,66.1338],[38.8204,65.9789],[38.8567,65.9676],[39.2818,65.8351],[39.3183,65.8247],[39.7466,65.7025],[39.7834,65.6929],[40.2144,65.5812],[40.2514,65.5725],[40.6851,65.4712],[41.1582,65.3726],[41.6336,65.2855],[41.6711,65.2795],[42.111,65.2099],[42.1486,65.2048],[42.59,65.1458],[43.0705,65.0934],[43.1083,65.0902],[43.552,65.0525],[43.59,65.0502],[44.0345,65.0234],[44.0724,65.022],[44.5175,65.0058],[45.0007,65],[195.001,65],[195.028,65.0005],[195.346,65.006],[195.691,65.0238],[196.035,65.0536],[196.062,65.0569],[196.377,65.0952],[196.404,65.0994],[196.718,65.1486],[197.057,65.2138],[197.084,65.2198],[197.394,65.2906],[197.42,65.2975],[197.728,65.379],[197.754,65.3868],[198.058,65.4788],[198.084,65.4876],[198.385,65.59],[198.41,65.5996],[198.708,65.7124],[198.733,65.7229],[199.026,65.8459],[199.051,65.8573],[199.34,65.9903],[199.648,66.1454],[199.672,66.1585],[199.951,66.3111],[200.248,66.4872],[200.271,66.5018],[200.538,66.6733],[200.823,66.8694],[200.844,66.8856],[201.1,67.0752],[201.121,67.0921],[201.37,67.2905],[201.39,67.3081],[201.632,67.5149],[201.886,67.7482],[201.906,67.7673],[202.133,67.9902],[202.151,68.0099],[202.37,68.2406],[202.388,68.2609],[202.599,68.499],[202.819,68.7651],[203.03,69.0387],[203.045,69.0607],[203.231,69.3194],[203.422,69.6068],[203.436,69.6299],[203.603,69.9007],[203.616,69.9242],[203.774,70.2006],[203.934,70.5063],[204.084,70.8173],[204.223,71.1333],[204.233,71.1585],[204.351,71.4539],[204.36,71.4795],[204.468,71.7788],[204.476,71.8046],[204.573,72.1075],[204.581,72.1336],[204.667,72.4396],[204.674,72.4659],[204.75,72.7748],[204.756,72.8013],[204.821,73.1126],[204.88,73.4527],[204.928,73.7946],[204.931,73.8216],[204.964,74.138],[204.965,74.1651],[204.987,74.4824],[204.999,74.8274],[204.999,155.173],[204.987,155.518],[204.964,155.862],[204.928,156.205],[204.88,156.547],[204.821,156.887],[204.75,157.225],[204.744,157.252],[204.667,157.56],[204.66,157.587],[204.573,157.893],[204.565,157.918],[204.468,158.221],[204.459,158.247],[204.351,158.546],[204.223,158.867],[204.084,159.183],[203.934,159.494],[203.922,159.518],[203.774,159.799],[203.603,160.099],[203.589,160.122],[203.422,160.393],[203.231,160.681],[203.03,160.961],[202.819,161.235],[202.802,161.256],[202.599,161.501],[202.37,161.759],[202.133,162.01],[201.906,162.233],[201.886,162.252],[201.632,162.485],[201.37,162.71],[201.1,162.925],[200.844,163.114],[200.823,163.131],[200.538,163.327],[200.248,163.513],[199.974,163.675],[199.951,163.689],[199.672,163.842],[199.648,163.855],[199.364,163.998],[199.34,164.01],[199.026,164.154],[198.733,164.277],[198.708,164.288],[198.385,164.41],[198.084,164.512],[198.058,164.521],[197.754,164.613],[197.728,164.621],[197.394,164.709],[197.057,164.786],[196.718,164.851],[196.404,164.901],[196.377,164.905],[196.062,164.943],[196.035,164.946],[195.691,164.976],[195.346,164.994],[195.001,165],[45.0007,165],[44.5175,164.994],[44.4795,164.993],[44.0345,164.977],[43.9966,164.974],[43.552,164.947],[43.0705,164.907],[42.59,164.854],[42.111,164.79],[42.0735,164.784],[41.6336,164.715],[41.5963,164.708],[41.1582,164.627],[40.6851,164.529],[40.2144,164.419],[39.7466,164.298],[39.2818,164.165],[38.8204,164.021],[38.7844,164.009],[38.3626,163.866],[38.3269,163.853],[37.9086,163.7],[37.8733,163.686],[37.4588,163.523],[37.4239,163.509],[37.0135,163.336],[36.5727,163.137],[36.1369,162.929],[35.7063,162.709],[35.6729,162.691],[35.2811,162.479],[35.2481,162.461],[34.8616,162.239],[34.4479,161.989],[34.0405,161.729],[33.6395,161.46],[33.245,161.18],[32.8575,160.892],[32.477,160.593],[32.1039,160.286],[32.0752,160.261],[31.7383,159.97],[31.3804,159.645],[31.3529,159.619],[31.0305,159.312],[30.6888,158.97],[30.3554,158.62],[30.0305,158.262],[29.7144,157.897],[29.4073,157.524],[29.3838,157.494],[29.1092,157.143],[28.8204,156.756],[28.7985,156.725],[28.5411,156.361],[28.5199,156.33],[28.2713,155.96],[28.0114,155.553],[27.9917,155.52],[27.7614,155.139],[27.5214,154.72],[27.2916,154.294],[27.2744,154.261],[27.0722,153.864],[27.0558,153.83],[26.8633,153.428],[26.6649,152.987],[26.4772,152.542],[26.3004,152.092],[26.1345,151.638],[26.1223,151.602],[25.9796,151.18],[25.8358,150.719],[25.7032,150.254],[25.5819,149.786],[25.4719,149.316],[25.3733,148.843],[25.2862,148.367],[25.272,148.278],[25.2179,147.939],[25.2177,147.938],[25.217,147.933],[25.2165,147.93],[25.2153,147.922],[25.2137,147.911],[25.2106,147.89],[25.2092,147.88],[25.2083,147.874],[25.2021,147.831],[25.1998,147.815],[25.1901,147.745],[25.1858,147.715],[25.1741,147.627],[25.1652,147.559],[25.1593,147.514],[25.1466,147.411],[25.1437,147.387],[25.1348,147.311],[25.1135,147.119],[25.1044,147.033],[25.0941,146.93],[25.0812,146.79],[25.074,146.709],[25.0533,146.449],[25.0485,146.381],[25.0441,146.315],[25.0241,145.966],[25.0207,145.892],[25.0066,145.483],[25.0051,145.413],[25.0018,145.204],[25.0007,145],[25.0007,85]]
M73 P0 R30
;TYPE:Custom
M220 S100
G90 ; use absolute coordinates
M83 ; extruder relative mode
M104 S150 ; set temporary nozzle temp to prevent oozing during homing
M140 S70 ; set final bed temp
G4 S30 ; allow partial nozzle warmup
G28 ; home all axis and restore leveling
BED_MESH_CALIBRATE
G1 Z25 F240
G1 X10.0 Y30 F3000
M104 S245 ; set final nozzle temp
M190 S70 ; wait for bed temp to stabilize
M109 S245 ; wait for nozzle temp to stabilize
G1 Z0.28 F240
G92 E0 ; Move Z Axis up
LINE_PURGE
G92 E0 ; Move Z Axis up
G1 Z2.0 F3000
M117 Start Printing..
G90
G21
M83 ; use relative distances for extrusion
; filament start gcode
M106 S0
;LAYER_CHANGE
;Z:0.25
;HEIGHT:0.25
;BEFORE_LAYER_CHANGE
;0.25
G92 E0

G1 Z.25 F24000
TIMELAPSE_TAKE_FRAME
;_SET_FAN_SPEED_CHANGING_LAYER
SET_VELOCITY_LIMIT ACCEL=1000
SET_VELOCITY_LIMIT SQUARE_CORNER_VELOCITY=7
; printing object SpeedTestStructure.step id:0 copy 0
G1 E-.5 F1800
EXCLUDE_OBJECT_START NAME=SpeedTestStructure.step_id_0_copy_0
G1 X41.435 Y83.704 F24000
G1 E.5 F1800
;TYPE:Brim
;WIDTH:0.5
G1 F3000
G1 X42.306 Y83.247 E.04338
G1 X43.272 Y82.798 E.04694
G1 X43.809 Y82.57 E.0257
G1 X45.007 Y82.116 E.05648
G1 X45.56 Y81.93 E.0257
G1 X46.581 Y81.626 E.04695
G1 X47.823 Y81.319 E.05638
G1 X48.865 Y81.115 E.04682
G1 X49.55 Y81.007 E.03057
G1 X50.607 Y80.879 E.04689
G1 X51.189 Y80.828 E.02578
G1 X52.469 Y80.766 E.05646
G1 X203.567 Y80.771 E6.65934
G1 X204.396 Y80.829 E.03664
G1 X205.524 Y80.986 E.05017
G1 X206.002 Y81.08 E.0215
G1 X206.811 Y81.28 E.03673
G1 X207.426 Y81.465 E.02829
G1 X208.206 Y81.746 E.03653
G1 X209.248 Y82.204 E.0502
G1 X209.985 Y82.59 E.03665
G1 X210.406 Y82.837 E.0215
G1 X211.353 Y83.467 E.05017
G1 X212.012 Y83.974 E.03662
G1 X212.5 Y84.391 E.02828
G1 X213.104 Y84.965 E.03673
G1 X213.442 Y85.317 E.0215
G1 X214.182 Y86.182 E.05017
G1 X214.676 Y86.848 E.03654
G1 X215.032 Y87.384 E.02837
G1 X215.457 Y88.1 E.03673
G1 X215.686 Y88.531 E.0215
G1 X216.163 Y89.565 E.05017
G1 X216.457 Y90.34 E.03654
G1 X216.654 Y90.954 E.02842
G1 X216.785 Y91.426 E.02159
G1 X216.97 Y92.237 E.03665
G1 X217.146 Y93.361 E.05017
G1 X217.194 Y93.847 E.0215
G1 X217.237 Y94.675 E.03656
G1 X217.217 Y95.814 E.05019
G1 X217.146 Y96.642 E.03665
G1 X217.081 Y97.128 E.02159
G1 X216.97 Y97.761 E.02834
G1 X216.786 Y98.57 E.03654
G1 X216.456 Y99.66 E.05019
G1 X216.162 Y100.437 E.03664
G1 X215.968 Y100.885 E.0215
G1 X215.456 Y101.902 E.05017
G1 X215.032 Y102.616 E.03662
G1 X214.677 Y103.151 E.02829
G1 X214.18 Y103.82 E.03672
G1 X213.87 Y104.199 E.0216
G1 X213.444 Y104.681 E.02833
G1 X212.862 Y105.273 E.03661
G1 X212.011 Y106.027 E.05011
G1 X211.352 Y106.534 E.03664
G1 X210.952 Y106.813 E.0215
G1 X209.983 Y107.411 E.05017
G1 X209.249 Y107.796 E.03654
G1 X208.663 Y108.066 E.02843
G1 X208.21 Y108.253 E.02158
G1 X207.428 Y108.534 E.03664
G1 X206.336 Y108.844 E.05
G1 X205.522 Y109.015 E.03667
G1 X204.548 Y109.155 E.04337
G1 X203.909 Y109.211 E.02828
G1 X202.997 Y109.24 E.0402
G1 X62.791 Y109.245 E6.17933
G1 X62.197 Y109.298 E.02627
M73 P1 R30
M73 P1 R30
G1 X61.611 Y109.411 E.02628
G1 X61.041 Y109.585 E.02627
G1 X60.492 Y109.817 E.02628
G1 X59.969 Y110.104 E.02628
G1 X59.479 Y110.443 E.02628
G1 X59.027 Y110.832 E.02627
G1 X58.632 Y111.248 E.02527
G1 X58.268 Y111.719 E.02626
G1 X57.954 Y112.226 E.02628
G1 X57.694 Y112.763 E.02627
G1 X57.492 Y113.323 E.02628
G1 X57.348 Y113.902 E.02627
G1 X57.264 Y114.492 E.02627
G1 X57.243 Y114.912 E.01854
G1 X57.264 Y115.504 E.02611
G1 X57.313 Y115.902 E.01769
G1 X57.436 Y116.482 E.0261
G1 X57.553 Y116.866 E.01769
G1 X57.773 Y117.416 E.02611
G1 X57.954 Y117.774 E.01769
G1 X58.268 Y118.281 E.02628
G1 X58.633 Y118.753 E.02629
G1 X59.04 Y119.181 E.02602
G1 X59.342 Y119.447 E.01775
G1 X59.821 Y119.801 E.02627
G1 X60.313 Y120.093 E.02519
G1 X60.693 Y120.276 E.0186
G1 X61.228 Y120.479 E.02519
G1 X61.634 Y120.594 E.0186
G1 X62.218 Y120.705 E.02621
G1 X62.81 Y120.756 E.02617
M73 P1 R29
M73 P1 R29
G1 X202.997 Y120.76 E6.17848
G1 X203.908 Y120.789 E.04019
G1 X204.545 Y120.844 E.02816
G1 X205.373 Y120.959 E.03683
G1 X206.002 Y121.08 E.02825
G1 X206.959 Y121.321 E.04347
G1 X207.425 Y121.465 E.02152
G1 X208.208 Y121.746 E.03664
G1 X209.248 Y122.204 E.05009
G1 X210.116 Y122.665 E.04333
G1 X210.823 Y123.101 E.03659
G1 X211.227 Y123.377 E.02157
G1 X212.011 Y123.974 E.04344
G1 X212.75 Y124.621 E.0433
G1 X213.545 Y125.429 E.04995
G1 X214.181 Y126.181 E.04341
G1 X214.764 Y126.975 E.04341
G1 X215.032 Y127.383 E.02151
G1 X215.456 Y128.098 E.03664
G1 X215.903 Y128.975 E.04339
G1 X216.288 Y129.879 E.0433
G1 X216.654 Y130.954 E.05005
G1 X216.901 Y131.907 E.04339
G1 X216.999 Y132.386 E.02153
G1 X217.127 Y133.208 E.03666
G1 X217.217 Y134.187 E.04333
G1 X217.237 Y135.323 E.05008
G1 X217.194 Y136.151 E.03656
G1 X217.146 Y136.638 E.02157
G1 X216.999 Y137.613 E.04344
G1 X216.785 Y138.573 E.04333
G1 X216.506 Y139.514 E.0433
G1 X216.103 Y140.576 E.05006
G1 X215.687 Y141.468 E.04338
G1 X215.457 Y141.9 E.02152
G1 X215.033 Y142.615 E.03667
G1 X214.479 Y143.427 E.04333
G1 X213.771 Y144.315 E.05003
G1 X213.103 Y145.036 E.0433
G1 X212.386 Y145.709 E.04336
G1 X211.745 Y146.239 E.03667
G1 X211.355 Y146.532 E.02149
G1 X210.407 Y147.162 E.05014
G1 X209.551 Y147.644 E.04333
G1 X208.803 Y148.004 E.03659
G1 X207.891 Y148.374 E.04335
G1 X206.957 Y148.679 E.0433
G1 X206.336 Y148.844 E.02834
G1 X205.522 Y149.015 E.03664
G1 X204.549 Y149.155 E.04333
G1 X203.908 Y149.211 E.02834
G1 X203.074 Y149.24 E.03679
G1 X62.791 Y149.245 E6.18272
G1 X62.197 Y149.298 E.02627
G1 X61.634 Y149.406 E.02526
G1 X61.229 Y149.521 E.01854
G1 X60.672 Y149.733 E.02628
G1 X60.14 Y150.002 E.02629
G1 X59.639 Y150.324 E.02626
G1 X59.173 Y150.697 E.02627
G1 X58.749 Y151.116 E.02628
G1 X58.371 Y151.575 E.02621
G1 X58.041 Y152.073 E.02634
G1 X57.765 Y152.602 E.02628
G1 X57.553 Y153.134 E.02526
G1 X57.389 Y153.708 E.02629
G1 X57.286 Y154.293 E.0262
G1 X57.249 Y154.713 E.0186
G1 X57.25 Y155.31 E.02628
G1 X57.313 Y155.902 E.02627
G1 X57.431 Y156.463 E.02526
G1 X57.612 Y157.032 E.0263
G1 X57.767 Y157.402 E.01767
G1 X58.041 Y157.927 E.0261
G1 X58.37 Y158.424 E.02629
G1 X58.749 Y158.884 E.02626
G1 X59.03 Y159.171 E.01769
G1 X59.479 Y159.557 E.0261
G1 X59.97 Y159.896 E.02629
G1 X60.492 Y160.183 E.02626
G1 X60.859 Y160.346 E.01769
G1 X61.42 Y160.537 E.02613
G1 X61.809 Y160.634 E.01768
G1 X62.392 Y160.726 E.02604
G1 X62.794 Y160.755 E.01775
G1 X202.997 Y160.76 E6.17916
G1 X203.908 Y160.789 E.04019
G1 X204.545 Y160.844 E.02816
G1 X205.372 Y160.959 E.03681
G1 X206.002 Y161.08 E.02827
G1 X206.959 Y161.321 E.04346
G1 X207.425 Y161.465 E.02152
G1 X208.208 Y161.746 E.03664
G1 X209.246 Y162.203 E.04998
G1 X210.115 Y162.665 E.04341
G1 X210.949 Y163.185 E.04333
G1 X211.746 Y163.762 E.04335
G1 X212.388 Y164.292 E.03667
G1 X212.749 Y164.62 E.02152
G1 X213.443 Y165.319 E.04341
G1 X214.086 Y166.062 E.0433
G1 X214.762 Y166.972 E.04995
G1 X215.288 Y167.804 E.0434
G1 X215.756 Y168.669 E.04333
G1 X216.163 Y169.566 E.04341
G1 X216.341 Y170.02 E.02152
G1 X216.609 Y170.806 E.0366
G1 X216.866 Y171.757 E.0434
G1 X217.081 Y172.872 E.05005
G1 X217.194 Y173.849 E.04333
G1 X217.237 Y174.678 E.03658
G1 X217.24 Y175.167 E.02157
G1 X217.194 Y176.151 E.04341
G1 X217.057 Y177.279 E.05005
G1 X216.866 Y178.243 E.0433
G1 X216.609 Y179.193 E.04341
G1 X216.457 Y179.657 E.02152
G1 X216.162 Y180.435 E.03667
G1 X215.756 Y181.331 E.04335
G1 X215.289 Y182.195 E.0433
G1 X214.676 Y183.152 E.05005
G1 X214.085 Y183.939 E.04339
G1 X213.772 Y184.314 E.02151
G1 X213.21 Y184.926 E.03663
G1 X212.5 Y185.608 E.04339
G1 X211.746 Y186.238 E.04329
G1 X210.823 Y186.899 E.05006
G1 X209.984 Y187.41 E.0433
G1 X209.11 Y187.862 E.04335
G1 X208.35 Y188.197 E.03659
G1 X207.425 Y188.535 E.0434
G1 X206.812 Y188.72 E.02824
G1 X205.855 Y188.951 E.0434
G1 X205.037 Y189.093 E.03659
G1 X204.06 Y189.2 E.04331
G1 X203.074 Y189.24 E.0435
G1 X53.004 Y189.24 E6.61404
G1 X51.776 Y189.209 E.05413
G1 X50.716 Y189.132 E.04683
G1 X50.026 Y189.057 E.03062
G1 X49.447 Y188.978 E.02576
G1 X48.399 Y188.799 E.04683
G1 X47.146 Y188.522 E.05655
G1 X46.582 Y188.375 E.0257
G1 X45.56 Y188.07 E.04701
G1 X44.906 Y187.848 E.03045
G1 X43.91 Y187.471 E.04694
G1 X42.736 Y186.959 E.05643
G1 X42.211 Y186.706 E.0257
G1 X41.268 Y186.211 E.04694
G1 X40.165 Y185.563 E.05639
G1 X39.274 Y184.979 E.04692
G1 X38.797 Y184.643 E.02573
G1 X37.779 Y183.865 E.05648
G1 X37.33 Y183.493 E.0257
G1 X36.533 Y182.787 E.04694
G1 X35.617 Y181.893 E.05639
G1 X34.892 Y181.113 E.04694
G1 X34.439 Y180.59 E.0305
G1 X34.069 Y180.138 E.02576
G1 X33.422 Y179.291 E.04695
G1 X32.695 Y178.238 E.05643
G1 X32.382 Y177.745 E.0257
G1 X31.842 Y176.827 E.04695
G1 X31.247 Y175.694 E.05643
G1 X30.996 Y175.167 E.0257
G1 X30.572 Y174.193 E.04683
G1 X30.117 Y172.993 E.05655
G1 X29.931 Y172.441 E.0257
G1 X29.626 Y171.42 E.04694
G1 X29.32 Y170.178 E.05637
G1 X29.093 Y169.001 E.05284
G1 X28.947 Y167.995 E.04483
G1 X28.879 Y167.387 E.02696
