; HEADER_BLOCK_START
; generated by OrcaSlicer 2.2.0 on 2024-12-02 at 17:52:40
; total layer number: 70
; filament_density: 1.27
; filament_diameter: 1.75
; max_z_height: 21.96
; HEADER_BLOCK_END

; THUMBNAIL_BLOCK_START

;
; THUMBNAIL_BLOCK_END

; THUMBNAIL_BLOCK_START

;
; THUMBNAIL_BLOCK_END

; external perimeters extrusion width = 0.70mm
; perimeters extrusion width = 0.45mm
; infill extrusion width = 0.45mm
; solid infill extrusion width = 0.45mm
; top infill extrusion width = 0.42mm
; first layer extrusion width = 0.50mm

; EXECUTABLE_BLOCK_START
EXCLUDE_OBJECT_DEFINE NAME=SpeedTestStructure.step_id_0_copy_0 CENTER=115,115 POLYGON=[[25.0007,85],[25.0036,84.6687],[25.0066,84.5167],[25.0123,84.3248],[25.023,84.0582],[25.0241,84.0337],[25.0333,83.8587],[25.0474,83.6347],[25.0533,83.5513],[25.0621,83.4358],[25.08,83.2227],[25.0941,83.0697],[25.1124,82.8911],[25.1227,82.7953],[25.1351,82.6861],[25.1466,82.5893],[25.152,82.5448],[25.1593,82.4863],[25.1732,82.3793],[25.1804,82.3251],[25.1929,82.2342],[25.1944,82.2238],[25.2036,82.1586],[25.2085,82.1251],[25.2106,82.1102],[25.2124,82.0978],[25.2143,82.0852],[25.2172,82.0654],[25.2177,82.0621],[25.2179,82.061],[25.2284,81.9951],[25.2594,81.801],[25.2659,81.7601],[25.272,81.7217],[25.2741,81.7088],[25.2862,81.6329],[25.2931,81.5955],[25.3733,81.1575],[25.3811,81.1203],[25.4719,80.6843],[25.5819,80.2137],[25.7032,79.7458],[25.7137,79.7093],[25.8358,79.2811],[25.9796,78.8197],[25.9918,78.7837],[26.1345,78.3618],[26.3004,77.9079],[26.3143,77.8726],[26.4773,77.4581],[26.6649,77.0127],[26.8633,76.572],[27.0722,76.1362],[27.2916,75.7055],[27.3097,75.6721],[27.5214,75.2803],[27.7614,74.8608],[27.781,74.8283],[28.0114,74.4472],[28.2713,74.0397],[28.5411,73.6387],[28.8204,73.2443],[29.1092,72.8568],[29.4073,72.4763],[29.4314,72.447],[29.7144,72.1032],[29.7393,72.0744],[30.0305,71.7375],[30.3554,71.3797],[30.6888,71.0298],[31.0305,70.688],[31.058,70.6618],[31.3804,70.3546],[31.7383,70.0298],[32.1039,69.7137],[32.477,69.4065],[32.8575,69.1084],[33.245,68.8197],[33.276,68.7977],[33.6395,68.5403],[33.671,68.5191],[34.0405,68.2706],[34.4479,68.0106],[34.4804,67.991],[34.8616,67.7606],[35.2811,67.5206],[35.7063,67.2909],[36.1369,67.0715],[36.1712,67.055],[36.5727,66.8625],[36.6074,66.8469],[37.0135,66.6642],[37.4588,66.4765],[37.9086,66.2997],[37.9443,66.2866],[38.3626,66.1338],[38.8204,65.9789],[38.8567,65.9676],[39.2818,65.8351],[39.3183,65.8247],[39.7466,65.7025],[39.7834,65.6929],[40.2144,65.5812],[40.2514,65.5725],[40.6851,65.4712],[41.1582,65.3726],[41.6336,65.2855],[41.6711,65.2795],[42.111,65.2099],[42.1486,65.2048],[42.59,65.1458],[43.0705,65.0934],[43.1083,65.0902],[43.552,65.0525],[43.59,65.0502],[44.0345,65.0234],[44.0724,65.022],[44.5175,65.0058],[45.0007,65],[195.001,65],[195.028,65.0005],[195.346,65.006],[195.691,65.0238],[196.035,65.0536],[196.062,65.0569],[196.377,65.0952],[196.404,65.0994],[196.718,65.1486],[197.057,65.2138],[197.084,65.2198],[197.394,65.2906],[197.42,65.2975],[197.728,65.379],[197.754,65.3868],[198.058,65.4788],[198.084,65.4876],[198.385,65.59],[198.41,65.5996],[198.708,65.7124],[198.733,65.7229],[199.026,65.8459],[199.051,65.8573],[199.34,65.9903],[199.648,66.1454],[199.672,66.1585],[199.951,66.3111],[200.248,66.4872],[200.271,66.5018],[200.538,66.6733],[200.823,66.8694],[200.844,66.8856],[201.1,67.0752],[201.121,67.0921],[201.37,67.2905],[201.39,67.3081],[201.632,67.5149],[201.886,67.7482],[201.906,67.7673],[202.133,67.9902],[202.151,68.0099],[202.37,68.2406],[202.388,68.2609],[202.599,68.499],[202.819,68.7651],[203.03,69.0387],[203.045,69.0607],[203.231,69.3194],[203.422,69.6068],[203.436,69.6299],[203.603,69.9007],[203.616,69.9242],[203.774,70.2006],[203.934,70.5063],[204.084,70.8173],[204.223,71.1333],[204.233,71.1585],[204.351,71.4539],[204.36,71.4795],[204.468,71.7788],[204.476,71.8046],[204.573,72.1075],[204.581,72.1336],[204.667,72.4396],[204.674,72.4659],[204.75,72.7748],[204.756,72.8013],[204.821,73.1126],[204.88,73.4527],[204.928,73.7946],[204.931,73.8216],[204.964,74.138],[204.965,74.1651],[204.987,74.4824],[204.999,74.8274],[204.999,155.173],[204.987,155.518],[204.964,155.862],[204.928,156.205],[204.88,156.547],[204.821,156.887],[204.75,157.225],[204.744,157.252],[204.667,157.56],[204.66,157.587],[204.573,157.893],[204.565,157.918],[204.468,158.221],[204.459,158.247],[204.351,158.546],[204.223,158.867],[204.084,159.183],[203.934,159.494],[203.922,159.518],[203.774,159.799],[203.603,160.099],[203.589,160.122],[203.422,160.393],[203.231,160.681],[203.03,160.961],[202.819,161.235],[202.802,161.256],[202.599,161.501],[202.37,161.759],[202.133,162.01],[201.906,162.233],[201.886,162.252],[201.632,162.485],[201.37,162.71],[201.1,162.925],[200.844,163.114],[200.823,163.131],[200.538,163.327],[200.248,163.513],[199.974,163.675],[199.951,163.689],[199.672,163.842],[199.648,163.855],[199.364,163.998],[199.34,164.01],[199.026,164.154],[198.733,164.277],[198.708,164.288],[198.385,164.41],[198.084,164.512],[198.058,164.521],[197.754,164.613],[197.728,164.621],[197.394,164.709],[197.057,164.786],[196.718,164.851],[196.404,164.901],[196.377,164.905],[196.062,164.943],[196.035,164.946],[195.691,164.976],[195.346,164.994],[195.001,165],[45.0007,165],[44.5175,164.994],[44.4795,164.993],[44.0345,164.977],[43.9966,164.974],[43.552,164.947],[43.0705,164.907],[42.59,164.854],[42.111,164.79],[42.0735,164.784],[41.6336,164.715],[41.5963,164.708],[41.1582,164.627],[40.6851,164.529],[40.2144,164.419],[39.7466,164.298],[39.2818,164.165],[38.8204,164.021],[38.7844,164.009],[38.3626,163.866],[38.3269,163.853],[37.9086,163.7],[37.8733,163.686],[37.4588,163.523],[37.4239,163.509],[37.0135,163.336],[36.5727,163.137],[36.1369,162.929],[35.7063,162.709],[35.6729,162.691],[35.2811,162.479],[35.2481,162.461],[34.8616,162.239],[34.4479,161.989],[34.0405,161.729],[33.6395,161.46],[33.245,161.18],[32.8575,160.892],[32.477,160.593],[32.1039,160.286],[32.0752,160.261],[31.7383,159.97],[31.3804,159.645],[31.3529,159.619],[31.0305,159.312],[30.6888,158.97],[30.3554,158.62],[30.0305,158.262],[29.7144,157.897],[29.4073,157.524],[29.3838,157.494],[29.1092,157.143],[28.8204,156.756],[28.7985,156.725],[28.5411,156.361],[28.5199,156.33],[28.2713,155.96],[28.0114,155.553],[27.9917,155.52],[27.7614,155.139],[27.5214,154.72],[27.2916,154.294],[27.2744,154.261],[27.0722,153.864],[27.0558,153.83],[26.8633,153.428],[26.6649,152.987],[26.4772,152.542],[26.3004,152.092],[26.1345,151.638],[26.1223,151.602],[25.9796,151.18],[25.8358,150.719],[25.7032,150.254],[25.5819,149.786],[25.4719,149.316],[25.3733,148.843],[25.2862,148.367],[25.272,148.278],[25.2179,147.939],[25.2177,147.938],[25.217,147.933],[25.2165,147.93],[25.2153,147.922],[25.2137,147.911],[25.2106,147.89],[25.2092,147.88],[25.2083,147.874],[25.2021,147.831],[25.1998,147.815],[25.1901,147.745],[25.1858,147.715],[25.1741,147.627],[25.1652,147.559],[25.1593,147.514],[25.1466,147.411],[25.1437,147.387],[25.1348,147.311],[25.1135,147.119],[25.1044,147.033],[25.0941,146.93],[25.0812,146.79],[25.074,146.709],[25.0533,146.449],[25.0485,146.381],[25.0441,146.315],[25.0241,145.966],[25.0207,145.892],[25.0066,145.483],[25.0051,145.413],[25.0018,145.204],[25.0007,145],[25.0007,85]]
M73 P0 R30
;TYPE:Custom
M220 S100
G90 ; use absolute coordinates
M83 ; extruder relative mode
M104 S150 ; set temporary nozzle temp to prevent oozing during homing
M140 S70 ; set final bed temp
G4 S30 ; allow partial nozzle warmup
G28 ; home all axis and restore leveling
BED_MESH_CALIBRATE
G1 Z25 F240
G1 X10.0 Y30 F3000
M104 S245 ; set final nozzle temp
M190 S70 ; wait for bed temp to stabilize
M109 S245 ; wait for nozzle temp to stabilize
G1 Z0.28 F240
G92 E0 ; Move Z Axis up
LINE_PURGE
G92 E0 ; Move Z Axis up
G1 Z2.0 F3000
M117 Start Printing..
G90
G21
M83 ; use relative distances for extrusion
; filament start gcode
M106 S0
;LAYER_CHANGE
;Z:0.2
;HEIGHT:0.2
;BEFORE_LAYER_CHANGE
;0.2
G92 E0

G1 Z.2 F24000
TIMELAPSE_TAKE_FRAME
;_SET_FAN_SPEED_CHANGING_LAYER
SET_VELOCITY_LIMIT ACCEL=1000
SET_VELOCITY_LIMIT SQUARE_CORNER_VELOCITY=7
; printing object SpeedTestStructure.step id:0 copy 0
G1 E-.5 F1800
EXCLUDE_OBJECT_START NAME=SpeedTestStructure.step_id_0_copy_0
G1 X41.387 Y83.614 F24000
G1 E.5 F1800
;TYPE:Brim
;WIDTH:0.5
G1 F3000
G1 X42.262 Y83.155 E.03568
G1 X43.23 Y82.705 E.03854
G1 X43.771 Y82.476 E.02119
G1 X44.417 Y82.222 E.02508
G1 X45.426 Y81.867 E.03862
G1 X46.659 Y81.499 E.04646
G1 X47.696 Y81.243 E.03855
G1 X48.269 Y81.122 E.02114
G1 X49.539 Y80.905 E.04654
G1 X50.12 Y80.829 E.02114
G1 X51.18 Y80.726 E.03847
G1 X52.468 Y80.664 E.04653
G1 X203.572 Y80.67 E5.45578
G1 X204.405 Y80.727 E.03014
G1 X205.543 Y80.885 E.04149
G1 X206.025 Y80.981 E.01773
G1 X206.837 Y81.181 E.03022
G1 X207.459 Y81.369 E.02343
G1 X208.242 Y81.65 E.03006
G1 X209.294 Y82.113 E.0415
G1 X210.032 Y82.5 E.03007
G1 X210.591 Y82.832 E.02348
G1 X211.288 Y83.295 E.03022
G1 X211.684 Y83.586 E.01774
G1 X212.571 Y84.318 E.04153
G1 X212.931 Y84.652 E.01774
G1 X213.515 Y85.247 E.03009
G1 X214.263 Y86.12 E.04149
G1 X214.759 Y86.789 E.03007
G1 X215.12 Y87.331 E.02353
G1 X215.376 Y87.752 E.0178
G1 X215.776 Y88.484 E.03009
G1 X216.257 Y89.528 E.0415
G1 X216.553 Y90.306 E.03007
G1 X216.752 Y90.927 E.02353
G1 X216.884 Y91.402 E.01781
G1 X217.069 Y92.214 E.03009
G1 X217.247 Y93.35 E.0415
G1 X217.319 Y94.181 E.03012
G1 X217.341 Y94.829 E.0234
G1 X217.339 Y95.324 E.01788
G1 X217.296 Y96.158 E.03014
G1 X217.157 Y97.298 E.04149
G1 X217.07 Y97.782 E.01774
G1 X216.884 Y98.598 E.03022
G1 X216.707 Y99.222 E.02343
G1 X216.438 Y100.012 E.03012
G1 X215.994 Y101.071 E.04149
G1 X215.778 Y101.513 E.01774
G1 X215.378 Y102.245 E.03015
G1 X214.759 Y103.212 E.04144
G1 X214.261 Y103.882 E.03014
G1 X213.95 Y104.262 E.01773
G1 X213.174 Y105.109 E.04149
G1 X212.568 Y105.684 E.03015
G1 X212.195 Y106.007 E.0178
G1 X211.687 Y106.412 E.02347
G1 X211.009 Y106.897 E.0301
G1 X210.031 Y107.5 E.04147
G1 X209.292 Y107.888 E.03014
G1 X208.847 Y108.096 E.01774
G1 X207.78 Y108.522 E.04149
G1 X206.986 Y108.777 E.03012
G1 X206.36 Y108.943 E.02336
G1 X205.541 Y109.115 E.03022
G1 X204.56 Y109.257 E.03579
G1 X203.914 Y109.313 E.02342
G1 X202.997 Y109.342 E.03312
G1 X62.794 Y109.347 E5.06218
G1 X62.21 Y109.399 E.02114
M73 P1 R30
M73 P1 R30
G1 X61.636 Y109.51 E.02115
G1 X61.098 Y109.673 E.02029
G1 X60.557 Y109.898 E.02116
G1 X60.043 Y110.178 E.02113
G1 X59.56 Y110.51 E.02115
G1 X59.241 Y110.774 E.01495
G1 X58.824 Y111.185 E.02114
G1 X58.452 Y111.637 E.02115
G1 X58.129 Y112.126 E.02114
G1 X57.858 Y112.645 E.02115
G1 X57.642 Y113.189 E.02114
G1 X57.483 Y113.753 E.02114
G1 X57.384 Y114.33 E.02115
G1 X57.345 Y114.914 E.02114
G1 X57.366 Y115.496 E.021
G1 X57.414 Y115.887 E.01424
G1 X57.536 Y116.46 E.02114
G1 X57.716 Y117.017 E.02115
G1 X57.942 Y117.531 E.02029
G1 X58.141 Y117.895 E.01495
G1 X58.452 Y118.363 E.02029
G1 X58.823 Y118.814 E.0211
G1 X59.111 Y119.108 E.01485
G1 X59.407 Y119.369 E.01424
G1 X59.878 Y119.717 E.02115
G1 X60.362 Y120.003 E.0203
G1 X60.735 Y120.183 E.01494
G1 X61.259 Y120.382 E.02025
G1 X61.658 Y120.495 E.01499
G1 X62.234 Y120.605 E.02115
G1 X62.813 Y120.654 E.021
G1 X202.997 Y120.658 E5.06147
G1 X203.914 Y120.687 E.03311
G1 X204.558 Y120.743 E.02335
G1 X205.388 Y120.858 E.03027
G1 X206.025 Y120.981 E.0234
G1 X206.988 Y121.224 E.03587
G1 X207.458 Y121.369 E.01776
G1 X208.243 Y121.651 E.03011
G1 X209.153 Y122.045 E.0358
G1 X210.17 Y122.579 E.04147
G1 X210.591 Y122.831 E.01773
G1 X211.286 Y123.294 E.03015
G1 X212.075 Y123.894 E.03579
G1 X212.819 Y124.546 E.03572
G1 X213.621 Y125.362 E.04132
G1 X214.262 Y126.119 E.0358
G1 X214.848 Y126.918 E.03577
G1 X215.299 Y127.621 E.03016
G1 X215.544 Y128.047 E.01776
G1 X215.995 Y128.931 E.03582
G1 X216.382 Y129.841 E.03572
G1 X216.752 Y130.927 E.04139
G1 X217 Y131.886 E.0358
G1 X217.099 Y132.368 E.01776
G1 X217.228 Y133.194 E.03016
G1 X217.319 Y134.18 E.03575
G1 X217.339 Y135.326 E.04139
G1 X217.282 Y136.316 E.03579
G1 X217.228 Y136.805 E.01776
G1 X217.099 Y137.63 E.03016
G1 X216.884 Y138.596 E.03575
G1 X216.553 Y139.692 E.04132
G1 X216.197 Y140.617 E.0358
G1 X215.777 Y141.516 E.03582
G1 X215.546 Y141.95 E.01776
G1 X215.12 Y142.669 E.03017
G1 X214.562 Y143.487 E.03575
G1 X213.847 Y144.383 E.04138
G1 X213.175 Y145.108 E.03573
G1 X212.451 Y145.787 E.03582
G1 X212.076 Y146.105 E.01776
G1 X211.414 Y146.614 E.03014
G1 X210.459 Y147.25 E.04142
G1 X209.596 Y147.735 E.03575
G1 X208.844 Y148.097 E.03015
G1 X208.246 Y148.348 E.02341
G1 X207.311 Y148.679 E.03581
G1 X206.508 Y148.906 E.03015
G1 X205.876 Y149.051 E.02341
G1 X204.898 Y149.216 E.03582
G1 X204.068 Y149.302 E.0301
G1 X203.076 Y149.342 E.03586
G1 X62.794 Y149.347 E5.06503
G1 X62.211 Y149.399 E.02114
M73 P1 R29
M73 P1 R29
G1 X61.636 Y149.51 E.02115
G1 X61.075 Y149.681 E.02114
G1 X60.557 Y149.898 E.0203
G1 X60.043 Y150.178 E.02113
G1 X59.56 Y150.51 E.02114
G1 X59.114 Y150.89 E.02114
G1 X58.837 Y151.17 E.01424
G1 X58.466 Y151.618 E.021
G1 X58.141 Y152.105 E.02114
G1 X57.868 Y152.623 E.02115
G1 X57.649 Y153.167 E.02114
G1 X57.488 Y153.73 E.02114
G1 X57.387 Y154.307 E.02116
G1 X57.345 Y154.891 E.02113
G1 X57.352 Y155.305 E.01495
G1 X57.41 Y155.864 E.02029
G1 X57.53 Y156.437 E.02114
G1 X57.649 Y156.833 E.01495
G1 X57.868 Y157.377 E.02114
G1 X58.141 Y157.895 E.02114
G1 X58.452 Y158.363 E.0203
G1 X58.823 Y158.814 E.0211
G1 X59.1 Y159.097 E.01428
G1 X59.541 Y159.476 E.021
G1 X60.023 Y159.809 E.02116
G1 X60.535 Y160.091 E.02109
G1 X60.896 Y160.251 E.01428
G1 X61.283 Y160.39 E.01481
G1 X61.826 Y160.533 E.02029
G1 X62.403 Y160.625 E.0211
G1 X62.798 Y160.653 E.01428
G1 X202.997 Y160.658 E5.06204
G1 X203.914 Y160.687 E.03311
G1 X204.558 Y160.743 E.02335
G1 X205.388 Y160.858 E.03027
G1 X206.025 Y160.981 E.02341
G1 X206.988 Y161.224 E.03586
G1 X207.458 Y161.369 E.01776
G1 X208.244 Y161.651 E.03014
G1 X209.292 Y162.112 E.04135
G1 X210.167 Y162.577 E.0358
G1 X211.008 Y163.102 E.03577
G1 X211.686 Y163.587 E.03011
G1 X212.073 Y163.892 E.01779
G1 X212.819 Y164.546 E.03584
G1 X213.517 Y165.249 E.03575
G1 X214.165 Y165.997 E.03572
G1 X214.848 Y166.918 E.0414
G1 X215.377 Y167.754 E.03572
G1 X215.848 Y168.625 E.03575
G1 X216.258 Y169.528 E.03582
G1 X216.437 Y169.986 E.01775
G1 X216.706 Y170.775 E.03012
G1 X216.965 Y171.732 E.0358
G1 X217.182 Y172.858 E.04139
G1 X217.296 Y173.842 E.03575
G1 X217.339 Y174.675 E.03011
G1 X217.341 Y175.167 E.01779
G1 X217.296 Y176.159 E.03584
G1 X217.181 Y177.142 E.03576
G1 X217 Y178.115 E.03572
G1 X216.706 Y179.224 E.04141
G1 X216.438 Y180.014 E.03012
G1 X216.258 Y180.472 E.01778
G1 X215.848 Y181.375 E.03582
G1 X215.377 Y182.246 E.03573
G1 X214.759 Y183.211 E.04139
G1 X214.164 Y184.003 E.03575
G1 X213.621 Y184.638 E.03016
G1 X213.285 Y184.996 E.01776
G1 X212.57 Y185.683 E.0358
G1 X211.686 Y186.413 E.04139
G1 X210.878 Y186.985 E.03572
G1 X210.032 Y187.5 E.03577
G1 X209.294 Y187.887 E.03009
G1 X208.389 Y188.291 E.0358
G1 X207.783 Y188.521 E.02341
G1 X206.837 Y188.819 E.0358
G1 X205.874 Y189.051 E.03576
G1 X205.052 Y189.194 E.0301
G1 X204.068 Y189.302 E.03575
G1 X203.075 Y189.342 E.03588
G1 X53.004 Y189.342 E5.41849
G1 X51.77 Y189.311 E.04457
G1 X50.707 Y189.234 E.03846
G1 X50.012 Y189.158 E.02525
G1 X49.431 Y189.079 E.02119
G1 X48.378 Y188.899 E.03854
G1 X47.121 Y188.621 E.04651
G1 X46.554 Y188.473 E.02114
G1 X45.531 Y188.168 E.03855
G1 X44.316 Y187.74 E.0465
G1 X43.772 Y187.525 E.02114
G1 X42.793 Y187.098 E.03854
G1 X41.64 Y186.528 E.04646
G1 X40.707 Y186.009 E.03854
G1 X40.112 Y185.65 E.02507
G1 X39.616 Y185.332 E.02128
G1 X38.738 Y184.725 E.03855
G1 X37.714 Y183.943 E.0465
G1 X37.263 Y183.57 E.02114
G1 X36.464 Y182.862 E.03854
G1 X35.543 Y181.964 E.04647
G1 X34.816 Y181.182 E.03854
G1 X34.36 Y180.655 E.02516
G1 X33.988 Y180.201 E.02119
G1 X33.34 Y179.352 E.03854
G1 X32.609 Y178.293 E.04646
G1 X32.046 Y177.387 E.03855
G1 X31.754 Y176.879 E.02114
G1 X31.155 Y175.738 E.04654
G1 X30.903 Y175.209 E.02114
G1 X30.477 Y174.23 E.03854
G1 X30.02 Y173.026 E.04651
G1 X29.834 Y172.471 E.02114
G1 X29.529 Y171.45 E.03847
G1 X29.221 Y170.199 E.04653
G1 X28.994 Y169.022 E.04327
G1 X28.845 Y168.004 E.03716
G1 X28.777 Y167.399 E.02196
