; HEADER_BLOCK_START
; generated by OrcaSlicer 2.1.1 on 2024-08-16 at 08:48:11
; total layer number: 101
; filament_density: 1.24
; filament_diameter: 1.75
; max_z_height: 31.88
; HEADER_BLOCK_END

; THUMBNAIL_BLOCK_START

;
; THUMBNAIL_BLOCK_END

; THUMBNAIL_BLOCK_START

;
; THUMBNAIL_BLOCK_END

; external perimeters extrusion width = 0.70mm
; perimeters extrusion width = 0.45mm
; infill extrusion width = 0.45mm
; solid infill extrusion width = 0.45mm
; top infill extrusion width = 0.42mm
; first layer extrusion width = 0.50mm

; EXECUTABLE_BLOCK_START
EXCLUDE_OBJECT_DEFINE NAME=SpeedTestStructure.step_id_0_copy_0 CENTER=115,115 POLYGON=[[25.0007,85],[25.0036,84.6687],[25.0066,84.5167],[25.0123,84.3248],[25.023,84.0582],[25.0241,84.0337],[25.0333,83.8587],[25.0474,83.6347],[25.0533,83.5513],[25.0621,83.4358],[25.08,83.2227],[25.0941,83.0697],[25.1124,82.8911],[25.1227,82.7953],[25.1351,82.6861],[25.1466,82.5893],[25.152,82.5448],[25.1593,82.4863],[25.1732,82.3793],[25.1804,82.3251],[25.1929,82.2342],[25.1944,82.2238],[25.2036,82.1586],[25.2085,82.1251],[25.2106,82.1102],[25.2124,82.0978],[25.2143,82.0852],[25.2172,82.0654],[25.2177,82.0621],[25.2179,82.061],[25.2315,81.9753],[25.2425,81.9068],[25.2582,81.8085],[25.2674,81.751],[25.2862,81.6329],[25.2962,81.5785],[25.3733,81.1575],[25.4719,80.6843],[25.5819,80.2137],[25.7032,79.7458],[25.7184,79.6927],[25.8358,79.2811],[25.9796,78.8197],[25.9973,78.7673],[26.1345,78.3618],[26.1535,78.31],[26.3004,77.9079],[26.4773,77.4581],[26.6649,77.0127],[26.8633,76.572],[27.0722,76.1362],[27.2916,75.7055],[27.5214,75.2803],[27.5488,75.2324],[27.7614,74.8608],[28.0114,74.4472],[28.2713,74.0397],[28.5411,73.6387],[28.8204,73.2443],[29.1092,72.8568],[29.4073,72.4763],[29.7144,72.1032],[30.0305,71.7375],[30.3554,71.3797],[30.6888,71.0298],[30.7278,70.9907],[31.0305,70.688],[31.3804,70.3546],[31.7383,70.0298],[32.1039,69.7137],[32.1465,69.6786],[32.477,69.4065],[32.5205,69.3725],[32.8575,69.1084],[33.245,68.8197],[33.6395,68.5403],[33.6853,68.5095],[34.0405,68.2706],[34.4479,68.0106],[34.4952,67.9821],[34.8616,67.7606],[35.2811,67.5206],[35.7063,67.2909],[35.7555,67.2658],[36.1369,67.0715],[36.1867,67.0476],[36.5727,66.8625],[37.0135,66.6642],[37.0644,66.6427],[37.4588,66.4765],[37.5103,66.4563],[37.9086,66.2997],[38.3626,66.1338],[38.8204,65.9789],[38.8731,65.9624],[39.2818,65.8351],[39.7466,65.7025],[40.2144,65.5812],[40.2682,65.5686],[40.6851,65.4712],[40.7391,65.4599],[41.1582,65.3726],[41.6336,65.2855],[41.6882,65.2768],[42.111,65.2099],[42.59,65.1458],[42.6449,65.1398],[43.0705,65.0934],[43.1255,65.0887],[43.552,65.0525],[44.0345,65.0234],[44.5175,65.0058],[44.5727,65.0052],[45.0007,65],[195.001,65],[195.04,65.0007],[195.346,65.006],[195.691,65.0238],[196.035,65.0536],[196.074,65.0583],[196.377,65.0952],[196.416,65.1013],[196.718,65.1486],[197.057,65.2138],[197.394,65.2906],[197.728,65.379],[198.058,65.4788],[198.385,65.59],[198.708,65.7124],[198.744,65.7277],[199.026,65.8459],[199.062,65.8624],[199.34,65.9903],[199.648,66.1454],[199.683,66.1644],[199.951,66.3111],[200.248,66.4872],[200.281,66.5084],[200.538,66.6733],[200.571,66.6957],[200.823,66.8694],[201.1,67.0752],[201.37,67.2905],[201.4,67.3161],[201.632,67.5149],[201.886,67.7482],[202.133,67.9902],[202.37,68.2406],[202.396,68.2701],[202.599,68.499],[202.624,68.5294],[202.819,68.7651],[202.843,68.7964],[203.03,69.0387],[203.231,69.3194],[203.252,69.3522],[203.422,69.6068],[203.442,69.6404],[203.603,69.9007],[203.622,69.935],[203.774,70.2006],[203.792,70.2356],[203.934,70.5063],[203.951,70.5418],[204.084,70.8173],[204.1,70.8534],[204.223,71.1333],[204.351,71.4539],[204.468,71.7788],[204.48,71.8164],[204.573,72.1075],[204.584,72.1454],[204.667,72.4396],[204.677,72.4779],[204.75,72.7748],[204.758,72.8134],[204.821,73.1126],[204.828,73.1515],[204.88,73.4527],[204.928,73.7946],[204.964,74.138],[204.987,74.4824],[204.999,74.8274],[204.999,155.173],[204.987,155.518],[204.964,155.862],[204.959,155.901],[204.928,156.205],[204.88,156.547],[204.821,156.887],[204.75,157.225],[204.667,157.56],[204.657,157.598],[204.573,157.893],[204.561,157.93],[204.468,158.221],[204.351,158.546],[204.336,158.583],[204.223,158.867],[204.084,159.183],[203.934,159.494],[203.916,159.529],[203.774,159.799],[203.603,160.099],[203.582,160.133],[203.422,160.393],[203.252,160.648],[203.231,160.681],[203.03,160.961],[202.843,161.204],[202.819,161.235],[202.599,161.501],[202.37,161.759],[202.343,161.788],[202.133,162.01],[201.915,162.224],[201.886,162.252],[201.632,162.485],[201.4,162.684],[201.37,162.71],[201.1,162.925],[200.854,163.107],[200.823,163.131],[200.538,163.327],[200.248,163.513],[199.985,163.669],[199.951,163.689],[199.683,163.836],[199.648,163.855],[199.375,163.992],[199.34,164.01],[199.026,164.154],[198.708,164.288],[198.385,164.41],[198.058,164.521],[197.765,164.61],[197.728,164.621],[197.394,164.709],[197.096,164.777],[197.057,164.786],[196.718,164.851],[196.416,164.899],[196.377,164.905],[196.074,164.942],[196.035,164.946],[195.691,164.976],[195.346,164.994],[195.001,165],[45.0007,165],[44.5175,164.994],[44.4623,164.992],[44.0345,164.977],[43.552,164.947],[43.0705,164.907],[42.59,164.854],[42.111,164.79],[42.0564,164.781],[41.6336,164.715],[41.5793,164.705],[41.1582,164.627],[40.6851,164.529],[40.2144,164.419],[39.7466,164.298],[39.6935,164.282],[39.2818,164.165],[38.8204,164.021],[38.7681,164.003],[38.3626,163.866],[37.9086,163.7],[37.8572,163.68],[37.4588,163.523],[37.4079,163.502],[37.0135,163.336],[36.5727,163.137],[36.1369,162.929],[36.0877,162.903],[35.7063,162.709],[35.2811,162.479],[35.2331,162.452],[34.8616,162.239],[34.4479,161.989],[34.4014,161.96],[34.0405,161.729],[33.6395,161.46],[33.245,161.18],[33.2007,161.147],[32.8575,160.892],[32.477,160.593],[32.1039,160.286],[32.0621,160.25],[31.7383,159.97],[31.6974,159.933],[31.3804,159.645],[31.0305,159.312],[30.6888,158.97],[30.3554,158.62],[30.3182,158.579],[30.0305,158.262],[29.9944,158.221],[29.7144,157.897],[29.6793,157.854],[29.4073,157.524],[29.1092,157.143],[28.8204,156.756],[28.5411,156.361],[28.2713,155.96],[28.2416,155.914],[28.0114,155.553],[27.7614,155.139],[27.5214,154.72],[27.2916,154.294],[27.2665,154.245],[27.0722,153.864],[27.0483,153.814],[26.8633,153.428],[26.6649,152.987],[26.6435,152.936],[26.4772,152.542],[26.457,152.49],[26.3004,152.092],[26.1345,151.638],[25.9796,151.18],[25.9632,151.128],[25.8358,150.719],[25.7032,150.254],[25.5819,149.786],[25.5693,149.733],[25.4719,149.316],[25.4607,149.262],[25.3733,148.843],[25.2862,148.367],[25.2677,148.251],[25.255,148.171],[25.2425,148.093],[25.2255,147.987],[25.2179,147.939],[25.2179,147.939],[25.2177,147.938],[25.217,147.933],[25.2165,147.93],[25.2153,147.922],[25.2137,147.911],[25.2106,147.89],[25.2092,147.88],[25.2083,147.874],[25.2021,147.831],[25.1998,147.815],[25.1901,147.745],[25.1858,147.715],[25.1741,147.627],[25.1652,147.559],[25.1593,147.514],[25.1466,147.411],[25.1437,147.387],[25.1348,147.311],[25.1135,147.119],[25.1044,147.033],[25.0941,146.93],[25.0812,146.79],[25.074,146.709],[25.0533,146.449],[25.0485,146.381],[25.0441,146.315],[25.0241,145.966],[25.0207,145.892],[25.0066,145.483],[25.0051,145.413],[25.0018,145.204],[25.0007,145],[25.0007,85]]
M73 P0 R40
;TYPE:Custom
M220 S100
G90 ; use absolute coordinates
M83 ; extruder relative mode
M104 S150 ; set temporary nozzle temp to prevent oozing during homing
M140 S55 ; set final bed temp
G4 S30 ; allow partial nozzle warmup
G28 ; home all axis and restore leveling
BED_MESH_CALIBRATE PROFILE=adaptive ADAPTIVE=1 ADAPTIVE_MARGIN=0
G1 Z25 F240
G1 X10.0 Y30 F3000
M104 S205 ; set final nozzle temp
M190 S55 ; wait for bed temp to stabilize
M109 S205 ; wait for nozzle temp to stabilize
G1 Z0.28 F240
G92 E0 ; Move Z Axis up
G1 Z2.0 F5000 ; Move to start position
G1 X5 Y30 Z0.28 F300 ; Draw the first line
G1 X5 Y200 Z0.28 F1500 E15 ; Move to side a little
G1 X5.4 Y200 Z0.28 F5000.0 ; Draw the second line
G1 X5.4 Y50 Z0.28 F1500.0 E30 ; Reset Extruder
G92 E0 ; Move Z Axis up
G1 Z2.0 F3000
M117 Start Printing..
G90
G21
M83 ; use relative distances for extrusion
; filament start gcode
SET_PRESSURE_ADVANCE ADVANCE=0.052; Override pressure advance value
M106 S0
;LAYER_CHANGE
;Z:0.2
;HEIGHT:0.2
;BEFORE_LAYER_CHANGE
;0.2
G92 E0

M73 P1 R40
G1 Z.2 F24000
;_SET_FAN_SPEED_CHANGING_LAYER
SET_VELOCITY_LIMIT ACCEL=1000
SET_VELOCITY_LIMIT SQUARE_CORNER_VELOCITY=7
; printing object SpeedTestStructure.step id:0 copy 0
G1 E-.5 F1800
EXCLUDE_OBJECT_START NAME=SpeedTestStructure.step_id_0_copy_0
G1 X41.388 Y83.614 F24000
G1 E.5 F1800
;TYPE:Brim
;WIDTH:0.5
G1 X42.262 Y83.155 E.03678
G1 X43.23 Y82.705 E.03976
G1 X43.769 Y82.476 E.02181
G1 X44.974 Y82.02 E.04797
G1 X45.989 Y81.69 E.03975
G1 X46.552 Y81.528 E.02182
G1 X47.802 Y81.22 E.04797
G1 X48.848 Y81.015 E.0397
G1 X49.537 Y80.906 E.02597
G1 X50.597 Y80.777 E.03976
G1 X51.181 Y80.726 E.02184
G1 X52.468 Y80.664 E.04798
G1 X203.572 Y80.67 E5.62807
G1 X204.405 Y80.727 E.03109
G1 X205.543 Y80.885 E.0428
G1 X206.025 Y80.981 E.01829
G1 X206.837 Y81.181 E.03117
G1 X207.459 Y81.369 E.02417
G1 X208.244 Y81.651 E.03107
G1 X209.294 Y82.113 E.04276
G1 X210.032 Y82.5 E.03104
G1 X210.591 Y82.832 E.02421
G1 X211.288 Y83.295 E.03117
G1 X211.684 Y83.586 E.0183
G1 X212.571 Y84.318 E.04285
G1 X212.931 Y84.652 E.01829
G1 X213.516 Y85.248 E.03108
G1 X214.263 Y86.12 E.04276
G1 X214.759 Y86.789 E.03103
G1 X215.119 Y87.33 E.02421
G1 X215.546 Y88.05 E.03117
G1 X215.777 Y88.484 E.01829
G1 X216.257 Y89.527 E.0428
G1 X216.553 Y90.307 E.03104
G1 X216.752 Y90.926 E.02425
G1 X216.884 Y91.402 E.01837
G1 X217.07 Y92.216 E.0311
G1 X217.247 Y93.351 E.0428
G1 X217.295 Y93.84 E.0183
G1 X217.339 Y94.673 E.03105
G1 X217.319 Y95.821 E.04278
G1 X217.247 Y96.653 E.0311
G1 X217.182 Y97.142 E.01837
G1 X217.07 Y97.782 E.02422
G1 X216.885 Y98.595 E.03104
G1 X216.552 Y99.694 E.04278
G1 X216.256 Y100.475 E.0311
G1 X216.061 Y100.926 E.01829
G1 X215.545 Y101.952 E.0428
G1 X215.119 Y102.67 E.03107
G1 X214.76 Y103.21 E.02418
G1 X214.262 Y103.881 E.0311
G1 X213.847 Y104.383 E.02425
G1 X213.518 Y104.75 E.01838
G1 X212.933 Y105.346 E.03109
G1 X212.074 Y106.107 E.04275
G1 X211.413 Y106.615 E.03106
G1 X211.01 Y106.897 E.01832
G1 X210.03 Y107.501 E.04287
G1 X209.598 Y107.734 E.01829
G1 X208.846 Y108.096 E.03108
G1 X207.78 Y108.522 E.04276
G1 X206.986 Y108.777 E.03107
G1 X206.36 Y108.943 E.02412
G1 X205.541 Y109.115 E.03115
G1 X204.56 Y109.257 E.03695
G1 X203.914 Y109.313 E.02414
G1 X202.997 Y109.342 E.03416
G1 X62.794 Y109.347 E5.22204
G1 X62.211 Y109.399 E.02181
G1 X61.659 Y109.505 E.02093
G1 X61.098 Y109.673 E.02181
G1 X60.557 Y109.898 E.02181
G1 X60.043 Y110.178 E.02181
G1 X59.56 Y110.51 E.02181
G1 X59.114 Y110.89 E.02181
G1 X58.71 Y111.313 E.02181
G1 X58.352 Y111.777 E.02182
G1 X58.044 Y112.275 E.02181
G1 X57.789 Y112.802 E.02181
G1 X57.642 Y113.189 E.01542
G1 X57.483 Y113.753 E.02181
G1 X57.384 Y114.33 E.02182
G1 X57.345 Y114.914 E.02181
G1 X57.366 Y115.499 E.02182
G1 X57.443 Y116.056 E.02092
G1 X57.536 Y116.46 E.01542
G1 X57.707 Y116.995 E.02093
G1 X57.942 Y117.531 E.02181
G1 X58.141 Y117.895 E.01542
G1 X58.452 Y118.363 E.02093
G1 X58.824 Y118.815 E.02182
G1 X59.111 Y119.108 E.01528
G1 X59.407 Y119.369 E.01469
G1 X59.878 Y119.717 E.02181
G1 X60.382 Y120.014 E.02181
G1 X60.893 Y120.249 E.02093
G1 X61.447 Y120.439 E.02182
G1 X61.829 Y120.534 E.01468
G1 X62.234 Y120.605 E.01528
G1 X62.813 Y120.654 E.02166
G1 X202.997 Y120.658 E5.22131
G1 X203.914 Y120.687 E.03416
G1 X204.559 Y120.743 E.02411
G1 X205.388 Y120.858 E.0312
G1 X206.025 Y120.981 E.02414
G1 X206.988 Y121.224 E.03701
G1 X207.458 Y121.369 E.01831
G1 X208.243 Y121.651 E.03108
G1 X209.153 Y122.045 E.03691
G1 X210.168 Y122.578 E.0427
G1 X211.009 Y123.102 E.03692
G1 X211.412 Y123.384 E.01832
G1 X212.074 Y123.894 E.03112
G1 X212.819 Y124.546 E.03687
G1 X213.622 Y125.363 E.04266
G1 X214.262 Y126.119 E.03691
G1 X214.849 Y126.919 E.03695
G1 X215.119 Y127.33 E.01831
G1 X215.545 Y128.048 E.0311
G1 X215.995 Y128.931 E.03692
G1 X216.382 Y129.841 E.03685
G1 X216.752 Y130.927 E.04269
G1 X217 Y131.886 E.03693
G1 X217.099 Y132.368 E.01833
G1 X217.228 Y133.194 E.03111
G1 X217.319 Y134.18 E.03688
G1 X217.339 Y135.326 E.0427
G1 X217.282 Y136.316 E.03692
G1 X217.228 Y136.805 E.01832
G1 X217.099 Y137.63 E.03111
G1 X216.884 Y138.597 E.0369
G1 X216.603 Y139.546 E.03685
G1 X216.196 Y140.618 E.0427
G1 X215.777 Y141.516 E.03693
G1 X215.546 Y141.95 E.01832
G1 X215.12 Y142.669 E.03112
G1 X214.562 Y143.487 E.03688
G1 X213.847 Y144.383 E.0427
G1 X213.175 Y145.108 E.03684
G1 X212.451 Y145.787 E.03695
G1 X212.076 Y146.105 E.01832
G1 X211.415 Y146.614 E.03109
G1 X210.459 Y147.25 E.04273
G1 X209.596 Y147.735 E.03688
G1 X208.845 Y148.097 E.03105
G1 X207.927 Y148.469 E.0369
G1 X206.986 Y148.777 E.03689
G1 X206.358 Y148.943 E.02419
G1 X205.541 Y149.115 E.0311
G1 X204.56 Y149.257 E.03691
G1 X203.914 Y149.313 E.02418
G1 X203.076 Y149.342 E.03122
G1 X62.794 Y149.347 E5.22497
G1 X62.234 Y149.395 E.02093
M73 P2 R39
G1 X61.659 Y149.505 E.02181
G1 X61.26 Y149.618 E.01542
G1 X60.713 Y149.826 E.02181
G1 X60.19 Y150.091 E.02181
G1 X59.698 Y150.408 E.02181
G1 X59.241 Y150.774 E.02181
G1 X58.824 Y151.185 E.02181
G1 X58.452 Y151.637 E.02181
G1 X58.129 Y152.125 E.02181
G1 X57.858 Y152.645 E.02181
G1 X57.649 Y153.167 E.02094
G1 X57.488 Y153.73 E.02181
G1 X57.387 Y154.306 E.02182
G1 X57.345 Y154.89 E.02181
G1 X57.351 Y155.285 E.01469
G1 X57.41 Y155.863 E.02166
G1 X57.529 Y156.437 E.02181
G1 X57.649 Y156.833 E.01543
G1 X57.866 Y157.373 E.02166
G1 X58.044 Y157.725 E.01469
G1 X58.352 Y158.223 E.02182
G1 X58.71 Y158.686 E.02181
G1 X59.097 Y159.094 E.02093
G1 X59.541 Y159.476 E.02181
G1 X60.022 Y159.809 E.02181
G1 X60.536 Y160.091 E.02181
G1 X60.896 Y160.251 E.01469
G1 X61.447 Y160.439 E.02167
G1 X61.83 Y160.534 E.01468
G1 X62.404 Y160.625 E.02167
G1 X62.798 Y160.653 E.01469
G1 X202.997 Y160.658 E5.2219
G1 X203.914 Y160.687 E.03416
G1 X204.559 Y160.743 E.02411
G1 X205.388 Y160.858 E.0312
G1 X206.025 Y160.981 E.02415
G1 X206.988 Y161.224 E.037
G1 X207.458 Y161.369 E.01832
G1 X208.244 Y161.651 E.03109
G1 X209.293 Y162.112 E.04268
G1 X210.167 Y162.577 E.0369
G1 X211.008 Y163.102 E.0369
G1 X211.686 Y163.588 E.03108
G1 X212.073 Y163.892 E.01834
G1 X212.819 Y164.546 E.03696
G1 X213.517 Y165.249 E.03688
G1 X214.165 Y165.997 E.03685
G1 X214.847 Y166.917 E.04265
G1 X215.377 Y167.754 E.0369
G1 X215.848 Y168.625 E.03688
G1 X216.258 Y169.528 E.03695
G1 X216.437 Y169.986 E.01831
G1 X216.706 Y170.776 E.03111
G1 X216.965 Y171.732 E.03689
G1 X217.182 Y172.858 E.0427
G1 X217.296 Y173.842 E.03688
G1 X217.339 Y174.675 E.03108
G1 X217.341 Y175.167 E.01834
G1 X217.296 Y176.159 E.03696
G1 X217.181 Y177.142 E.03688
G1 X217 Y178.115 E.03685
G1 X216.706 Y179.225 E.04277
G1 X216.553 Y179.692 E.01829
G1 X216.257 Y180.473 E.03112
G1 X215.848 Y181.375 E.0369
G1 X215.377 Y182.246 E.03686
G1 X214.759 Y183.211 E.0427
G1 X214.164 Y184.004 E.03693
G1 X213.849 Y184.381 E.01831
G1 X213.284 Y184.997 E.03112
G1 X212.57 Y185.683 E.03688
G1 X211.686 Y186.413 E.0427
G1 X210.879 Y186.984 E.03679
G1 X210.033 Y187.499 E.03693
G1 X209.153 Y187.955 E.0369
G1 X208.39 Y188.291 E.03105
G1 X207.458 Y188.631 E.03695
G1 X206.838 Y188.819 E.02413
G1 X205.874 Y189.051 E.03694
G1 X205.053 Y189.194 E.03105
G1 X204.068 Y189.302 E.03688
G1 X203.075 Y189.342 E.03701
G1 X53.004 Y189.342 E5.5896
G1 X51.77 Y189.311 E.04598
G1 X50.705 Y189.233 E.03976
G1 X50.121 Y189.171 E.02187
G1 X49.43 Y189.079 E.02596
G1 X48.378 Y188.899 E.03975
G1 X47.121 Y188.621 E.04797
G1 X46.554 Y188.473 E.02181
G1 X45.531 Y188.168 E.03976
G1 X44.316 Y187.74 E.04797
G1 X43.772 Y187.525 E.02181
G1 X42.792 Y187.098 E.03981
G1 X42.164 Y186.797 E.02592
G1 X41.219 Y186.301 E.03975
G1 X40.11 Y185.649 E.04793
G1 X39.217 Y185.063 E.03976
G1 X38.738 Y184.726 E.02181
G1 X37.714 Y183.943 E.04801
G1 X37.263 Y183.57 E.0218
G1 X36.464 Y182.862 E.03976
G1 X35.543 Y181.964 E.04793
G1 X34.816 Y181.182 E.03976
G1 X34.36 Y180.655 E.02596
G1 X33.988 Y180.201 E.02186
G1 X33.34 Y179.352 E.03976
G1 X32.609 Y178.293 E.04793
G1 X32.046 Y177.387 E.03976
