; HEADER_BLOCK_START
; generated by OrcaSlicer 2.0.0 on 2024-06-02 at 11:43:42
; total layer number: 147
; filament_density: 1.24
; filament_diameter: 1.75
; max_z_height: 29.40
; HEADER_BLOCK_END

; THUMBNAIL_BLOCK_START

;
; THUMBNAIL_BLOCK_END

; THUMBNAIL_BLOCK_START

;
; THUMBNAIL_BLOCK_END

; external perimeters extrusion width = 0.40mm
; perimeters extrusion width = 0.42mm
; infill extrusion width = 0.45mm
; solid infill extrusion width = 0.42mm
; top infill extrusion width = 0.40mm
; support material extrusion width = 0.38mm
; first layer extrusion width = 0.50mm

; EXECUTABLE_BLOCK_START
EXCLUDE_OBJECT_DEFINE NAME=Sprite_Generic-ADXL345_Bracket_v1.stl_id_0_copy_0 CENTER=115,115 POLYGON=[[89.5,105],[140.5,105],[140.5,118.998],[125.498,125],[104.503,125],[89.5,118.998],[89.5,105]]
M73 P0 R43
;TYPE:Custom
M220 S100
G90 ; use absolute coordinates
M83 ; extruder relative mode
M104 S150 ; set temporary nozzle temp to prevent oozing during homing
M140 S55 ; set final bed temp
G4 S30 ; allow partial nozzle warmup
G28 ; home all axis and restore leveling
BED_MESH_CALIBRATE PROFILE=adaptive ADAPTIVE=1 ADAPTIVE_MARGIN=0
G1 Z25 F240
G1 X10.0 Y30 F3000
M104 S210 ; set final nozzle temp
M190 S55 ; wait for bed temp to stabilize
M109 S210 ; wait for nozzle temp to stabilize
G1 Z0.28 F240
G92 E0 ; Move Z Axis up
G1 Z2.0 F5000 ; Move to start position
G1 X5 Y30 Z0.28 F300 ; Draw the first line
G1 X5 Y200 Z0.28 F1500 E15 ; Move to side a little
G1 X5.4 Y200 Z0.28 F5000.0 ; Draw the second line
G1 X5.4 Y50 Z0.28 F1500.0 E30 ; Reset Extruder
G92 E0 ; Move Z Axis up
G1 Z2.0 F3000
M117 Start Printing..
G90
G21
M83 ; use relative distances for extrusion
; filament start gcode
M106 S0
;LAYER_CHANGE
;Z:0.2
;HEIGHT:0.2
;BEFORE_LAYER_CHANGE
;0.2
G92 E0

M73 P1 R43
G1 E-.5 F2400
;_SET_FAN_SPEED_CHANGING_LAYER
SET_VELOCITY_LIMIT ACCEL=500 ACCEL_TO_DECEL=250
SET_VELOCITY_LIMIT SQUARE_CORNER_VELOCITY=7
; printing object Sprite_Generic-ADXL345_Bracket_v1.stl id:0 copy 0
EXCLUDE_OBJECT_START NAME=Sprite_Generic-ADXL345_Bracket_v1.stl_id_0_copy_0
G1 Z.2 F18000
G1 X94.283 Y122.773
G1 Z.2
G1 E.5 F2400
;TYPE:Support
;WIDTH:0.5
G1 F1800
G1 X94.692 Y122.833 E.0154
G1 X95.565 Y123.116 E.03419
G1 X96.388 Y123.572 E.03504
G1 X97.104 Y124.176 E.0349
G1 X97.286 Y124.4 E.01072
G1 X97.251 Y124.4 E.00127
G1 X96.9 Y124.751 E.01851
G1 X96.9 Y137.504 E.47499
G1 X96.74 Y137.657 E.00823
G1 X95.945 Y138.183 E.03552
G1 X95.068 Y138.559 E.03553
G1 X94.138 Y138.773 E.03554
G1 X93.185 Y138.817 E.03555
G1 X92.239 Y138.69 E.03556
G1 X91.33 Y138.396 E.03557
G1 X90.489 Y137.944 E.03557
G1 X89.741 Y137.35 E.03558
G1 X89.112 Y136.631 E.03559
G1 X88.621 Y135.811 E.03559
G1 X88.285 Y134.916 E.0356
G1 X88.114 Y133.976 E.0356
G1 X88.114 Y133.02 E.0356
G1 X88.285 Y132.08 E.0356
G1 X88.621 Y131.185 E.0356
G1 X89.112 Y130.365 E.03559
G1 X89.417 Y130.017 E.01723
G1 X89.221 Y129.686 E.01431
G1 X89.03 Y129.21 E.01912
G1 X88.894 Y128.767 E.01727
G1 X88.802 Y128.292 E.01802
G1 X88.757 Y127.834 E.01713
G1 X88.757 Y127.348 E.0181
G1 X88.802 Y126.891 E.0171
G1 X88.894 Y126.414 E.01809
G1 X89.028 Y125.973 E.01716
G1 X89.221 Y125.493 E.01928
G1 X89.665 Y124.741 E.03253
G1 X89.988 Y124.35 E.01887
G1 X90.332 Y123.991 E.01851
G1 X91.054 Y123.442 E.03379
G1 X91.896 Y123.026 E.03498
G1 X92.802 Y122.78 E.03497
G1 X93.725 Y122.714 E.03446
G1 X94.215 Y122.765 E.01836
G1 X96.591 Y137.509 F18000
G1 F1800
G1 X96.591 Y124.282 E.49266
G1 X96.153 Y123.913 E.02133
G1 X96.083 Y123.874 E.00298
G1 X96.083 Y137.598 E.51118
G1 X95.749 Y137.819 E.01493
G1 X95.575 Y137.894 E.00704
G1 X95.575 Y123.592 E.5327
G1 X95.4 Y123.495 E.00745
G1 X95.067 Y123.387 E.01304
G1 X95.067 Y138.112 E.54845
G1 X94.94 Y138.166 E.00515
G1 X94.56 Y138.254 E.01455
G1 X94.56 Y123.229 E.55962
G1 X94.052 Y123.162 E.01908
G1 X94.052 Y138.365 E.56626
G1 X93.544 Y138.388 E.01894
G1 X93.544 Y123.139 E.56797
G1 X93.036 Y123.176 E.01897
M73 P1 R42
G1 X93.036 Y138.382 E.56636
G1 X92.528 Y138.314 E.01909
G1 X92.528 Y123.281 E.55991
G1 X92.02 Y123.424 E.01965
G1 X92.02 Y138.187 E.54987
G1 X91.512 Y138.023 E.01988
G1 X91.512 Y123.674 E.53442
G1 X91.271 Y123.793 E.01001
G1 X91.004 Y123.996 E.01249
G1 X91.004 Y137.754 E.51244
G1 X90.716 Y137.599 E.0122
G1 X90.497 Y137.425 E.01043
G1 X90.497 Y124.414 E.4846
G1 X90.296 Y124.624 E.01082
G1 X89.989 Y125.002 E.01814
G1 X89.989 Y137.008 E.44717
G1 X89.481 Y136.428 E.02872
G1 X89.481 Y130.568 E.21824
G1 X88.973 Y131.418 E.03689
G1 X88.973 Y135.998 E.17058
G1 X89.481 Y129.721 F18000
G1 F1800
G1 X89.481 Y125.458 E.15881
G1 E-.35 F2400
;WIPE_START
G1 F1800
G1 X89.481 Y126.458 E-.15
;WIPE_END
G1 Z.4 F18000
G1 X112.254 Y145.601 Z.4
G1 Z.2
G1 E.5 F2400
G1 F1800
G1 X118.794 Y145.601 E.24357
G1 X119.242 Y146.147 E.02634
G1 X119.69 Y146.982 E.03527
G1 X119.968 Y147.886 E.03525
G1 X120.066 Y148.827 E.03523
G1 X119.98 Y149.768 E.0352
G1 X119.715 Y150.675 E.03517
G1 X119.281 Y151.512 E.03516
G1 X118.693 Y152.251 E.03514
G1 X117.974 Y152.862 E.03514
G1 X117.151 Y153.323 E.03515
G1 X116.254 Y153.618 E.03517
G1 X115.316 Y153.734 E.0352
G1 X114.372 Y153.667 E.03525
G1 X113.457 Y153.418 E.0353
G1 X112.606 Y152.996 E.03537
G1 X111.852 Y152.416 E.03544
G1 X111.249 Y151.729 E.03405
G1 X110.981 Y151.309 E.01856
G1 X110.755 Y150.877 E.01816
G1 X110.59 Y150.461 E.01666
G1 X110.447 Y149.977 E.01881
G1 X110.368 Y149.555 E.01598
G1 X110.321 Y149.033 E.01952
G1 X110.323 Y148.624 E.01525
G1 X110.381 Y148.083 E.02027
G1 X110.456 Y147.701 E.01448
G1 X110.625 Y147.162 E.02104
G1 X110.763 Y146.821 E.01371
G1 X111.043 Y146.307 E.02179
G1 X111.232 Y146.014 E.01298
G1 X111.619 Y145.551 E.02249
G1 X111.913 Y145.259 E.01544
G1 X112.206 Y145.552 E.01544
G1 X119.445 Y150.749 F18000
G1 F1800
G1 X119.445 Y147.584 E.11787
G1 X119.309 Y147.141 E.01728
G1 X118.937 Y146.448 E.02927
G1 X118.937 Y151.281 E.18001
G1 X118.429 Y151.921 E.03043
G1 X118.429 Y146.012 E.22011
G1 X117.921 Y146.012 E.01892
G1 X117.921 Y152.367 E.23669
G1 X117.738 Y152.523 E.00896
G1 X117.413 Y152.705 E.01386
G1 X117.413 Y146.012 E.24928
G1 X116.906 Y146.012 E.01892
G1 X116.906 Y152.971 E.2592
G1 X116.398 Y153.138 E.01991
G1 X116.398 Y146.012 E.26541
G1 X115.89 Y146.012 E.01892
G1 X115.89 Y153.248 E.26953
G1 X115.382 Y153.311 E.01906
G1 X115.382 Y146.012 E.27187
G1 X114.874 Y146.012 E.01892
G1 X114.874 Y153.29 E.27109
G1 X114.441 Y153.259 E.01618
G1 X114.366 Y153.239 E.00288
G1 X114.366 Y146.012 E.26919
G1 X113.858 Y146.012 E.01892
G1 X113.858 Y153.101 E.26404
G1 X113.604 Y153.032 E.00983
G1 X113.351 Y152.906 E.01053
G1 X113.351 Y146.012 E.25679
G1 X112.843 Y146.012 E.01892
G1 X112.843 Y152.654 E.24741
G1 X112.335 Y152.269 E.02375
G1 X112.335 Y146.012 E.23305
G1 X112.084 Y146.012 E.00934
G1 X111.913 Y145.84 E.00903
G1 X111.827 Y145.943 E.00498
G1 X111.827 Y151.764 E.2168
G1 X111.579 Y151.481 E.01399
G1 X111.319 Y151.067 E.01821
G1 X111.319 Y146.66 E.16417
G1 X111.135 Y146.997 E.01431
G1 X111.012 Y147.301 E.01221
G1 X110.855 Y147.803 E.01958
G1 X110.811 Y148.026 E.00848
G1 X110.811 Y150.461 E.0907
G1 E-.35 F2400
;WIPE_START
G1 F1800
G1 X110.811 Y149.461 E-.15
;WIPE_END
G1 Z.4 F18000
G1 X134.242 Y146.147 Z.4
G1 Z.2
G1 E.5 F2400
G1 F1800
G1 X134.69 Y146.982 E.03527
G1 X134.968 Y147.886 E.03525
G1 X135.066 Y148.827 E.03523
G1 X134.98 Y149.768 E.0352
G1 X134.715 Y150.675 E.03517
G1 X134.281 Y151.512 E.03516
G1 X133.693 Y152.251 E.03514
G1 X132.974 Y152.862 E.03514
G1 X132.151 Y153.323 E.03515
G1 X131.254 Y153.618 E.03517
G1 X130.316 Y153.734 E.0352
G1 X129.372 Y153.667 E.03525
G1 X128.457 Y153.418 E.0353
G1 X127.606 Y152.996 E.03537
G1 X126.852 Y152.416 E.03544
G1 X126.249 Y151.729 E.03405
G1 X125.981 Y151.309 E.01856
G1 X125.755 Y150.877 E.01816
G1 X125.59 Y150.461 E.01666
G1 X125.447 Y149.977 E.01881
G1 X125.368 Y149.555 E.01598
G1 X125.321 Y149.033 E.01952
G1 X125.323 Y148.624 E.01525
G1 X125.381 Y148.083 E.02027
G1 X125.456 Y147.701 E.01448
G1 X125.625 Y147.162 E.02104
G1 X125.763 Y146.821 E.01371
G1 X126.043 Y146.307 E.02179
G1 X126.232 Y146.015 E.01298
G1 X126.577 Y145.601 E.02007
G1 X133.747 Y145.601 E.26704
G1 X133.773 Y145.575 E.00137
G1 X134.199 Y146.094 E.02503
G1 X134.173 Y151.273 F18000
G1 F1800
G1 X134.173 Y146.888 E.16333
G1 X133.899 Y146.377 E.0216
G1 X133.665 Y146.092 E.01372
G1 X133.665 Y151.625 E.20607
G1 X133.396 Y151.963 E.0161
G1 X133.157 Y152.166 E.01167
G1 X133.157 Y146.012 E.22922
G1 X132.649 Y146.012 E.01892
G1 X132.649 Y152.572 E.24435
G1 X132.142 Y152.857 E.02169
G1 X132.142 Y146.012 E.25495
G1 X131.634 Y146.012 E.01892
G1 X131.634 Y153.06 E.26252
G1 X131.126 Y153.219 E.01982
G1 X131.126 Y146.012 E.26844
G1 X130.618 Y146.012 E.01892
G1 X130.618 Y153.282 E.27079
G1 X130.305 Y153.321 E.01175
G1 X130.11 Y153.307 E.00727
G1 X130.11 Y146.012 E.27171
G1 X129.602 Y146.012 E.01892
G1 X129.602 Y153.271 E.27037
G1 X129.441 Y153.259 E.00603
G1 X129.094 Y153.165 E.01337
G1 X129.094 Y146.012 E.26643
G1 X128.587 Y146.012 E.01892
G1 X128.587 Y153.023 E.26115
G1 X128.079 Y152.771 E.02111
G1 X128.079 Y146.012 E.25177
G1 X127.571 Y146.012 E.01892
G1 X127.571 Y152.45 E.2398
G1 X127.135 Y152.115 E.02049
G1 X127.063 Y152.033 E.00406
G1 X127.063 Y146.012 E.22427
G1 X126.77 Y146.012 E.01092
G1 X126.555 Y146.273 E.01258
G1 X126.555 Y151.443 E.19259
G1 X126.337 Y151.102 E.01506
M73 P2 R42
G1 X126.129 Y150.705 E.0167
G1 X126.047 Y150.499 E.00829
G1 X126.047 Y146.729 E.14042
G1 E-.35 F2400
;WIPE_START
G1 F1800
G1 X126.047 Y147.729 E-.15
;WIPE_END
G1 Z.4 F18000
G1 X120.682 Y120.811 Z.4
G1 Z.2
G1 E.5 F2400
G1 F1800
G1 X121.072 Y120.828 E.01452
G1 X122.002 Y121.041 E.03555
G1 X122.88 Y121.416 E.03555
G1 X123.676 Y121.942 E.03555
G1 X124.366 Y122.601 E.03555
G1 X124.927 Y123.374 E.03555
G1 X125.073 Y123.678 E.01257
G1 X125.532 Y123.671 E.01708
G1 X126.21 Y123.771 E.02551
G1 X126.577 Y123.156 E.02668
G1 X127.205 Y122.437 E.03555
G1 X127.951 Y121.842 E.03555
G1 X128.792 Y121.39 E.03555
G1 X129.7 Y121.095 E.03555
G1 X130.646 Y120.967 E.03555
G1 X131.599 Y121.01 E.03555
G1 X132.53 Y121.222 E.03555
G1 X133.407 Y121.598 E.03555
G1 X133.68 Y121.778 E.01217
G1 X134.164 Y121.517 E.02048
G1 X135.072 Y121.222 E.03555
G1 X136.018 Y121.094 E.03555
G1 X136.971 Y121.137 E.03555
G1 X137.902 Y121.349 E.03555
G1 X138.779 Y121.724 E.03555
G1 X139.576 Y122.25 E.03555
G1 X140.266 Y122.91 E.03555
G1 X140.564 Y123.32 E.01888
G1 X141.215 Y123.233 E.02446
G1 X142.168 Y123.277 E.03555
G1 X143.098 Y123.491 E.03554
G1 X143.974 Y123.868 E.03553
G1 X144.769 Y124.394 E.03552
G1 X145.02 Y124.634 E.01292
G1 X144.903 Y124.751 E.00615
G1 X144.903 Y136.523 E.43846
G1 X144.69 Y136.759 E.01182
G1 X103.302 Y136.759 E1.54156
G1 X103.154 Y136.61 E.00779
G1 X103.05 Y136.457 E.00692
G1 X102.456 Y136.424 E.02217
G1 X101.586 Y136.183 E.03361
G1 X101.098 Y135.925 E.02057
G1 X101.094 Y124.983 E.40754
G1 X101.669 Y124.679 E.02421
G1 X102.54 Y124.438 E.03367
G1 X103.442 Y124.391 E.03363
G1 X103.761 Y124.444 E.01208
G1 X104.463 Y123.642 E.03967
G1 X105.209 Y123.047 E.03554
G1 X106.049 Y122.595 E.03554
G1 X106.956 Y122.301 E.03553
G1 X107.902 Y122.173 E.03553
G1 X108.855 Y122.216 E.03553
G1 X109.785 Y122.428 E.03553
G1 X110.662 Y122.803 E.03553
G1 X111.033 Y123.048 E.01656
G1 X111.188 Y122.925 E.00737
G1 X112.029 Y122.473 E.03554
G1 X112.936 Y122.179 E.03554
G1 X113.882 Y122.051 E.03553
G1 X114.835 Y122.095 E.03553
G1 X115.765 Y122.308 E.03553
G1 X116.396 Y122.578 E.02559
G1 X116.678 Y122.256 E.01592
G1 X117.424 Y121.661 E.03555
G1 X118.264 Y121.208 E.03555
G1 X119.172 Y120.914 E.03555
G1 X120.118 Y120.785 E.03555
G1 X120.614 Y120.808 E.01847
G1 X144.33 Y136.553 F18000
G1 F1800
G1 X144.33 Y124.597 E.44532
G1 X143.823 Y124.26 E.02269
G1 X143.823 Y136.347 E.45018
G1 X143.315 Y136.347 E.01892
G1 X143.315 Y124.032 E.45869
G1 X142.97 Y123.884 E.01399
G1 X142.807 Y123.846 E.00622
G1 X142.807 Y136.347 E.46561
G1 X142.299 Y136.347 E.01892
G1 X142.299 Y123.73 E.46996
G1 X142.112 Y123.686 E.00715
G1 X141.791 Y123.672 E.01196
G1 X141.791 Y136.347 E.47212
G1 X141.283 Y136.347 E.01892
G1 X141.283 Y123.648 E.473
G1 X140.775 Y123.707 E.01904
G1 X140.775 Y136.347 E.47081
G1 X140.267 Y136.347 E.01892
G1 X140.267 Y123.612 E.47434
G1 X139.955 Y123.181 E.01981
G1 X139.76 Y122.995 E.01006
G1 X139.76 Y136.347 E.49732
G1 X139.252 Y136.347 E.01892
G1 X139.252 Y122.529 E.51467
G1 X138.744 Y122.194 E.02267
G1 X138.744 Y136.347 E.52716
G1 X138.236 Y136.347 E.01892
G1 X138.236 Y121.939 E.53664
G1 X137.774 Y121.742 E.01871
G1 X137.728 Y121.731 E.00176
G1 X137.728 Y136.347 E.54438
G1 X137.22 Y136.347 E.01892
G1 X137.22 Y121.616 E.5487
G1 X136.916 Y121.546 E.01164
G1 X136.712 Y121.537 E.00758
G1 X136.712 Y136.347 E.55163
G1 X136.205 Y136.347 E.01892
G1 X136.205 Y121.514 E.55248
G1 X136.036 Y121.506 E.00628
G1 X135.697 Y121.552 E.01276
G1 X135.697 Y136.347 E.55104
G1 X135.189 Y136.347 E.01892
G1 X135.189 Y121.621 E.54848
G1 X134.681 Y121.782 E.01984
G1 X134.681 Y136.347 E.54251
G1 X134.173 Y136.347 E.01892
G1 X134.173 Y121.979 E.53515
G1 X133.665 Y122.253 E.02148
G1 X133.665 Y136.347 E.52497
G1 X133.157 Y136.347 E.01892
G1 X133.157 Y121.938 E.53668
G1 X132.649 Y121.721 E.02057
G1 X132.649 Y136.347 E.54477
G1 X132.142 Y136.347 E.01892
G1 X132.142 Y121.556 E.55092
G1 X131.634 Y121.44 E.0194
G1 X131.634 Y136.347 E.55524
G1 X131.126 Y136.347 E.01892
G1 X131.126 Y121.4 E.55671
G1 X130.618 Y121.386 E.01892
G1 X130.618 Y136.347 E.55725
G1 X130.11 Y136.347 E.01892
G1 X130.11 Y121.455 E.55469
G1 X129.792 Y121.498 E.01197
G1 X129.602 Y121.559 E.00742
G1 X129.602 Y136.347 E.5508
G1 X129.094 Y136.347 E.01892
G1 X129.094 Y121.724 E.54465
G1 X128.954 Y121.77 E.00549
G1 X128.587 Y121.967 E.01555
G1 X128.587 Y136.347 E.53559
G1 X128.079 Y136.347 E.01892
G1 X128.079 Y122.267 E.52444
G1 X127.571 Y122.672 E.02419
G1 X127.571 Y136.347 E.50936
G1 X127.063 Y136.347 E.01892
G1 X127.063 Y123.225 E.48875
G1 X126.911 Y123.399 E.00859
G1 X126.555 Y123.994 E.02585
G1 X126.555 Y136.347 E.46009
G1 X126.047 Y136.347 E.01892
G1 X126.047 Y124.16 E.45392
G1 X125.539 Y124.087 E.01911
G1 X125.539 Y136.347 E.45664
G1 X125.031 Y136.347 E.01892
G1 X125.031 Y124.09 E.45654
G1 X124.817 Y124.093 E.008
M73 P3 R42
G1 X124.572 Y123.585 E.02098
G1 X124.524 Y123.518 E.00309
G1 X124.524 Y136.347 E.47783
G1 X124.016 Y136.347 E.01892
G1 X124.016 Y122.836 E.50325
G1 X123.508 Y122.35 E.02617
G1 X123.508 Y136.347 E.52134
G1 X123 Y136.347 E.01892
G1 X123 Y121.988 E.53481
G1 X122.684 Y121.78 E.01411
G1 X122.492 Y121.698 E.00777
G1 X122.492 Y136.347 E.54564
G1 X121.984 Y136.347 E.01892
G1 X121.984 Y121.481 E.55372
G1 X121.874 Y121.434 E.00445
G1 X121.476 Y121.343 E.01521
G1 X121.476 Y136.347 E.55886
G1 X120.969 Y136.347 E.01892
G1 X120.969 Y121.235 E.56285
G1 X120.461 Y121.213 E.01894
G1 X120.461 Y136.347 E.5637
G1 X119.953 Y136.347 E.01892
G1 X119.953 Y121.223 E.56332
G1 X119.445 Y121.292 E.01909
G1 X119.445 Y136.347 E.56076
G1 X118.937 Y136.347 E.01892
G1 X118.937 Y121.422 E.55589
G1 X118.429 Y121.587 E.01989
G1 X118.429 Y136.347 E.54974
G1 X117.921 Y136.347 E.01892
G1 X117.921 Y121.86 E.53958
G1 X117.651 Y122.005 E.01141
G1 X117.413 Y122.195 E.01134
G1 X117.413 Y136.347 E.52711
G1 X116.906 Y136.347 E.01892
G1 X116.906 Y122.62 E.51128
G1 X116.509 Y123.074 E.02243
G1 X116.398 Y123.026 E.00453
G1 X116.398 Y136.347 E.49617
G1 X115.89 Y136.347 E.01892
G1 X115.89 Y122.808 E.50426
G1 X115.637 Y122.7 E.01024
G1 X115.382 Y122.642 E.00974
G1 X115.382 Y136.347 E.51047
G1 X114.874 Y136.347 E.01892
G1 X114.874 Y122.526 E.51479
G1 X114.779 Y122.504 E.00362
G1 X114.366 Y122.485 E.0154
G1 X114.366 Y136.347 E.5163
G1 X113.858 Y136.347 E.01892
G1 X113.858 Y122.47 E.51688
G1 X113.351 Y122.538 E.01909
G1 X113.351 Y136.347 E.51433
G1 X112.843 Y136.347 E.01892
G1 X112.843 Y122.642 E.51047
G1 X112.335 Y122.806 E.01988
G1 X112.335 Y136.347 E.50434
G1 X111.827 Y136.347 E.01892
G1 X111.827 Y123.048 E.49532
G1 X111.415 Y123.27 E.0174
G1 X111.319 Y123.346 E.00458
G1 X111.319 Y136.347 E.48423
G1 X110.811 Y136.347 E.01892
M73 P3 R41
G1 X110.811 Y123.394 E.48245
G1 X110.466 Y123.167 E.01538
G1 X110.303 Y123.097 E.00661
G1 X110.303 Y136.347 E.49352
G1 X109.795 Y136.347 E.01892
G1 X109.795 Y122.88 E.5016
