; HEADER_BLOCK_START
; generated by OrcaSlicer 2.0.0 on 2024-06-02 at 20:34:14
; total layer number: 147
; filament_density: 1.24
; filament_diameter: 1.75
; max_z_height: 29.40
; HEADER_BLOCK_END

; THUMBNAIL_BLOCK_START

;
; THUMBNAIL_BLOCK_END

; THUMBNAIL_BLOCK_START

;
; THUMBNAIL_BLOCK_END

; external perimeters extrusion width = 0.40mm
; perimeters extrusion width = 0.42mm
; infill extrusion width = 0.45mm
; solid infill extrusion width = 0.42mm
; top infill extrusion width = 0.40mm
; support material extrusion width = 0.38mm
; first layer extrusion width = 0.50mm

; EXECUTABLE_BLOCK_START
EXCLUDE_OBJECT_DEFINE NAME=Sprite_Generic-ADXL345_Bracket_v1.stl_id_0_copy_0 CENTER=115,115 POLYGON=[[89.5,105],[140.5,105],[140.5,118.998],[125.498,125],[104.503,125],[89.5,118.998],[89.5,105]]
M73 P0 R43
;TYPE:Custom
M220 S100
G90 ; use absolute coordinates
M83 ; extruder relative mode
M104 S150 ; set temporary nozzle temp to prevent oozing during homing
M140 S55 ; set final bed temp
G4 S30 ; allow partial nozzle warmup
G28 ; home all axis and restore leveling
BED_MESH_CALIBRATE PROFILE=adaptive ADAPTIVE=1 ADAPTIVE_MARGIN=0
G1 Z25 F240
G1 X10.0 Y30 F3000
M104 S210 ; set final nozzle temp
M190 S55 ; wait for bed temp to stabilize
M109 S210 ; wait for nozzle temp to stabilize
G1 Z0.28 F240
G92 E0 ; Move Z Axis up
G1 Z2.0 F5000 ; Move to start position
G1 X5 Y30 Z0.28 F300 ; Draw the first line
G1 X5 Y200 Z0.28 F1500 E15 ; Move to side a little
G1 X5.4 Y200 Z0.28 F5000.0 ; Draw the second line
G1 X5.4 Y50 Z0.28 F1500.0 E30 ; Reset Extruder
G92 E0 ; Move Z Axis up
G1 Z2.0 F3000
M117 Start Printing..
G90
G21
M83 ; use relative distances for extrusion
; filament start gcode
M106 S0
;LAYER_CHANGE
;Z:0.2
;HEIGHT:0.2
;BEFORE_LAYER_CHANGE
;0.2
G92 E0

M73 P1 R43
G1 E-.5 F2400
;_SET_FAN_SPEED_CHANGING_LAYER
SET_VELOCITY_LIMIT ACCEL=500 ACCEL_TO_DECEL=250
SET_VELOCITY_LIMIT SQUARE_CORNER_VELOCITY=7
; printing object Sprite_Generic-ADXL345_Bracket_v1.stl id:0 copy 0
EXCLUDE_OBJECT_START NAME=Sprite_Generic-ADXL345_Bracket_v1.stl_id_0_copy_0
G1 Z.2 F18000
G1 X95.54 Y123.749
G1 Z.2
G1 E.5 F2400
;TYPE:Support
;WIDTH:0.5
G1 F1800
G1 X95.972 Y123.82 E.01627
G1 X96.81 Y124.153 E.0336
G1 X97.22 Y124.431 E.01846
G1 X96.9 Y124.751 E.01687
G1 X96.9 Y137.418 E.4718
G1 X96.086 Y137.893 E.03512
G1 X95.879 Y137.972 E.00824
G1 X95.325 Y138.337 E.02471
G1 X94.552 Y138.552 E.02987
G1 X93.573 Y138.645 E.03664
G1 X92.585 Y138.562 E.03692
G1 X91.625 Y138.306 E.03704
G1 X91.243 Y138.127 E.0157
G1 X90.564 Y137.707 E.02974
G1 X90.079 Y137.294 E.02374
G1 X89.766 Y136.986 E.01633
G1 X89.481 Y136.645 E.01656
G1 X89.12 Y136.138 E.02317
G1 X88.677 Y135.253 E.03687
G1 X88.404 Y134.296 E.03707
G1 X88.313 Y133.309 E.0369
G1 X88.402 Y132.348 E.03598
G1 X88.628 Y131.511 E.03227
G1 X88.968 Y130.76 E.03072
G1 X89.147 Y130.446 E.01346
G1 X89.462 Y130.001 E.0203
G1 X89.764 Y129.636 E.01765
G1 X90.053 Y129.349 E.01519
G1 X90.563 Y128.91 E.02504
G1 X90.809 Y128.757 E.0108
G1 X90.707 Y128.29 E.01778
G1 X90.708 Y127.388 E.0336
G1 X90.902 Y126.507 E.03361
G1 X91.281 Y125.689 E.03359
G1 X91.827 Y124.971 E.03359
G1 X92.515 Y124.387 E.0336
G1 X93.312 Y123.965 E.03359
G1 X94.18 Y123.723 E.03359
G1 X95.081 Y123.674 E.03359
G1 X95.473 Y123.738 E.01478
G1 X96.083 Y137.658 F18000
G1 F1800
G1 X96.083 Y124.307 E.49728
G1 X95.861 Y124.218 E.0089
G1 X95.575 Y124.172 E.01079
G1 X95.575 Y137.68 E.50313
G1 X95.152 Y137.958 E.01884
G1 X95.067 Y137.981 E.00329
G1 X95.067 Y124.089 E.51745
G1 X94.56 Y124.115 E.01894
G1 X94.56 Y138.123 E.52176
G1 X94.477 Y138.146 E.00319
M73 P1 R42
G1 X94.052 Y138.186 E.01592
G1 X94.052 Y124.186 E.52145
G1 X93.544 Y124.327 E.01963
G1 X93.544 Y138.23 E.51781
G1 X93.036 Y138.187 E.01898
G1 X93.036 Y124.577 E.50694
G1 X92.747 Y124.73 E.01218
G1 X92.528 Y124.916 E.0107
G1 X92.528 Y138.121 E.49186
G1 X92.02 Y137.986 E.01958
G1 X92.02 Y125.397 E.46888
G1 X91.636 Y125.902 E.02365
G1 X91.512 Y126.169 E.01093
G1 X91.512 Y137.799 E.43317
G1 X91.004 Y137.496 E.02202
G1 X91.004 Y129.12 E.31198
G1 X90.808 Y129.243 E.00864
G1 X90.497 Y129.51 E.01528
G1 X90.497 Y137.109 E.28305
G1 X90.357 Y136.99 E.00684
G1 X89.989 Y136.611 E.01969
G1 X89.989 Y130.01 E.24586
G1 X89.789 Y130.251 E.01167
G1 X89.481 Y130.692 E.02002
G1 X89.481 Y135.935 E.19531
G1 X89.062 Y135.103 E.03469
G1 X88.973 Y134.79 E.01213
G1 X88.973 Y131.247 E.13195
G1 E-.35 F2400
;WIPE_START
G1 F1800
G1 X88.973 Y132.247 E-.15
;WIPE_END
G1 Z.4 F18000
G1 X112.254 Y145.601 Z.4
G1 Z.2
G1 E.5 F2400
G1 F1800
G1 X118.394 Y145.601 E.22866
G1 X118.757 Y145.999 E.02007
G1 X119.222 Y146.791 E.03422
G1 X119.513 Y147.664 E.03428
G1 X119.616 Y148.58 E.03433
G1 X119.526 Y149.499 E.03438
G1 X119.246 Y150.38 E.03443
G1 X118.788 Y151.184 E.03447
G1 X118.172 Y151.876 E.0345
G1 X117.424 Y152.424 E.03453
G1 X116.577 Y152.803 E.03455
G1 X115.67 Y152.997 E.03456
G1 X114.742 Y152.997 E.03456
G1 X113.835 Y152.803 E.03456
G1 X112.988 Y152.424 E.03455
G1 X112.24 Y151.876 E.03453
G1 X111.624 Y151.184 E.0345
G1 X111.166 Y150.38 E.03447
G1 X110.886 Y149.499 E.03443
G1 X110.796 Y148.58 E.03439
G1 X110.899 Y147.664 E.03433
G1 X111.19 Y146.791 E.03428
G1 X111.655 Y145.999 E.03422
G1 X112.131 Y145.477 E.02629
G1 X112.206 Y145.552 E.00395
G1 X118.937 Y150.507 F18000
G1 F1800
G1 X118.937 Y147.239 E.12174
G1 X118.845 Y146.962 E.01085
G1 X118.429 Y146.254 E.0306
G1 X118.429 Y150.969 E.17562
G1 X117.921 Y151.538 E.02843
G1 X117.921 Y146.012 E.20584
G1 X117.413 Y146.012 E.01892
G1 X117.413 Y151.921 E.2201
G1 X117.216 Y152.066 E.00913
G1 X116.906 Y152.205 E.01266
G1 X116.906 Y146.012 E.23067
G1 X116.398 Y146.012 E.01892
G1 X116.398 Y152.421 E.23871
G1 X115.89 Y152.529 E.01934
G1 X115.89 Y146.012 E.24276
G1 X115.382 Y146.012 E.01892
G1 X115.382 Y152.586 E.24486
G1 X114.874 Y152.586 E.01892
G1 X114.874 Y146.012 E.24486
G1 X114.366 Y146.012 E.01892
G1 X114.366 Y152.496 E.24152
G1 X113.963 Y152.41 E.01535
G1 X113.858 Y152.363 E.00428
G1 X113.858 Y146.012 E.23655
G1 X113.351 Y146.012 E.01892
G1 X113.351 Y152.135 E.22807
G1 X113.196 Y152.066 E.0063
G1 X112.843 Y151.807 E.01632
G1 X112.843 Y146.012 E.21585
G1 X112.335 Y146.012 E.01892
G1 X112.335 Y151.364 E.19933
G1 X111.96 Y150.943 E.02099
G1 X111.827 Y150.71 E.01
G1 X111.827 Y146.519 E.15609
G1 X111.567 Y146.962 E.01913
G1 X111.319 Y147.706 E.0292
G1 X111.319 Y150.183 E.09227
G1 E-.35 F2400
;WIPE_START
G1 F1800
G1 X111.319 Y149.183 E-.15
;WIPE_END
G1 Z.4 F18000
G1 X133.757 Y145.999 Z.4
G1 Z.2
G1 E.5 F2400
G1 F1800
G1 X134.222 Y146.791 E.03422
G1 X134.513 Y147.664 E.03428
G1 X134.616 Y148.58 E.03433
G1 X134.526 Y149.499 E.03438
G1 X134.246 Y150.38 E.03443
G1 X133.788 Y151.184 E.03447
G1 X133.172 Y151.876 E.0345
G1 X132.424 Y152.424 E.03453
G1 X131.577 Y152.803 E.03455
G1 X130.67 Y152.997 E.03456
G1 X129.742 Y152.997 E.03456
G1 X128.835 Y152.803 E.03456
G1 X127.988 Y152.424 E.03455
G1 X127.24 Y151.876 E.03453
G1 X126.624 Y151.184 E.0345
G1 X126.166 Y150.38 E.03447
G1 X125.886 Y149.499 E.03443
G1 X125.796 Y148.58 E.03439
G1 X125.899 Y147.664 E.03433
G1 X126.19 Y146.791 E.03428
G1 X126.655 Y145.999 E.03422
G1 X127.018 Y145.601 E.02007
G1 X133.394 Y145.601 E.23745
G1 X133.71 Y145.948 E.01752
G1 X134.173 Y149.93 F18000
G1 F1800
G1 X134.173 Y148.325 E.05978
G1 X134.109 Y147.753 E.02145
G1 X133.845 Y146.962 E.03106
G1 X133.665 Y146.656 E.01323
G1 X133.665 Y150.569 E.14575
G1 X133.452 Y150.943 E.01604
G1 X133.157 Y151.274 E.0165
G1 X133.157 Y146.012 E.19598
G1 X132.649 Y146.012 E.01892
G1 X132.649 Y151.748 E.21366
G1 X132.216 Y152.066 E.02002
G1 X132.142 Y152.099 E.00303
G1 X132.142 Y146.012 E.22673
G1 X131.634 Y146.012 E.01892
G1 X131.634 Y152.327 E.23521
G1 X131.449 Y152.41 E.00755
G1 X131.126 Y152.479 E.0123
G1 X131.126 Y146.012 E.24088
G1 X130.618 Y146.012 E.01892
G1 X130.618 Y152.586 E.24486
G1 X130.11 Y152.586 E.01892
G1 X130.11 Y146.012 E.24486
G1 X129.602 Y146.012 E.01892
G1 X129.602 Y152.547 E.2434
G1 X129.094 Y152.438 E.01934
G1 X129.094 Y146.012 E.23935
G1 X128.587 Y146.012 E.01892
G1 X128.587 Y152.241 E.23201
G1 X128.196 Y152.066 E.01593
G1 X128.079 Y151.98 E.00543
G1 X128.079 Y146.012 E.22229
G1 X127.571 Y146.012 E.01892
G1 X127.571 Y151.608 E.20843
G1 X127.518 Y151.57 E.00242
G1 X127.063 Y151.059 E.0255
G1 X127.063 Y146.162 E.18238
G1 X126.988 Y146.244 E.00412
G1 X126.555 Y146.998 E.03238
G1 X126.555 Y150.648 E.13596
G1 E-.35 F2400
;WIPE_START
G1 F1800
G1 X126.555 Y149.648 E-.15
;WIPE_END
G1 Z.4 F18000
G1 X120.682 Y120.811 Z.4
G1 Z.2
G1 E.5 F2400
G1 F1800
G1 X121.072 Y120.828 E.01452
G1 X122.002 Y121.041 E.03555
G1 X122.88 Y121.416 E.03555
G1 X123.676 Y121.942 E.03555
G1 X124.366 Y122.601 E.03555
G1 X124.927 Y123.374 E.03555
G1 X125.03 Y123.588 E.00888
G1 X125.459 Y123.531 E.01611
G1 X126.412 Y123.574 E.03555
G1 X126.567 Y123.61 E.0059
G1 X126.926 Y123.323 E.01712
G1 X127.767 Y122.871 E.03555
G1 X128.675 Y122.576 E.03555
G1 X129.621 Y122.448 E.03555
G1 X130.574 Y122.491 E.03555
G1 X131.505 Y122.703 E.03555
G1 X132.385 Y123.079 E.03564
G1 X132.481 Y123.048 E.00377
G1 X133.427 Y122.92 E.03557
G1 X133.92 Y122.942 E.01839
G1 X134.142 Y122.765 E.01056
G1 X134.983 Y122.313 E.03555
G1 X135.89 Y122.018 E.03555
G1 X136.836 Y121.89 E.03555
G1 X137.79 Y121.933 E.03555
G1 X138.72 Y122.145 E.03555
G1 X139.598 Y122.521 E.03555
G1 X140.394 Y123.046 E.03555
G1 X140.788 Y123.422 E.02026
G1 X141.461 Y123.345 E.02524
G1 X142.416 Y123.406 E.03563
G1 X143.341 Y123.633 E.0355
G1 X144.195 Y124.011 E.03479
G1 X144.977 Y124.528 E.03491
G1 X145.053 Y124.601 E.00393
G1 X144.903 Y124.751 E.00791
G1 X144.903 Y136.759 E.44723
G1 X101.098 Y136.759 E1.63157
G1 X101.094 Y125.623 E.41475
M73 P2 R42
G1 X101.588 Y125.362 E.02081
G1 X102.457 Y125.121 E.03361
G1 X103.41 Y125.069 E.03555
G1 X103.834 Y124.36 E.03077
G1 X104.463 Y123.642 E.03554
G1 X105.209 Y123.047 E.03554
G1 X106.049 Y122.595 E.03554
G1 X106.956 Y122.301 E.03553
G1 X107.902 Y122.173 E.03553
G1 X108.855 Y122.216 E.03553
G1 X109.785 Y122.428 E.03553
G1 X110.662 Y122.803 E.03553
G1 X111.033 Y123.048 E.01656
G1 X111.188 Y122.925 E.00737
G1 X112.029 Y122.473 E.03554
G1 X112.936 Y122.179 E.03554
G1 X113.882 Y122.051 E.03553
G1 X114.835 Y122.095 E.03553
G1 X115.765 Y122.308 E.03553
G1 X116.396 Y122.578 E.02559
G1 X116.678 Y122.256 E.01592
G1 X117.424 Y121.661 E.03555
G1 X118.264 Y121.208 E.03555
G1 X119.172 Y120.914 E.03555
G1 X120.118 Y120.785 E.03555
G1 X120.614 Y120.808 E.01847
G1 X144.33 Y136.553 F18000
G1 F1800
G1 X144.33 Y124.593 E.44544
G1 X143.997 Y124.373 E.01489
G1 X143.823 Y124.295 E.00711
G1 X143.823 Y136.347 E.44888
G1 X143.315 Y136.347 E.01892
G1 X143.315 Y124.071 E.45725
G1 X143.208 Y124.023 E.00434
G1 X142.807 Y123.925 E.01539
G1 X142.807 Y136.347 E.46267
G1 X142.299 Y136.347 E.01892
G1 X142.299 Y123.811 E.46694
G1 X141.791 Y123.778 E.01895
G1 X141.791 Y136.347 E.46814
G1 X141.283 Y136.347 E.01892
G1 X141.283 Y123.78 E.46809
G1 X140.775 Y123.838 E.01904
G1 X140.775 Y136.347 E.46593
G1 X140.267 Y136.347 E.01892
G1 X140.267 Y123.494 E.47873
G1 X140.137 Y123.369 E.00673
G1 X139.76 Y123.12 E.01684
G1 X139.76 Y136.347 E.49265
G1 X139.252 Y136.347 E.01892
G1 X139.252 Y122.82 E.50384
G1 X138.744 Y122.603 E.02057
G1 X138.744 Y136.347 E.51192
G1 X138.236 Y136.347 E.01892
G1 X138.236 Y122.457 E.51736
G1 X137.728 Y122.342 E.01939
G1 X137.728 Y136.347 E.52164
G1 X137.22 Y136.347 E.01892
G1 X137.22 Y122.319 E.52249
G1 X136.855 Y122.303 E.01363
G1 X136.712 Y122.322 E.00535
G1 X136.712 Y136.347 E.52238
G1 X136.205 Y136.347 E.01892
G1 X136.205 Y122.391 E.51982
G1 X135.982 Y122.421 E.00836
G1 X135.697 Y122.514 E.01118
G1 X135.697 Y136.347 E.51524
G1 X135.189 Y136.347 E.01892
G1 X135.189 Y122.679 E.5091
G1 X134.681 Y122.943 E.02132
G1 X134.681 Y136.347 E.49927
G1 X134.173 Y136.347 E.01892
G1 X134.173 Y123.267 E.48719
G1 X134.056 Y123.36 E.00557
G1 X133.665 Y123.343 E.01458
G1 X133.665 Y136.347 E.48437
G1 X133.157 Y136.347 E.01892
G1 X133.157 Y123.372 E.48329
G1 X132.649 Y123.44 E.01909
G1 X132.649 Y136.347 E.48073
G1 X132.142 Y136.347 E.01892
G1 X132.142 Y123.423 E.48138
G1 X131.634 Y123.206 E.02057
G1 X131.634 Y136.347 E.48947
G1 X131.126 Y136.347 E.01892
G1 X131.126 Y123.039 E.49569
G1 X130.618 Y122.923 E.0194
G1 X130.618 Y136.347 E.50001
G1 X130.11 Y136.347 E.01892
G1 X130.11 Y122.882 E.50154
G1 X129.602 Y122.865 E.01893
G1 X129.602 Y136.347 E.50214
G1 X129.094 Y136.347 E.01892
G1 X129.094 Y122.934 E.49958
G1 X128.767 Y122.979 E.01232
G1 X128.587 Y123.037 E.00705
G1 X128.587 Y136.347 E.49575
G1 X128.079 Y136.347 E.01892
G1 X128.079 Y123.202 E.4896
G1 X127.929 Y123.251 E.00585
G1 X127.571 Y123.444 E.01516
G1 X127.571 Y136.347 E.48061
G1 X127.063 Y136.347 E.01892
G1 X127.063 Y123.74 E.46955
G1 X126.668 Y124.055 E.0188
G1 X126.555 Y124.029 E.00433
G1 X126.555 Y136.347 E.4588
G1 X126.047 Y136.347 E.01892
G1 X126.047 Y123.969 E.46102
G1 X125.539 Y123.946 E.01894
G1 X125.539 Y136.347 E.46189
G1 X125.031 Y136.347 E.01892
G1 X125.031 Y124.003 E.45977
G1 X124.789 Y124.036 E.0091
G1 X124.572 Y123.585 E.01862
G1 X124.524 Y123.518 E.00309
G1 X124.524 Y136.347 E.47783
G1 X124.016 Y136.347 E.01892
G1 X124.016 Y122.836 E.50325
G1 X123.508 Y122.35 E.02617
G1 X123.508 Y136.347 E.52134
G1 X123 Y136.347 E.01892
G1 X123 Y121.988 E.53481
G1 X122.684 Y121.78 E.01411
G1 X122.492 Y121.698 E.00777
G1 X122.492 Y136.347 E.54564
G1 X121.984 Y136.347 E.01892
G1 X121.984 Y121.481 E.55372
G1 X121.874 Y121.434 E.00445
G1 X121.476 Y121.343 E.01521
G1 X121.476 Y136.347 E.55886
G1 X120.969 Y136.347 E.01892
G1 X120.969 Y121.235 E.56285
G1 X120.461 Y121.213 E.01894
M73 P3 R42
G1 X120.461 Y136.347 E.5637
G1 X119.953 Y136.347 E.01892
G1 X119.953 Y121.223 E.56332
G1 X119.445 Y121.292 E.01909
G1 X119.445 Y136.347 E.56076
G1 X118.937 Y136.347 E.01892
G1 X118.937 Y121.422 E.55589
G1 X118.429 Y121.587 E.01989
G1 X118.429 Y136.347 E.54974
G1 X117.921 Y136.347 E.01892
G1 X117.921 Y121.86 E.53958
G1 X117.651 Y122.005 E.01141
G1 X117.413 Y122.195 E.01134
G1 X117.413 Y136.347 E.52711
G1 X116.906 Y136.347 E.01892
G1 X116.906 Y122.62 E.51128
G1 X116.509 Y123.074 E.02243
G1 X116.398 Y123.026 E.00453
G1 X116.398 Y136.347 E.49617
G1 X115.89 Y136.347 E.01892
G1 X115.89 Y122.808 E.50426
G1 X115.637 Y122.7 E.01024
G1 X115.382 Y122.642 E.00974
G1 X115.382 Y136.347 E.51047
G1 X114.874 Y136.347 E.01892
G1 X114.874 Y122.526 E.51479
G1 X114.779 Y122.504 E.00362
G1 X114.366 Y122.485 E.0154
G1 X114.366 Y136.347 E.5163
G1 X113.858 Y136.347 E.01892
G1 X113.858 Y122.47 E.51688
G1 X113.351 Y122.538 E.01909
G1 X113.351 Y136.347 E.51433
G1 X112.843 Y136.347 E.01892
G1 X112.843 Y122.642 E.51047
G1 X112.335 Y122.806 E.01988
G1 X112.335 Y136.347 E.50434
G1 X111.827 Y136.347 E.01892
G1 X111.827 Y123.048 E.49532
G1 X111.415 Y123.27 E.0174
G1 X111.319 Y123.346 E.00458
G1 X111.319 Y136.347 E.48423
G1 X110.811 Y136.347 E.01892
G1 X110.811 Y123.394 E.48245
G1 X110.466 Y123.167 E.01538
G1 X110.303 Y123.097 E.00661
G1 X110.303 Y136.347 E.49352
G1 X109.795 Y136.347 E.01892
G1 X109.795 Y122.88 E.5016
G1 X109.657 Y122.821 E.0056
G1 X109.288 Y122.737 E.01412
G1 X109.288 Y136.347 E.50694
G1 X108.78 Y136.347 E.01892
G1 X108.78 Y122.624 E.51112
G1 X108.272 Y122.601 E.01894
G1 X108.272 Y136.347 E.51197
G1 X107.764 Y136.347 E.01892
G1 X107.764 Y122.607 E.51178
G1 X107.256 Y122.675 E.01909
M73 P3 R41
G1 X107.256 Y136.347 E.50922
G1 X106.748 Y136.347 E.01892
G1 X106.748 Y122.801 E.50454
G1 X106.24 Y122.966 E.01989
G1 X106.24 Y136.347 E.4984
G1 X105.733 Y136.347 E.01892
G1 X105.733 Y123.233 E.48846
G1 X105.436 Y123.392 E.01253
G1 X105.225 Y123.561 E.01007
G1 X105.225 Y136.347 E.47625
G1 X104.717 Y136.347 E.01892
G1 X104.717 Y123.976 E.46078
G1 X104.209 Y124.557 E.02874
G1 X104.209 Y136.347 E.43915
G1 X103.701 Y136.347 E.01892
G1 X103.701 Y125.384 E.40832
G1 X103.651 Y125.468 E.00363
G1 X103.193 Y125.493 E.01708
G1 X103.193 Y136.347 E.40428
G1 X102.685 Y136.347 E.01892
G1 X102.685 Y125.52 E.40326
G1 X102.524 Y125.529 E.00601
G1 X102.177 Y125.625 E.0134
G1 X102.177 Y136.347 E.39936
G1 X101.67 Y136.347 E.01892
G1 X101.67 Y125.552 E.40206
G1 E-.35 F2400
;WIPE_START
G1 F1800
G1 X101.67 Y126.552 E-.15
;WIPE_END
G1 Z.4 F18000
G1 X150.886 Y126.423 Z.4
G1 Z.2
