; HEADER_BLOCK_START
; generated by OrcaSlicer 2.0.0 on 2024-06-03 at 12:32:35
; total layer number: 91
; filament_density: 1.27
; filament_diameter: 1.75
; max_z_height: 18.80
; HEADER_BLOCK_END

; THUMBNAIL_BLOCK_START

;
; THUMBNAIL_BLOCK_END

; THUMBNAIL_BLOCK_START

;
; THUMBNAIL_BLOCK_END

; external perimeters extrusion width = 0.40mm
; perimeters extrusion width = 0.42mm
; infill extrusion width = 0.45mm
; solid infill extrusion width = 0.42mm
; top infill extrusion width = 0.40mm
; first layer extrusion width = 0.50mm

; EXECUTABLE_BLOCK_START
EXCLUDE_OBJECT_DEFINE NAME=Stringing_Test.stl_id_0_copy_0 CENTER=115,115 POLYGON=[[100,100],[130,100],[130,130],[100,130],[100,100]]
M73 P0 R11
;TYPE:Custom
M220 S100
G90 ; use absolute coordinates
M83 ; extruder relative mode
M104 S150 ; set temporary nozzle temp to prevent oozing during homing
M140 S70 ; set final bed temp
G4 S30 ; allow partial nozzle warmup
G28 ; home all axis and restore leveling
BED_MESH_CALIBRATE PROFILE=adaptive ADAPTIVE=1 ADAPTIVE_MARGIN=0
G1 Z25 F240
G1 X10.0 Y30 F3000
M104 S245 ; set final nozzle temp
M190 S70 ; wait for bed temp to stabilize
M109 S245 ; wait for nozzle temp to stabilize
G1 Z0.28 F240
G92 E0 ; Move Z Axis up
M73 P1 R11
G1 Z2.0 F5000 ; Move to start position
M73 P1 R10
G1 X5 Y30 Z0.28 F300 ; Draw the first line
G1 X5 Y200 Z0.28 F1500 E15 ; Move to side a little
M73 P2 R10
G1 X5.4 Y200 Z0.28 F5000.0 ; Draw the second line
M73 P3 R10
G1 X5.4 Y50 Z0.28 F1500.0 E30 ; Reset Extruder
G92 E0 ; Move Z Axis up
G1 Z2.0 F3000
M117 Start Printing..
G90
G21
M83 ; use relative distances for extrusion
; filament start gcode
M106 S0
;LAYER_CHANGE
;Z:0.2
;HEIGHT:0.2
;BEFORE_LAYER_CHANGE
;0.2
G92 E0

M73 P4 R10
G1 E-.5 F3600
;_SET_FAN_SPEED_CHANGING_LAYER
SET_VELOCITY_LIMIT ACCEL=500 ACCEL_TO_DECEL=250
SET_VELOCITY_LIMIT SQUARE_CORNER_VELOCITY=7
; printing object Stringing_Test.stl id:0 copy 0
EXCLUDE_OBJECT_START NAME=Stringing_Test.stl_id_0_copy_0
G1 Z.2 F18000
G1 X137.293 Y149.293
G1 Z.2
G1 E.5 F2400
;TYPE:Inner wall
;WIDTH:0.499999
G1 F1800
G1 X108.707 Y149.293 E1.08644
G1 X108.707 Y120.707 E1.08644
G1 X137.293 Y120.707 E1.08644
G1 X137.293 Y149.253 E1.08492
G1 X137.75 Y149.75 F18000
;TYPE:Outer wall
G1 F1800
G1 X108.25 Y149.75 E1.12119
G1 X108.25 Y120.25 E1.12119
M73 P5 R10
G1 X137.75 Y120.25 E1.12119
G1 X137.75 Y149.71 E1.11966
G1 E-.35 F3600
;WIPE_START
G1 F1800
G1 X136.75 Y149.711 E-.15
;WIPE_END
G1 Z.4 F18000
G1 X137.156 Y121.776
G1 Z.4
G1 Z.2
G1 E.5 F2400
;TYPE:Bottom surface
;WIDTH:0.503877
G1 F3600
G1 X136.429 Y121.05 E.03938
G1 X135.777 Y121.05 E.02499
G1 X136.95 Y122.223 E.06357
G1 X136.95 Y122.874 E.02499
G1 X135.126 Y121.05 E.0989
G1 X134.474 Y121.05 E.02499
G1 X136.95 Y123.526 E.13424
G1 X136.95 Y124.178 E.02499
G1 X133.822 Y121.05 E.16957
G1 X133.17 Y121.05 E.02499
G1 X136.95 Y124.83 E.20491
G1 X136.95 Y125.482 E.02499
G1 X132.518 Y121.05 E.24025
G1 X131.866 Y121.05 E.02499
G1 X136.95 Y126.134 E.27558
G1 X136.95 Y126.786 E.02499
G1 X131.214 Y121.05 E.31092
G1 X130.562 Y121.05 E.02499
G1 X136.95 Y127.438 E.34625
G1 X136.95 Y128.09 E.02499
G1 X129.91 Y121.05 E.38159
G1 X129.258 Y121.05 E.02499
G1 X136.95 Y128.742 E.41693
G1 X136.95 Y129.393 E.02499
G1 X128.607 Y121.05 E.45226
G1 X127.955 Y121.05 E.02499
M73 P6 R10
G1 X136.95 Y130.045 E.4876
G1 X136.95 Y130.697 E.02499
G1 X127.303 Y121.05 E.52293
G1 X126.651 Y121.05 E.02499
G1 X136.95 Y131.349 E.55827
G1 X136.95 Y132.001 E.02499
G1 X125.999 Y121.05 E.5936
G1 X125.347 Y121.05 E.02499
G1 X136.95 Y132.653 E.62894
G1 X136.95 Y133.305 E.02499
G1 X124.695 Y121.05 E.66428
G1 X124.043 Y121.05 E.02499
G1 X136.95 Y133.957 E.69961
G1 X136.95 Y134.609 E.02499
G1 X123.391 Y121.05 E.73495
G1 X122.74 Y121.05 E.02499
G1 X136.95 Y135.26 E.77028
G1 X136.95 Y135.912 E.02499
G1 X122.088 Y121.05 E.80562
G1 X121.436 Y121.05 E.02499
G1 X136.95 Y136.564 E.84095
G1 X136.95 Y137.216 E.02499
G1 X120.784 Y121.05 E.87629
G1 X120.132 Y121.05 E.02499
G1 X136.95 Y137.868 E.91163
G1 X136.95 Y138.52 E.02499
G1 X119.48 Y121.05 E.94696
G1 X118.828 Y121.05 E.02499
G1 X136.95 Y139.172 E.9823
G1 X136.95 Y139.824 E.02499
M73 P7 R10
G1 X118.176 Y121.05 E1.01763
G1 X117.524 Y121.05 E.02499
G1 X136.95 Y140.476 E1.05297
G1 X136.95 Y141.127 E.02499
G1 X116.873 Y121.05 E1.08831
G1 X116.221 Y121.05 E.02499
G1 X136.95 Y141.779 E1.12364
G1 X136.95 Y142.431 E.02499
G1 X115.569 Y121.05 E1.15898
G1 X114.917 Y121.05 E.02499
G1 X136.95 Y143.083 E1.19431
G1 X136.95 Y143.735 E.02499
G1 X114.265 Y121.05 E1.22965
G1 X113.613 Y121.05 E.02499
G1 X136.95 Y144.387 E1.26498
G1 X136.95 Y145.039 E.02499
G1 X112.961 Y121.05 E1.30032
G1 X112.309 Y121.05 E.02499
G1 X136.95 Y145.691 E1.33566
G1 X136.95 Y146.343 E.02499
M73 P8 R10
G1 X111.657 Y121.05 E1.37099
G1 X111.006 Y121.05 E.02499
G1 X136.95 Y146.994 E1.40633
G1 X136.95 Y147.646 E.02499
G1 X110.354 Y121.05 E1.44166
G1 X109.702 Y121.05 E.02499
G1 X136.95 Y148.298 E1.477
G1 X136.95 Y148.95 E.02498
G1 X109.05 Y121.05 E1.51233
G1 X109.05 Y121.702 E.02499
G1 X136.298 Y148.95 E1.47699
G1 X135.646 Y148.95 E.02499
G1 X109.05 Y122.354 E1.44166
G1 X109.05 Y123.006 E.02499
G1 X134.994 Y148.95 E1.40632
G1 X134.342 Y148.95 E.02499
G1 X109.05 Y123.658 E1.37099
G1 X109.05 Y124.309 E.02499
M73 P9 R10
G1 X133.691 Y148.95 E1.33565
G1 X133.039 Y148.95 E.02499
G1 X109.05 Y124.961 E1.30031
G1 X109.05 Y125.613 E.02499
G1 X132.387 Y148.95 E1.26498
G1 X131.735 Y148.95 E.02499
G1 X109.05 Y126.265 E1.22964
G1 X109.05 Y126.917 E.02499
G1 X131.083 Y148.95 E1.19431
G1 X130.431 Y148.95 E.02499
G1 X109.05 Y127.569 E1.15897
G1 X109.05 Y128.221 E.02499
G1 X129.779 Y148.95 E1.12364
G1 X129.127 Y148.95 E.02499
G1 X109.05 Y128.873 E1.0883
G1 X109.05 Y129.525 E.02499
G1 X128.475 Y148.95 E1.05296
G1 X127.824 Y148.95 E.02499
G1 X109.05 Y130.176 E1.01763
G1 X109.05 Y130.828 E.02499
M73 P10 R10
G1 X127.172 Y148.95 E.98229
G1 X126.52 Y148.95 E.02499
G1 X109.05 Y131.48 E.94696
G1 X109.05 Y132.132 E.02499
M73 P10 R9
G1 X125.868 Y148.95 E.91162
G1 X125.216 Y148.95 E.02499
G1 X109.05 Y132.784 E.87628
G1 X109.05 Y133.436 E.02499
G1 X124.564 Y148.95 E.84095
G1 X123.912 Y148.95 E.02499
G1 X109.05 Y134.088 E.80561
G1 X109.05 Y134.74 E.02499
G1 X123.26 Y148.95 E.77028
G1 X122.608 Y148.95 E.02499
G1 X109.05 Y135.392 E.73494
G1 X109.05 Y136.043 E.02499
G1 X121.957 Y148.95 E.69961
G1 X121.305 Y148.95 E.02499
G1 X109.05 Y136.695 E.66427
G1 X109.05 Y137.347 E.02499
G1 X120.653 Y148.95 E.62893
G1 X120.001 Y148.95 E.02499
G1 X109.05 Y137.999 E.5936
G1 X109.05 Y138.651 E.02499
G1 X119.349 Y148.95 E.55826
G1 X118.697 Y148.95 E.02499
G1 X109.05 Y139.303 E.52293
G1 X109.05 Y139.955 E.02499
G1 X118.045 Y148.95 E.48759
G1 X117.393 Y148.95 E.02499
M73 P11 R9
G1 X109.05 Y140.607 E.45226
G1 X109.05 Y141.259 E.02499
G1 X116.741 Y148.95 E.41692
G1 X116.09 Y148.95 E.02499
G1 X109.05 Y141.91 E.38158
G1 X109.05 Y142.562 E.02499
G1 X115.438 Y148.95 E.34625
G1 X114.786 Y148.95 E.02499
G1 X109.05 Y143.214 E.31091
G1 X109.05 Y143.866 E.02499
G1 X114.134 Y148.95 E.27558
G1 X113.482 Y148.95 E.02499
G1 X109.05 Y144.518 E.24024
G1 X109.05 Y145.17 E.02499
G1 X112.83 Y148.95 E.2049
G1 X112.178 Y148.95 E.02499
G1 X109.05 Y145.822 E.16957
G1 X109.05 Y146.474 E.02499
G1 X111.526 Y148.95 E.13423
G1 X110.874 Y148.95 E.02499
G1 X109.05 Y147.126 E.0989
G1 X109.05 Y147.777 E.02499
G1 X110.223 Y148.95 E.06356
G1 X109.571 Y148.95 E.02499
G1 X108.844 Y148.224 E.03938
; stop printing object Stringing_Test.stl id:0 copy 0
;LAYER_CHANGE
;Z:0.4
;HEIGHT:0.2
;BEFORE_LAYER_CHANGE
;0.4
G92 E0

G1 E-.35 F3600
;WIPE_START
G1 X109.551 Y148.931 E-.15
;WIPE_END
EXCLUDE_OBJECT_END NAME=Stringing_Test.stl_id_0_copy_0
;_SET_FAN_SPEED_CHANGING_LAYER
SET_VELOCITY_LIMIT ACCEL=5000 ACCEL_TO_DECEL=2500
M104 S240 ; set nozzle temperature
M140 S70 ; set bed temperature
; printing object Stringing_Test.stl id:0 copy 0
SET_VELOCITY_LIMIT SQUARE_CORNER_VELOCITY=8
EXCLUDE_OBJECT_START NAME=Stringing_Test.stl_id_0_copy_0
G1 Z.4 F18000
G1 X108.567 Y120.567 Z.4
G1 E.5 F2400
SET_VELOCITY_LIMIT SQUARE_CORNER_VELOCITY=7
;TYPE:Inner wall
;WIDTH:0.419999
G1 F3600
G1 X137.433 Y120.567 E.90507
G1 X137.433 Y149.433 E.90507
G1 X108.567 Y149.433 E.90507
G1 X108.567 Y120.607 E.90381
SET_VELOCITY_LIMIT SQUARE_CORNER_VELOCITY=8
G1 X108.2 Y120.2 F18000
SET_VELOCITY_LIMIT ACCEL=2000 ACCEL_TO_DECEL=1000
;TYPE:Outer wall
;WIDTH:0.399999
G1 F3600
G1 X137.8 Y120.2 E.87886
G1 X137.8 Y149.8 E.87886
G1 X108.2 Y149.8 E.87886
G1 X108.2 Y120.24 E.87767
M73 P12 R9
G1 E-.35
;WIPE_START
G1 X109.2 Y120.239 E-.15
;WIPE_END
SET_VELOCITY_LIMIT ACCEL=5000 ACCEL_TO_DECEL=2500
G1 Z.6 F18000
G1 X108.957 Y120.896
G1 Z.6
G1 Z.4
G1 E.5 F2400
;TYPE:Internal solid infill
;WIDTH:0.40105
G1 F6000
G1 X108.89 Y120.935 E.00231
G1 X108.959 Y120.969 E.00231
G1 X136.556 Y149.32 F18000
;WIDTH:0.420542
G1 F6000
G1 X137.15 Y148.726 E.02637
G1 X137.15 Y148.192 E.01677
G1 X136.192 Y149.15 E.04254
G1 X135.658 Y149.15 E.01677
G1 X137.15 Y147.658 E.06626
G1 X137.15 Y147.124 E.01677
G1 X135.124 Y149.15 E.08997
G1 X134.59 Y149.15 E.01677
G1 X137.15 Y146.59 E.11369
G1 X137.15 Y146.056 E.01677
G1 X134.056 Y149.15 E.1374
G1 X133.522 Y149.15 E.01677
G1 X137.15 Y145.522 E.16112
G1 X137.15 Y144.988 E.01677
G1 X132.988 Y149.15 E.18483
G1 X132.454 Y149.15 E.01677
G1 X137.15 Y144.454 E.20854
G1 X137.15 Y143.92 E.01677
G1 X131.92 Y149.15 E.23226
G1 X131.386 Y149.15 E.01677
G1 X137.15 Y143.386 E.25597
G1 X137.15 Y142.852 E.01677
G1 X130.852 Y149.15 E.27969
G1 X130.318 Y149.15 E.01677
G1 X137.15 Y142.318 E.3034
G1 X137.15 Y141.784 E.01677
G1 X129.784 Y149.15 E.32711
G1 X129.25 Y149.15 E.01677
G1 X137.15 Y141.25 E.35083
G1 X137.15 Y140.715 E.01677
G1 X128.715 Y149.15 E.37454
G1 X128.181 Y149.15 E.01677
G1 X137.15 Y140.181 E.39826
G1 X137.15 Y139.647 E.01677
G1 X127.647 Y149.15 E.42197
G1 X127.113 Y149.15 E.01677
G1 X137.15 Y139.113 E.44569
G1 X137.15 Y138.579 E.01677
G1 X126.579 Y149.15 E.4694
G1 X126.045 Y149.15 E.01677
G1 X137.15 Y138.045 E.49311
G1 X137.15 Y137.511 E.01677
G1 X125.511 Y149.15 E.51683
G1 X124.977 Y149.15 E.01677
G1 X137.15 Y136.977 E.54054
G1 X137.15 Y136.443 E.01677
G1 X124.443 Y149.15 E.56426
G1 X123.909 Y149.15 E.01677
G1 X137.15 Y135.909 E.58797
G1 X137.15 Y135.375 E.01677
G1 X123.375 Y149.15 E.61169
G1 X122.841 Y149.15 E.01677
G1 X137.15 Y134.841 E.6354
G1 X137.15 Y134.307 E.01677
G1 X122.307 Y149.15 E.65911
G1 X121.773 Y149.15 E.01677
G1 X137.15 Y133.773 E.68283
G1 X137.15 Y133.239 E.01677
G1 X121.239 Y149.15 E.70654
G1 X120.705 Y149.15 E.01677
G1 X137.15 Y132.705 E.73026
G1 X137.15 Y132.171 E.01677
G1 X120.171 Y149.15 E.75397
G1 X119.637 Y149.15 E.01677
G1 X137.15 Y131.637 E.77768
G1 X137.15 Y131.103 E.01677
G1 X119.103 Y149.15 E.8014
G1 X118.569 Y149.15 E.01677
M73 P13 R9
G1 X137.15 Y130.569 E.82511
G1 X137.15 Y130.035 E.01677
G1 X118.035 Y149.15 E.84883
G1 X117.501 Y149.15 E.01677
G1 X137.15 Y129.501 E.87254
G1 X137.15 Y128.967 E.01677
G1 X116.967 Y149.15 E.89626
G1 X116.433 Y149.15 E.01677
G1 X137.15 Y128.433 E.91997
G1 X137.15 Y127.899 E.01677
G1 X115.899 Y149.15 E.94368
G1 X115.365 Y149.15 E.01677
G1 X137.15 Y127.365 E.9674
G1 X137.15 Y126.831 E.01677
G1 X114.83 Y149.15 E.99111
G1 X114.296 Y149.15 E.01677
G1 X137.15 Y126.296 E1.01483
G1 X137.15 Y125.762 E.01677
G1 X113.762 Y149.15 E1.03854
G1 X113.228 Y149.15 E.01677
G1 X137.15 Y125.228 E1.06226
G1 X137.15 Y124.694 E.01677
G1 X112.694 Y149.15 E1.08597
G1 X112.16 Y149.15 E.01677
G1 X137.15 Y124.16 E1.10968
G1 X137.15 Y123.626 E.01677
G1 X111.626 Y149.15 E1.1334
G1 X111.092 Y149.15 E.01677
G1 X137.15 Y123.092 E1.15711
G1 X137.15 Y122.558 E.01677
G1 X110.558 Y149.15 E1.18083
G1 X110.024 Y149.15 E.01677
G1 X137.15 Y122.024 E1.20454
G1 X137.15 Y121.49 E.01677
G1 X109.49 Y149.15 E1.22825
G1 X108.956 Y149.15 E.01677
G1 X137.15 Y120.956 E1.25197
G1 X137.15 Y120.85 E.00333
M73 P14 R9
G1 X136.722 Y120.85 E.01343
G1 X108.85 Y148.722 E1.23769
G1 X108.85 Y148.188 E.01677
G1 X136.188 Y120.85 E1.21397
G1 X135.654 Y120.85 E.01677
G1 X108.85 Y147.654 E1.19026
G1 X108.85 Y147.12 E.01677
G1 X135.12 Y120.85 E1.16654
G1 X134.586 Y120.85 E.01677
G1 X108.85 Y146.586 E1.14283
G1 X108.85 Y146.052 E.01677
G1 X134.052 Y120.85 E1.11911
G1 X133.518 Y120.85 E.01677
G1 X108.85 Y145.518 E1.0954
G1 X108.85 Y144.984 E.01677
G1 X132.984 Y120.85 E1.07169
G1 X132.45 Y120.85 E.01677
G1 X108.85 Y144.45 E1.04797
G1 X108.85 Y143.916 E.01677
G1 X131.916 Y120.85 E1.02426
G1 X131.382 Y120.85 E.01677
G1 X108.85 Y143.382 E1.00054
G1 X108.85 Y142.848 E.01677
G1 X130.848 Y120.85 E.97683
G1 X130.314 Y120.85 E.01677
G1 X108.85 Y142.314 E.95312
G1 X108.85 Y141.78 E.01677
G1 X129.78 Y120.85 E.9294
G1 X129.246 Y120.85 E.01677
G1 X108.85 Y141.246 E.90569
G1 X108.85 Y140.712 E.01677
G1 X128.712 Y120.85 E.88197
G1 X128.178 Y120.85 E.01677
G1 X108.85 Y140.178 E.85826
G1 X108.85 Y139.644 E.01677
G1 X127.644 Y120.85 E.83454
G1 X127.11 Y120.85 E.01677
M73 P15 R9
G1 X108.85 Y139.11 E.81083
G1 X108.85 Y138.576 E.01677
G1 X126.576 Y120.85 E.78712
G1 X126.042 Y120.85 E.01677
G1 X108.85 Y138.042 E.7634
G1 X108.85 Y137.507 E.01677
G1 X125.507 Y120.85 E.73969
G1 X124.973 Y120.85 E.01677
G1 X108.85 Y136.973 E.71597
G1 X108.85 Y136.439 E.01677
G1 X124.439 Y120.85 E.69226
G1 X123.905 Y120.85 E.01677
G1 X108.85 Y135.905 E.66855
G1 X108.85 Y135.371 E.01677
G1 X123.371 Y120.85 E.64483
G1 X122.837 Y120.85 E.01677
G1 X108.85 Y134.837 E.62112
G1 X108.85 Y134.303 E.01677
G1 X122.303 Y120.85 E.5974
G1 X121.769 Y120.85 E.01677
G1 X108.85 Y133.769 E.57369
G1 X108.85 Y133.235 E.01677
G1 X121.235 Y120.85 E.54997
G1 X120.701 Y120.85 E.01677
G1 X108.85 Y132.701 E.52626
G1 X108.85 Y132.167 E.01677
G1 X120.167 Y120.85 E.50255
G1 X119.633 Y120.85 E.01677
G1 X108.85 Y131.633 E.47883
G1 X108.85 Y131.099 E.01677
G1 X119.099 Y120.85 E.45512
G1 X118.565 Y120.85 E.01677
G1 X108.85 Y130.565 E.4314
G1 X108.85 Y130.031 E.01677
G1 X118.031 Y120.85 E.40769
G1 X117.497 Y120.85 E.01677
G1 X108.85 Y129.497 E.38397
G1 X108.85 Y128.963 E.01677
G1 X116.963 Y120.85 E.36026
G1 X116.429 Y120.85 E.01677
G1 X108.85 Y128.429 E.33655
G1 X108.85 Y127.895 E.01677
G1 X115.895 Y120.85 E.31283
G1 X115.361 Y120.85 E.01677
G1 X108.85 Y127.361 E.28912
G1 X108.85 Y126.827 E.01677
G1 X114.827 Y120.85 E.2654
G1 X114.293 Y120.85 E.01677
G1 X108.85 Y126.293 E.24169
G1 X108.85 Y125.759 E.01677
G1 X113.759 Y120.85 E.21798
G1 X113.225 Y120.85 E.01677
G1 X108.85 Y125.225 E.19426
G1 X108.85 Y124.691 E.01677
G1 X112.691 Y120.85 E.17055
G1 X112.157 Y120.85 E.01677
G1 X108.85 Y124.157 E.14683
G1 X108.85 Y123.622 E.01677
G1 X111.622 Y120.85 E.12312
G1 X111.088 Y120.85 E.01677
G1 X108.85 Y123.088 E.0994
G1 X108.85 Y122.554 E.01677
G1 X110.554 Y120.85 E.07569
G1 X110.02 Y120.85 E.01677
G1 X108.85 Y122.02 E.05198
G1 X108.85 Y121.486 E.01677
G1 X109.656 Y120.68 E.0358
; stop printing object Stringing_Test.stl id:0 copy 0
;LAYER_CHANGE
;Z:0.6
;HEIGHT:0.2
;BEFORE_LAYER_CHANGE
;0.6
G92 E0

G1 E-.35 F3600
;WIPE_START
G1 F6000
G1 X108.949 Y121.387 E-.15
;WIPE_END
EXCLUDE_OBJECT_END NAME=Stringing_Test.stl_id_0_copy_0
;_SET_FAN_SPEED_CHANGING_LAYER
; printing object Stringing_Test.stl id:0 copy 0
EXCLUDE_OBJECT_START NAME=Stringing_Test.stl_id_0_copy_0
G1 Z.6 F18000
G1 X108.567 Y120.567 Z.6
G1 E.5 F2400
SET_VELOCITY_LIMIT SQUARE_CORNER_VELOCITY=7
;TYPE:Inner wall
;WIDTH:0.419999
G1 F3600
G1 X137.433 Y120.567 E.90507
G1 X137.433 Y149.433 E.90507
G1 X108.567 Y149.433 E.90507
M73 P16 R9
G1 X108.567 Y120.607 E.90381
SET_VELOCITY_LIMIT SQUARE_CORNER_VELOCITY=8
G1 X108.2 Y120.2 F18000
SET_VELOCITY_LIMIT ACCEL=2000 ACCEL_TO_DECEL=1000
;TYPE:Outer wall
;WIDTH:0.399999
G1 F3600
G1 X137.8 Y120.2 E.87886
G1 X137.8 Y149.8 E.87886
G1 X108.2 Y149.8 E.87886
G1 X108.2 Y120.24 E.87767
G1 E-.35
;WIPE_START
G1 X109.2 Y120.239 E-.15
;WIPE_END
SET_VELOCITY_LIMIT ACCEL=5000 ACCEL_TO_DECEL=2500
G1 Z.8 F18000
G1 X137.32 Y121.444
G1 Z.8
G1 Z.6
G1 E.5 F2400
;TYPE:Internal solid infill
;WIDTH:0.420542
G1 F6000
G1 X136.726 Y120.85 E.02637
G1 X136.192 Y120.85 E.01677
G1 X137.15 Y121.808 E.04254
G1 X137.15 Y122.342 E.01677
G1 X135.658 Y120.85 E.06626
G1 X135.124 Y120.85 E.01677
G1 X137.15 Y122.876 E.08997
G1 X137.15 Y123.41 E.01677
