; HEADER_BLOCK_START
; generated by OrcaSlicer 2.1.1 on 2024-07-21 at 19:56:05
; total layer number: 100
; filament_density: 1.27
; filament_diameter: 1.75
; max_z_height: 20.00
; HEADER_BLOCK_END

; THUMBNAIL_BLOCK_START

;
; THUMBNAIL_BLOCK_END

; THUMBNAIL_BLOCK_START

;
; THUMBNAIL_BLOCK_END

; external perimeters extrusion width = 0.42mm
; perimeters extrusion width = 0.45mm
; infill extrusion width = 0.45mm
; solid infill extrusion width = 0.45mm
; top infill extrusion width = 0.42mm
; first layer extrusion width = 0.50mm

; EXECUTABLE_BLOCK_START
EXCLUDE_OBJECT_DEFINE NAME=Support_brosse_à_dents_v7.stl_id_0_copy_0 CENTER=115,115 POLYGON=[[27.5,89.69],[202.5,89.69],[202.5,119.69],[202.464,120.898],[202.354,122.101],[202.172,123.295],[201.919,124.476],[201.594,125.64],[201.2,126.782],[200.738,127.898],[200.209,128.984],[199.616,130.037],[198.96,131.051],[198.244,132.024],[197.47,132.952],[196.642,133.832],[195.762,134.66],[194.834,135.434],[193.861,136.15],[192.847,136.806],[191.794,137.399],[190.708,137.928],[189.592,138.39],[188.45,138.784],[187.286,139.109],[186.105,139.362],[184.911,139.544],[183.708,139.654],[182.5,139.69],[67.7486,140.31],[67.4822,140.309],[66.8782,140.301],[66.417,140.288],[46.2924,139.654],[45.0893,139.544],[43.8949,139.362],[42.7137,139.109],[41.5499,138.784],[40.4079,138.39],[39.2917,137.928],[38.2055,137.399],[37.1532,136.806],[36.1387,136.15],[35.1656,135.434],[34.2375,134.66],[33.3579,133.832],[32.5298,132.952],[31.7563,132.024],[31.0403,131.051],[30.3844,130.037],[29.7909,128.984],[29.262,127.898],[28.7997,126.782],[28.4056,125.64],[28.0812,124.476],[27.8276,123.295],[27.6458,122.101],[27.5365,120.898],[27.5,119.69],[27.5,89.69]]
M73 P0 R47
;TYPE:Custom
M220 S100
G90 ; use absolute coordinates
M83 ; extruder relative mode
M104 S150 ; set temporary nozzle temp to prevent oozing during homing
M140 S70 ; set final bed temp
G4 S30 ; allow partial nozzle warmup
G28 ; home all axis and restore leveling
BED_MESH_CALIBRATE PROFILE=adaptive ADAPTIVE=1 ADAPTIVE_MARGIN=0
G1 Z25 F240
G1 X10.0 Y30 F3000
M104 S245 ; set final nozzle temp
M190 S70 ; wait for bed temp to stabilize
M109 S245 ; wait for nozzle temp to stabilize
G1 Z0.28 F240
G92 E0 ; Move Z Axis up
G1 Z2.0 F5000 ; Move to start position
G1 X5 Y30 Z0.28 F300 ; Draw the first line
G1 X5 Y200 Z0.28 F1500 E15 ; Move to side a little
G1 X5.4 Y200 Z0.28 F5000.0 ; Draw the second line
G1 X5.4 Y50 Z0.28 F1500.0 E30 ; Reset Extruder
G92 E0 ; Move Z Axis up
G1 Z2.0 F3000
M117 Start Printing..
G90
G21
M83 ; use relative distances for extrusion
; filament start gcode
M106 S0
;LAYER_CHANGE
;Z:0.2
;HEIGHT:0.2
;BEFORE_LAYER_CHANGE
;0.2
G92 E0

G1 E-.5 F1800
;_SET_FAN_SPEED_CHANGING_LAYER
SET_VELOCITY_LIMIT ACCEL=1000
SET_VELOCITY_LIMIT SQUARE_CORNER_VELOCITY=7
; printing object Support brosse à dents v7.stl id:0 copy 0
EXCLUDE_OBJECT_START NAME=Support_brosse_à_dents_v7.stl_id_0_copy_0
G1 Z.2 F24000
G1 X209.743 Y110.447
G1 Z.2
G1 E.5 F1800
;TYPE:Inner wall
;WIDTH:0.499999
G1 X209.743 Y139.679 E1.05543
G1 X209.707 Y140.852 E.04238
M73 P1 R47
G1 X209.602 Y142.009 E.04197
G1 X209.427 Y143.159 E.04197
G1 X209.183 Y144.295 E.04197
G1 X208.871 Y145.415 E.04197
G1 X208.492 Y146.514 E.04197
G1 X208.047 Y147.587 E.04197
G1 X207.538 Y148.632 E.04197
G1 X206.967 Y149.645 E.04197
G1 X206.336 Y150.621 E.04197
G1 X205.647 Y151.557 E.04197
G1 X204.903 Y152.45 E.04197
G1 X204.107 Y153.297 E.04197
G1 X203.26 Y154.093 E.04197
G1 X202.367 Y154.837 E.04197
G1 X201.431 Y155.526 E.04197
G1 X200.455 Y156.157 E.04197
G1 X199.442 Y156.728 E.04197
G1 X198.397 Y157.237 E.04197
G1 X197.323 Y157.682 E.04197
G1 X196.225 Y158.061 E.04197
G1 X195.105 Y158.373 E.04197
G1 X193.969 Y158.617 E.04197
G1 X192.819 Y158.792 E.04197
G1 X191.662 Y158.897 E.04197
G1 X190.489 Y158.933 E.04238
G1 X55.511 Y158.933 E4.87348
G1 X54.338 Y158.897 E.04238
G1 X53.181 Y158.792 E.04197
G1 X52.031 Y158.617 E.04197
G1 X50.895 Y158.373 E.04197
G1 X49.775 Y158.061 E.04197
G1 X48.677 Y157.682 E.04197
G1 X47.603 Y157.237 E.04197
G1 X46.558 Y156.728 E.04197
G1 X45.545 Y156.157 E.04197
G1 X44.569 Y155.526 E.04197
G1 X43.633 Y154.837 E.04197
G1 X42.74 Y154.093 E.04197
G1 X41.893 Y153.297 E.04197
G1 X41.097 Y152.45 E.04197
G1 X40.353 Y151.557 E.04197
G1 X39.664 Y150.621 E.04197
G1 X39.033 Y149.645 E.04197
G1 X38.462 Y148.632 E.04197
G1 X37.953 Y147.587 E.04197
G1 X37.508 Y146.514 E.04197
G1 X37.129 Y145.415 E.04197
G1 X36.817 Y144.295 E.04197
G1 X36.573 Y143.159 E.04197
G1 X36.398 Y142.009 E.04197
G1 X36.293 Y140.852 E.04197
G1 X36.257 Y139.679 E.04238
G1 X36.257 Y110.447 E1.05543
G1 X209.703 Y110.447 E6.26243
G1 X210.2 Y109.99 F24000
;TYPE:Outer wall
M73 P1 R46
G1 F1800
G1 X210.2 Y139.685 E1.07218
G1 X210.164 Y140.879 E.04313
G1 X210.056 Y142.065 E.04297
G1 X209.877 Y143.241 E.04297
G1 X209.627 Y144.405 E.04297
G1 X209.308 Y145.551 E.04296
G1 X208.92 Y146.676 E.04297
G1 X208.464 Y147.775 E.04297
G1 X207.943 Y148.845 E.04297
G1 X207.359 Y149.882 E.04297
G1 X206.713 Y150.881 E.04296
G1 X206.007 Y151.839 E.04297
G1 X205.246 Y152.753 E.04297
G1 X204.43 Y153.62 E.04297
G1 X203.563 Y154.436 E.04297
G1 X202.649 Y155.197 E.04297
G1 X201.691 Y155.903 E.04297
G1 X200.692 Y156.549 E.04296
G1 X199.655 Y157.133 E.04297
G1 X198.585 Y157.654 E.04297
G1 X197.486 Y158.11 E.04297
G1 X196.361 Y158.498 E.04297
G1 X195.214 Y158.817 E.04297
G1 X194.051 Y159.067 E.04297
G1 X192.875 Y159.246 E.04297
G1 X191.689 Y159.354 E.04297
G1 X190.495 Y159.39 E.04313
G1 X55.505 Y159.39 E4.87398
G1 X54.311 Y159.354 E.04313
G1 X53.125 Y159.246 E.04297
G1 X51.949 Y159.067 E.04297
G1 X50.786 Y158.817 E.04297
G1 X49.639 Y158.498 E.04297
G1 X48.514 Y158.11 E.04297
G1 X47.415 Y157.654 E.04297
G1 X46.345 Y157.133 E.04297
G1 X45.309 Y156.549 E.04297
G1 X44.309 Y155.903 E.04296
G1 X43.351 Y155.197 E.04297
G1 X42.437 Y154.436 E.04297
G1 X41.57 Y153.62 E.04297
G1 X40.754 Y152.753 E.04297
G1 X39.993 Y151.839 E.04297
G1 X39.287 Y150.881 E.04297
G1 X38.641 Y149.881 E.04297
G1 X38.057 Y148.845 E.04297
G1 X37.536 Y147.775 E.04297
G1 X37.08 Y146.676 E.04297
G1 X36.692 Y145.551 E.04297
G1 X36.373 Y144.405 E.04296
G1 X36.123 Y143.241 E.04297
G1 X35.944 Y142.065 E.04297
G1 X35.836 Y140.879 E.04297
G1 X35.8 Y139.685 E.04313
G1 X35.8 Y109.99 E1.07218
G1 X210.16 Y109.99 E6.29544
G1 E-.5
;WIPE_START
G1 F12000
G1 X210.163 Y111.99
;WIPE_END
G1 Z.4 F24000
M73 P2 R46
G1 X208.681 Y110.584
G1 Z.4
G1 Z.2
G1 E.5 F1800
;TYPE:Bottom surface
;WIDTH:0.500491
G1 F3600
G1 X209.4 Y111.304 E.03677
G1 X209.4 Y111.951 E.02339
G1 X208.239 Y110.79 E.05933
G1 X207.592 Y110.79 E.02339
G1 X209.4 Y112.598 E.09241
G1 X209.4 Y113.245 E.02339
G1 X206.945 Y110.79 E.12549
G1 X206.298 Y110.79 E.02339
G1 X209.4 Y113.892 E.15857
G1 X209.4 Y114.539 E.02339
G1 X205.651 Y110.79 E.19164
G1 X205.004 Y110.79 E.02339
G1 X209.4 Y115.186 E.22472
G1 X209.4 Y115.833 E.02339
G1 X204.357 Y110.79 E.2578
G1 X203.71 Y110.79 E.02339
G1 X209.4 Y116.48 E.29088
G1 X209.4 Y117.127 E.02339
G1 X203.063 Y110.79 E.32395
G1 X202.415 Y110.79 E.02339
G1 X209.4 Y117.775 E.35703
G1 X209.4 Y118.422 E.02339
G1 X201.768 Y110.79 E.39011
G1 X201.121 Y110.79 E.02339
G1 X209.4 Y119.069 E.42319
G1 X209.4 Y119.716 E.02339
G1 X200.474 Y110.79 E.45627
G1 X199.827 Y110.79 E.02339
G1 X209.4 Y120.363 E.48934
G1 X209.4 Y121.01 E.02339
G1 X199.18 Y110.79 E.52242
G1 X198.533 Y110.79 E.02339
G1 X209.4 Y121.657 E.5555
G1 X209.4 Y122.304 E.02339
G1 X197.886 Y110.79 E.58858
G1 X197.239 Y110.79 E.02339
G1 X209.4 Y122.951 E.62165
G1 X209.4 Y123.598 E.02339
G1 X196.592 Y110.79 E.65473
G1 X195.944 Y110.79 E.02339
G1 X209.4 Y124.246 E.68781
G1 X209.4 Y124.893 E.02339
G1 X195.297 Y110.79 E.72089
G1 X194.65 Y110.79 E.02339
G1 X209.4 Y125.54 E.75396
G1 X209.4 Y126.187 E.02339
G1 X194.003 Y110.79 E.78704
G1 X193.356 Y110.79 E.02339
G1 X209.4 Y126.834 E.82012
G1 X209.4 Y127.481 E.02339
G1 X192.709 Y110.79 E.8532
G1 X192.062 Y110.79 E.02339
G1 X209.4 Y128.128 E.88627
G1 X209.4 Y128.775 E.02339
G1 X191.415 Y110.79 E.91935
G1 X190.768 Y110.79 E.02339
G1 X209.4 Y129.422 E.95243
G1 X209.4 Y130.07 E.02339
G1 X190.12 Y110.79 E.98551
G1 X189.473 Y110.79 E.02339
G1 X209.4 Y130.717 E1.01859
G1 X209.4 Y131.364 E.02339
G1 X188.826 Y110.79 E1.05166
G1 X188.179 Y110.79 E.02339
G1 X209.4 Y132.011 E1.08474
G1 X209.4 Y132.658 E.02339
G1 X187.532 Y110.79 E1.11782
G1 X186.885 Y110.79 E.02339
G1 X209.4 Y133.305 E1.1509
G1 X209.4 Y133.952 E.02339
G1 X186.238 Y110.79 E1.18397
G1 X185.591 Y110.79 E.02339
G1 X209.4 Y134.599 E1.21705
G1 X209.4 Y135.246 E.02339
G1 X184.944 Y110.79 E1.25013
G1 X184.297 Y110.79 E.02339
G1 X209.4 Y135.893 E1.28321
G1 X209.4 Y136.541 E.02339
G1 X183.649 Y110.79 E1.31628
G1 X183.002 Y110.79 E.02339
G1 X209.4 Y137.188 E1.34936
G1 X209.4 Y137.835 E.02339
G1 X182.355 Y110.79 E1.38244
G1 X181.708 Y110.79 E.02339
G1 X209.4 Y138.482 E1.41552
G1 X209.4 Y139.129 E.02339
G1 X181.061 Y110.79 E1.44859
G1 X180.414 Y110.79 E.02339
G1 X209.397 Y139.773 E1.48152
G1 X209.378 Y140.401 E.02271
G1 X179.767 Y110.79 E1.51363
G1 X179.12 Y110.79 E.02339
G1 X209.348 Y141.018 E1.54517
G1 X209.294 Y141.611 E.02153
G1 X178.473 Y110.79 E1.57549
G1 X177.826 Y110.79 E.02339
G1 X209.228 Y142.192 E1.60517
G1 X209.142 Y142.754 E.02053
G1 X177.178 Y110.79 E1.63388
G1 X176.531 Y110.79 E.02339
G1 X209.046 Y143.304 E1.66201
G1 X208.931 Y143.837 E.01969
G1 X175.884 Y110.79 E1.68924
G1 X175.237 Y110.79 E.02339
G1 X208.809 Y144.362 E1.71608
G1 X208.668 Y144.868 E.01899
G1 X174.59 Y110.79 E1.74194
G1 X173.943 Y110.79 E.02339
G1 X208.524 Y145.371 E1.76765
G1 X208.358 Y145.852 E.0184
G1 X173.296 Y110.79 E1.79225
G1 X172.649 Y110.79 E.02339
M73 P3 R46
G1 X208.192 Y146.333 E1.81684
G1 X208.005 Y146.793 E.01796
G1 X172.002 Y110.79 E1.84037
G1 X171.354 Y110.79 E.02339
G1 X207.816 Y147.251 E1.86376
G1 X207.613 Y147.696 E.01766
G1 X170.707 Y110.79 E1.8865
G1 X170.06 Y110.79 E.02339
G1 X207.401 Y148.131 E1.90875
G1 X207.185 Y148.562 E.01742
G1 X169.413 Y110.79 E1.93076
G1 X168.766 Y110.79 E.02339
G1 X206.952 Y148.975 E1.95191
G1 X206.718 Y149.389 E.01717
G1 X168.119 Y110.79 E1.97306
G1 X167.472 Y110.79 E.02339
G1 X206.468 Y149.786 E1.99335
G1 X206.214 Y150.179 E.01692
G1 X166.825 Y110.79 E2.01343
G1 X166.178 Y110.79 E.02339
G1 X205.952 Y150.565 E2.03314
G1 X205.678 Y150.937 E.01673
G1 X165.531 Y110.79 E2.0522
G1 X164.883 Y110.79 E.02339
G1 X205.404 Y151.31 E2.07125
G1 X205.111 Y151.665 E.01662
G1 X164.236 Y110.79 E2.08939
G1 X163.589 Y110.79 E.02339
M73 P3 R45
G1 X204.817 Y152.018 E2.10743
G1 X204.515 Y152.363 E.01657
G1 X162.942 Y110.79 E2.12505
G1 X162.295 Y110.79 E.02339
G1 X204.201 Y152.696 E2.14209
G1 X203.887 Y153.029 E.01655
G1 X161.648 Y110.79 E2.15913
G1 X161.001 Y110.79 E.02339
G1 X203.555 Y153.345 E2.17524
G1 X203.222 Y153.658 E.01655
G1 X160.354 Y110.79 E2.19128
G1 X159.707 Y110.79 E.02339
G1 X202.88 Y153.964 E2.20689
G1 X202.527 Y154.258 E.01661
G1 X159.06 Y110.79 E2.22192
G1 X158.412 Y110.79 E.02339
G1 X202.174 Y154.552 E2.23696
G1 X201.803 Y154.827 E.01672
G1 X157.765 Y110.79 E2.25104
G1 X157.118 Y110.79 E.02339
G1 X201.43 Y155.102 E2.26506
G1 X201.047 Y155.366 E.01681
G1 X156.471 Y110.79 E2.27858
G1 X155.824 Y110.79 E.02339
G1 X200.654 Y155.62 E2.29157
G1 X200.261 Y155.874 E.01692
G1 X155.177 Y110.79 E2.30452
G1 X154.53 Y110.79 E.02339
M73 P4 R45
G1 X199.847 Y156.107 E2.31644
G1 X199.433 Y156.34 E.01717
G1 X153.883 Y110.79 E2.32837
G1 X153.236 Y110.79 E.02339
G1 X199.006 Y156.56 E2.3396
G1 X198.57 Y156.772 E.0175
G1 X152.588 Y110.79 E2.35043
G1 X151.941 Y110.79 E.02339
G1 X198.129 Y156.977 E2.36095
G1 X197.671 Y157.167 E.0179
G1 X151.294 Y110.79 E2.37063
G1 X150.647 Y110.79 E.02339
G1 X197.214 Y157.357 E2.38032
G1 X196.733 Y157.523 E.01838
G1 X150 Y110.79 E2.38884
G1 X149.353 Y110.79 E.02339
G1 X196.252 Y157.689 E2.39733
G1 X195.753 Y157.837 E.01882
G1 X148.706 Y110.79 E2.40488
G1 X148.059 Y110.79 E.02339
G1 X195.247 Y157.978 E2.41209
G1 X195.023 Y158.04 E.0084
G1 X194.726 Y158.104 E.01098
G1 X147.412 Y110.79 E2.41854
G1 X146.765 Y110.79 E.02339
G1 X194.193 Y158.219 E2.42439
G1 X193.647 Y158.32 E.02007
G1 X146.117 Y110.79 E2.42955
G1 X145.47 Y110.79 E.02339
G1 X193.086 Y158.405 E2.43392
G1 X192.51 Y158.476 E.02097
G1 X144.823 Y110.79 E2.43756
G1 X144.176 Y110.79 E.02339
G1 X191.916 Y158.53 E2.44031
G1 X191.304 Y158.565 E.02215
G1 X143.529 Y110.79 E2.44211
G1 X142.882 Y110.79 E.02339
G1 X190.676 Y158.584 E2.44308
G1 X190.035 Y158.59 E.02318
G1 X142.235 Y110.79 E2.44338
G1 X141.588 Y110.79 E.02339
G1 X189.388 Y158.59 E2.44338
G1 X188.741 Y158.59 E.02339
G1 X140.941 Y110.79 E2.44338
G1 X140.294 Y110.79 E.02339
G1 X188.094 Y158.59 E2.44338
G1 X187.447 Y158.59 E.02339
G1 X139.646 Y110.79 E2.44338
G1 X138.999 Y110.79 E.02339
M73 P5 R45
G1 X186.8 Y158.59 E2.44338
G1 X186.152 Y158.59 E.02339
G1 X138.352 Y110.79 E2.44338
G1 X137.705 Y110.79 E.02339
G1 X185.505 Y158.59 E2.44338
G1 X184.858 Y158.59 E.02339
G1 X137.058 Y110.79 E2.44338
G1 X136.411 Y110.79 E.02339
G1 X184.211 Y158.59 E2.44338
G1 X183.564 Y158.59 E.02339
G1 X135.764 Y110.79 E2.44338
G1 X135.117 Y110.79 E.02339
G1 X182.917 Y158.59 E2.44338
G1 X182.27 Y158.59 E.02339
G1 X134.47 Y110.79 E2.44338
G1 X133.823 Y110.79 E.02339
G1 X181.623 Y158.59 E2.44338
G1 X180.976 Y158.59 E.02339
G1 X133.175 Y110.79 E2.44338
G1 X132.528 Y110.79 E.02339
G1 X180.329 Y158.59 E2.44338
G1 X179.681 Y158.59 E.02339
G1 X131.881 Y110.79 E2.44338
G1 X131.234 Y110.79 E.02339
G1 X179.034 Y158.59 E2.44338
G1 X178.387 Y158.59 E.02339
M73 P5 R44
G1 X130.587 Y110.79 E2.44338
G1 X129.94 Y110.79 E.02339
G1 X177.74 Y158.59 E2.44338
G1 X177.093 Y158.59 E.02339
G1 X129.293 Y110.79 E2.44338
G1 X128.646 Y110.79 E.02339
G1 X176.446 Y158.59 E2.44338
G1 X175.799 Y158.59 E.02339
G1 X127.999 Y110.79 E2.44338
G1 X127.351 Y110.79 E.02339
G1 X175.152 Y158.59 E2.44338
G1 X174.505 Y158.59 E.02339
G1 X126.704 Y110.79 E2.44338
G1 X126.057 Y110.79 E.02339
G1 X173.857 Y158.59 E2.44338
G1 X173.21 Y158.59 E.02339
G1 X125.41 Y110.79 E2.44338
G1 X124.763 Y110.79 E.02339
G1 X172.563 Y158.59 E2.44338
G1 X171.916 Y158.59 E.02339
G1 X124.116 Y110.79 E2.44338
G1 X123.469 Y110.79 E.02339
M73 P6 R44
G1 X171.269 Y158.59 E2.44338
G1 X170.622 Y158.59 E.02339
G1 X122.822 Y110.79 E2.44338
G1 X122.175 Y110.79 E.02339
G1 X169.975 Y158.59 E2.44338
G1 X169.328 Y158.59 E.02339
G1 X121.528 Y110.79 E2.44338
G1 X120.88 Y110.79 E.02339
G1 X168.681 Y158.59 E2.44338
G1 X168.034 Y158.59 E.02339
G1 X120.233 Y110.79 E2.44338
G1 X119.586 Y110.79 E.02339
G1 X167.386 Y158.59 E2.44338
G1 X166.739 Y158.59 E.02339
G1 X118.939 Y110.79 E2.44338
G1 X118.292 Y110.79 E.02339
G1 X166.092 Y158.59 E2.44338
G1 X165.445 Y158.59 E.02339
G1 X117.645 Y110.79 E2.44338
G1 X116.998 Y110.79 E.02339
G1 X164.798 Y158.59 E2.44338
G1 X164.151 Y158.59 E.02339
G1 X116.351 Y110.79 E2.44338
G1 X115.704 Y110.79 E.02339
G1 X163.504 Y158.59 E2.44338
G1 X162.857 Y158.59 E.02339
G1 X115.057 Y110.79 E2.44338
G1 X114.409 Y110.79 E.02339
G1 X162.21 Y158.59 E2.44338
G1 X161.563 Y158.59 E.02339
G1 X113.762 Y110.79 E2.44338
G1 X113.115 Y110.79 E.02339
G1 X160.915 Y158.59 E2.44338
G1 X160.268 Y158.59 E.02339
G1 X112.468 Y110.79 E2.44338
G1 X111.821 Y110.79 E.02339
G1 X159.621 Y158.59 E2.44338
G1 X158.974 Y158.59 E.02339
G1 X111.174 Y110.79 E2.44338
G1 X110.527 Y110.79 E.02339
G1 X158.327 Y158.59 E2.44338
G1 X157.68 Y158.59 E.02339
G1 X109.88 Y110.79 E2.44338
G1 X109.233 Y110.79 E.02339
G1 X157.033 Y158.59 E2.44338
G1 X156.386 Y158.59 E.02339
M73 P7 R44
G1 X108.585 Y110.79 E2.44338
G1 X107.938 Y110.79 E.02339
G1 X155.739 Y158.59 E2.44338
G1 X155.092 Y158.59 E.02339
G1 X107.291 Y110.79 E2.44338
G1 X106.644 Y110.79 E.02339
G1 X154.444 Y158.59 E2.44338
G1 X153.797 Y158.59 E.02339
G1 X105.997 Y110.79 E2.44338
G1 X105.35 Y110.79 E.02339
G1 X153.15 Y158.59 E2.44338
G1 X152.503 Y158.59 E.02339
G1 X104.703 Y110.79 E2.44338
G1 X104.056 Y110.79 E.02339
G1 X151.856 Y158.59 E2.44338
G1 X151.209 Y158.59 E.02339
G1 X103.409 Y110.79 E2.44338
G1 X102.762 Y110.79 E.02339
G1 X150.562 Y158.59 E2.44338
G1 X149.915 Y158.59 E.02339
G1 X102.114 Y110.79 E2.44338
G1 X101.467 Y110.79 E.02339
G1 X149.268 Y158.59 E2.44338
G1 X148.62 Y158.59 E.02339
