; HEADER_BLOCK_START
; generated by OrcaSlicer 2.1.1 on 2024-07-21 at 17:56:11
; total layer number: 100
; filament_density: 1.27
; filament_diameter: 1.75
; max_z_height: 20.00
; HEADER_BLOCK_END

; THUMBNAIL_BLOCK_START

;
; THUMBNAIL_BLOCK_END

; THUMBNAIL_BLOCK_START

;
; THUMBNAIL_BLOCK_END

; external perimeters extrusion width = 0.42mm
; perimeters extrusion width = 0.45mm
; infill extrusion width = 0.45mm
; solid infill extrusion width = 0.45mm
; top infill extrusion width = 0.42mm
; first layer extrusion width = 0.50mm

; EXECUTABLE_BLOCK_START
EXCLUDE_OBJECT_DEFINE NAME=Support_brosse_à_dents_v4.stl_id_0_copy_0 CENTER=115,115 POLYGON=[[90,85.4991],[90.0365,84.2915],[90.1458,83.0883],[90.3276,81.894],[90.5812,80.7128],[90.9056,79.549],[91.2997,78.407],[91.762,77.2908],[92.2909,76.2046],[92.8844,75.1523],[93.5403,74.1378],[94.2563,73.1647],[95.0298,72.2366],[95.8579,71.3569],[96.7375,70.5289],[97.6656,69.7554],[98.6387,69.0394],[99.6532,68.3835],[100.706,67.79],[101.792,67.2611],[102.908,66.7988],[104.05,66.4047],[105.214,66.0802],[106.395,65.8267],[107.589,65.6449],[108.792,65.5356],[110,65.4991],[140,65.4991],[140,164.501],[90,164.501],[90,112.583],[90,85.4991]]
M73 P0 R29
;TYPE:Custom
M220 S100
G90 ; use absolute coordinates
M83 ; extruder relative mode
M104 S150 ; set temporary nozzle temp to prevent oozing during homing
M140 S70 ; set final bed temp
G4 S30 ; allow partial nozzle warmup
G28 ; home all axis and restore leveling
BED_MESH_CALIBRATE PROFILE=adaptive ADAPTIVE=1 ADAPTIVE_MARGIN=0
G1 Z25 F240
G1 X10.0 Y30 F3000
M104 S245 ; set final nozzle temp
M190 S70 ; wait for bed temp to stabilize
M109 S245 ; wait for nozzle temp to stabilize
G1 Z0.28 F240
G92 E0 ; Move Z Axis up
G1 Z2.0 F5000 ; Move to start position
G1 X5 Y30 Z0.28 F300 ; Draw the first line
G1 X5 Y200 Z0.28 F1500 E15 ; Move to side a little
G1 X5.4 Y200 Z0.28 F5000.0 ; Draw the second line
M73 P1 R29
G1 X5.4 Y50 Z0.28 F1500.0 E30 ; Reset Extruder
G92 E0 ; Move Z Axis up
G1 Z2.0 F3000
M117 Start Printing..
G90
G21
M83 ; use relative distances for extrusion
; filament start gcode
M106 S0
;LAYER_CHANGE
;Z:0.2
;HEIGHT:0.2
;BEFORE_LAYER_CHANGE
;0.2
G92 E0

G1 E-.5 F1800
;_SET_FAN_SPEED_CHANGING_LAYER
SET_VELOCITY_LIMIT ACCEL=1000
SET_VELOCITY_LIMIT SQUARE_CORNER_VELOCITY=7
; printing object Support brosse à dents v4.stl id:0 copy 0
EXCLUDE_OBJECT_START NAME=Support_brosse_à_dents_v4.stl_id_0_copy_0
G1 Z.2 F24000
G1 X147.243 Y86.256
G1 Z.2
G1 E.5 F1800
;TYPE:Inner wall
;WIDTH:0.499999
G1 X147.243 Y183.744 E3.51989
G1 X98.757 Y183.744 E1.75063
G1 X98.757 Y105.511 E2.82469
G1 X98.793 Y104.337 E.04238
M73 P2 R28
G1 X98.898 Y103.18 E.04197
G1 X99.073 Y102.031 E.04197
G1 X99.317 Y100.894 E.04197
G1 X99.629 Y99.774 E.04197
G1 X100.008 Y98.676 E.04197
G1 X100.452 Y97.603 E.04192
G1 X101.003 Y96.484 E.04502
G1 X101.533 Y95.544 E.03896
G1 X102.164 Y94.568 E.04197
G1 X102.853 Y93.632 E.04197
G1 X103.597 Y92.739 E.04197
G1 X104.393 Y91.893 E.04197
G1 X105.24 Y91.096 E.04197
G1 X106.133 Y90.352 E.04197
G1 X107.068 Y89.664 E.04192
G1 X108.118 Y88.991 E.04503
G1 X109.058 Y88.461 E.03896
G1 X110.103 Y87.952 E.04197
G1 X111.176 Y87.507 E.04197
G1 X112.275 Y87.128 E.04197
G1 X113.395 Y86.816 E.04197
G1 X114.531 Y86.572 E.04197
G1 X115.681 Y86.397 E.04197
G1 X116.838 Y86.292 E.04197
G1 X118.011 Y86.256 E.04238
G1 X147.203 Y86.256 E1.05399
G1 X147.7 Y85.799 F24000
;TYPE:Outer wall
G1 F1800
G1 X147.7 Y184.201 E3.55289
G1 X98.3 Y184.201 E1.78363
G1 X98.3 Y105.504 E2.84144
G1 X98.336 Y104.31 E.04313
G1 X98.444 Y103.125 E.04297
G1 X98.623 Y101.948 E.04297
G1 X98.873 Y100.785 E.04297
G1 X99.192 Y99.638 E.04297
G1 X99.58 Y98.513 E.04296
G1 X100.036 Y97.414 E.04295
G1 X100.598 Y96.271 E.04602
G1 X101.141 Y95.308 E.03992
G1 X101.787 Y94.308 E.04296
G1 X102.493 Y93.35 E.04297
G1 X103.254 Y92.436 E.04297
G1 X104.07 Y91.569 E.04297
G1 X104.937 Y90.754 E.04297
G1 X105.851 Y89.992 E.04297
G1 X106.809 Y89.287 E.04295
G1 X107.882 Y88.599 E.04602
G1 X108.845 Y88.056 E.03992
G1 X109.915 Y87.535 E.04297
G1 X111.014 Y87.079 E.04297
G1 X112.139 Y86.691 E.04297
G1 X113.285 Y86.372 E.04296
G1 X114.449 Y86.122 E.04297
G1 X115.625 Y85.943 E.04297
G1 X116.811 Y85.835 E.04297
G1 X118.005 Y85.799 E.04313
G1 X147.66 Y85.799 E1.07074
G1 E-.5
;WIPE_START
G1 F12000
G1 X147.661 Y87.799
;WIPE_END
G1 Z.4 F24000
G1 X147.106 Y87.318
G1 Z.4
G1 Z.2
G1 E.5 F1800
;TYPE:Bottom surface
;WIDTH:0.500234
G1 F3600
G1 X146.387 Y86.599 E.03672
G1 X145.74 Y86.599 E.02336
G1 X146.9 Y87.759 E.05925
G1 X146.9 Y88.406 E.02336
G1 X145.094 Y86.599 E.09229
G1 X144.447 Y86.599 E.02336
G1 X146.9 Y89.052 E.12533
G1 X146.9 Y89.699 E.02336
G1 X143.8 Y86.599 E.15838
G1 X143.153 Y86.599 E.02336
G1 X146.9 Y90.346 E.19142
G1 X146.9 Y90.993 E.02336
G1 X142.507 Y86.599 E.22446
G1 X141.86 Y86.599 E.02336
G1 X146.9 Y91.639 E.2575
G1 X146.9 Y92.286 E.02336
G1 X141.213 Y86.599 E.29054
G1 X140.566 Y86.599 E.02336
G1 X146.9 Y92.933 E.32358
G1 X146.9 Y93.579 E.02336
G1 X139.92 Y86.599 E.35662
G1 X139.273 Y86.599 E.02336
G1 X146.9 Y94.226 E.38966
G1 X146.9 Y94.873 E.02336
G1 X138.626 Y86.599 E.4227
G1 X137.979 Y86.599 E.02336
G1 X146.9 Y95.52 E.45574
G1 X146.9 Y96.166 E.02336
G1 X137.333 Y86.599 E.48878
G1 X136.686 Y86.599 E.02336
G1 X146.9 Y96.813 E.52182
G1 X146.9 Y97.46 E.02336
G1 X136.039 Y86.599 E.55486
G1 X135.392 Y86.599 E.02336
G1 X146.9 Y98.107 E.5879
G1 X146.9 Y98.753 E.02336
G1 X134.746 Y86.599 E.62094
G1 X134.099 Y86.599 E.02336
G1 X146.9 Y99.4 E.65398
G1 X146.9 Y100.047 E.02336
G1 X133.452 Y86.599 E.68702
G1 X132.805 Y86.599 E.02336
G1 X146.9 Y100.694 E.72006
G1 X146.9 Y101.34 E.02336
G1 X132.159 Y86.599 E.7531
M73 P3 R28
G1 X131.512 Y86.599 E.02336
G1 X146.9 Y101.987 E.78614
G1 X146.9 Y102.634 E.02336
G1 X130.865 Y86.599 E.81919
G1 X130.219 Y86.599 E.02336
G1 X146.9 Y103.281 E.85223
G1 X146.9 Y103.927 E.02336
G1 X129.572 Y86.599 E.88527
G1 X128.925 Y86.599 E.02336
G1 X146.9 Y104.574 E.91831
G1 X146.9 Y105.221 E.02336
G1 X128.278 Y86.599 E.95135
G1 X127.632 Y86.599 E.02336
G1 X146.9 Y105.868 E.98439
G1 X146.9 Y106.514 E.02336
G1 X126.985 Y86.599 E1.01743
G1 X126.338 Y86.599 E.02336
G1 X146.9 Y107.161 E1.05047
G1 X146.9 Y107.808 E.02336
G1 X125.691 Y86.599 E1.08351
G1 X125.045 Y86.599 E.02336
G1 X146.9 Y108.454 E1.11655
G1 X146.9 Y109.101 E.02336
G1 X124.398 Y86.599 E1.14959
G1 X123.751 Y86.599 E.02336
G1 X146.9 Y109.748 E1.18263
G1 X146.9 Y110.395 E.02336
G1 X123.104 Y86.599 E1.21567
G1 X122.458 Y86.599 E.02336
G1 X146.9 Y111.041 E1.24871
G1 X146.9 Y111.688 E.02336
G1 X121.811 Y86.599 E1.28175
G1 X121.164 Y86.599 E.02336
G1 X146.9 Y112.335 E1.31479
G1 X146.9 Y112.982 E.02336
G1 X120.517 Y86.599 E1.34783
G1 X119.871 Y86.599 E.02336
G1 X146.9 Y113.628 E1.38087
G1 X146.9 Y114.275 E.02336
G1 X119.224 Y86.599 E1.41391
G1 X118.577 Y86.599 E.02336
G1 X146.9 Y114.922 E1.44695
G1 X146.9 Y115.569 E.02336
G1 X117.933 Y86.601 E1.47987
G1 X117.305 Y86.62 E.02269
G1 X146.9 Y116.215 E1.51194
G1 X146.9 Y116.862 E.02336
G1 X116.688 Y86.65 E1.54349
G1 X116.095 Y86.703 E.02151
G1 X146.9 Y117.509 E1.57378
G1 X146.9 Y118.156 E.02336
G1 X115.514 Y86.769 E1.60347
G1 X114.952 Y86.854 E.02051
G1 X146.9 Y118.802 E1.63215
G1 X146.9 Y119.449 E.02336
G1 X114.401 Y86.95 E1.66029
M73 P4 R28
G1 X113.869 Y87.065 E.01967
G1 X146.9 Y120.096 E1.68749
G1 X146.9 Y120.743 E.02336
G1 X113.343 Y87.186 E1.71433
G1 X112.838 Y87.327 E.01897
G1 X146.9 Y121.389 E1.74017
G1 X146.9 Y122.036 E.02336
G1 X112.334 Y87.47 E1.7659
G1 X111.853 Y87.636 E.01837
G1 X146.9 Y122.683 E1.79046
G1 X146.9 Y123.329 E.02336
G1 X111.373 Y87.802 E1.81502
G1 X110.912 Y87.988 E.01795
G1 X146.9 Y123.976 E1.83857
G1 X146.9 Y124.623 E.02336
G1 X110.454 Y88.177 E1.86194
G1 X110.009 Y88.379 E.01766
G1 X146.9 Y125.27 E1.88468
G1 X146.9 Y125.916 E.02336
G1 X109.574 Y88.59 E1.9069
G1 X109.143 Y88.806 E.01741
G1 X146.9 Y126.563 E1.92893
G1 X146.9 Y127.21 E.02336
G1 X108.729 Y89.039 E1.95006
G1 X108.316 Y89.272 E.01715
G1 X146.9 Y127.857 E1.97118
G1 X146.9 Y128.503 E.02336
G1 X107.921 Y89.524 E1.99137
G1 X107.527 Y89.777 E.01691
G1 X146.9 Y129.15 E2.0115
G1 X146.9 Y129.797 E.02336
G1 X107.14 Y90.036 E2.03128
G1 X106.767 Y90.311 E.01671
G1 X146.9 Y130.444 E2.05031
G1 X146.9 Y131.09 E.02336
G1 X106.394 Y90.585 E2.06935
G1 X106.039 Y90.876 E.0166
M73 P5 R28
G1 X146.9 Y131.737 E2.0875
G1 X146.9 Y132.384 E.02336
G1 X105.686 Y91.17 E2.10552
G1 X105.341 Y91.471 E.01656
G1 X146.9 Y133.031 E2.12317
G1 X146.9 Y133.677 E.02336
G1 X105.008 Y91.785 E2.14019
G1 X104.675 Y92.099 E.01653
G1 X146.9 Y134.324 E2.15721
G1 X146.9 Y134.971 E.02336
G1 X104.359 Y92.429 E2.17334
G1 X104.045 Y92.763 E.01653
M73 P5 R27
G1 X146.9 Y135.618 E2.18936
G1 X146.9 Y136.264 E.02336
G1 X103.739 Y93.103 E2.20499
G1 X103.445 Y93.456 E.01659
G1 X146.9 Y136.911 E2.22001
G1 X146.9 Y137.558 E.02336
G1 X103.151 Y93.809 E2.23503
G1 X102.875 Y94.18 E.0167
G1 X146.9 Y138.205 E2.24914
G1 X146.9 Y138.851 E.02336
G1 X102.601 Y94.552 E2.26314
G1 X102.336 Y94.933 E.01678
G1 X146.9 Y139.498 E2.2767
G1 X146.9 Y140.145 E.02336
G1 X102.082 Y95.326 E2.28968
G1 X101.828 Y95.719 E.0169
G1 X146.9 Y140.791 E2.30265
G1 X146.9 Y141.438 E.02336
G1 X101.594 Y96.132 E2.31457
G1 X101.361 Y96.546 E.01715
M73 P6 R27
G1 X146.9 Y142.085 E2.32649
G1 X146.9 Y142.732 E.02336
G1 X101.143 Y96.975 E2.33762
G1 X100.93 Y97.408 E.01745
G1 X146.9 Y143.378 E2.34851
G1 X146.9 Y144.025 E.02336
G1 X100.722 Y97.847 E2.35913
G1 X100.533 Y98.304 E.01788
G1 X146.9 Y144.672 E2.36881
G1 X146.9 Y145.319 E.02336
G1 X100.343 Y98.762 E2.37849
G1 X100.175 Y99.241 E.01833
G1 X146.9 Y145.965 E2.38706
G1 X146.9 Y146.612 E.02336
G1 X100.01 Y99.722 E2.39553
G1 X99.861 Y100.219 E.01877
G1 X146.9 Y147.259 E2.40315
G1 X146.9 Y147.906 E.02336
G1 X99.72 Y100.725 E2.41035
G1 X99.592 Y101.244 E.01931
G1 X146.9 Y148.552 E2.41687
G1 X146.9 Y149.199 E.02336
G1 X99.478 Y101.777 E2.4227
G1 X99.375 Y102.321 E.02
G1 X146.9 Y149.846 E2.42794
G1 X146.9 Y150.493 E.02336
G1 X99.29 Y102.882 E2.43231
G1 X99.217 Y103.456 E.0209
G1 X146.9 Y151.139 E2.43603
G1 X146.9 Y151.786 E.02336
M73 P7 R27
G1 X99.163 Y104.049 E2.43879
G1 X99.126 Y104.658 E.02206
G1 X146.9 Y152.433 E2.44068
G1 X146.9 Y153.08 E.02336
G1 X99.107 Y105.286 E2.44165
G1 X99.1 Y105.516 E.00829
G1 X99.1 Y105.926 E.01482
G1 X146.9 Y153.726 E2.44201
G1 X146.9 Y154.373 E.02336
G1 X99.1 Y106.573 E2.44201
G1 X99.1 Y107.22 E.02336
G1 X146.9 Y155.02 E2.44201
G1 X146.9 Y155.666 E.02336
G1 X99.1 Y107.866 E2.44201
G1 X99.1 Y108.513 E.02336
G1 X146.9 Y156.313 E2.44201
G1 X146.9 Y156.96 E.02336
G1 X99.1 Y109.16 E2.44201
G1 X99.1 Y109.806 E.02336
G1 X146.9 Y157.607 E2.44201
G1 X146.9 Y158.253 E.02336
G1 X99.1 Y110.453 E2.44201
G1 X99.1 Y111.1 E.02336
G1 X146.9 Y158.9 E2.44201
G1 X146.9 Y159.547 E.02336
G1 X99.1 Y111.747 E2.44201
G1 X99.1 Y112.393 E.02336
G1 X146.9 Y160.194 E2.44201
G1 X146.9 Y160.84 E.02336
G1 X99.1 Y113.04 E2.44201
G1 X99.1 Y113.687 E.02336
M73 P8 R27
G1 X146.9 Y161.487 E2.44201
G1 X146.9 Y162.134 E.02336
G1 X99.1 Y114.334 E2.44201
G1 X99.1 Y114.98 E.02336
G1 X146.9 Y162.781 E2.44201
G1 X146.9 Y163.427 E.02336
G1 X99.1 Y115.627 E2.44201
G1 X99.1 Y116.274 E.02336
G1 X146.9 Y164.074 E2.44201
G1 X146.9 Y164.721 E.02336
G1 X99.1 Y116.921 E2.44201
G1 X99.1 Y117.567 E.02336
G1 X146.9 Y165.368 E2.44201
G1 X146.9 Y166.014 E.02336
G1 X99.1 Y118.214 E2.44201
G1 X99.1 Y118.861 E.02336
G1 X146.9 Y166.661 E2.44201
G1 X146.9 Y167.308 E.02336
G1 X99.1 Y119.508 E2.44201
G1 X99.1 Y120.154 E.02336
G1 X146.9 Y167.955 E2.44201
M73 P8 R26
G1 X146.9 Y168.601 E.02336
G1 X99.1 Y120.801 E2.44201
G1 X99.1 Y121.448 E.02336
G1 X146.9 Y169.248 E2.44201
G1 X146.9 Y169.895 E.02336
G1 X99.1 Y122.095 E2.44201
G1 X99.1 Y122.741 E.02336
G1 X146.9 Y170.541 E2.44201
G1 X146.9 Y171.188 E.02336
M73 P9 R26
G1 X99.1 Y123.388 E2.44201
G1 X99.1 Y124.035 E.02336
G1 X146.9 Y171.835 E2.44201
G1 X146.9 Y172.482 E.02336
G1 X99.1 Y124.681 E2.44201
G1 X99.1 Y125.328 E.02336
G1 X146.9 Y173.128 E2.44201
G1 X146.9 Y173.775 E.02336
G1 X99.1 Y125.975 E2.44201
G1 X99.1 Y126.622 E.02336
G1 X146.9 Y174.422 E2.44201
G1 X146.9 Y175.069 E.02336
G1 X99.1 Y127.268 E2.44201
G1 X99.1 Y127.915 E.02336
G1 X146.9 Y175.715 E2.44201
G1 X146.9 Y176.362 E.02336
G1 X99.1 Y128.562 E2.44201
G1 X99.1 Y129.209 E.02336
G1 X146.9 Y177.009 E2.44201
G1 X146.9 Y177.656 E.02336
G1 X99.1 Y129.855 E2.44201
G1 X99.1 Y130.502 E.02336
G1 X146.9 Y178.302 E2.44201
G1 X146.9 Y178.949 E.02336
G1 X99.1 Y131.149 E2.44201
G1 X99.1 Y131.796 E.02336
G1 X146.9 Y179.596 E2.44201
G1 X146.9 Y180.243 E.02336
G1 X99.1 Y132.442 E2.44201
M73 P10 R26
G1 X99.1 Y133.089 E.02336
G1 X146.9 Y180.889 E2.44201
G1 X146.9 Y181.536 E.02336
G1 X99.1 Y133.736 E2.44201
G1 X99.1 Y134.383 E.02336
G1 X146.9 Y182.183 E2.44201
G1 X146.9 Y182.83 E.02336
G1 X99.1 Y135.029 E2.44201
G1 X99.1 Y135.676 E.02336
G1 X146.825 Y183.401 E2.43816
G1 X146.178 Y183.401 E.02336
G1 X99.1 Y136.323 E2.40512
G1 X99.1 Y136.97 E.02336
G1 X145.531 Y183.401 E2.37208
G1 X144.885 Y183.401 E.02336
G1 X99.1 Y137.616 E2.33904
G1 X99.1 Y138.263 E.02336
G1 X144.238 Y183.401 E2.306
G1 X143.591 Y183.401 E.02336
G1 X99.1 Y138.91 E2.27296
G1 X99.1 Y139.556 E.02336
G1 X142.944 Y183.401 E2.23992
G1 X142.298 Y183.401 E.02336
G1 X99.1 Y140.203 E2.20688
G1 X99.1 Y140.85 E.02336
G1 X141.651 Y183.401 E2.17384
G1 X141.004 Y183.401 E.02336
G1 X99.1 Y141.497 E2.1408
G1 X99.1 Y142.143 E.02336
G1 X140.357 Y183.401 E2.10776
G1 X139.711 Y183.401 E.02336
M73 P11 R26
G1 X99.1 Y142.79 E2.07472
G1 X99.1 Y143.437 E.02336
G1 X139.064 Y183.401 E2.04168
G1 X138.417 Y183.401 E.02336
G1 X99.1 Y144.084 E2.00864
G1 X99.1 Y144.73 E.02336
G1 X137.771 Y183.401 E1.9756
G1 X137.124 Y183.401 E.02336
G1 X99.1 Y145.377 E1.94256
G1 X99.1 Y146.024 E.02336
G1 X136.477 Y183.401 E1.90952
G1 X135.83 Y183.401 E.02336
G1 X99.1 Y146.671 E1.87647
G1 X99.1 Y147.317 E.02336
G1 X135.184 Y183.401 E1.84343
G1 X134.537 Y183.401 E.02336
G1 X99.1 Y147.964 E1.81039
G1 X99.1 Y148.611 E.02336
G1 X133.89 Y183.401 E1.77735
G1 X133.243 Y183.401 E.02336
G1 X99.1 Y149.258 E1.74431
G1 X99.1 Y149.904 E.02336
G1 X132.597 Y183.401 E1.71127
G1 X131.95 Y183.401 E.02336
G1 X99.1 Y150.551 E1.67823
G1 X99.1 Y151.198 E.02336
G1 X131.303 Y183.401 E1.64519
G1 X130.656 Y183.401 E.02336
G1 X99.1 Y151.845 E1.61215
G1 X99.1 Y152.491 E.02336
G1 X130.01 Y183.401 E1.57911
G1 X129.363 Y183.401 E.02336
G1 X99.1 Y153.138 E1.54607
G1 X99.1 Y153.785 E.02336
G1 X128.716 Y183.401 E1.51303
G1 X128.069 Y183.401 E.02336
G1 X99.1 Y154.432 E1.47999
G1 X99.1 Y155.078 E.02336
M73 P12 R26
G1 X127.423 Y183.401 E1.44695
G1 X126.776 Y183.401 E.02336
G1 X99.1 Y155.725 E1.41391
G1 X99.1 Y156.372 E.02336
G1 X126.129 Y183.401 E1.38087
M73 P12 R25
G1 X125.482 Y183.401 E.02336
G1 X99.1 Y157.018 E1.34783
G1 X99.1 Y157.665 E.02336
G1 X124.836 Y183.401 E1.31479
G1 X124.189 Y183.401 E.02336
G1 X99.1 Y158.312 E1.28175
G1 X99.1 Y158.959 E.02336
G1 X123.542 Y183.401 E1.24871
G1 X122.895 Y183.401 E.02336
G1 X99.1 Y159.605 E1.21566
G1 X99.1 Y160.252 E.02336
G1 X122.249 Y183.401 E1.18262
G1 X121.602 Y183.401 E.02336
G1 X99.1 Y160.899 E1.14958
G1 X99.1 Y161.546 E.02336
G1 X120.955 Y183.401 E1.11654
G1 X120.309 Y183.401 E.02336
G1 X99.1 Y162.192 E1.0835
G1 X99.1 Y162.839 E.02336
G1 X119.662 Y183.401 E1.05046
G1 X119.015 Y183.401 E.02336
G1 X99.1 Y163.486 E1.01742
G1 X99.1 Y164.133 E.02336
G1 X118.368 Y183.401 E.98438
G1 X117.722 Y183.401 E.02336
G1 X99.1 Y164.779 E.95134
G1 X99.1 Y165.426 E.02336
G1 X117.075 Y183.401 E.9183
G1 X116.428 Y183.401 E.02336
G1 X99.1 Y166.073 E.88526
G1 X99.1 Y166.72 E.02336
G1 X115.781 Y183.401 E.85222
G1 X115.135 Y183.401 E.02336
G1 X99.1 Y167.366 E.81918
G1 X99.1 Y168.013 E.02336
G1 X114.488 Y183.401 E.78614
G1 X113.841 Y183.401 E.02336
G1 X99.1 Y168.66 E.7531
G1 X99.1 Y169.307 E.02336
G1 X113.194 Y183.401 E.72006
G1 X112.548 Y183.401 E.02336
G1 X99.1 Y169.953 E.68702
G1 X99.1 Y170.6 E.02336
G1 X111.901 Y183.401 E.65398
G1 X111.254 Y183.401 E.02336
G1 X99.1 Y171.247 E.62094
G1 X99.1 Y171.893 E.02336
G1 X110.607 Y183.401 E.5879
G1 X109.961 Y183.401 E.02336
G1 X99.1 Y172.54 E.55485
G1 X99.1 Y173.187 E.02336
G1 X109.314 Y183.401 E.52181
G1 X108.667 Y183.401 E.02336
