; HEADER_BLOCK_START
; generated by OrcaSlicer 2.1.1 on 2024-07-21 at 18:36:06
; total layer number: 100
; filament_density: 1.27
; filament_diameter: 1.75
; max_z_height: 20.00
; HEADER_BLOCK_END

; THUMBNAIL_BLOCK_START

;
; THUMBNAIL_BLOCK_END

; THUMBNAIL_BLOCK_START

;
; THUMBNAIL_BLOCK_END

; external perimeters extrusion width = 0.42mm
; perimeters extrusion width = 0.45mm
; infill extrusion width = 0.45mm
; solid infill extrusion width = 0.45mm
; top infill extrusion width = 0.42mm
; first layer extrusion width = 0.50mm

; EXECUTABLE_BLOCK_START
EXCLUDE_OBJECT_DEFINE NAME=Support_brosse_à_dents_v6.stl_id_0_copy_0 CENTER=115,115 POLYGON=[[27.5,90],[202.5,90],[202.5,120],[202.464,121.208],[202.354,122.411],[202.172,123.605],[201.919,124.786],[201.594,125.95],[201.2,127.092],[200.738,128.208],[200.209,129.294],[199.616,130.347],[198.96,131.361],[198.244,132.334],[197.47,133.262],[196.642,134.142],[195.762,134.97],[194.834,135.744],[193.861,136.46],[192.847,137.116],[191.794,137.709],[190.708,138.238],[189.592,138.7],[188.45,139.094],[187.286,139.419],[186.105,139.672],[184.911,139.854],[183.708,139.964],[182.5,140],[74.5835,140],[47.5,140],[46.2924,139.964],[45.0893,139.854],[43.8949,139.672],[42.7137,139.419],[41.5499,139.094],[40.4079,138.7],[39.2917,138.238],[38.2055,137.709],[37.1532,137.116],[36.1387,136.46],[35.1656,135.744],[34.2375,134.97],[33.3579,134.142],[32.5298,133.262],[31.7563,132.334],[31.0403,131.361],[30.3844,130.347],[29.7909,129.294],[29.262,128.208],[28.7997,127.092],[28.4056,125.95],[28.0812,124.786],[27.8276,123.605],[27.6458,122.411],[27.5365,121.208],[27.5,120],[27.5,90]]
M73 P0 R47
;TYPE:Custom
M220 S100
G90 ; use absolute coordinates
M83 ; extruder relative mode
M104 S150 ; set temporary nozzle temp to prevent oozing during homing
M140 S70 ; set final bed temp
G4 S30 ; allow partial nozzle warmup
G28 ; home all axis and restore leveling
BED_MESH_CALIBRATE PROFILE=adaptive ADAPTIVE=1 ADAPTIVE_MARGIN=0
G1 Z25 F240
G1 X10.0 Y30 F3000
M104 S245 ; set final nozzle temp
M190 S70 ; wait for bed temp to stabilize
M109 S245 ; wait for nozzle temp to stabilize
G1 Z0.28 F240
G92 E0 ; Move Z Axis up
G1 Z2.0 F5000 ; Move to start position
G1 X5 Y30 Z0.28 F300 ; Draw the first line
G1 X5 Y200 Z0.28 F1500 E15 ; Move to side a little
G1 X5.4 Y200 Z0.28 F5000.0 ; Draw the second line
G1 X5.4 Y50 Z0.28 F1500.0 E30 ; Reset Extruder
G92 E0 ; Move Z Axis up
G1 Z2.0 F3000
M117 Start Printing..
G90
G21
M83 ; use relative distances for extrusion
; filament start gcode
M106 S0
;LAYER_CHANGE
;Z:0.2
;HEIGHT:0.2
;BEFORE_LAYER_CHANGE
;0.2
G92 E0

G1 E-.5 F1800
;_SET_FAN_SPEED_CHANGING_LAYER
SET_VELOCITY_LIMIT ACCEL=1000
SET_VELOCITY_LIMIT SQUARE_CORNER_VELOCITY=7
; printing object Support brosse à dents v6.stl id:0 copy 0
EXCLUDE_OBJECT_START NAME=Support_brosse_à_dents_v6.stl_id_0_copy_0
G1 Z.2 F24000
G1 X209.743 Y110.757
G1 Z.2
G1 E.5 F1800
;TYPE:Inner wall
;WIDTH:0.499999
G1 X209.743 Y139.989 E1.05543
G1 X209.707 Y141.162 E.04238
M73 P1 R47
G1 X209.602 Y142.319 E.04197
G1 X209.427 Y143.469 E.04197
G1 X209.183 Y144.605 E.04197
G1 X208.871 Y145.725 E.04197
G1 X208.492 Y146.823 E.04197
G1 X208.047 Y147.897 E.04197
G1 X207.538 Y148.942 E.04197
G1 X206.967 Y149.955 E.04197
G1 X206.336 Y150.931 E.04197
G1 X205.647 Y151.867 E.04197
G1 X204.903 Y152.76 E.04197
G1 X204.107 Y153.607 E.04197
G1 X203.26 Y154.403 E.04197
G1 X202.367 Y155.147 E.04197
G1 X201.431 Y155.836 E.04197
G1 X200.455 Y156.467 E.04197
G1 X199.442 Y157.038 E.04197
G1 X198.397 Y157.547 E.04197
G1 X197.323 Y157.992 E.04197
G1 X196.225 Y158.371 E.04197
G1 X195.105 Y158.683 E.04197
G1 X193.969 Y158.927 E.04197
G1 X192.819 Y159.102 E.04197
G1 X191.662 Y159.207 E.04197
G1 X190.489 Y159.243 E.04238
G1 X55.511 Y159.243 E4.87348
G1 X54.338 Y159.207 E.04238
G1 X53.181 Y159.102 E.04197
G1 X52.031 Y158.927 E.04197
G1 X50.895 Y158.683 E.04197
G1 X49.775 Y158.371 E.04197
G1 X48.677 Y157.992 E.04197
G1 X47.603 Y157.547 E.04197
G1 X46.558 Y157.038 E.04197
G1 X45.545 Y156.467 E.04197
G1 X44.569 Y155.836 E.04197
G1 X43.633 Y155.147 E.04197
G1 X42.74 Y154.403 E.04197
G1 X41.893 Y153.607 E.04197
G1 X41.097 Y152.76 E.04197
G1 X40.353 Y151.867 E.04197
G1 X39.664 Y150.931 E.04197
G1 X39.033 Y149.955 E.04197
G1 X38.462 Y148.942 E.04197
G1 X37.953 Y147.897 E.04197
G1 X37.508 Y146.824 E.04197
G1 X37.129 Y145.725 E.04197
G1 X36.817 Y144.605 E.04197
G1 X36.573 Y143.469 E.04197
G1 X36.398 Y142.319 E.04197
G1 X36.293 Y141.162 E.04197
G1 X36.257 Y139.989 E.04238
G1 X36.257 Y110.757 E1.05543
G1 X209.703 Y110.757 E6.26243
G1 X210.2 Y110.3 F24000
;TYPE:Outer wall
G1 F1800
G1 X210.2 Y139.995 E1.07218
G1 X210.164 Y141.189 E.04313
M73 P1 R46
G1 X210.056 Y142.375 E.04297
G1 X209.877 Y143.551 E.04297
G1 X209.627 Y144.715 E.04297
G1 X209.308 Y145.861 E.04296
G1 X208.92 Y146.986 E.04297
G1 X208.464 Y148.085 E.04297
G1 X207.943 Y149.155 E.04297
G1 X207.359 Y150.191 E.04297
G1 X206.713 Y151.191 E.04296
G1 X206.007 Y152.149 E.04297
G1 X205.246 Y153.063 E.04297
G1 X204.43 Y153.93 E.04297
G1 X203.563 Y154.746 E.04296
G1 X202.649 Y155.507 E.04297
G1 X201.691 Y156.213 E.04297
G1 X200.692 Y156.859 E.04296
G1 X199.655 Y157.443 E.04297
G1 X198.585 Y157.964 E.04297
G1 X197.486 Y158.42 E.04297
G1 X196.361 Y158.808 E.04297
G1 X195.214 Y159.127 E.04297
G1 X194.051 Y159.377 E.04297
G1 X192.875 Y159.556 E.04297
G1 X191.689 Y159.664 E.04297
G1 X190.495 Y159.7 E.04313
G1 X55.505 Y159.7 E4.87398
G1 X54.311 Y159.664 E.04313
G1 X53.125 Y159.556 E.04297
G1 X51.949 Y159.377 E.04297
G1 X50.786 Y159.127 E.04297
G1 X49.639 Y158.808 E.04297
G1 X48.514 Y158.42 E.04297
G1 X47.415 Y157.964 E.04297
G1 X46.345 Y157.443 E.04297
G1 X45.309 Y156.859 E.04297
G1 X44.309 Y156.213 E.04296
G1 X43.351 Y155.507 E.04297
G1 X42.437 Y154.746 E.04297
G1 X41.57 Y153.93 E.04297
G1 X40.754 Y153.063 E.04297
G1 X39.993 Y152.149 E.04297
G1 X39.287 Y151.191 E.04297
G1 X38.641 Y150.191 E.04297
G1 X38.057 Y149.155 E.04297
G1 X37.536 Y148.085 E.04297
G1 X37.08 Y146.986 E.04297
G1 X36.692 Y145.861 E.04297
G1 X36.373 Y144.715 E.04296
G1 X36.123 Y143.551 E.04297
G1 X35.944 Y142.375 E.04297
G1 X35.836 Y141.189 E.04297
G1 X35.8 Y139.995 E.04313
G1 X35.8 Y110.3 E1.07218
G1 X210.16 Y110.3 E6.29544
G1 E-.5
;WIPE_START
G1 F12000
G1 X210.163 Y112.3
;WIPE_END
G1 Z.4 F24000
G1 X208.681 Y110.894
M73 P2 R46
G1 Z.4
G1 Z.2
G1 E.5 F1800
;TYPE:Bottom surface
;WIDTH:0.500491
G1 F3600
G1 X209.4 Y111.614 E.03677
G1 X209.4 Y112.261 E.02339
G1 X208.239 Y111.1 E.05933
G1 X207.592 Y111.1 E.02339
G1 X209.4 Y112.908 E.09241
G1 X209.4 Y113.555 E.02339
G1 X206.945 Y111.1 E.12549
G1 X206.298 Y111.1 E.02339
G1 X209.4 Y114.202 E.15857
G1 X209.4 Y114.849 E.02339
G1 X205.651 Y111.1 E.19164
G1 X205.004 Y111.1 E.02339
G1 X209.4 Y115.496 E.22472
G1 X209.4 Y116.143 E.02339
G1 X204.357 Y111.1 E.2578
G1 X203.71 Y111.1 E.02339
G1 X209.4 Y116.79 E.29088
G1 X209.4 Y117.437 E.02339
G1 X203.063 Y111.1 E.32395
G1 X202.415 Y111.1 E.02339
G1 X209.4 Y118.085 E.35703
G1 X209.4 Y118.732 E.02339
G1 X201.768 Y111.1 E.39011
G1 X201.121 Y111.1 E.02339
G1 X209.4 Y119.379 E.42319
G1 X209.4 Y120.026 E.02339
G1 X200.474 Y111.1 E.45627
G1 X199.827 Y111.1 E.02339
G1 X209.4 Y120.673 E.48934
G1 X209.4 Y121.32 E.02339
G1 X199.18 Y111.1 E.52242
G1 X198.533 Y111.1 E.02339
G1 X209.4 Y121.967 E.5555
G1 X209.4 Y122.614 E.02339
G1 X197.886 Y111.1 E.58858
G1 X197.239 Y111.1 E.02339
G1 X209.4 Y123.261 E.62165
G1 X209.4 Y123.908 E.02339
G1 X196.592 Y111.1 E.65473
G1 X195.944 Y111.1 E.02339
G1 X209.4 Y124.556 E.68781
G1 X209.4 Y125.203 E.02339
G1 X195.297 Y111.1 E.72089
G1 X194.65 Y111.1 E.02339
G1 X209.4 Y125.85 E.75396
G1 X209.4 Y126.497 E.02339
G1 X194.003 Y111.1 E.78704
G1 X193.356 Y111.1 E.02339
G1 X209.4 Y127.144 E.82012
G1 X209.4 Y127.791 E.02339
G1 X192.709 Y111.1 E.8532
G1 X192.062 Y111.1 E.02339
G1 X209.4 Y128.438 E.88627
G1 X209.4 Y129.085 E.02339
G1 X191.415 Y111.1 E.91935
G1 X190.768 Y111.1 E.02339
G1 X209.4 Y129.732 E.95243
G1 X209.4 Y130.38 E.02339
G1 X190.12 Y111.1 E.98551
G1 X189.473 Y111.1 E.02339
G1 X209.4 Y131.027 E1.01859
G1 X209.4 Y131.674 E.02339
G1 X188.826 Y111.1 E1.05166
G1 X188.179 Y111.1 E.02339
G1 X209.4 Y132.321 E1.08474
G1 X209.4 Y132.968 E.02339
G1 X187.532 Y111.1 E1.11782
G1 X186.885 Y111.1 E.02339
G1 X209.4 Y133.615 E1.1509
G1 X209.4 Y134.262 E.02339
G1 X186.238 Y111.1 E1.18397
G1 X185.591 Y111.1 E.02339
G1 X209.4 Y134.909 E1.21705
G1 X209.4 Y135.556 E.02339
G1 X184.944 Y111.1 E1.25013
G1 X184.297 Y111.1 E.02339
G1 X209.4 Y136.203 E1.28321
G1 X209.4 Y136.851 E.02339
G1 X183.649 Y111.1 E1.31628
G1 X183.002 Y111.1 E.02339
G1 X209.4 Y137.498 E1.34936
G1 X209.4 Y138.145 E.02339
G1 X182.355 Y111.1 E1.38244
G1 X181.708 Y111.1 E.02339
G1 X209.4 Y138.792 E1.41552
G1 X209.4 Y139.439 E.02339
G1 X181.061 Y111.1 E1.44859
G1 X180.414 Y111.1 E.02339
G1 X209.397 Y140.083 E1.48152
G1 X209.378 Y140.711 E.02271
G1 X179.767 Y111.1 E1.51363
G1 X179.12 Y111.1 E.02339
G1 X209.348 Y141.328 E1.54517
G1 X209.294 Y141.921 E.02153
G1 X178.473 Y111.1 E1.57549
G1 X177.826 Y111.1 E.02339
G1 X209.228 Y142.502 E1.60517
G1 X209.142 Y143.064 E.02053
G1 X177.178 Y111.1 E1.63388
G1 X176.531 Y111.1 E.02339
G1 X209.046 Y143.614 E1.66201
G1 X208.931 Y144.147 E.01969
G1 X175.884 Y111.1 E1.68924
G1 X175.237 Y111.1 E.02339
G1 X208.809 Y144.672 E1.71608
G1 X208.668 Y145.178 E.01899
G1 X174.59 Y111.1 E1.74194
G1 X173.943 Y111.1 E.02339
G1 X208.524 Y145.681 E1.76765
G1 X208.358 Y146.162 E.0184
G1 X173.296 Y111.1 E1.79225
G1 X172.649 Y111.1 E.02339
M73 P3 R46
G1 X208.192 Y146.643 E1.81684
G1 X208.005 Y147.103 E.01796
G1 X172.002 Y111.1 E1.84037
G1 X171.354 Y111.1 E.02339
G1 X207.816 Y147.561 E1.86376
G1 X207.613 Y148.006 E.01766
G1 X170.707 Y111.1 E1.8865
G1 X170.06 Y111.1 E.02339
G1 X207.401 Y148.441 E1.90875
G1 X207.185 Y148.872 E.01742
G1 X169.413 Y111.1 E1.93076
G1 X168.766 Y111.1 E.02339
G1 X206.952 Y149.285 E1.95191
G1 X206.718 Y149.699 E.01717
G1 X168.119 Y111.1 E1.97306
G1 X167.472 Y111.1 E.02339
G1 X206.468 Y150.096 E1.99335
G1 X206.214 Y150.489 E.01692
G1 X166.825 Y111.1 E2.01343
G1 X166.178 Y111.1 E.02339
G1 X205.952 Y150.875 E2.03314
G1 X205.678 Y151.247 E.01673
G1 X165.531 Y111.1 E2.0522
G1 X164.883 Y111.1 E.02339
G1 X205.404 Y151.62 E2.07125
G1 X205.111 Y151.975 E.01662
G1 X164.236 Y111.1 E2.08939
G1 X163.589 Y111.1 E.02339
G1 X204.817 Y152.328 E2.10743
G1 X204.515 Y152.673 E.01657
G1 X162.942 Y111.1 E2.12505
G1 X162.295 Y111.1 E.02339
G1 X204.201 Y153.006 E2.14209
G1 X203.887 Y153.339 E.01655
G1 X161.648 Y111.1 E2.15913
G1 X161.001 Y111.1 E.02339
M73 P3 R45
G1 X203.555 Y153.655 E2.17524
G1 X203.222 Y153.968 E.01655
G1 X160.354 Y111.1 E2.19128
G1 X159.707 Y111.1 E.02339
G1 X202.88 Y154.274 E2.20689
G1 X202.527 Y154.568 E.01661
G1 X159.06 Y111.1 E2.22192
G1 X158.412 Y111.1 E.02339
G1 X202.174 Y154.862 E2.23696
G1 X201.803 Y155.137 E.01672
G1 X157.765 Y111.1 E2.25104
G1 X157.118 Y111.1 E.02339
G1 X201.43 Y155.412 E2.26506
G1 X201.047 Y155.676 E.01681
G1 X156.471 Y111.1 E2.27858
G1 X155.824 Y111.1 E.02339
G1 X200.654 Y155.93 E2.29157
G1 X200.261 Y156.183 E.01692
G1 X155.177 Y111.1 E2.30452
G1 X154.53 Y111.1 E.02339
M73 P4 R45
G1 X199.847 Y156.417 E2.31644
G1 X199.433 Y156.65 E.01717
G1 X153.883 Y111.1 E2.32837
G1 X153.236 Y111.1 E.02339
G1 X199.006 Y156.87 E2.3396
G1 X198.57 Y157.082 E.0175
G1 X152.588 Y111.1 E2.35043
G1 X151.941 Y111.1 E.02339
G1 X198.129 Y157.287 E2.36095
G1 X197.671 Y157.477 E.0179
G1 X151.294 Y111.1 E2.37063
G1 X150.647 Y111.1 E.02339
G1 X197.214 Y157.667 E2.38032
G1 X196.733 Y157.833 E.01838
G1 X150 Y111.1 E2.38884
G1 X149.353 Y111.1 E.02339
G1 X196.252 Y157.999 E2.39733
G1 X195.753 Y158.147 E.01882
G1 X148.706 Y111.1 E2.40488
G1 X148.059 Y111.1 E.02339
G1 X195.247 Y158.288 E2.41209
G1 X195.023 Y158.35 E.0084
G1 X194.726 Y158.414 E.01098
G1 X147.412 Y111.1 E2.41854
G1 X146.765 Y111.1 E.02339
G1 X194.193 Y158.529 E2.42439
G1 X193.647 Y158.63 E.02007
G1 X146.117 Y111.1 E2.42955
G1 X145.47 Y111.1 E.02339
G1 X193.086 Y158.715 E2.43392
G1 X192.51 Y158.786 E.02097
G1 X144.823 Y111.1 E2.43756
G1 X144.176 Y111.1 E.02339
G1 X191.916 Y158.84 E2.44031
G1 X191.304 Y158.875 E.02215
G1 X143.529 Y111.1 E2.44211
G1 X142.882 Y111.1 E.02339
G1 X190.676 Y158.894 E2.44308
G1 X190.035 Y158.9 E.02318
G1 X142.235 Y111.1 E2.44338
G1 X141.588 Y111.1 E.02339
G1 X189.388 Y158.9 E2.44338
G1 X188.741 Y158.9 E.02339
G1 X140.941 Y111.1 E2.44338
G1 X140.294 Y111.1 E.02339
G1 X188.094 Y158.9 E2.44338
G1 X187.447 Y158.9 E.02339
G1 X139.646 Y111.1 E2.44338
G1 X138.999 Y111.1 E.02339
M73 P5 R45
G1 X186.8 Y158.9 E2.44338
G1 X186.152 Y158.9 E.02339
G1 X138.352 Y111.1 E2.44338
G1 X137.705 Y111.1 E.02339
G1 X185.505 Y158.9 E2.44338
G1 X184.858 Y158.9 E.02339
G1 X137.058 Y111.1 E2.44338
G1 X136.411 Y111.1 E.02339
G1 X184.211 Y158.9 E2.44338
G1 X183.564 Y158.9 E.02339
G1 X135.764 Y111.1 E2.44338
G1 X135.117 Y111.1 E.02339
G1 X182.917 Y158.9 E2.44338
G1 X182.27 Y158.9 E.02339
G1 X134.47 Y111.1 E2.44338
G1 X133.823 Y111.1 E.02339
G1 X181.623 Y158.9 E2.44338
G1 X180.976 Y158.9 E.02339
G1 X133.175 Y111.1 E2.44338
G1 X132.528 Y111.1 E.02339
G1 X180.329 Y158.9 E2.44338
G1 X179.681 Y158.9 E.02339
G1 X131.881 Y111.1 E2.44338
G1 X131.234 Y111.1 E.02339
G1 X179.034 Y158.9 E2.44338
G1 X178.387 Y158.9 E.02339
G1 X130.587 Y111.1 E2.44338
G1 X129.94 Y111.1 E.02339
G1 X177.74 Y158.9 E2.44338
G1 X177.093 Y158.9 E.02339
G1 X129.293 Y111.1 E2.44338
G1 X128.646 Y111.1 E.02339
G1 X176.446 Y158.9 E2.44338
M73 P5 R44
G1 X175.799 Y158.9 E.02339
G1 X127.999 Y111.1 E2.44338
G1 X127.351 Y111.1 E.02339
G1 X175.152 Y158.9 E2.44338
G1 X174.505 Y158.9 E.02339
G1 X126.704 Y111.1 E2.44338
G1 X126.057 Y111.1 E.02339
G1 X173.857 Y158.9 E2.44338
G1 X173.21 Y158.9 E.02339
G1 X125.41 Y111.1 E2.44338
G1 X124.763 Y111.1 E.02339
G1 X172.563 Y158.9 E2.44338
G1 X171.916 Y158.9 E.02339
G1 X124.116 Y111.1 E2.44338
G1 X123.469 Y111.1 E.02339
M73 P6 R44
G1 X171.269 Y158.9 E2.44338
G1 X170.622 Y158.9 E.02339
G1 X122.822 Y111.1 E2.44338
G1 X122.175 Y111.1 E.02339
G1 X169.975 Y158.9 E2.44338
G1 X169.328 Y158.9 E.02339
G1 X121.528 Y111.1 E2.44338
G1 X120.88 Y111.1 E.02339
G1 X168.681 Y158.9 E2.44338
G1 X168.034 Y158.9 E.02339
G1 X120.233 Y111.1 E2.44338
G1 X119.586 Y111.1 E.02339
G1 X167.386 Y158.9 E2.44338
G1 X166.739 Y158.9 E.02339
G1 X118.939 Y111.1 E2.44338
G1 X118.292 Y111.1 E.02339
G1 X166.092 Y158.9 E2.44338
G1 X165.445 Y158.9 E.02339
G1 X117.645 Y111.1 E2.44338
G1 X116.998 Y111.1 E.02339
G1 X164.798 Y158.9 E2.44338
G1 X164.151 Y158.9 E.02339
G1 X116.351 Y111.1 E2.44338
G1 X115.704 Y111.1 E.02339
G1 X163.504 Y158.9 E2.44338
G1 X162.857 Y158.9 E.02339
G1 X115.057 Y111.1 E2.44338
G1 X114.409 Y111.1 E.02339
G1 X162.21 Y158.9 E2.44338
G1 X161.563 Y158.9 E.02339
G1 X113.762 Y111.1 E2.44338
G1 X113.115 Y111.1 E.02339
G1 X160.915 Y158.9 E2.44338
G1 X160.268 Y158.9 E.02339
G1 X112.468 Y111.1 E2.44338
G1 X111.821 Y111.1 E.02339
G1 X159.621 Y158.9 E2.44338
G1 X158.974 Y158.9 E.02339
G1 X111.174 Y111.1 E2.44338
G1 X110.527 Y111.1 E.02339
G1 X158.327 Y158.9 E2.44338
G1 X157.68 Y158.9 E.02339
G1 X109.88 Y111.1 E2.44338
G1 X109.233 Y111.1 E.02339
G1 X157.033 Y158.9 E2.44338
G1 X156.386 Y158.9 E.02339
M73 P7 R44
G1 X108.585 Y111.1 E2.44338
G1 X107.938 Y111.1 E.02339
G1 X155.739 Y158.9 E2.44338
G1 X155.092 Y158.9 E.02339
G1 X107.291 Y111.1 E2.44338
G1 X106.644 Y111.1 E.02339
G1 X154.444 Y158.9 E2.44338
G1 X153.797 Y158.9 E.02339
G1 X105.997 Y111.1 E2.44338
G1 X105.35 Y111.1 E.02339
G1 X153.15 Y158.9 E2.44338
G1 X152.503 Y158.9 E.02339
G1 X104.703 Y111.1 E2.44338
G1 X104.056 Y111.1 E.02339
G1 X151.856 Y158.9 E2.44338
G1 X151.209 Y158.9 E.02339
G1 X103.409 Y111.1 E2.44338
G1 X102.762 Y111.1 E.02339
G1 X150.562 Y158.9 E2.44338
G1 X149.915 Y158.9 E.02339
G1 X102.114 Y111.1 E2.44338
G1 X101.467 Y111.1 E.02339
G1 X149.268 Y158.9 E2.44338
G1 X148.62 Y158.9 E.02339
G1 X100.82 Y111.1 E2.44338
G1 X100.173 Y111.1 E.02339
G1 X147.973 Y158.9 E2.44338
G1 X147.326 Y158.9 E.02339
G1 X99.526 Y111.1 E2.44338
G1 X98.879 Y111.1 E.02339
G1 X146.679 Y158.9 E2.44338
G1 X146.032 Y158.9 E.02339
G1 X98.232 Y111.1 E2.44338
G1 X97.585 Y111.1 E.02339
G1 X145.385 Y158.9 E2.44338
