; HEADER_BLOCK_START
; generated by OrcaSlicer 2.1.1 on 2024-08-26 at 18:22:45
; total layer number: 150
; filament_density: 1.24
; filament_diameter: 1.75
; max_z_height: 30.00
; HEADER_BLOCK_END

; THUMBNAIL_BLOCK_START

;
; THUMBNAIL_BLOCK_END

; THUMBNAIL_BLOCK_START

;
; THUMBNAIL_BLOCK_END

; external perimeters extrusion width = 0.42mm
; perimeters extrusion width = 0.45mm
; infill extrusion width = 0.45mm
; solid infill extrusion width = 0.45mm
; top infill extrusion width = 0.42mm
; first layer extrusion width = 0.50mm

; EXECUTABLE_BLOCK_START
EXCLUDE_OBJECT_DEFINE NAME=Support_capteur_rapport_v4.step_id_0_copy_0 CENTER=115,115 POLYGON=[[77.5,94.0004],[152.5,94.0004],[152.5,100.058],[152.498,100.271],[152.494,100.472],[152.485,100.723],[152.477,100.885],[152.472,100.962],[152.449,101.297],[152.436,101.434],[152.409,101.709],[152.386,101.899],[152.358,102.119],[152.319,102.376],[152.295,102.528],[152.28,102.618],[152.236,102.861],[152.222,102.935],[152.181,103.132],[152.137,103.34],[152.121,103.406],[152.054,103.685],[152.041,103.742],[151.981,103.966],[151.934,104.141],[151.902,104.25],[151.816,104.538],[151.723,104.822],[151.687,104.931],[151.631,105.088],[151.547,105.32],[151.534,105.353],[151.397,105.705],[151.384,105.737],[151.236,106.086],[151.222,106.116],[151.064,106.462],[151.051,106.491],[150.883,106.834],[150.869,106.861],[150.691,107.2],[150.677,107.226],[150.489,107.561],[150.475,107.585],[150.277,107.916],[150.263,107.938],[150.056,108.265],[150.042,108.286],[149.825,108.608],[149.811,108.628],[149.584,108.945],[149.571,108.963],[149.335,109.274],[149.322,109.291],[149.076,109.597],[149.064,109.612],[148.809,109.913],[148.797,109.926],[148.533,110.221],[148.522,110.233],[148.249,110.521],[148.238,110.532],[147.956,110.813],[147.946,110.823],[147.656,111.097],[147.647,111.106],[147.348,111.373],[147.339,111.38],[147.032,111.64],[147.025,111.646],[146.709,111.899],[146.703,111.904],[146.379,112.148],[146.374,112.152],[146.043,112.388],[146.038,112.391],[145.7,112.619],[145.696,112.621],[145.35,112.84],[145.348,112.842],[144.995,113.052],[144.994,113.052],[144.634,113.253],[107.012,133.594],[106.581,133.82],[106.146,134.035],[105.705,134.24],[105.259,134.434],[104.808,134.617],[104.354,134.789],[103.895,134.951],[103.432,135.1],[102.966,135.239],[102.497,135.366],[102.025,135.482],[101.55,135.586],[101.073,135.679],[100.593,135.76],[100.112,135.829],[99.6292,135.887],[99.1452,135.933],[98.6602,135.967],[98.1745,135.989],[97.6884,136],[97.2022,135.998],[96.7161,135.985],[96.2306,135.96],[95.7458,135.923],[95.262,135.875],[94.7795,135.815],[94.2987,135.743],[93.8197,135.659],[93.3429,135.564],[92.8686,135.457],[92.397,135.338],[91.9284,135.209],[91.4632,135.068],[91.0014,134.915],[90.5436,134.752],[90.0898,134.577],[89.6404,134.391],[89.1957,134.195],[88.7559,133.988],[88.3212,133.77],[87.892,133.541],[87.4684,133.303],[87.0508,133.054],[86.6393,132.795],[86.2343,132.526],[85.8359,132.247],[85.4444,131.959],[85.0601,131.661],[84.6831,131.354],[84.3136,131.038],[83.952,130.713],[83.5984,130.379],[83.253,130.037],[82.916,129.686],[82.5876,129.328],[82.268,128.961],[81.9575,128.587],[81.6561,128.206],[81.3641,127.817],[81.0816,127.421],[80.8088,127.019],[80.5459,126.61],[80.293,126.195],[80.0503,125.773],[79.8179,125.346],[79.5959,124.914],[79.3846,124.476],[79.1839,124.033],[78.994,123.585],[78.8151,123.133],[78.6473,122.677],[78.4905,122.217],[78.3451,121.753],[78.2109,121.285],[78.0881,120.815],[77.9768,120.342],[77.8771,119.866],[77.7889,119.388],[77.7124,118.907],[77.6476,118.426],[77.5945,117.942],[77.5532,117.458],[77.5236,116.973],[77.5059,116.487],[77.5,116],[77.5,94.0004]]
M73 P0 R120
;TYPE:Custom
M220 S100
G90 ; use absolute coordinates
M83 ; extruder relative mode
M104 S150 ; set temporary nozzle temp to prevent oozing during homing
M140 S80 ; set final bed temp
G4 S30 ; allow partial nozzle warmup
G28 ; home all axis and restore leveling
BED_MESH_CALIBRATE PROFILE=adaptive ADAPTIVE=1 ADAPTIVE_MARGIN=0
G1 Z25 F240
G1 X10.0 Y30 F3000
M104 S253 ; set final nozzle temp
M190 S80 ; wait for bed temp to stabilize
M109 S253 ; wait for nozzle temp to stabilize
G1 Z0.28 F240
G92 E0 ; Move Z Axis up
G1 Z2.0 F5000 ; Move to start position
G1 X5 Y30 Z0.28 F300 ; Draw the first line
G1 X5 Y200 Z0.28 F1500 E15 ; Move to side a little
G1 X5.4 Y200 Z0.28 F5000.0 ; Draw the second line
G1 X5.4 Y50 Z0.28 F1500.0 E30 ; Reset Extruder
G92 E0 ; Move Z Axis up
G1 Z2.0 F3000
M117 Start Printing..
G90
G21
M83 ; use relative distances for extrusion
; filament start gcode
M106 S0
;LAYER_CHANGE
;Z:0.2
;HEIGHT:0.2
;BEFORE_LAYER_CHANGE
;0.2
G92 E0

G1 E-1.5 F1800
;_SET_FAN_SPEED_CHANGING_LAYER
SET_VELOCITY_LIMIT ACCEL=500
SET_VELOCITY_LIMIT SQUARE_CORNER_VELOCITY=7
G1 Z.2 F18000
G1 X84.052 Y111.471
G1 Z.2
G1 E1.5 F1800
;TYPE:Skirt
;WIDTH:0.5
G1 F3000
G1 X85.5 Y111.086 E.05124
G1 X160.5 Y111.086 E2.56543
G1 X161.962 Y111.479 E.05178
G1 X163.029 Y112.553 E.05178
G1 X163.414 Y114 E.05124
G1 X163.406 Y120.593 E.2255
G1 X163.301 Y122.066 E.05052
G1 X163.092 Y123.438 E.04746
G1 X162.431 Y125.912 E.08761
G1 X161.92 Y127.221 E.04806
G1 X161.27 Y128.556 E.05079
G1 X160.516 Y129.827 E.05053
G1 X159.658 Y131.034 E.05066
G1 X157.958 Y132.931 E.08713
G1 X156.136 Y134.473 E.08165
G1 X154.055 Y135.797 E.08439
G1 X116.398 Y156.157 E1.4643
G1 X114.422 Y157.106 E.07498
G1 X112.331 Y157.873 E.07619
G1 X110.175 Y158.432 E.07619
G1 X107.975 Y158.78 E.07619
G1 X105.751 Y158.913 E.07619
G1 X103.525 Y158.829 E.07619
G1 X101.318 Y158.53 E.07619
G1 X99.151 Y158.017 E.07619
G1 X97.043 Y157.297 E.07619
G1 X95.015 Y156.375 E.07619
G1 X93.087 Y155.261 E.07619
G1 X91.22 Y153.92 E.07861
G1 X89.547 Y152.449 E.07619
G1 X88.026 Y150.823 E.07619
G1 X86.669 Y149.056 E.07619
G1 X85.491 Y147.166 E.07619
G1 X84.501 Y145.171 E.07619
G1 X83.71 Y143.089 E.07619
G1 X83.125 Y140.939 E.07619
G1 X82.751 Y138.744 E.07619
G1 X82.592 Y136.522 E.07619
G1 X82.586 Y114 E.77037
G1 X82.979 Y112.539 E.05178
G1 X84.024 Y111.5 E.05041
G1 X84.351 Y111.879 F18000
G1 F3000
G1 X84.485 Y111.763 E.00607
G1 X85.5 Y111.543 E.03551
G1 X160.5 Y111.543 E2.56543
G1 X161.831 Y111.935 E.04747
G1 X162.738 Y112.986 E.04747
G1 X162.957 Y114 E.03551
G1 X162.932 Y120.988 E.23902
G1 X162.796 Y122.424 E.04935
G1 X162.541 Y123.846 E.04939
G1 X161.835 Y126.214 E.08453
G1 X161.3 Y127.481 E.04705
G1 X160.633 Y128.761 E.04937
G1 X159.252 Y130.811 E.08455
G1 X158.317 Y131.91 E.04937
G1 X157.344 Y132.883 E.04705
G1 X155.806 Y134.148 E.06812
G1 X153.832 Y135.398 E.07992
G1 X116.18 Y155.755 E1.46409
G1 X114.239 Y156.687 E.07365
G1 X112.19 Y157.438 E.07467
G1 X110.077 Y157.986 E.07467
G1 X107.92 Y158.327 E.07467
G1 X105.741 Y158.456 E.07467
G1 X103.56 Y158.373 E.07467
G1 X101.397 Y158.079 E.07467
G1 X99.273 Y157.577 E.07467
G1 X97.207 Y156.87 E.07467
G1 X95.22 Y155.966 E.07467
G1 X93.33 Y154.874 E.07467
G1 X91.555 Y153.603 E.07467
G1 X89.869 Y152.125 E.07671
G1 X88.377 Y150.531 E.07467
G1 X87.048 Y148.8 E.07467
G1 X85.892 Y146.948 E.07467
G1 X84.922 Y144.992 E.07467
G1 X84.146 Y142.952 E.07467
G1 X83.572 Y140.846 E.07467
G1 X83.205 Y138.694 E.07467
G1 X83.049 Y136.516 E.07467
G1 X83.043 Y114 E.77018
G1 X83.435 Y112.669 E.04747
G1 X84.321 Y111.905 E.04003
; printing object Support capteur rapport v4.step id:0 copy 0
G1 E-1.5 F1800
;WIPE_START
G1 F12000
G1 X84.485 Y111.763
G1 X85.5 Y111.543
G1 X86.245 Y111.543
;WIPE_END
EXCLUDE_OBJECT_START NAME=Support_capteur_rapport_v4.step_id_0_copy_0
G1 Z.4 F18000
G1 X87.172 Y115.672 Z.4
G1 Z.2
G1 E1.5 F1800
;TYPE:Inner wall
;WIDTH:0.499999
G1 X158.829 Y115.672 E2.45108
G1 X158.829 Y120.036 E.14927
M73 P0 R119
G1 X158.808 Y120.794 E.02595
G1 X158.748 Y121.518 E.02484
G1 X158.579 Y122.624 E.03827
G1 X158.42 Y123.33 E.02477
G1 X158.22 Y124.038 E.02518
G1 X157.981 Y124.734 E.02516
G1 X157.704 Y125.415 E.02513
G1 X157.391 Y126.079 E.02513
G1 X157.046 Y126.715 E.02476
G1 X156.45 Y127.657 E.03812
G1 X156.015 Y128.248 E.02509
G1 X155.548 Y128.815 E.02512
G1 X155.058 Y129.347 E.02476
G1 X154.248 Y130.113 E.03811
G1 X153.682 Y130.579 E.02509
G1 X153.09 Y131.014 E.02512
G1 X152.475 Y131.415 E.02513
G1 X151.819 Y131.794 E.02591
G1 X114.235 Y152.114 E1.46146
G1 X113.423 Y152.528 E.03116
G1 X112.61 Y152.893 E.03048
G1 X111.79 Y153.215 E.03014
G1 X110.5 Y153.633 E.04639
G1 X109.647 Y153.853 E.03014
G1 X108.774 Y154.034 E.03048
G1 X107.894 Y154.172 E.03048
G1 X107.008 Y154.267 E.03048
G1 X106.118 Y154.318 E.03048
G1 X105.227 Y154.327 E.03048
G1 X104.337 Y154.292 E.03048
G1 X103.449 Y154.214 E.03048
G1 X102.566 Y154.092 E.03048
G1 X101.69 Y153.928 E.03048
G1 X100.824 Y153.722 E.03048
G1 X99.968 Y153.474 E.03048
G1 X99.125 Y153.184 E.03048
G1 X98.297 Y152.854 E.03048
G1 X97.487 Y152.484 E.03048
G1 X96.695 Y152.075 E.03048
G1 X95.924 Y151.628 E.03048
G1 X95.176 Y151.144 E.03048
G1 X94.452 Y150.625 E.03048
G1 X93.754 Y150.071 E.03048
G1 X93.084 Y149.483 E.03048
G1 X92.444 Y148.864 E.03048
G1 X91.834 Y148.214 E.03048
G1 X91.257 Y147.535 E.03048
G1 X90.713 Y146.829 E.03048
G1 X90.204 Y146.098 E.03048
G1 X89.731 Y145.342 E.03048
G1 X89.296 Y144.565 E.03048
G1 X88.899 Y143.767 E.03048
G1 X88.541 Y142.951 E.03048
G1 X88.223 Y142.119 E.03048
G1 X87.949 Y141.281 E.03014
G1 X87.609 Y139.979 E.04605
G1 X87.367 Y138.664 E.04571
G1 X87.22 Y137.326 E.04605
G1 X87.177 Y136.446 E.03015
G1 X87.172 Y115.712 E.70922
G1 X86.714 Y115.215 F18000
G1 F1800
G1 X159.286 Y115.215 E2.48235
G1 X159.286 Y120.042 E.16512
G1 X159.264 Y120.819 E.0266
G1 X159.202 Y121.571 E.02581
G1 X159.028 Y122.708 E.03935
G1 X158.864 Y123.442 E.02573
G1 X158.656 Y124.175 E.02604
G1 X158.409 Y124.895 E.02603
G1 X158.123 Y125.599 E.02599
G1 X157.799 Y126.286 E.02599
G1 X157.441 Y126.947 E.02572
G1 X156.827 Y127.915 E.03919
G1 X156.376 Y128.529 E.02606
G1 X155.893 Y129.115 E.02598
G1 X155.383 Y129.668 E.02572
G1 X154.551 Y130.456 E.03919
G1 X153.963 Y130.94 E.02607
G1 X153.351 Y131.39 E.02598
G1 X152.715 Y131.805 E.02599
G1 X152.042 Y132.193 E.02656
G1 X114.447 Y152.519 E1.46187
G1 X113.621 Y152.94 E.03173
G1 X112.788 Y153.315 E.03124
G1 X111.944 Y153.646 E.031
G1 X110.628 Y154.072 E.04734
G1 X109.75 Y154.299 E.031
G1 X108.856 Y154.484 E.03124
G1 X107.953 Y154.625 E.03124
G1 X107.045 Y154.722 E.03124
G1 X106.134 Y154.775 E.03124
G1 X105.22 Y154.784 E.03124
G1 X104.308 Y154.748 E.03124
G1 X103.398 Y154.668 E.03124
G1 X102.493 Y154.544 E.03124
G1 X101.595 Y154.376 E.03124
G1 X100.707 Y154.164 E.03124
G1 X99.83 Y153.91 E.03124
G1 X98.966 Y153.613 E.03124
G1 X98.118 Y153.275 E.03124
G1 X97.287 Y152.895 E.03124
G1 X96.475 Y152.476 E.03124
G1 X95.685 Y152.018 E.03124
G1 X94.918 Y151.522 E.03124
G1 X94.177 Y150.99 E.03124
G1 X93.461 Y150.421 E.03124
G1 X92.775 Y149.819 E.03124
G1 X92.118 Y149.185 E.03124
G1 X91.493 Y148.519 E.03124
G1 X90.901 Y147.823 E.03124
G1 X90.344 Y147.099 E.03124
G1 X89.822 Y146.35 E.03124
G1 X89.338 Y145.576 E.03124
G1 X88.892 Y144.779 E.03124
G1 X88.485 Y143.961 E.03124
G1 X88.118 Y143.125 E.03124
G1 X87.792 Y142.271 E.03124
G1 X87.51 Y141.41 E.031
G1 X87.163 Y140.078 E.0471
G1 X86.914 Y138.731 E.04685
G1 X86.764 Y137.362 E.0471
G1 X86.72 Y136.457 E.031
G1 X86.714 Y115.255 E.72524
G1 X86.257 Y114.758 F18000
G1 F1800
G1 X159.743 Y114.758 E2.51362
G1 X159.743 Y120.048 E.18097
G1 X159.721 Y120.845 E.02725
G1 X159.656 Y121.625 E.02678
G1 X159.478 Y122.793 E.04042
G1 X159.307 Y123.555 E.0267
G1 X159.093 Y124.311 E.0269
G1 X158.837 Y125.055 E.02689
G1 X158.542 Y125.782 E.02686
G1 X158.207 Y126.492 E.02685
G1 X157.835 Y127.178 E.02669
G1 X157.205 Y128.173 E.04027
G1 X156.737 Y128.81 E.02704
G1 X156.238 Y129.415 E.02685
G1 X155.709 Y129.989 E.02669
G1 X154.854 Y130.798 E.04026
G1 X154.244 Y131.301 E.02704
G1 X153.611 Y131.766 E.02685
G1 X152.954 Y132.195 E.02685
G1 X152.265 Y132.592 E.0272
G1 X114.66 Y152.924 E1.46228
G1 X113.818 Y153.352 E.0323
G1 X112.965 Y153.736 E.032
G1 X112.098 Y154.076 E.03185
G1 X110.755 Y154.512 E.04829
G1 X109.853 Y154.744 E.03185
G1 X108.937 Y154.934 E.032
G1 X108.013 Y155.078 E.032
G1 X107.083 Y155.178 E.032
G1 X106.149 Y155.232 E.032
G1 X105.213 Y155.241 E.032
G1 X104.279 Y155.204 E.032
G1 X103.347 Y155.122 E.032
G1 X102.42 Y154.995 E.032
G1 X101.5 Y154.823 E.032
G1 X100.59 Y154.606 E.032
G1 X99.692 Y154.346 E.032
G1 X98.807 Y154.042 E.032
G1 X97.938 Y153.695 E.032
G1 X97.087 Y153.307 E.032
G1 X96.256 Y152.877 E.032
G1 X95.446 Y152.408 E.032
G1 X94.661 Y151.9 E.032
G1 X93.901 Y151.354 E.032
G1 X93.168 Y150.772 E.032
G1 X92.465 Y150.156 E.032
G1 X91.792 Y149.505 E.032
G1 X91.152 Y148.823 E.032
G1 X90.546 Y148.111 E.032
G1 X89.975 Y147.37 E.032
G1 X89.441 Y146.602 E.032
G1 X88.945 Y145.809 E.032
G1 X88.487 Y144.992 E.032
G1 X88.071 Y144.155 E.032
G1 X87.695 Y143.298 E.032
G1 X87.361 Y142.424 E.032
G1 X87.072 Y141.539 E.03185
G1 X86.716 Y140.177 E.04814
G1 X86.462 Y138.797 E.04799
G1 X86.308 Y137.398 E.04814
G1 X86.263 Y136.468 E.03186
G1 X86.257 Y114.798 E.74126
G1 X85.8 Y114.3 F18000
;TYPE:Outer wall
G1 F1800
G1 X160.2 Y114.3 E2.5449
G1 X160.2 Y120.054 E.19682
G1 X160.177 Y120.87 E.0279
G1 X160.11 Y121.678 E.02775
G1 X159.927 Y122.877 E.0415
G1 X159.75 Y123.667 E.02767
G1 X159.529 Y124.448 E.02777
G1 X159.266 Y125.215 E.02775
G1 X158.961 Y125.966 E.02772
G1 X158.615 Y126.699 E.02772
G1 X158.23 Y127.41 E.02766
G1 X157.582 Y128.431 E.04134
G1 X157.098 Y129.09 E.02801
G1 X156.582 Y129.716 E.02772
G1 X156.035 Y130.311 E.02766
G1 X155.157 Y131.141 E.04134
G1 X154.525 Y131.662 E.02801
G1 X153.872 Y132.141 E.02772
G1 X153.193 Y132.584 E.02772
G1 X152.488 Y132.991 E.02785
G1 X114.872 Y153.328 E1.46268
G1 X114.016 Y153.765 E.03287
G1 X113.142 Y154.158 E.03276
G1 X112.252 Y154.507 E.03271
G1 X110.883 Y154.951 E.04924
G1 X109.957 Y155.19 E.03271
G1 X109.019 Y155.384 E.03276
G1 X108.073 Y155.532 E.03276
G1 X107.12 Y155.634 E.03276
G1 X106.164 Y155.689 E.03276
G1 X105.207 Y155.698 E.03276
G1 X104.25 Y155.661 E.03276
G1 X103.296 Y155.577 E.03276
G1 X102.347 Y155.446 E.03276
G1 X101.405 Y155.27 E.03276
G1 X100.474 Y155.048 E.03276
G1 X99.554 Y154.782 E.03276
G1 X98.648 Y154.47 E.03276
G1 X97.758 Y154.115 E.03276
G1 X96.887 Y153.718 E.03276
G1 X96.036 Y153.278 E.03276
G1 X95.208 Y152.798 E.03276
G1 X94.403 Y152.278 E.03276
G1 X93.625 Y151.719 E.03276
G1 X92.875 Y151.123 E.03276
G1 X92.155 Y150.492 E.03276
G1 X91.467 Y149.826 E.03276
G1 X90.811 Y149.128 E.03276
G1 X90.191 Y148.399 E.03276
G1 X89.606 Y147.64 E.03276
G1 X89.059 Y146.853 E.03276
G1 X88.551 Y146.042 E.03276
G1 X88.083 Y145.206 E.03276
G1 X87.656 Y144.349 E.03276
G1 X87.272 Y143.471 E.03276
G1 X86.93 Y142.577 E.03276
G1 X86.633 Y141.668 E.03271
G1 X86.27 Y140.276 E.04919
G1 X86.009 Y138.864 E.04913
G1 X85.852 Y137.434 E.04919
G1 X85.806 Y136.479 E.03271
G1 X85.8 Y114.34 E.75727
G1 E-1.5
;WIPE_START
G1 F12000
G1 X87.8 Y114.339
;WIPE_END
G1 Z.4 F18000
G1 X102.289 Y128.922 Z.4
G1 Z.2
G1 E1.5 F1800
;TYPE:Inner wall
G1 X102.632 Y128.804 E.0124
G1 X108.161 Y128.804 E.18914
G1 X108.611 Y128.869 E.01554
G1 X109.147 Y129.11 E.02012
G1 X109.709 Y129.439 E.02228
G1 X110.27 Y129.835 E.02349
G1 X110.794 Y130.279 E.02349
G1 X111.277 Y130.767 E.02349
G1 X111.715 Y131.296 E.02349
G1 X112.105 Y131.861 E.02349
G1 X112.444 Y132.459 E.02349
G1 X112.729 Y133.083 E.02349
G1 X112.957 Y133.731 E.0235
G1 X113.184 Y134.699 E.034
G1 X113.273 Y135.415 E.0247
G1 X113.294 Y136.102 E.0235
G1 X113.217 Y137.093 E.034
G1 X113.084 Y137.803 E.0247
G1 X112.896 Y138.463 E.02349
G1 X112.65 Y139.104 E.02349
G1 X112.35 Y139.722 E.02349
G1 X111.995 Y140.31 E.0235
G1 X111.393 Y141.101 E.034
G1 X110.669 Y141.833 E.0352
G1 X110.108 Y142.287 E.0247
G1 X109.537 Y142.669 E.02349
G1 X108.915 Y143.008 E.02423
G1 X108.59 Y143.138 E.01198
G1 X108.161 Y143.197 E.0148
G1 X102.834 Y143.197 E.18223
G1 X102.404 Y143.136 E.01487
G1 X101.853 Y142.891 E.02062
G1 X101.364 Y142.605 E.01936
G1 X100.73 Y142.166 E.0264
G1 X100.206 Y141.722 E.02349
G1 X99.723 Y141.234 E.02349
G1 X99.285 Y140.705 E.02349
G1 X98.965 Y140.243 E.01922
G1 X98.559 Y139.547 E.02756
G1 X98.269 Y138.911 E.0239
G1 X98.031 Y138.197 E.02575
G1 X97.809 Y137.267 E.03269
G1 X97.727 Y136.586 E.02349
