; HEADER_BLOCK_START
; generated by OrcaSlicer 2.0.0 on 2024-06-07 at 17:11:12
; total layer number: 200
; filament_density: 1.27
; filament_diameter: 1.75
; max_z_height: 40.00
; HEADER_BLOCK_END

; THUMBNAIL_BLOCK_START

;
; THUMBNAIL_BLOCK_END

; THUMBNAIL_BLOCK_START

;
; THUMBNAIL_BLOCK_END

; external perimeters extrusion width = 0.40mm
; perimeters extrusion width = 0.42mm
; infill extrusion width = 0.45mm
; solid infill extrusion width = 0.42mm
; top infill extrusion width = 0.40mm
; support material extrusion width = 0.38mm
; first layer extrusion width = 0.50mm

; EXECUTABLE_BLOCK_START
EXCLUDE_OBJECT_DEFINE NAME=Corps1.stl_id_0_copy_0 CENTER=115,115 POLYGON=[[92.5,98.8798],[92.5163,98.4021],[92.5652,97.9266],[92.6464,97.4556],[92.7596,96.9912],[92.9042,96.5356],[93.0795,96.091],[93.2848,95.6593],[93.5191,95.2427],[93.7812,94.843],[94.07,94.4622],[94.3841,94.1019],[94.7221,93.7639],[102.273,87.0726],[102.426,86.9621],[102.612,86.8531],[105.543,85.1909],[105.726,85.1005],[105.873,85.0378],[106.083,84.9509],[106.321,84.8662],[106.588,84.7842],[106.882,84.705],[107.202,84.6289],[107.548,84.5562],[107.674,84.5311],[108.037,84.4633],[108.422,84.3993],[108.828,84.3394],[109.253,84.2837],[109.697,84.2325],[110.157,84.1858],[110.632,84.1439],[111.12,84.107],[111.62,84.0751],[112.129,84.0483],[112.648,84.0267],[113.173,84.0105],[113.702,83.9997],[114.234,83.9943],[114.766,83.9943],[115.298,83.9997],[115.827,84.0105],[116.352,84.0267],[116.87,84.0483],[117.38,84.0751],[117.88,84.107],[118.368,84.1439],[118.843,84.1858],[119.303,84.2325],[119.747,84.2837],[120.172,84.3394],[120.578,84.3993],[120.965,84.4637],[121.326,84.5311],[121.452,84.5562],[121.798,84.6289],[122.118,84.705],[122.412,84.7842],[122.679,84.8662],[122.917,84.9509],[123.127,85.0378],[123.274,85.1005],[123.457,85.1909],[126.388,86.8531],[126.574,86.9621],[126.727,87.0726],[134.918,93.4498],[135.278,93.7639],[135.616,94.1019],[135.93,94.4622],[136.219,94.843],[136.481,95.2427],[136.715,95.6593],[136.92,96.091],[137.096,96.5356],[137.24,96.9912],[137.354,97.4556],[137.435,97.9266],[137.484,98.4021],[137.5,98.8798],[137.5,131.88],[137.484,132.357],[137.435,132.833],[137.354,133.304],[137.24,133.768],[137.096,134.224],[136.92,134.669],[136.715,135.1],[136.481,135.517],[136.219,135.917],[135.93,136.297],[135.616,136.658],[135.278,136.996],[134.918,137.31],[134.537,137.599],[126.574,143.038],[126.388,143.147],[123.457,144.809],[123.274,144.9],[123.127,144.962],[122.917,145.049],[122.679,145.134],[122.412,145.216],[122.118,145.295],[121.798,145.371],[121.452,145.444],[121.326,145.469],[120.965,145.536],[120.578,145.601],[120.172,145.661],[119.747,145.716],[119.303,145.768],[118.843,145.814],[118.368,145.856],[117.88,145.893],[117.38,145.925],[116.87,145.952],[116.352,145.973],[115.827,145.989],[115.298,146],[114.766,146.006],[114.234,146.006],[113.702,146],[113.173,145.989],[112.648,145.973],[112.129,145.952],[111.62,145.925],[111.12,145.893],[110.632,145.856],[110.157,145.814],[109.697,145.768],[109.253,145.716],[108.828,145.661],[108.422,145.601],[108.037,145.537],[107.674,145.469],[107.548,145.444],[107.202,145.371],[106.882,145.295],[106.588,145.216],[106.321,145.134],[106.083,145.049],[105.873,144.962],[105.726,144.9],[105.543,144.809],[102.612,143.147],[102.426,143.038],[102.273,142.927],[95.0824,137.31],[94.7221,136.996],[94.3841,136.658],[94.07,136.297],[93.7812,135.917],[93.5191,135.517],[93.2848,135.1],[93.0795,134.669],[92.9042,134.224],[92.7596,133.768],[92.6464,133.304],[92.5652,132.833],[92.5163,132.357],[92.5,131.88],[92.5,98.8798]]
M73 P0 R66
;TYPE:Custom
M220 S100
G90 ; use absolute coordinates
M83 ; extruder relative mode
M104 S150 ; set temporary nozzle temp to prevent oozing during homing
M140 S70 ; set final bed temp
G4 S30 ; allow partial nozzle warmup
G28 ; home all axis and restore leveling
BED_MESH_CALIBRATE PROFILE=adaptive ADAPTIVE=1 ADAPTIVE_MARGIN=0
G1 Z25 F240
G1 X10.0 Y30 F3000
M104 S245 ; set final nozzle temp
M190 S70 ; wait for bed temp to stabilize
M109 S245 ; wait for nozzle temp to stabilize
G1 Z0.28 F240
G92 E0 ; Move Z Axis up
G1 Z2.0 F5000 ; Move to start position
G1 X5 Y30 Z0.28 F300 ; Draw the first line
G1 X5 Y200 Z0.28 F1500 E15 ; Move to side a little
G1 X5.4 Y200 Z0.28 F5000.0 ; Draw the second line
G1 X5.4 Y50 Z0.28 F1500.0 E30 ; Reset Extruder
G92 E0 ; Move Z Axis up
G1 Z2.0 F3000
M117 Start Printing..
G90
G21
M83 ; use relative distances for extrusion
; filament start gcode
M106 S0
;LAYER_CHANGE
;Z:0.2
;HEIGHT:0.2
;BEFORE_LAYER_CHANGE
;0.2
G92 E0

G1 E-.5 F2400
;_SET_FAN_SPEED_CHANGING_LAYER
SET_VELOCITY_LIMIT ACCEL=500 ACCEL_TO_DECEL=250
SET_VELOCITY_LIMIT SQUARE_CORNER_VELOCITY=7
; printing object Corps1.stl id:0 copy 0
EXCLUDE_OBJECT_START NAME=Corps1.stl_id_0_copy_0
G1 Z.2 F18000
G1 X118.184 Y102.056
G1 Z.2
G1 E.5 F2400
;TYPE:Support
;WIDTH:0.5
G1 F1800
G1 X118.745 Y102.081 E.02133
G1 X119.675 Y102.293 E.03628
G1 X120.553 Y102.669 E.03628
G1 X121.35 Y103.195 E.03628
G1 X122.136 Y103.947 E.04136
G1 X122.964 Y103.286 E.04025
G1 X123.805 Y102.834 E.03629
G1 X124.713 Y102.538 E.03629
G1 X125.659 Y102.41 E.03629
G1 X126.613 Y102.453 E.03629
G1 X127.544 Y102.665 E.03629
G1 X128.422 Y103.041 E.03629
G1 X129.218 Y103.567 E.03629
G1 X129.908 Y104.227 E.03629
G1 X130.469 Y104.999 E.03629
G1 X130.883 Y105.859 E.03629
G1 X131.137 Y106.78 E.03628
G1 X131.222 Y107.731 E.03628
G1 X131.136 Y108.681 E.03628
G1 X130.882 Y109.601 E.03628
G1 X130.468 Y110.461 E.03627
G1 X129.906 Y111.233 E.03627
G1 X129.857 Y111.28 E.00259
G1 X121.96 Y111.28 E.30014
G1 X121.796 Y111.092 E.00946
G1 X121.6 Y111.28 E.01031
G1 X114.445 Y111.28 E.27193
G1 X114.351 Y111.205 E.00455
G1 X113.723 Y110.486 E.03627
G1 X113.234 Y109.667 E.03627
G1 X112.898 Y108.774 E.03627
G1 X112.728 Y107.835 E.03627
G1 X112.728 Y106.88 E.03627
G1 X112.898 Y105.941 E.03627
G1 X113.233 Y105.048 E.03627
G1 X113.723 Y104.228 E.03628
G1 X114.35 Y103.509 E.03628
G1 X115.097 Y102.914 E.03628
G1 X115.937 Y102.462 E.03628
G1 X116.845 Y102.167 E.03628
G1 X117.791 Y102.038 E.03628
G1 X118.115 Y102.053 E.01234
G1 X130.618 Y109.675 F18000
G1 F1800
G1 X130.618 Y106.445 E.12277
G1 X130.497 Y106.004 E.01736
G1 X130.11 Y105.205 E.03376
G1 X130.11 Y110.253 E.19187
G1 X129.663 Y110.868 E.02892
G1 X129.602 Y110.868 E.00229
G1 X129.602 Y104.505 E.24185
G1 X129.094 Y104.017 E.02676
G1 X129.094 Y110.868 E.26039
G1 X128.587 Y110.868 E.0193
G1 X128.587 Y103.642 E.27464
G1 X128.226 Y103.404 E.01643
G1 X128.079 Y103.341 E.00608
G1 X128.079 Y110.868 E.28608
G1 X127.571 Y110.868 E.0193
G1 X127.571 Y103.124 E.29433
G1 X127.416 Y103.058 E.0064
G1 X127.063 Y102.977 E.01376
G1 X127.063 Y110.868 E.29991
G1 X126.555 Y110.868 E.0193
G1 X126.555 Y102.862 E.3043
G1 X126.047 Y102.839 E.01932
G1 X126.047 Y110.868 E.30516
G1 X125.539 Y110.868 E.0193
G1 X125.539 Y102.841 E.30508
G1 X125.031 Y102.91 E.01948
G1 X125.031 Y110.868 E.30246
G1 X124.524 Y110.868 E.0193
G1 X124.524 Y103.032 E.29782
G1 X124.016 Y103.198 E.0203
G1 X124.016 Y110.868 E.29154
G1 X123.508 Y110.868 E.0193
G1 X123.508 Y103.461 E.28154
G1 X123.192 Y103.631 E.01365
G1 X123 Y103.784 E.00932
G1 X123 Y110.868 E.26926
G1 X122.492 Y110.868 E.0193
G1 X122.492 Y104.189 E.25386
G1 X122.112 Y104.493 E.01849
G1 X121.984 Y104.37 E.00671
G1 X121.984 Y110.683 E.2399
G1 X121.823 Y110.498 E.00933
G1 X121.476 Y110.829 E.01821
G1 X121.476 Y103.885 E.26392
G1 X121.092 Y103.517 E.0202
G1 X120.969 Y103.436 E.00563
G1 X120.969 Y110.868 E.28249
G1 X120.461 Y110.868 E.0193
G1 X120.461 Y103.101 E.29523
G1 X120.357 Y103.032 E.00471
G1 X119.953 Y102.859 E.01672
G1 X119.953 Y110.868 E.30439
G1 X119.445 Y110.868 E.0193
G1 X119.445 Y102.663 E.31186
G1 X118.937 Y102.547 E.0198
G1 X118.937 Y110.868 E.31627
G1 X118.429 Y110.868 E.0193
G1 X118.429 Y102.479 E.31886
G1 X117.921 Y102.456 E.01932
G1 X117.921 Y110.868 E.31973
G1 X117.413 Y110.868 E.0193
G1 X117.413 Y102.505 E.31788
G1 X116.906 Y102.579 E.01951
G1 X116.906 Y110.868 E.31504
G1 X116.398 Y110.868 E.0193
G1 X116.398 Y102.745 E.30876
G1 X116.1 Y102.841 E.01192
G1 X115.89 Y102.954 E.00905
G1 X115.89 Y110.868 E.30079
G1 X115.382 Y110.868 E.0193
M73 P1 R66
G1 X115.382 Y103.228 E.2904
G1 X114.874 Y103.618 E.02434
G1 X114.874 Y110.868 E.27557
G1 X114.603 Y110.868 E.01029
G1 X114.366 Y110.597 E.0137
G1 X114.366 Y104.117 E.2463
G1 X114.057 Y104.471 E.01788
G1 X113.858 Y104.803 E.0147
G1 X113.858 Y109.91 E.19411
G1 X113.606 Y109.488 E.0187
G1 X113.351 Y108.808 E.02762
G1 X113.351 Y105.321 E.13254
G1 E-.35 F2400
;WIPE_START
G1 F1800
G1 X113.351 Y106.321 E-.15
;WIPE_END
G1 Z.4 F18000
G1 X133.611 Y159.698 Z.4
G1 Z.2
G1 E.5 F2400
G1 F1800
G1 X133.927 Y160.534 E.03396
G1 X134.039 Y161.433 E.03447
G1 X133.936 Y162.334 E.03445
G1 X133.624 Y163.185 E.03444
G1 X133.121 Y163.938 E.03443
G1 X132.454 Y164.552 E.03443
G1 X131.662 Y164.991 E.03444
G1 X130.788 Y165.232 E.03446
G1 X129.881 Y165.26 E.03449
G1 X129.647 Y165.211 E.00907
G1 X129.484 Y165.321 E.00749
G1 X129.175 Y165.443 E.01262
G1 X128.644 Y166.236 E.03627
G1 X128.346 Y166.542 E.01621
G1 X127.851 Y166.987 E.0253
G1 X127.005 Y167.511 E.03784
G1 X126.436 Y167.746 E.02341
G1 X126.091 Y167.874 E.01399
G1 X125.164 Y168.064 E.03594
G1 X124.206 Y168.089 E.03644
G1 X123.267 Y167.948 E.03607
G1 X122.596 Y167.723 E.02691
G1 X122.41 Y167.757 E.00719
G1 X121.463 Y167.758 E.03598
G1 X120.53 Y167.589 E.03603
G1 X119.639 Y167.257 E.03613
G1 X118.786 Y166.751 E.0377
G1 X118.047 Y166.054 E.03859
G1 X117.888 Y165.828 E.01053
G1 X117.254 Y165.793 E.02412
G1 X116.384 Y165.551 E.03432
G1 X115.96 Y165.327 E.01823
G1 X115.42 Y165.541 E.02209
G1 X114.532 Y165.686 E.0342
G1 X113.634 Y165.637 E.03419
G1 X112.767 Y165.396 E.03419
G1 X111.972 Y164.975 E.03418
G1 X111.287 Y164.393 E.03418
G1 X110.742 Y163.678 E.03417
G1 X110.364 Y162.861 E.03421
G1 X110.169 Y161.983 E.03417
G1 X110.168 Y161.084 E.03417
G1 X110.36 Y160.204 E.03424
G1 X110.694 Y159.48 E.03029
G1 X133.466 Y159.48 E.8655
G1 X133.573 Y159.641 E.00734
G1 X133.157 Y163.513 F18000
G1 F1800
G1 X133.157 Y159.891 E.13767
G1 X132.649 Y159.891 E.0193
G1 X132.649 Y163.813 E.14905
G1 X132.212 Y164.216 E.0226
G1 X132.142 Y164.255 E.00306
G1 X132.142 Y159.891 E.16584
G1 X131.634 Y159.891 E.0193
G1 X131.634 Y164.536 E.17655
G1 X131.505 Y164.608 E.00558
G1 X131.126 Y164.712 E.01496
G1 X131.126 Y159.891 E.18323
G1 X130.618 Y159.891 E.0193
G1 X130.618 Y164.826 E.18754
G1 X130.11 Y164.841 E.01931
G1 X130.11 Y159.891 E.18813
G1 X129.602 Y159.891 E.0193
G1 X129.602 Y164.781 E.18584
G1 X129.561 Y164.772 E.00159
G1 X129.29 Y164.955 E.01242
G1 X129.094 Y165.033 E.00802
G1 X129.094 Y159.891 E.19542
G1 X128.587 Y159.891 E.0193
G1 X128.587 Y165.583 E.21631
G1 X128.323 Y165.976 E.018
G1 X128.079 Y166.227 E.0133
G1 X128.079 Y159.891 E.24079
G1 X127.571 Y159.891 E.0193
G1 X127.571 Y166.678 E.25793
G1 X127.063 Y166.999 E.02284
G1 X127.063 Y159.891 E.27013
G1 X126.555 Y159.891 E.0193
G1 X126.555 Y167.252 E.27975
G1 X126.047 Y167.451 E.02074
G1 X126.047 Y159.891 E.28734
G1 X125.539 Y159.891 E.0193
G1 X125.539 Y167.567 E.29174
G1 X125.117 Y167.654 E.01638
G1 X125.031 Y167.656 E.00326
G1 X125.031 Y159.891 E.29512
G1 X124.524 Y159.891 E.0193
G1 X124.524 Y167.669 E.29562
G1 X124.231 Y167.677 E.01112
G1 X124.016 Y167.644 E.00828
G1 X124.016 Y159.891 E.29468
G1 X123.508 Y159.891 E.0193
G1 X123.508 Y167.568 E.29177
G1 X123.364 Y167.546 E.00554
G1 X123 Y167.425 E.01457
G1 X123 Y159.891 E.28632
G1 X122.492 Y159.891 E.0193
G1 X122.492 Y167.324 E.2825
G1 X122.372 Y167.346 E.00462
G1 X121.984 Y167.346 E.01475
G1 X121.984 Y159.891 E.28333
G1 X121.476 Y159.891 E.0193
G1 X121.476 Y167.342 E.28318
G1 X120.969 Y167.25 E.01961
G1 X120.969 Y159.891 E.2797
G1 X120.461 Y159.891 E.0193
G1 X120.461 Y167.124 E.27491
G1 X119.953 Y166.935 E.0206
G1 X119.953 Y159.891 E.26771
G1 X119.445 Y159.891 E.0193
G1 X119.445 Y166.663 E.25738
G1 X119.035 Y166.42 E.01811
G1 X118.937 Y166.328 E.00512
G1 X118.937 Y159.891 E.24463
G1 X118.429 Y159.891 E.0193
G1 X118.429 Y165.849 E.22643
G1 X118.359 Y165.783 E.00364
G1 X118.109 Y165.428 E.01653
G1 X117.921 Y165.418 E.00714
G1 X117.921 Y159.891 E.21004
G1 X117.413 Y159.891 E.0193
G1 X117.413 Y165.39 E.20899
G1 X117.321 Y165.385 E.00352
G1 X116.906 Y165.27 E.01638
G1 X116.906 Y159.891 E.20441
G1 X116.398 Y159.891 E.0193
G1 X116.398 Y165.093 E.19771
G1 X115.985 Y164.874 E.01776
G1 X115.89 Y164.912 E.00389
G1 X115.89 Y159.891 E.19082
G1 X115.382 Y159.891 E.0193
G1 X115.382 Y165.114 E.19849
G1 X115.31 Y165.143 E.00296
G1 X114.874 Y165.214 E.01677
G1 X114.874 Y159.891 E.20229
G1 X114.366 Y159.891 E.0193
G1 X114.366 Y165.265 E.20425
G1 X113.858 Y165.237 E.01933
G1 X113.858 Y159.891 E.20319
G1 X113.351 Y159.891 E.0193
M73 P1 R65
G1 X113.351 Y165.132 E.19917
G1 X112.92 Y165.012 E.01698
G1 X112.843 Y164.971 E.00333
G1 X112.843 Y159.891 E.19306
G1 X112.335 Y159.891 E.0193
G1 X112.335 Y164.702 E.18283
G1 X112.204 Y164.633 E.00561
G1 X111.827 Y164.312 E.01882
G1 X111.827 Y159.891 E.16802
G1 X111.319 Y159.891 E.0193
G1 X111.319 Y163.756 E.1469
G1 X111.097 Y163.464 E.01396
G1 X110.811 Y162.849 E.02578
G1 X110.811 Y159.717 E.11904
G1 E-.35 F2400
;WIPE_START
G1 F1800
G1 X110.811 Y160.717 E-.15
;WIPE_END
G1 Z.4 F18000
G1 X139.385 Y112.653 Z.4
G1 Z.2
G1 E.5 F2400
;TYPE:Inner wall
;WIDTH:0.499999
G1 F1800
G1 X140.24 Y112.837 E.03323
G1 X141.057 Y113.136 E.03306
G1 X141.825 Y113.544 E.03308
G1 X142.521 Y114.047 E.0326
G1 X143.142 Y114.64 E.03265
G1 X143.675 Y115.309 E.03252
G1 X144.11 Y116.042 E.03239
G1 X144.442 Y116.823 E.03225
G1 X144.665 Y117.637 E.0321
;WIDTH:0.507878
G1 X144.772 Y118.446 E.03154
;WIDTH:0.536129
G1 X144.766 Y118.672 E.00924
;WIDTH:0.56438
G1 X144.761 Y118.897 E.00977
G1 X144.761 Y151.846 E1.42866
;WIDTH:0.569177
G1 X144.736 Y152.439 E.02599
;WIDTH:0.534588
G1 X144.733 Y152.736 E.01215
;WIDTH:0.499999
G1 X144.558 Y153.577 E.03263
G1 X144.27 Y154.386 E.03264
G1 X143.875 Y155.149 E.03263
G1 X143.38 Y155.85 E.03263
G1 X142.794 Y156.478 E.03263
G1 X142.128 Y157.02 E.03263
G1 X141.394 Y157.466 E.03263
G1 X140.607 Y157.808 E.03264
G1 X139.816 Y158.029 E.0312
G1 X139.348 Y158.099 E.01801
;WIDTH:0.532189
G1 X138.915 Y158.12 E.01761
;WIDTH:0.56438
G1 X138.483 Y158.141 E.01877
G1 X107.65 Y158.141 E1.33689
G1 X107.147 Y158.127 E.02184
;WIDTH:0.53219
G1 X106.643 Y158.113 E.02049
;WIDTH:0.499999
G1 X105.803 Y157.938 E.03263
G1 X104.994 Y157.65 E.03264
G1 X104.231 Y157.255 E.03264
G1 X103.53 Y156.76 E.03263
G1 X102.902 Y156.174 E.03263
G1 X102.36 Y155.508 E.03263
G1 X101.914 Y154.774 E.03263
G1 X101.572 Y153.987 E.03264
G1 X101.35 Y153.196 E.03119
G1 X101.281 Y152.728 E.01801
;WIDTH:0.53219
G1 X101.26 Y152.295 E.01761
;WIDTH:0.56438
G1 X101.239 Y151.863 E.01877
G1 X101.239 Y119.03 E1.42361
G1 X101.253 Y118.527 E.02184
;WIDTH:0.53219
G1 X101.267 Y118.023 E.02049
;WIDTH:0.499999
G1 X101.442 Y117.182 E.03263
G1 X101.73 Y116.373 E.03264
G1 X102.125 Y115.611 E.03263
G1 X102.62 Y114.909 E.03263
G1 X103.206 Y114.282 E.03263
G1 X103.872 Y113.74 E.03263
G1 X104.606 Y113.294 E.03263
G1 X105.393 Y112.952 E.03264
G1 X106.184 Y112.73 E.0312
G1 X106.652 Y112.661 E.01801
;WIDTH:0.53219
G1 X107.085 Y112.64 E.01761
;WIDTH:0.564338
G1 X107.517 Y112.619 E.01877
G1 X138.399 Y112.619 E1.33894
G1 X138.892 Y112.636 E.02138
;WIDTH:0.532169
G1 X139.345 Y112.652 E.01844
G1 X139.414 Y112.193 F18000
;TYPE:Outer wall
;WIDTH:0.499999
G1 F1800
G1 X139.419 Y112.193 E.00018
G1 X140.321 Y112.381 E.03501
G1 X141.189 Y112.689 E.03501
G1 X142.011 Y113.116 E.03519
G1 X142.759 Y113.644 E.03483
G1 X143.433 Y114.273 E.03501
G1 X144.014 Y114.988 E.03501
G1 X144.493 Y115.775 E.03501
G1 X144.86 Y116.62 E.03501
G1 X145.108 Y117.507 E.03501
G1 X145.229 Y118.383 E.03364
G1 X145.25 Y118.897 E.01953
G1 X145.25 Y151.872 E1.25324
G1 X145.187 Y152.799 E.03532
G1 X144.999 Y153.701 E.03501
G1 X144.691 Y154.569 E.03501
G1 X144.267 Y155.387 E.03501
G1 X143.736 Y156.139 E.03501
G1 X143.107 Y156.813 E.03501
G1 X142.392 Y157.394 E.03501
G1 X141.605 Y157.873 E.03501
G1 X140.76 Y158.24 E.03501
G1 X139.873 Y158.488 E.03501
G1 X138.996 Y158.609 E.03364
G1 X138.496 Y158.63 E.01905
G1 X107.508 Y158.63 E1.17772
