; HEADER_BLOCK_START
; generated by OrcaSlicer 2.1.1 on 2024-08-27 at 12:16:09
; total layer number: 286
; filament_density: 1.24
; filament_diameter: 1.75
; max_z_height: 42.00
; HEADER_BLOCK_END

; THUMBNAIL_BLOCK_START

;
; THUMBNAIL_BLOCK_END

; THUMBNAIL_BLOCK_START

;
; THUMBNAIL_BLOCK_END

; external perimeters extrusion width = 0.42mm
; perimeters extrusion width = 0.45mm
; infill extrusion width = 0.45mm
; solid infill extrusion width = 0.45mm
; top infill extrusion width = 0.42mm
; support material extrusion width = 0.42mm
; first layer extrusion width = 0.50mm

; EXECUTABLE_BLOCK_START
EXCLUDE_OBJECT_DEFINE NAME=Support_capteur_rapport_v4.step_id_0_copy_0 CENTER=115,104.918 POLYGON=[[77.5,94.918],[77.5057,94.6801],[77.5226,94.4427],[77.5509,94.2064],[77.5904,93.9717],[77.6409,93.7392],[77.7025,93.5093],[77.775,93.2826],[77.8582,93.0597],[77.9518,92.8409],[78.0558,92.6268],[78.1699,92.418],[78.2937,92.2148],[78.4271,92.0177],[78.5697,91.8272],[78.7213,91.6437],[78.8813,91.4676],[79.0496,91.2993],[79.2257,91.1392],[79.4092,90.9877],[79.5997,90.8451],[79.7968,90.7117],[80,90.5878],[80.2089,90.4738],[80.4229,90.3698],[80.6417,90.2761],[80.8647,90.193],[81.0913,90.1205],[81.3212,90.0589],[81.5537,90.0083],[81.7884,89.9689],[82.0247,89.9406],[82.2621,89.9236],[82.5,89.918],[147.5,89.918],[147.738,89.9236],[147.975,89.9406],[148.212,89.9689],[148.446,90.0083],[148.679,90.0589],[148.909,90.1205],[149.135,90.193],[149.358,90.2761],[149.577,90.3698],[149.791,90.4738],[150,90.5878],[150.203,90.7117],[150.4,90.8451],[150.591,90.9877],[150.774,91.1392],[150.95,91.2993],[151.119,91.4676],[151.279,91.6437],[151.43,91.8272],[151.573,92.0177],[151.706,92.2148],[151.83,92.418],[151.944,92.6268],[152.048,92.8409],[152.142,93.0597],[152.225,93.2826],[152.297,93.5093],[152.359,93.7392],[152.41,93.9717],[152.449,94.2064],[152.477,94.4427],[152.494,94.6801],[152.5,94.918],[152.5,119.918],[77.5,119.918],[77.5,94.918]]
M73 P0 R130
;TYPE:Custom
M220 S100
G90 ; use absolute coordinates
M83 ; extruder relative mode
M104 S150 ; set temporary nozzle temp to prevent oozing during homing
M140 S75 ; set final bed temp
G4 S30 ; allow partial nozzle warmup
G28 ; home all axis and restore leveling
BED_MESH_CALIBRATE PROFILE=adaptive ADAPTIVE=1 ADAPTIVE_MARGIN=0
G1 Z25 F240
G1 X10.0 Y30 F3000
M104 S257 ; set final nozzle temp
M190 S75 ; wait for bed temp to stabilize
M109 S257 ; wait for nozzle temp to stabilize
G1 Z0.28 F240
G92 E0 ; Move Z Axis up
M73 P0 R129
G1 Z2.0 F5000 ; Move to start position
G1 X5 Y30 Z0.28 F300 ; Draw the first line
G1 X5 Y200 Z0.28 F1500 E15 ; Move to side a little
G1 X5.4 Y200 Z0.28 F5000.0 ; Draw the second line
G1 X5.4 Y50 Z0.28 F1500.0 E30 ; Reset Extruder
G92 E0 ; Move Z Axis up
G1 Z2.0 F3000
M117 Start Printing..
G90
G21
M83 ; use relative distances for extrusion
; filament start gcode
M106 S0
;LAYER_CHANGE
;Z:0.2
;HEIGHT:0.2
;BEFORE_LAYER_CHANGE
;0.2
G92 E0

G1 E-.5 F1800
;_SET_FAN_SPEED_CHANGING_LAYER
SET_VELOCITY_LIMIT ACCEL=500
SET_VELOCITY_LIMIT SQUARE_CORNER_VELOCITY=7
G1 Z.2 F18000
G1 X81.363 Y104.372
G1 Z.2
G1 E.5 F1800
;TYPE:Skirt
;WIDTH:0.5
G1 F3000
G1 X82.355 Y103.587 E.04716
G1 X83.742 Y102.709 E.06114
G1 X84.983 Y102.101 E.05146
G1 X86.811 Y101.46 E.07215
G1 X88.453 Y101.114 E.06249
G1 X90.387 Y100.963 E.07224
G1 X155.863 Y100.97 E2.43874
G1 X158.088 Y101.208 E.08335
G1 X159.124 Y101.443 E.03957
G1 X160.343 Y101.833 E.04766
G1 X162.475 Y102.833 E.08773
G1 X164.356 Y104.137 E.08523
G1 X165.341 Y105.027 E.04946
G1 X166.236 Y106.008 E.04945
G1 X167.584 Y107.941 E.0878
G1 X168.578 Y110.054 E.08695
G1 X169.19 Y112.225 E.08403
G1 X169.384 Y113.538 E.04944
G1 X169.456 Y114.915 E.05137
G1 X169.456 Y139.918 E.93125
G1 X169.395 Y140.908 E.03696
G1 X169.152 Y142.194 E.04872
G1 X168.918 Y142.922 E.02849
G1 X168.546 Y143.802 E.0356
G1 X167.79 Y145.094 E.05572
G1 X167.384 Y145.63 E.02507
G1 X166.48 Y146.575 E.04872
G1 X164.869 Y147.729 E.07378
G1 X164.192 Y148.064 E.02813
G1 X162.64 Y148.605 E.06123
G1 X161.385 Y148.825 E.04747
G1 X160.5 Y148.874 E.03301
G1 X85.183 Y148.862 E2.80526
G1 X83.224 Y148.57 E.07378
G1 X82.458 Y148.32 E.03002
G1 X80.856 Y147.557 E.06608
G1 X79.788 Y146.802 E.04872
G1 X78.843 Y145.898 E.04872
G1 X77.689 Y144.287 E.07378
G1 X77.354 Y143.61 E.02813
G1 X76.813 Y142.058 E.06123
G1 X76.593 Y140.803 E.04747
G1 X76.544 Y139.918 E.03301
G1 X76.544 Y114.918 E.93116
G1 X76.679 Y112.993 E.07188
G1 X77 Y111.383 E.06114
G1 X77.541 Y109.744 E.06428
G1 X78.259 Y108.22 E.06278
G1 X79.134 Y106.824 E.06134
G1 X80.218 Y105.483 E.06421
G1 X81.334 Y104.4 E.05793
G1 X81.652 Y104.728 F18000
G1 F3000
G1 X81.67 Y104.71 E.00095
G1 X82.616 Y103.962 E.04492
G1 X83.957 Y103.112 E.05914
G1 X85.154 Y102.525 E.04963
G1 X86.925 Y101.902 E.06994
G1 X88.513 Y101.567 E.06044
G1 X90.387 Y101.42 E.07001
G1 X155.836 Y101.427 E2.43774
G1 X158.018 Y101.66 E.08173
G1 X160.198 Y102.267 E.0843
G1 X162.257 Y103.234 E.08472
G1 X164.078 Y104.499 E.08258
G1 X165.029 Y105.362 E.04784
G1 X165.894 Y106.311 E.04783
G1 X167.194 Y108.179 E.08478
G1 X168.154 Y110.224 E.08412
G1 X168.744 Y112.328 E.08141
G1 X168.931 Y113.598 E.04782
G1 X168.999 Y114.915 E.04912
G1 X168.999 Y139.918 E.93125
G1 X168.939 Y140.875 E.0357
G1 X168.707 Y142.093 E.04621
G1 X168.497 Y142.744 E.02545
G1 X168.125 Y143.624 E.0356
G1 X167.406 Y144.847 E.05285
G1 X166.187 Y146.224 E.06851
G1 X164.631 Y147.339 E.07127
G1 X164.027 Y147.638 E.02513
G1 X162.547 Y148.158 E.05843
G1 X161.355 Y148.369 E.04509
G1 X160.5 Y148.417 E.03188
G1 X85.217 Y148.407 E2.804
G1 X83.325 Y148.125 E.07127
G1 X82.64 Y147.901 E.02681
G1 X81.107 Y147.174 E.06321
G1 X80.092 Y146.46 E.04621
G1 X79.193 Y145.605 E.04621
G1 X78.079 Y144.049 E.07127
G1 X77.78 Y143.444 E.02513
G1 X77.26 Y141.965 E.05843
G1 X77.049 Y140.773 E.04509
G1 X77.001 Y139.918 E.03188
G1 X77.001 Y114.918 E.93116
G1 X77.13 Y113.063 E.06924
G1 X77.441 Y111.506 E.05914
G1 X77.961 Y109.924 E.06204
G1 X78.666 Y108.429 E.06157
G1 X79.512 Y107.08 E.05931
G1 X80.56 Y105.787 E.06198
G1 X81.623 Y104.756 E.05516
G1 X81.941 Y105.084 F18000
G1 F3000
G1 X81.978 Y105.048 E.00191
G1 X82.877 Y104.338 E.04268
G1 X84.172 Y103.516 E.05714
G1 X85.324 Y102.95 E.0478
G1 X87.038 Y102.345 E.06772
G1 X88.572 Y102.021 E.0584
G1 X90.387 Y101.877 E.06779
G1 X155.809 Y101.883 E2.43674
G1 X157.948 Y102.111 E.08012
G1 X160.054 Y102.701 E.08144
G1 X162.038 Y103.636 E.0817
G1 X163.799 Y104.862 E.07993
G1 X164.718 Y105.696 E.04622
G1 X165.552 Y106.614 E.04621
G1 X166.804 Y108.417 E.08176
G1 X167.73 Y110.394 E.08128
G1 X168.299 Y112.431 E.07879
G1 X168.478 Y113.659 E.0462
G1 X168.542 Y114.915 E.04687
G1 X168.542 Y139.918 E.93125
G1 X168.483 Y140.841 E.03445
G1 X168.076 Y142.566 E.066
G1 X167.704 Y143.446 E.0356
G1 X167.021 Y144.6 E.04997
G1 X165.894 Y145.874 E.06333
G1 X164.393 Y146.949 E.06875
G1 X163.861 Y147.212 E.02213
G1 X162.453 Y147.711 E.05562
G1 X161.324 Y147.913 E.04271
G1 X160.5 Y147.96 E.03076
G1 X85.5 Y147.96 E2.79346
G1 X84.577 Y147.901 E.03445
G1 X83.425 Y147.679 E.04369
G1 X82.823 Y147.482 E.02361
G1 X81.357 Y146.792 E.06034
G1 X79.891 Y145.67 E.06875
G1 X79.111 Y144.793 E.04369
G1 X78.469 Y143.811 E.04369
G1 X78.206 Y143.279 E.02213
G1 X77.707 Y141.871 E.05562
G1 X77.505 Y140.742 E.04271
G1 X77.458 Y139.918 E.03076
G1 X77.458 Y114.918 E.93116
G1 X77.582 Y113.134 E.06661
G1 X77.881 Y111.629 E.05713
G1 X78.381 Y110.104 E.0598
G1 X79.072 Y108.638 E.06035
G1 X79.891 Y107.336 E.05729
G1 X80.902 Y106.09 E.05975
G1 X81.912 Y105.112 E.05238
G1 X82.23 Y105.44 F18000
G1 F3000
G1 X82.285 Y105.387 E.00289
G1 X83.137 Y104.713 E.04044
G1 X84.387 Y103.919 E.05513
G1 X85.494 Y103.374 E.04596
G1 X87.152 Y102.788 E.06551
G1 X88.632 Y102.474 E.05635
G1 X90.387 Y102.334 E.06557
G1 X155.782 Y102.339 E2.43574
G1 X157.878 Y102.563 E.07851
G1 X159.909 Y103.134 E.07859
G1 X161.819 Y104.037 E.07869
G1 X163.521 Y105.224 E.07729
G1 X164.406 Y106.031 E.0446
G1 X165.21 Y106.918 E.04459
G1 X166.414 Y108.656 E.07873
G1 X167.305 Y110.564 E.07845
G1 X167.854 Y112.534 E.07617
G1 X168.024 Y113.719 E.04459
G1 X168.085 Y114.915 E.04463
G1 X168.085 Y139.918 E.93125
G1 X168.027 Y140.807 E.03319
G1 X167.656 Y142.387 E.06046
G1 X167.283 Y143.267 E.0356
G1 X166.636 Y144.354 E.04709
G1 X165.601 Y145.523 E.05816
G1 X164.155 Y146.558 E.06623
G1 X162.36 Y147.263 E.07186
G1 X161.294 Y147.457 E.04033
G1 X160.5 Y147.503 E.02963
G1 X85.5 Y147.503 E2.79346
G1 X84.611 Y147.445 E.03319
G1 X83.526 Y147.233 E.04118
G1 X81.607 Y146.409 E.07777
G1 X80.7 Y145.777 E.04118
G1 X79.895 Y145.019 E.04118
G1 X78.86 Y143.573 E.06623
G1 X78.155 Y141.777 E.07186
G1 X77.961 Y140.712 E.04033
G1 X77.915 Y139.918 E.02963
G1 X77.915 Y114.918 E.93116
G1 X78.034 Y113.204 E.06397
G1 X78.321 Y111.752 E.05513
G1 X78.802 Y110.283 E.05757
G1 X79.479 Y108.847 E.05914
G1 X80.27 Y107.592 E.05527
G1 X81.244 Y106.393 E.05752
G1 X82.201 Y105.468 E.04958
G1 X82.518 Y105.797 F18000
G1 F3000
G1 X82.593 Y105.725 E.00388
G1 X83.776 Y104.826 E.05533
G1 X85.008 Y104.106 E.05313
G1 X86.316 Y103.537 E.05316
G1 X87.711 Y103.116 E.05427
G1 X89.148 Y102.867 E.0543
G1 X90.387 Y102.791 E.04623
G1 X155.755 Y102.796 E2.43474
G1 X157.808 Y103.015 E.07689
G1 X159.765 Y103.568 E.07574
G1 X161.601 Y104.438 E.07567
G1 X163.243 Y105.587 E.07464
G1 X164.095 Y106.365 E.04298
G1 X164.869 Y107.221 E.04297
G1 X166.024 Y108.894 E.07571
G1 X166.881 Y110.734 E.07562
G1 X167.408 Y112.637 E.07355
G1 X167.571 Y113.779 E.04297
G1 X167.628 Y114.915 E.04238
G1 X167.628 Y139.918 E.93125
G1 X167.571 Y140.773 E.03193
G1 X167.235 Y142.209 E.05492
G1 X166.862 Y143.089 E.0356
G1 X166.251 Y144.107 E.04421
G1 X165.308 Y145.172 E.05298
G1 X163.917 Y146.168 E.06372
G1 X162.266 Y146.816 E.06607
G1 X161.264 Y147.001 E.03795
G1 X160.5 Y147.046 E.02851
G1 X85.5 Y147.046 E2.79346
G1 X84.645 Y146.989 E.03193
G1 X83.626 Y146.787 E.03867
G1 X81.857 Y146.027 E.07172
G1 X80.499 Y144.987 E.06372
G1 X79.813 Y144.207 E.03867
G1 X79.25 Y143.335 E.03867
G1 X78.602 Y141.684 E.06607
G1 X78.417 Y140.682 E.03795
G1 X78.372 Y139.918 E.02851
G1 X78.372 Y114.918 E.93116
G1 X78.485 Y113.275 E.06134
G1 X78.761 Y111.875 E.05313
G1 X79.222 Y110.463 E.05533
G1 X79.885 Y109.057 E.05792
G1 X80.648 Y107.848 E.05324
G1 X81.586 Y106.697 E.05529
G1 X82.489 Y105.825 E.04678
; printing object Support capteur rapport v4.step id:0 copy 0
G1 E-.5 F1800
;WIPE_START
G1 F3000
G1 X82.593 Y105.725
G1 X83.776 Y104.826
G1 X84.096 Y104.639
;WIPE_END
EXCLUDE_OBJECT_START NAME=Support_capteur_rapport_v4.step_id_0_copy_0
G1 Z.4 F18000
G1 X93.87 Y116.532 Z.4
G1 Z.2
G1 E.5 F1800
;TYPE:Support interface
G1 X93.179 Y116.693 E.02642
G1 X93.179 Y129.143 E.46371
G1 X92.642 Y128.961 E.02113
G1 X92.302 Y128.815 E.01377
G1 X92.302 Y117.021 E.4393
G1 X91.913 Y117.213 E.01618
G1 X91.425 Y117.506 E.02119
G1 X91.425 Y128.33 E.40312
G1 X91.016 Y128.037 E.01874
G1 X90.548 Y127.634 E.023
G1 X90.548 Y118.202 E.35129
G1 X90.05 Y118.726 E.02691
G1 X89.671 Y119.222 E.02327
G1 X89.671 Y126.614 E.27531
G1 X89.428 Y126.238 E.01666
G1 X89.173 Y125.767 E.01997
G1 X88.957 Y125.276 E.01997
G1 X88.794 Y124.802 E.01867
G1 X88.794 Y121.036 E.14028
G1 X89.06 Y120.312 E.0287
G1 X88.602 Y121.852 F18000
G1 F1800
G1 X88.536 Y122.381 E.01986
G1 X88.514 Y122.918 E.02002
G1 X88.536 Y123.454 E.01997
G1 X88.605 Y124.003 E.02063
G1 E-.5
;WIPE_START
G1 X88.536 Y123.454
G1 X88.514 Y122.918
G1 X88.536 Y122.381
G1 X88.582 Y122.011
;WIPE_END
G1 Z.4 F18000
G1 X99.319 Y116.431 Z.4
G1 Z.2
G1 E.5 F1800
G1 X99.319 Y122.041 E.20893
G1 X98.442 Y122.041 E.03267
G1 X98.442 Y116.431 E.20893
G1 X97.565 Y116.431 E.03267
G1 X97.565 Y122.041 E.20893
G1 X96.688 Y122.041 E.03267
G1 X96.688 Y116.431 E.20893
G1 X95.811 Y116.431 E.03267
G1 X95.811 Y122.041 E.20893
G1 X94.933 Y122.041 E.03267
G1 X94.933 Y116.433 E.20887
G1 X94.464 Y116.454 E.01749
G1 X94.056 Y116.503 E.01531
G1 X94.056 Y129.333 E.47787
G1 X94.418 Y129.377 E.01357
G1 X94.933 Y129.403 E.01923
G1 X94.933 Y124.918 E.16705
G1 X95.811 Y124.918 E.03267
G1 X95.811 Y129.404 E.1671
G1 X96.688 Y129.404 E.03267
G1 X96.688 Y124.918 E.1671
G1 X97.565 Y124.918 E.03267
G1 X97.565 Y129.404 E.1671
G1 X98.442 Y129.404 E.03267
G1 X98.442 Y124.918 E.1671
G1 X99.319 Y124.918 E.03267
G1 X99.319 Y129.404 E.1671
G1 X100.196 Y129.404 E.03267
G1 X100.196 Y116.431 E.48319
G1 X101.073 Y116.433 E.03267
G1 X101.073 Y129.403 E.48307
G1 X101.536 Y129.382 E.01725
G1 X101.95 Y129.333 E.01555
G1 X101.95 Y116.504 E.47784
G1 X102.331 Y116.57 E.0144
G1 X102.827 Y116.695 E.01906
G1 X102.827 Y129.141 E.46358
G1 X103.359 Y128.96 E.02093
G1 X103.704 Y128.812 E.01398
G1 X103.704 Y117.024 E.43908
G1 X104.087 Y117.213 E.01592
G1 X104.581 Y117.511 E.02148
G1 X104.581 Y128.325 E.40278
G1 X104.984 Y128.037 E.01844
G1 X105.458 Y127.627 E.02333
G1 X105.458 Y118.208 E.35082
G1 X105.95 Y118.726 E.02657
G1 X106.335 Y119.232 E.0237
G1 X106.335 Y126.604 E.2746
G1 X106.573 Y126.237 E.01629
G1 X106.827 Y125.768 E.01986
G1 X107.043 Y125.276 E.02001
G1 X107.213 Y124.781 E.01948
G1 X107.213 Y121.059 E.13865
G1 X106.958 Y120.356 E.02785
G1 X107.401 Y121.874 F18000
G1 F1800
G1 X107.464 Y122.382 E.01908
G1 X107.486 Y122.918 E.01997
G1 X107.437 Y123.72 E.02994
G1 E-.5
;WIPE_START
G1 X107.486 Y122.918
G1 X107.464 Y122.382
G1 X107.401 Y121.874
;WIPE_END
G1 Z.4 F18000
G1 X110.553 Y144.119 Z.4
G1 Z.2
G1 E.5 F1800
;TYPE:Support
G1 X100.922 Y144.119 E.35872
G1 X100.922 Y140.268 E.14343
M73 P0 R128
G1 X110.553 Y140.268 E.35872
G1 X110.553 Y144.05 E.14088
G1 X110.142 Y140.679 F18000
G1 F1800
G1 X110.142 Y143.708 E.11279
G1 X101.333 Y143.708 E.32808
G1 X101.333 Y140.679 E.11279
G1 X110.142 Y140.679 E.32808
G1 X109.634 Y141.187 F18000
G1 F1800
G1 X109.634 Y143.2 E.07496
G1 X101.841 Y143.2 E.29024
G1 X101.841 Y141.187 E.07496
G1 X109.634 Y141.187 E.29024
G1 X109.126 Y141.695 F18000
G1 F1800
G1 X109.126 Y142.692 E.03712
G1 X102.349 Y142.692 E.25241
G1 X102.349 Y141.695 E.03712
G1 X109.126 Y141.695 E.25241
G1 E-.5
;WIPE_START
G1 X107.126 Y141.695
;WIPE_END
G1 Z.4 F18000
G1 X138.599 Y120.963 Z.4
G1 Z.2
G1 E.5 F1800
;TYPE:Support interface
G1 X138.519 Y120.187 E.02906
G1 X138.519 Y119.65 E.02002
G1 X138.563 Y119.116 E.01997
G1 X139.06 Y117.312 F18000
G1 F1800
G1 X138.787 Y118.059 E.02959
G1 X138.787 Y121.782 E.13867
G1 X138.957 Y122.276 E.01946
G1 X139.173 Y122.767 E.01997
G1 X139.428 Y123.238 E.01997
G1 X139.665 Y123.603 E.0162
G1 X139.665 Y116.232 E.27455
G1 X140.021 Y115.762 E.02196
G1 X140.542 Y115.208 E.02831
G1 X140.542 Y124.626 E.35076
G1 X141.017 Y125.038 E.02343
G1 X141.419 Y125.325 E.01839
G1 X141.419 Y114.511 E.40279
G1 X141.913 Y114.213 E.02148
G1 X142.296 Y114.024 E.01592
G1 X142.296 Y125.812 E.43908
G1 X142.641 Y125.96 E.01399
G1 X143.173 Y126.141 E.02093
G1 X143.173 Y113.695 E.46358
G1 X143.715 Y113.561 E.02079
G1 X144.05 Y113.503 E.01267
G1 X144.05 Y126.332 E.47784
G1 X144.466 Y126.382 E.01561
G1 X144.927 Y126.403 E.01719
G1 X144.927 Y113.433 E.48307
G1 X145.616 Y113.431 E.02565
G1 E-.5
;WIPE_START
G1 X144.927 Y113.433
G1 X144.927 Y114.745
;WIPE_END
G1 Z.4 F18000
G1 X151.067 Y113.433 Z.4
G1 Z.2
G1 E.5 F1800
G1 X151.067 Y119.164 E.21345
G1 X150.189 Y119.164 E.03267
G1 X150.189 Y113.431 E.21351
G1 X149.312 Y113.431 E.03267
G1 X149.312 Y119.164 E.21351
G1 X148.435 Y119.164 E.03267
G1 X148.435 Y113.431 E.21351
G1 X147.558 Y113.431 E.03267
G1 X147.558 Y119.164 E.21351
G1 X146.681 Y119.164 E.03267
G1 X146.681 Y113.431 E.21351
G1 X145.804 Y113.431 E.03267
G1 X145.804 Y126.404 E.48319
G1 X146.681 Y126.404 E.03267
G1 X146.681 Y122.041 E.16253
G1 X147.558 Y122.041 E.03267
G1 X147.558 Y126.404 E.16253
G1 X148.435 Y126.404 E.03267
G1 X148.435 Y122.041 E.16253
M73 P1 R128
G1 X149.312 Y122.041 E.03267
G1 X149.312 Y126.404 E.16253
G1 X150.189 Y126.404 E.03267
G1 X150.189 Y122.041 E.16253
G1 X151.067 Y122.041 E.03267
G1 X151.067 Y126.403 E.16247
G1 X151.536 Y126.382 E.01749
G1 X151.944 Y126.334 E.0153
G1 X151.944 Y113.503 E.47791
G1 X152.331 Y113.57 E.01465
G1 X152.821 Y113.693 E.0188
G1 X152.821 Y126.143 E.46371
G1 X153.359 Y125.96 E.02118
G1 X153.698 Y125.815 E.01371
G1 X153.698 Y114.021 E.4393
G1 X154.087 Y114.213 E.01618
G1 X154.575 Y114.506 E.02119
