; HEADER_BLOCK_START
; generated by OrcaSlicer 2.1.1 on 2024-07-28 at 20:10:01
; total layer number: 75
; filament_density: 1.24
; filament_diameter: 1.75
; max_z_height: 15.00
; HEADER_BLOCK_END

; THUMBNAIL_BLOCK_START

;
; THUMBNAIL_BLOCK_END

; THUMBNAIL_BLOCK_START

;
; THUMBNAIL_BLOCK_END

; external perimeters extrusion width = 0.42mm
; perimeters extrusion width = 0.45mm
; infill extrusion width = 0.45mm
; solid infill extrusion width = 0.45mm
; top infill extrusion width = 0.42mm
; first layer extrusion width = 0.50mm

; external perimeters extrusion width = 0.42mm
; perimeters extrusion width = 0.45mm
; infill extrusion width = 0.45mm
; solid infill extrusion width = 0.45mm
; top infill extrusion width = 0.42mm
; first layer extrusion width = 0.50mm

; EXECUTABLE_BLOCK_START
EXCLUDE_OBJECT_DEFINE NAME=Support_bobine.stl_id_0_copy_0 CENTER=128.5,115 POLYGON=[[116,55],[136,55],[136.49,55.0241],[136.975,55.0961],[137.451,55.2153],[137.913,55.3806],[138.357,55.5904],[138.778,55.8426],[139.172,56.1349],[139.536,56.4645],[139.865,56.828],[140.157,57.2221],[140.41,57.643],[140.619,58.0866],[140.785,58.5486],[140.904,59.0245],[140.976,59.5099],[141,60],[141,170],[140.976,170.49],[140.904,170.975],[140.785,171.451],[140.619,171.913],[140.41,172.357],[140.157,172.778],[139.865,173.172],[139.536,173.536],[139.172,173.865],[138.778,174.157],[138.357,174.41],[137.913,174.619],[137.451,174.785],[136.975,174.904],[136.49,174.976],[136,175],[116,175],[116,55]]
EXCLUDE_OBJECT_DEFINE NAME=Support_bobine.stl_id_1_copy_0 CENTER=101.5,115 POLYGON=[[89,55],[109,55],[109.49,55.0241],[109.975,55.0961],[110.451,55.2153],[110.913,55.3806],[111.357,55.5904],[111.778,55.8426],[112.172,56.1349],[112.536,56.4645],[112.865,56.828],[113.157,57.2221],[113.41,57.643],[113.619,58.0866],[113.785,58.5486],[113.904,59.0245],[113.976,59.5099],[114,60],[114,170],[113.976,170.49],[113.904,170.975],[113.785,171.451],[113.619,171.913],[113.41,172.357],[113.157,172.778],[112.865,173.172],[112.536,173.536],[112.172,173.865],[111.778,174.157],[111.357,174.41],[110.913,174.619],[110.451,174.785],[109.975,174.904],[109.49,174.976],[109,175],[89,175],[89,55]]
M73 P0 R62
;TYPE:Custom
M220 S100
G90 ; use absolute coordinates
M83 ; extruder relative mode
M104 S150 ; set temporary nozzle temp to prevent oozing during homing
M140 S55 ; set final bed temp
G4 S30 ; allow partial nozzle warmup
G28 ; home all axis and restore leveling
BED_MESH_CALIBRATE PROFILE=adaptive ADAPTIVE=1 ADAPTIVE_MARGIN=0
G1 Z25 F240
G1 X10.0 Y30 F3000
M104 S210 ; set final nozzle temp
M190 S55 ; wait for bed temp to stabilize
M109 S210 ; wait for nozzle temp to stabilize
G1 Z0.28 F240
G92 E0 ; Move Z Axis up
G1 Z2.0 F5000 ; Move to start position
G1 X5 Y30 Z0.28 F300 ; Draw the first line
G1 X5 Y200 Z0.28 F1500 E15 ; Move to side a little
G1 X5.4 Y200 Z0.28 F5000.0 ; Draw the second line
M73 P0 R61
G1 X5.4 Y50 Z0.28 F1500.0 E30 ; Reset Extruder
G92 E0 ; Move Z Axis up
G1 Z2.0 F3000
M117 Start Printing..
G90
G21
M83 ; use relative distances for extrusion
; filament start gcode
M106 S0
;LAYER_CHANGE
;Z:0.2
;HEIGHT:0.2
;BEFORE_LAYER_CHANGE
;0.2
G92 E0

G1 E-.5 F1800
;_SET_FAN_SPEED_CHANGING_LAYER
SET_VELOCITY_LIMIT ACCEL=1000
SET_VELOCITY_LIMIT SQUARE_CORNER_VELOCITY=7
; printing object Support bobine.stl id:0 copy 0
EXCLUDE_OBJECT_START NAME=Support_bobine.stl_id_0_copy_0
G1 Z.2 F24000
G1 X147.885 Y187.436
G1 Z.2
G1 E.5 F1800
;TYPE:Inner wall
;WIDTH:0.499999
G1 X147.729 Y187.174 E.01135
G1 X147.013 Y186.421 E.03871
G1 X146.165 Y185.852 E.03803
G1 X145.358 Y185.523 E.03247
G1 X144.758 Y185.405 E.02278
G1 X144.184 Y185.325 E.02156
G1 X143.148 Y185.4 E.03869
G1 X142.309 Y185.637 E.03247
G1 X141.828 Y185.88 E.02006
G1 X141.265 Y186.205 E.02424
G1 X140.506 Y186.888 E.03804
G1 X139.914 Y187.72 E.03803
G1 X139.518 Y188.661 E.03803
G1 X139.332 Y189.686 E.03877
G1 X139.378 Y190.723 E.03869
G1 X139.645 Y191.71 E.03808
G1 X140.13 Y192.629 E.03868
G1 X140.792 Y193.406 E.03804
G1 X141.608 Y194.02 E.03803
G1 X142.077 Y194.243 E.01934
G1 X124.757 Y194.243 E.64509
G1 X124.757 Y191.165 E.11463
G1 X124.743 Y190.615 E.0205
G1 X124.992 Y191.048 E.0186
G1 X125.404 Y191.185 E.01615
G1 X127.215 Y191.175 E.06747
G1 X127.508 Y191.048 E.01189
G1 X127.729 Y190.763 E.01344
G1 X127.782 Y190.499 E.01002
G1 X127.782 Y180.076 E.38824
G1 X127.759 Y179.324 E.02799
G1 X127.62 Y179.058 E.01118
G1 X127.358 Y178.867 E.01209
G1 X127.096 Y178.815 E.00994
G1 X125.404 Y178.815 E.06305
G1 X124.992 Y178.952 E.01615
G1 X124.737 Y179.501 E.02252
G1 X124.757 Y178.835 E.02482
G1 X124.757 Y140.965 E1.41049
G1 X124.743 Y140.415 E.0205
G1 X124.992 Y140.848 E.0186
G1 X125.404 Y140.985 E.01615
G1 X127.096 Y140.985 E.06305
G1 X127.355 Y140.934 E.00981
G1 X127.55 Y140.813 E.00856
G1 X127.714 Y140.597 E.01011
G1 X127.782 Y140.299 E.01137
G1 X127.782 Y129.701 E.39476
G1 X127.749 Y129.491 E.00792
G1 X127.582 Y129.217 E.01195
G1 X127.355 Y129.066 E.01016
G1 X127.096 Y129.015 E.00981
G1 X125.404 Y129.015 E.06305
G1 X124.992 Y129.152 E.01615
G1 X124.737 Y129.701 E.02252
G1 X124.757 Y129.035 E.02482
G1 X124.757 Y91.165 E1.41049
G1 X124.743 Y90.615 E.0205
G1 X124.992 Y91.048 E.0186
G1 X125.404 Y91.185 E.01615
G1 X127.096 Y91.185 E.06305
G1 X127.358 Y91.133 E.00994
G1 X127.554 Y91.01 E.0086
G1 X127.717 Y90.791 E.01017
G1 X127.782 Y90.499 E.01114
G1 X127.782 Y79.501 E.40966
G1 X127.729 Y79.237 E.01002
G1 X127.508 Y78.952 E.01344
G1 X127.319 Y78.852 E.00797
G1 X127.096 Y78.815 E.0084
G1 X125.404 Y78.815 E.06306
G1 X124.992 Y78.952 E.01615
G1 X124.737 Y79.501 E.02252
G1 X124.757 Y78.835 E.02482
G1 X124.757 Y75.757 E.11463
G1 X142.053 Y75.758 E.64421
G1 X141.265 Y76.205 E.03375
G1 X140.506 Y76.888 E.03804
G1 X139.914 Y77.72 E.03803
G1 X139.518 Y78.661 E.03803
G1 X139.332 Y79.686 E.03877
G1 X139.378 Y80.723 E.03869
G1 X139.645 Y81.71 E.03808
G1 X140.13 Y82.629 E.03868
G1 X140.792 Y83.406 E.03804
G1 X141.608 Y84.02 E.03803
G1 X142.501 Y84.434 E.03666
G1 X143.058 Y84.583 E.02149
G1 X143.925 Y84.678 E.03248
G1 X144.141 Y84.671 E.00806
G1 X145.089 Y84.55 E.03558
G1 X146.066 Y84.198 E.03871
G1 X146.928 Y83.649 E.03806
G1 X147.662 Y82.912 E.0387
G1 X148.138 Y82.183 E.03247
G1 X148.243 Y81.951 E.00948
G1 X148.243 Y88.012 E.22578
G1 X147.846 Y89.236 E.04793
G1 X147.045 Y91.864 E.1023
G1 X146.295 Y94.492 E.10182
G1 X145.593 Y97.134 E.10182
G1 X144.941 Y99.776 E.10136
G1 X144.332 Y102.448 E.10205
G1 X143.772 Y105.124 E.10182
G1 X143.261 Y107.809 E.10182
G1 X142.798 Y110.503 E.10182
G1 X142.383 Y113.205 E.10182
G1 X142.016 Y115.914 E.10182
G1 X141.698 Y118.629 E.10182
G1 X141.429 Y121.35 E.10182
G1 X141.209 Y124.074 E.10182
G1 X141.037 Y126.809 E.10205
G1 X140.906 Y129.877 E.11438
G1 X140.842 Y132.273 E.08926
M73 P1 R61
G1 X140.817 Y135 E.10159
G1 X140.842 Y137.727 E.10159
G1 X140.915 Y140.466 E.10205
G1 X141.038 Y143.203 E.10205
G1 X141.242 Y146.338 E.11701
G1 X141.429 Y148.65 E.08639
G1 X141.654 Y150.918 E.08488
G1 X142.016 Y154.085 E.11872
G1 X142.383 Y156.795 E.10185
G1 X142.798 Y159.498 E.10185
G1 X143.346 Y162.638 E.11872
G1 X143.772 Y164.876 E.08489
G1 X144.332 Y167.552 E.10182
G1 X144.941 Y170.224 E.10205
G1 X145.596 Y172.878 E.10182
G1 X146.299 Y175.519 E.10182
G1 X147.049 Y178.148 E.10182
G1 X147.849 Y180.774 E.10224
G1 X148.243 Y181.988 E.04752
G1 X148.243 Y188.033 E.22516
G1 X147.906 Y187.47 E.02443
G1 E-.5
;WIPE_START
G1 F12000
G1 X147.729 Y187.174
G1 X147.013 Y186.421
G1 X146.501 Y186.078
;WIPE_END
G1 Z.4 F24000
G1 X124.3 Y75.3 Z.4
G1 Z.2
G1 E.5 F1800
;TYPE:Outer wall
G1 X142.326 Y75.301 E.6714
;WIDTH:0.536951
G1 X144.321 Y75.332 E.08033
;WIDTH:0.51934
G1 X144.891 Y75.399 E.02228
G1 X145.297 Y75.505 E.01627
;WIDTH:0.519759
G1 X145.772 Y75.661 E.01943
G1 X146.185 Y75.865 E.01791
;WIDTH:0.519308
G1 X146.623 Y76.116 E.01959
G1 X147.331 Y76.702 E.03567
;WIDTH:0.518185
G1 X147.912 Y77.414 E.03559
;WIDTH:0.514828
G1 X148.343 Y78.226 E.03535
;WIDTH:0.510938
G1 X148.613 Y79.164 E.03724
;WIDTH:0.511872
G1 X148.694 Y80.176 E.03877
;WIDTH:0.555074
G1 X148.672 Y81.165 E.04132
G1 X148.686 Y81.61 E.01856
;WIDTH:0.527537
G1 X148.7 Y82.054 E.01756
;WIDTH:0.499999
G1 X148.7 Y88.085 E.22462
G1 X148.282 Y89.371 E.05035
G1 X147.485 Y91.989 E.10195
G1 X146.737 Y94.61 E.10152
G1 X146.037 Y97.241 E.10141
G1 X145.384 Y99.886 E.10146
G1 X144.778 Y102.545 E.10159
G1 X144.221 Y105.213 E.10151
G1 X143.711 Y107.891 E.10152
G1 X143.249 Y110.576 E.10151
G1 X142.835 Y113.27 E.10151
G1 X142.47 Y115.971 E.10152
G1 X142.153 Y118.678 E.10152
G1 X141.885 Y121.391 E.10151
G1 X141.665 Y124.107 E.10152
G1 X141.494 Y126.829 E.10159
G1 X141.363 Y129.889 E.11407
G1 X141.299 Y132.281 E.08911
G1 X141.274 Y135 E.10128
G1 X141.299 Y137.719 E.10128
G1 X141.372 Y140.45 E.10174
G1 X141.494 Y143.175 E.10159
G1 X141.698 Y146.301 E.11671
G1 X141.885 Y148.609 E.08624
G1 X142.108 Y150.872 E.08467
G1 X142.47 Y154.028 E.11835
G1 X142.835 Y156.73 E.10153
G1 X143.249 Y159.424 E.10152
G1 X143.796 Y162.557 E.11848
G1 X144.221 Y164.787 E.08454
G1 X144.778 Y167.455 E.10151
G1 X145.384 Y170.114 E.10159
G1 X146.038 Y172.76 E.10151
G1 X146.738 Y175.394 E.10151
G1 X147.486 Y178.015 E.10152
G1 X148.284 Y180.633 E.10193
G1 X148.7 Y181.915 E.05022
G1 X148.7 Y188.199 E.23406
;WIDTH:0.547782
G1 X148.676 Y189.183 E.0405
G1 X148.678 Y190.197 E.04168
;WIDTH:0.515788
G1 X148.603 Y190.892 E.02695
G1 X148.522 Y191.201 E.01232
;WIDTH:0.518782
G1 X148.339 Y191.772 E.02325
G1 X148.166 Y192.129 E.01539
;WIDTH:0.519521
G1 X147.91 Y192.584 E.02029
G1 X147.645 Y192.931 E.01694
;WIDTH:0.519914
G1 X147.297 Y193.33 E.02058
G1 X146.585 Y193.91 E.03571
;WIDTH:0.517998
G1 X145.762 Y194.345 E.03602
;WIDTH:0.515829
G1 X144.893 Y194.605 E.03496
;WIDTH:0.51131
G1 X143.949 Y194.695 E.03619
;WIDTH:0.558119
G1 X143.077 Y194.671 E.03662
G1 X142.802 Y194.685 E.01155
;WIDTH:0.529059
G1 X142.528 Y194.7 E.01089
;WIDTH:0.499999
G1 X124.3 Y194.7 E.67891
G1 X124.3 Y75.34 E4.4457
G1 E-.5
;WIPE_START
G1 F12000
G1 X126.3 Y75.336
;WIPE_END
G1 Z.4 F24000
G1 X147.504 Y187.674 Z.4
G1 Z.2
G1 E.5 F1800
G1 X147.858 Y188.28 E.02613
;WIDTH:0.534331
G1 X148.155 Y189.152 E.03692
G1 X148.222 Y189.995 E.03385
;WIDTH:0.515788
G1 X148.134 Y190.836 E.03261
;WIDTH:0.518782
G1 X147.889 Y191.62 E.03182
G1 X147.755 Y191.932 E.01318
;WIDTH:0.498356
G1 X147.278 Y192.662 E.03235
;WIDTH:0.498584
G1 X146.609 Y193.32 E.03485
;WIDTH:0.499235
G1 X145.827 Y193.808 E.03427
;WIDTH:0.503052
G1 X144.941 Y194.119 E.0352
;WIDTH:0.506573
G1 X144.025 Y194.227 E.03485
;WIDTH:0.558119
G1 X143.105 Y194.157 E.03875
G1 X142.866 Y194.076 E.01062
;WIDTH:0.529059
G1 X142.626 Y193.994 E.01002
;WIDTH:0.499999
G1 X141.803 Y193.607 E.03387
G1 X141.073 Y193.045 E.03432
G1 X140.482 Y192.338 E.03433
G1 X140.053 Y191.503 E.03496
G1 X139.821 Y190.611 E.03434
G1 X139.789 Y189.673 E.03497
G1 X139.966 Y188.75 E.03499
G1 X140.333 Y187.905 E.03432
G1 X140.874 Y187.159 E.03432
G1 X141.565 Y186.549 E.03433
G1 X142.434 Y186.077 E.03683
G1 X143.273 Y185.839 E.03247
G1 X144.21 Y185.781 E.03497
G1 X145.137 Y185.933 E.03499
G1 X145.992 Y186.276 E.03433
G1 X146.753 Y186.796 E.03432
G1 X147.392 Y187.484 E.03497
G1 X147.483 Y187.639 E.00672
G1 E-.5
;WIPE_START
G1 F12000
G1 X147.858 Y188.28
G1 X148.155 Y189.152
G1 X148.182 Y189.488
;WIPE_END
G1 Z.4 F24000
G1 X125.404 Y190.728 Z.4
G1 Z.2
G1 E.5 F1800
G1 X125.266 Y190.682 E.00538
G1 X125.175 Y190.499 E.00761
G1 X125.175 Y179.501 E.40966
G1 X125.266 Y179.318 E.00761
G1 X125.404 Y179.272 E.00538
G1 X127.096 Y179.272 E.06305
G1 X127.261 Y179.342 E.00667
G1 X127.325 Y179.501 E.00636
G1 X127.325 Y190.499 E.40966
G1 X127.279 Y190.636 E.00538
G1 X127.136 Y190.724 E.00626
G1 X125.444 Y190.728 E.06304
G1 X124.743 Y190.615 F24000
;TYPE:Inner wall
;WIDTH:0.470936
G1 F1800
G1 X124.737 Y190.499 E.00405
;WIDTH:0.460842
G1 X124.737 Y179.501 E.37456
G1 E-.5
;WIPE_START
G1 F12000
G1 X124.737 Y181.501
;WIPE_END
G1 Z.4 F24000
G1 X125.175 Y129.701 Z.4
G1 Z.2
G1 E.5 F1800
;TYPE:Outer wall
;WIDTH:0.499999
G1 X125.266 Y129.518 E.00761
G1 X125.404 Y129.472 E.00538
G1 X127.096 Y129.472 E.06305
G1 X127.258 Y129.539 E.00653
G1 X127.325 Y129.701 E.0065
G1 X127.325 Y140.299 E.39476
G1 X127.255 Y140.464 E.00664
G1 X127.096 Y140.528 E.00639
G1 X125.404 Y140.528 E.06305
G1 X125.266 Y140.482 E.00538
G1 X125.175 Y140.299 E.00761
G1 X125.175 Y129.741 E.39327
G1 E-.5
;WIPE_START
G1 F12000
G1 X125.266 Y129.518
G1 X125.404 Y129.472
G1 X127.018 Y129.472
;WIPE_END
G1 Z.4 F24000
G1 X124.743 Y140.415 Z.4
G1 Z.2
G1 E.5 F1800
;TYPE:Inner wall
;WIDTH:0.470936
G1 X124.737 Y140.299 E.00405
;WIDTH:0.460842
G1 X124.737 Y129.701 E.36094
G1 E-.5
;WIPE_START
G1 F12000
G1 X124.737 Y131.701
;WIPE_END
G1 Z.4 F24000
G1 X125.404 Y79.272 Z.4
G1 Z.2
G1 E.5 F1800
;TYPE:Outer wall
;WIDTH:0.499999
G1 X127.096 Y79.272 E.06306
G1 X127.234 Y79.318 E.00538
G1 X127.325 Y79.466 E.00647
G1 X127.325 Y90.503 E.41109
G1 X127.261 Y90.658 E.00624
G1 X127.096 Y90.728 E.00667
G1 X125.404 Y90.728 E.06305
G1 X125.266 Y90.682 E.00538
G1 X125.175 Y90.499 E.00761
G1 X125.175 Y79.501 E.40966
G1 X125.266 Y79.318 E.00761
G1 X125.366 Y79.285 E.00389
G1 E-.5
;WIPE_START
G1 F12000
G1 X127.096 Y79.272
G1 X127.234 Y79.318
G1 X127.299 Y79.424
;WIPE_END
G1 Z.4 F24000
G1 X124.743 Y90.615 Z.4
G1 Z.2
G1 E.5 F1800
;TYPE:Inner wall
;WIDTH:0.470936
G1 X124.737 Y90.499 E.00405
;WIDTH:0.460842
G1 X124.737 Y79.501 E.37456
G1 E-.5
;WIPE_START
G1 F12000
G1 X124.737 Y81.501
;WIPE_END
G1 Z.4 F24000
G1 X139.889 Y80.872 Z.4
G1 Z.2
G1 E.5 F1800
;TYPE:Outer wall
;WIDTH:0.499999
G1 X139.821 Y80.611 E.01006
G1 X139.789 Y79.673 E.03497
G1 X139.966 Y78.75 E.03499
G1 X140.333 Y77.905 E.03433
G1 X140.874 Y77.159 E.03432
G1 X141.565 Y76.549 E.03433
G1 X142.387 Y76.096 E.03496
;WIDTH:0.535105
G1 X143.268 Y75.823 E.03699
G1 X144 Y75.784 E.02941
;WIDTH:0.517921
G1 X144.261 Y75.785 E.01008
;WIDTH:0.51934
G1 X144.828 Y75.871 E.02228
G1 X145.185 Y75.947 E.01416
;WIDTH:0.498523
G1 X145.992 Y76.276 E.03237
G1 X146.752 Y76.797 E.0342
;WIDTH:0.500458
G1 X147.392 Y77.484 E.035
;WIDTH:0.503057
G1 X147.859 Y78.279 E.03457
;WIDTH:0.507036
G1 X148.142 Y79.156 E.03487
;WIDTH:0.512474
G1 X148.225 Y80.044 E.03413
;WIDTH:0.542156
G1 X148.181 Y80.528 E.01974
;WIDTH:0.571837
G1 X148.138 Y81.011 E.02092
G1 X147.958 Y81.449 E.02041
;WIDTH:0.535918
G1 X147.778 Y81.888 E.01903
;WIDTH:0.499999
G1 X147.279 Y82.662 E.03434
G1 X146.61 Y83.321 E.03497
G1 X145.827 Y83.808 E.03433
G1 X144.941 Y84.117 E.03497
G1 X144.091 Y84.216 E.03186
G1 X143.108 Y84.128 E.03676
G1 X142.626 Y83.994 E.01863
G1 X141.803 Y83.607 E.03387
G1 X141.073 Y83.045 E.03432
G1 X140.482 Y82.338 E.03433
G1 X140.053 Y81.503 E.03496
G1 X139.899 Y80.911 E.02279
G1 E-.5
;WIPE_START
G1 F12000
G1 X139.821 Y80.611
G1 X139.789 Y79.673
G1 X139.931 Y78.935
;WIPE_END
G1 Z.4 F24000
G1 X140.54 Y75.895
G1 Z.4
G1 Z.2
G1 E.5 F1800
;TYPE:Bottom surface
;WIDTH:0.501436
G1 F3600
G1 X140.804 Y76.158 E.01394
G1 X140.455 Y76.458 E.01718
G1 X140.097 Y76.1 E.01888
G1 X139.449 Y76.1 E.02423
G1 X140.147 Y76.798 E.03687
G1 X139.872 Y77.172 E.01733
G1 X138.8 Y76.1 E.05662
G1 X138.152 Y76.1 E.02423
G1 X139.612 Y77.561 E.07716
G1 X139.413 Y78.009 E.01835
G1 X137.504 Y76.1 E.10087
G1 X136.855 Y76.1 E.02423
G1 X139.221 Y78.466 E.12502
G1 X139.102 Y78.996 E.02027
G1 X136.207 Y76.1 E.15299
G1 X135.558 Y76.1 E.02423
G1 X139.001 Y79.543 E.18194
G1 X138.989 Y79.689 E.00546
G1 X139.007 Y80.198 E.01902
G1 X134.91 Y76.1 E.21652
G1 X134.261 Y76.1 E.02423
G1 X139.362 Y81.201 E.26954
G1 E-.5 F1800
;WIPE_START
G1 F12000
G1 X137.948 Y79.787
;WIPE_END
G1 Z.4 F24000
G1 X147.711 Y83.066 Z.4
G1 Z.2
G1 E.5 F1800
G1 F3600
G1 X147.9 Y83.255 E.00998
G1 X147.9 Y83.903 E.02423
G1 X147.534 Y83.537 E.01932
G1 X147.206 Y83.857 E.01713
G1 X147.9 Y84.552 E.03669
G1 X147.9 Y85.2 E.02423
G1 X146.831 Y84.131 E.05651
G1 X146.429 Y84.377 E.01761
G1 X147.9 Y85.848 E.07774
G1 X147.9 Y86.497 E.02423
G1 X146.003 Y84.599 E.10026
G1 X145.52 Y84.765 E.01908
G1 X147.9 Y87.145 E.12579
G1 X147.9 Y87.794 E.02423
G1 X145.021 Y84.915 E.15212
G1 X144.441 Y84.983 E.02184
G1 X147.781 Y88.324 E.17653
G1 X147.623 Y88.813 E.01923
G1 X143.821 Y85.012 E.20087
G1 X143.092 Y84.931 E.02739
