; HEADER_BLOCK_START
; generated by OrcaSlicer 2.1.1 on 2024-07-27 at 18:56:40
; total layer number: 75
; filament_density: 1.24
; filament_diameter: 1.75
; max_z_height: 15.00
; HEADER_BLOCK_END

; THUMBNAIL_BLOCK_START

;
; THUMBNAIL_BLOCK_END

; THUMBNAIL_BLOCK_START

;
; THUMBNAIL_BLOCK_END

; external perimeters extrusion width = 0.42mm
; perimeters extrusion width = 0.45mm
; infill extrusion width = 0.45mm
; solid infill extrusion width = 0.45mm
; top infill extrusion width = 0.42mm
; first layer extrusion width = 0.50mm

; external perimeters extrusion width = 0.42mm
; perimeters extrusion width = 0.45mm
; infill extrusion width = 0.45mm
; solid infill extrusion width = 0.45mm
; top infill extrusion width = 0.42mm
; first layer extrusion width = 0.50mm

; EXECUTABLE_BLOCK_START
EXCLUDE_OBJECT_DEFINE NAME=support_bobine_sup.step_id_0_copy_0 CENTER=115,120.9 POLYGON=[[55,108.4],[175,108.4],[175,128.4],[174.994,128.638],[174.977,128.875],[174.949,129.112],[174.91,129.346],[174.859,129.579],[174.797,129.809],[174.725,130.035],[174.642,130.258],[174.548,130.477],[174.444,130.691],[174.33,130.9],[174.206,131.103],[174.073,131.3],[173.93,131.491],[173.779,131.674],[173.619,131.85],[173.45,132.019],[173.274,132.179],[173.091,132.33],[172.9,132.473],[172.703,132.606],[172.5,132.73],[172.291,132.844],[172.077,132.948],[171.858,133.042],[171.635,133.125],[171.409,133.197],[171.179,133.259],[170.946,133.31],[170.712,133.349],[170.475,133.377],[170.238,133.394],[170,133.4],[60,133.4],[59.7621,133.394],[59.5247,133.377],[59.2884,133.349],[59.0537,133.31],[58.8212,133.259],[58.5913,133.197],[58.3647,133.125],[58.1417,133.042],[57.9229,132.948],[57.7089,132.844],[57.5,132.73],[57.2968,132.606],[57.0997,132.473],[56.9092,132.33],[56.7257,132.179],[56.5496,132.019],[56.3813,131.85],[56.2212,131.674],[56.0697,131.491],[55.9271,131.3],[55.7937,131.103],[55.6699,130.9],[55.5558,130.691],[55.4518,130.477],[55.3582,130.258],[55.275,130.035],[55.2025,129.809],[55.1409,129.579],[55.0904,129.346],[55.0509,129.112],[55.0226,128.875],[55.0057,128.638],[55,128.4],[55,108.4]]
EXCLUDE_OBJECT_DEFINE NAME=support_bobine_inf.step_id_1_copy_0 CENTER=116.935,101.5 POLYGON=[[91.9355,96.6],[141.535,96.6],[141.584,96.6029],[141.594,96.6042],[141.632,96.6118],[141.65,96.6168],[141.683,96.6283],[141.706,96.6381],[141.733,96.6522],[141.759,96.668],[141.78,96.6837],[141.807,96.7067],[141.824,96.7226],[141.851,96.7538],[141.862,96.7684],[141.887,96.8087],[141.893,96.8203],[141.914,96.8701],[141.916,96.8773],[141.93,96.9341],[141.931,96.9379],[141.935,97],[141.935,106],[141.931,106.062],[141.916,106.123],[141.893,106.18],[141.862,106.232],[141.824,106.277],[141.78,106.316],[141.733,106.348],[141.683,106.372],[141.632,106.388],[141.584,106.397],[141.535,106.4],[91.9355,106.4],[91.9355,96.6]]
M73 P0 R35
;TYPE:Custom
M220 S100
G90 ; use absolute coordinates
M83 ; extruder relative mode
M104 S150 ; set temporary nozzle temp to prevent oozing during homing
M140 S55 ; set final bed temp
G4 S30 ; allow partial nozzle warmup
G28 ; home all axis and restore leveling
BED_MESH_CALIBRATE PROFILE=adaptive ADAPTIVE=1 ADAPTIVE_MARGIN=0
G1 Z25 F240
G1 X10.0 Y30 F3000
M104 S210 ; set final nozzle temp
M190 S55 ; wait for bed temp to stabilize
M109 S210 ; wait for nozzle temp to stabilize
G1 Z0.28 F240
G92 E0 ; Move Z Axis up
G1 Z2.0 F5000 ; Move to start position
G1 X5 Y30 Z0.28 F300 ; Draw the first line
G1 X5 Y200 Z0.28 F1500 E15 ; Move to side a little
G1 X5.4 Y200 Z0.28 F5000.0 ; Draw the second line
G1 X5.4 Y50 Z0.28 F1500.0 E30 ; Reset Extruder
G92 E0 ; Move Z Axis up
G1 Z2.0 F3000
M117 Start Printing..
G90
G21
M83 ; use relative distances for extrusion
; filament start gcode
M106 S0
;LAYER_CHANGE
;Z:0.2
;HEIGHT:0.2
;BEFORE_LAYER_CHANGE
;0.2
G92 E0

M73 P1 R35
G1 E-.5 F1800
;_SET_FAN_SPEED_CHANGING_LAYER
SET_VELOCITY_LIMIT ACCEL=1000
SET_VELOCITY_LIMIT SQUARE_CORNER_VELOCITY=7
; printing object support bobine sup.step id:0 copy 0
EXCLUDE_OBJECT_START NAME=support_bobine_sup.step_id_0_copy_0
G1 Z.2 F24000
G1 X63.757 Y129.157
G1 Z.2
G1 E.5 F1800
;TYPE:Inner wall
;WIDTH:0.499999
G1 X67.237 Y129.157 E.12963
G1 X67.788 Y129.143 E.0205
G1 X67.355 Y129.392 E.0186
G1 X67.218 Y129.804 E.01615
G1 X67.228 Y131.615 E.06747
G1 X67.355 Y131.908 E.01189
G1 X67.64 Y132.129 E.01344
G1 X67.904 Y132.182 E.01002
G1 X78.096 Y132.182 E.37965
G1 X78.301 Y132.151 E.00772
G1 X78.571 Y131.992 E.01164
G1 X78.73 Y131.759 E.01051
G1 X78.782 Y131.496 E.00997
G1 X78.782 Y129.804 E.06305
G1 X78.645 Y129.392 E.01615
G1 X78.096 Y129.137 E.02252
G1 X78.762 Y129.157 E.02482
G1 X167.237 Y129.157 E3.29535
G1 X167.788 Y129.143 E.0205
G1 X167.355 Y129.392 E.0186
G1 X167.218 Y129.804 E.01615
G1 X167.218 Y131.496 E.06305
G1 X167.27 Y131.759 E.00997
G1 X167.394 Y131.955 E.00861
G1 X167.619 Y132.12 E.01041
G1 X167.904 Y132.182 E.01086
G1 X178.096 Y132.182 E.37965
G1 X178.36 Y132.129 E.01002
G1 X178.645 Y131.908 E.01344
G1 X178.745 Y131.719 E.00797
G1 X178.782 Y131.496 E.0084
G1 X178.782 Y129.804 E.06305
G1 X178.645 Y129.392 E.01615
G1 X178.096 Y129.137 E.02252
G1 X178.763 Y129.157 E.02482
G1 X182.243 Y129.157 E.12963
G1 X182.243 Y148.374 E.71576
G1 X182.198 Y149.004 E.0235
G1 X182.069 Y149.595 E.02254
G1 X181.858 Y150.162 E.02254
G1 X181.568 Y150.693 E.02254
G1 X181.205 Y151.177 E.02253
G1 X180.779 Y151.603 E.02246
G1 X180.114 Y152.076 E.0304
G1 X179.576 Y152.337 E.02225
G1 X179.007 Y152.519 E.02224
G1 X178.185 Y152.637 E.03094
G1 X169.977 Y152.643 E.30573
G1 X167.073 Y151.733 E.11334
G1 X164.918 Y151.1 E.08367
G1 X163.181 Y150.615 E.06716
G1 X159.701 Y149.708 E.13396
G1 X156.612 Y148.976 E.11821
G1 X153.132 Y148.232 E.13255
G1 X149.97 Y147.629 E.1199
G1 X146.497 Y147.047 E.13115
G1 X143.274 Y146.579 E.1213
G1 X139.817 Y146.156 E.12974
G1 X136.538 Y145.828 E.12272
G1 X133.103 Y145.561 E.12833
G1 X129.776 Y145.376 E.12412
G1 X126.37 Y145.263 E.12694
G1 X123 Y145.226 E.12552
G1 X119.63 Y145.263 E.12552
G1 X116.226 Y145.376 E.12687
G1 X114.242 Y145.477 E.074
G1 X111.552 Y145.656 E.10038
G1 X108.866 Y145.882 E.10042
G1 X106.183 Y146.156 E.10042
G1 X103.507 Y146.477 E.10042
G1 X100.836 Y146.845 E.10042
G1 X98.173 Y147.26 E.10039
G1 X96.03 Y147.629 E.08098
G1 X94.19 Y147.972 E.06971
G1 X91.548 Y148.504 E.10038
G1 X88.915 Y149.084 E.10042
G1 X86.287 Y149.711 E.10064
G1 X83.676 Y150.383 E.10042
G1 X80.83 Y151.174 E.11
G1 X78.902 Y151.741 E.07484
G1 X76.013 Y152.643 E.11275
G1 X68.026 Y152.643 E.29748
G1 X67.396 Y152.598 E.0235
M73 P1 R34
G1 X66.805 Y152.469 E.02254
G1 X66.238 Y152.258 E.02254
G1 X65.714 Y151.972 E.02224
G1 X65.068 Y151.464 E.03061
G1 X64.666 Y151.022 E.02224
G1 X64.332 Y150.527 E.02224
G1 X63.99 Y149.779 E.03061
G1 X63.838 Y149.21 E.02195
G1 X63.757 Y148.366 E.03158
G1 X63.757 Y129.197 E.71398
G1 X63.3 Y128.7 F24000
;TYPE:Outer wall
G1 F1800
G1 X182.7 Y128.7 E4.44719
G1 X182.7 Y148.39 E.73339
G1 X182.652 Y149.069 E.02533
M73 P2 R34
G1 X182.509 Y149.724 E.02497
G1 X182.275 Y150.352 E.02497
G1 X181.953 Y150.941 E.02497
G1 X181.552 Y151.477 E.02497
G1 X181.075 Y151.953 E.0251
G1 X180.347 Y152.471 E.03324
G1 X179.747 Y152.763 E.02488
G1 X179.11 Y152.966 E.02488
G1 X178.218 Y153.094 E.03357
G1 X169.907 Y153.1 E.30955
G1 X166.94 Y152.171 E.1158
G1 X164.793 Y151.54 E.08335
G1 X163.066 Y151.057 E.0668
G1 X159.595 Y150.153 E.13358
G1 X156.512 Y149.422 E.11803
G1 X153.042 Y148.68 E.13217
G1 X149.889 Y148.079 E.11952
G1 X146.427 Y147.498 E.13077
G1 X143.214 Y147.032 E.12092
G1 X139.766 Y146.61 E.12936
G1 X136.498 Y146.283 E.12234
G1 X133.073 Y146.017 E.12795
G1 X129.756 Y145.833 E.12374
G1 X126.36 Y145.72 E.12656
G1 X123 Y145.683 E.12514
G1 X119.64 Y145.72 E.12515
G1 X116.245 Y145.833 E.12653
G1 X114.267 Y145.934 E.07378
G1 X111.587 Y146.112 E.10003
G1 X108.908 Y146.337 E.10012
G1 X106.234 Y146.61 E.10012
G1 X103.565 Y146.93 E.10012
G1 X100.902 Y147.297 E.10012
G1 X98.245 Y147.712 E.10018
G1 X96.109 Y148.08 E.08072
G1 X94.275 Y148.421 E.06947
G1 X91.642 Y148.952 E.10004
G1 X89.017 Y149.529 E.10012
G1 X86.401 Y150.154 E.10019
G1 X83.797 Y150.824 E.10012
G1 X81.21 Y151.539 E.09996
G1 X79.036 Y152.178 E.0844
G1 X76.084 Y153.1 E.11521
G1 X68.01 Y153.1 E.30073
G1 X67.331 Y153.052 E.02533
G1 X66.676 Y152.909 E.02497
G1 X66.048 Y152.675 E.02497
G1 X65.462 Y152.355 E.02488
G1 X64.755 Y151.799 E.03346
G1 X64.306 Y151.305 E.02488
G1 X63.932 Y150.752 E.02488
G1 X63.558 Y149.935 E.03346
G1 X63.386 Y149.292 E.02479
G1 X63.3 Y148.388 E.03382
G1 X63.3 Y128.74 E.73181
G1 E-.5
;WIPE_START
G1 F12000
G1 X65.3 Y128.739
;WIPE_END
G1 Z.4 F24000
G1 X167.675 Y131.496 Z.4
G1 Z.2
G1 E.5 F1800
G1 X167.675 Y129.804 E.06305
G1 X167.721 Y129.666 E.00538
G1 X167.904 Y129.575 E.00761
G1 X178.096 Y129.575 E.37965
G1 X178.279 Y129.666 E.00761
G1 X178.325 Y129.804 E.00538
G1 X178.325 Y131.496 E.06305
G1 X178.279 Y131.634 E.00538
G1 X178.132 Y131.725 E.00647
G1 X167.832 Y131.714 E.38362
G1 X167.706 Y131.612 E.00602
G1 X167.685 Y131.535 E.00297
G1 E-.5
;WIPE_START
G1 F12000
G1 X167.675 Y129.804
G1 X167.721 Y129.666
G1 X167.832 Y129.611
;WIPE_END
G1 Z.4 F24000
G1 X167.788 Y129.143 Z.4
G1 Z.2
G1 E.5 F1800
;TYPE:Inner wall
;WIDTH:0.470936
G1 X167.904 Y129.137 E.00405
;WIDTH:0.460842
G1 X178.096 Y129.137 E.34712
G1 E-.5
;WIPE_START
G1 F12000
G1 X176.096 Y129.137
;WIPE_END
G1 Z.4 F24000
G1 X67.678 Y131.536 Z.4
G1 Z.2
G1 E.5 F1800
;TYPE:Outer wall
;WIDTH:0.499999
G1 X67.675 Y129.804 E.06453
G1 X67.721 Y129.666 E.00538
G1 X67.904 Y129.575 E.00761
G1 X78.096 Y129.575 E.37965
G1 X78.279 Y129.666 E.00761
G1 X78.325 Y129.804 E.00538
G1 X78.325 Y131.496 E.06305
G1 X78.254 Y131.662 E.00669
G1 X78.096 Y131.725 E.00634
G1 X67.904 Y131.725 E.37965
G1 X67.766 Y131.679 E.00538
G1 X67.699 Y131.57 E.00477
G1 E-.5
;WIPE_START
G1 F12000
G1 X67.675 Y129.804
G1 X67.721 Y129.666
G1 X67.8 Y129.627
;WIPE_END
G1 Z.4 F24000
G1 X67.788 Y129.143 Z.4
G1 Z.2
G1 E.5 F1800
;TYPE:Inner wall
;WIDTH:0.470936
G1 X67.904 Y129.137 E.00405
;WIDTH:0.460842
G1 X78.096 Y129.137 E.34712
G1 E-.5
;WIPE_START
G1 F12000
G1 X76.096 Y129.137
;WIPE_END
G1 Z.4 F24000
G1 X181.181 Y129.294
G1 Z.4
G1 Z.2
G1 E.5 F1800
;TYPE:Bottom surface
;WIDTH:0.500371
G1 F3600
G1 X181.9 Y130.013 E.03791
G1 X181.9 Y130.66 E.02412
G1 X180.74 Y129.5 E.06117
G1 X180.093 Y129.5 E.02412
G1 X181.9 Y131.307 E.09527
G1 X181.9 Y131.954 E.02412
G1 X179.446 Y129.5 E.12938
G1 X179.03 Y129.5 E.01551
G1 X179.125 Y129.826 E.01265
G1 X181.9 Y132.601 E.1463
G1 X181.9 Y133.248 E.02412
G1 X179.125 Y130.473 E.1463
G1 X179.125 Y131.12 E.02412
G1 X181.9 Y133.895 E.1463
G1 X181.9 Y134.542 E.02412
G1 X179.094 Y131.736 E.14793
G1 X179.069 Y131.834 E.0038
G1 X178.921 Y132.114 E.01177
G1 X178.873 Y132.161 E.00252
G1 X181.9 Y135.189 E.15959
G1 X181.9 Y135.836 E.02412
G1 X178.504 Y132.44 E.17902
G1 X178.283 Y132.508 E.00864
G1 X177.942 Y132.525 E.01271
G1 X181.9 Y136.483 E.20864
G1 X181.9 Y137.13 E.02412
G1 X177.295 Y132.525 E.24274
G1 X176.649 Y132.525 E.02412
G1 X181.9 Y137.776 E.27685
G1 X181.9 Y138.423 E.02412
G1 X176.002 Y132.525 E.31095
G1 X175.355 Y132.525 E.02412
G1 X181.9 Y139.07 E.34506
G1 X181.9 Y139.717 E.02412
G1 X174.708 Y132.525 E.37916
G1 X174.061 Y132.525 E.02412
G1 X181.9 Y140.364 E.41326
G1 X181.9 Y141.011 E.02412
G1 X173.414 Y132.525 E.44737
G1 X172.767 Y132.525 E.02412
G1 X181.9 Y141.658 E.48147
G1 X181.9 Y142.305 E.02412
G1 X172.12 Y132.525 E.51558
G1 X171.473 Y132.525 E.02412
G1 X181.9 Y142.952 E.54968
G1 X181.9 Y143.599 E.02412
G1 X170.826 Y132.525 E.58379
G1 X170.179 Y132.525 E.02412
G1 X181.9 Y144.246 E.61789
G1 X181.9 Y144.893 E.02412
G1 X169.532 Y132.525 E.65199
G1 X168.885 Y132.525 E.02412
G1 X181.9 Y145.54 E.6861
G1 X181.9 Y146.187 E.02412
G1 X168.033 Y132.319 E.73105
G1 E-.5 F1800
;WIPE_START
G1 F12000
G1 X169.447 Y133.733
;WIPE_END
G1 Z.4 F24000
G1 X167.081 Y130.073 Z.4
G1 Z.2
G1 E.5 F1800
G1 F3600
G1 X166.507 Y129.5 E.03024
G1 X165.86 Y129.5 E.02412
G1 X166.875 Y130.515 E.0535
G1 X166.875 Y131.162 E.02412
G1 X165.213 Y129.5 E.0876
G1 X164.566 Y129.5 E.02412
G1 X181.9 Y146.834 E.91378
G1 X181.9 Y147.48 E.02412
G1 X163.92 Y129.5 E.94788
G1 X163.273 Y129.5 E.02412
G1 X181.9 Y148.127 E.98198
G1 X181.873 Y148.747 E.02311
G1 X162.626 Y129.5 E1.01464
G1 X161.979 Y129.5 E.02412
G1 X181.782 Y149.303 E1.04396
G1 X181.74 Y149.498 E.00744
G1 X181.628 Y149.796 E.01187
G1 X161.332 Y129.5 E1.06997
G1 X160.685 Y129.5 E.02412
G1 X181.425 Y150.24 E1.09334
G1 X181.279 Y150.507 E.01136
G1 X181.179 Y150.641 E.00622
G1 X160.038 Y129.5 E1.11448
G1 X159.391 Y129.5 E.02412
M73 P3 R34
G1 X180.894 Y151.003 E1.13359
G1 X180.571 Y151.326 E.01705
G1 X158.744 Y129.5 E1.15063
G1 X158.097 Y129.5 E.02412
G1 X180.195 Y151.598 E1.16493
G1 X179.938 Y151.78 E.01175
G1 X179.799 Y151.848 E.00578
G1 X157.45 Y129.5 E1.17813
G1 X156.803 Y129.5 E.02412
G1 X179.352 Y152.049 E1.18872
G1 X178.852 Y152.195 E.01944
G1 X156.156 Y129.5 E1.19643
G1 X155.509 Y129.5 E.02412
G1 X178.286 Y152.277 E1.20071
G1 X178.161 Y152.295 E.00472
G1 X177.657 Y152.295 E.01876
G1 X154.862 Y129.5 E1.20168
G1 X154.216 Y129.5 E.02412
G1 X177.011 Y152.295 E1.2017
G1 X176.364 Y152.296 E.0241
G1 X153.569 Y129.5 E1.20173
G1 X152.922 Y129.5 E.02412
G1 X175.718 Y152.296 E1.20175
G1 X175.071 Y152.297 E.0241
G1 X152.275 Y129.5 E1.20177
G1 X151.628 Y129.5 E.02412
G1 X174.425 Y152.297 E1.2018
G1 X173.778 Y152.297 E.0241
G1 X150.981 Y129.5 E1.20182
G1 X150.334 Y129.5 E.02412
G1 X173.132 Y152.298 E1.20184
G1 X172.485 Y152.298 E.0241
G1 X149.687 Y129.5 E1.20186
G1 X149.04 Y129.5 E.02412
G1 X171.839 Y152.299 E1.20189
G1 X171.192 Y152.299 E.0241
G1 X148.393 Y129.5 E1.20191
G1 X147.746 Y129.5 E.02412
G1 X170.546 Y152.3 E1.20193
G1 X170.029 Y152.3 E.01926
G1 X169.84 Y152.241 E.00738
G1 X147.099 Y129.5 E1.19883
G1 X146.452 Y129.5 E.02412
G1 X168.898 Y151.946 E1.18328
G1 X167.956 Y151.651 E.0368
G1 X145.805 Y129.5 E1.16772
G1 X145.158 Y129.5 E.02412
G1 X167.019 Y151.36 E1.15241
G1 X166.102 Y151.091 E.0356
G1 X144.512 Y129.5 E1.13821
G1 X143.865 Y129.5 E.02412
G1 X165.186 Y150.822 E1.12401
G1 X164.285 Y150.567 E.03492
G1 X143.218 Y129.5 E1.11059
G1 X142.571 Y129.5 E.02412
G1 X163.387 Y150.316 E1.09737
G1 X162.509 Y150.085 E.03384
G1 X141.924 Y129.5 E1.08519
G1 X141.277 Y129.5 E.02412
G1 X161.634 Y149.857 E1.07318
G1 X160.759 Y149.629 E.0337
G1 X140.63 Y129.5 E1.06117
G1 X139.983 Y129.5 E.02412
G1 X159.885 Y149.402 E1.04915
G1 X159.034 Y149.198 E.03262
G1 X139.336 Y129.5 E1.0384
G1 X138.689 Y129.5 E.02412
G1 X158.186 Y148.997 E1.02781
G1 X157.338 Y148.796 E.03248
G1 X138.042 Y129.5 E1.01722
G1 X137.395 Y129.5 E.02412
G1 X156.496 Y148.601 E1.00693
G1 X155.673 Y148.425 E.03136
G1 X136.748 Y129.5 E.99766
G1 X136.101 Y129.5 E.02412
M73 P4 R34
G1 X154.851 Y148.249 E.98839
G1 X154.028 Y148.073 E.03136
G1 X135.454 Y129.5 E.97913
G1 X134.808 Y129.5 E.02412
G1 X153.205 Y147.897 E.96986
G1 X152.405 Y147.745 E.03035
G1 X134.161 Y129.5 E.96181
G1 X133.514 Y129.5 E.02412
G1 X151.606 Y147.592 E.95378
G1 X150.807 Y147.44 E.03033
G1 X132.867 Y129.5 E.94575
G1 X132.22 Y129.5 E.02412
G1 X150.008 Y147.288 E.93775
G1 X149.231 Y147.158 E.02938
G1 X131.573 Y129.5 E.93087
G1 X130.926 Y129.5 E.02412
G1 X148.454 Y147.027 E.924
G1 X147.676 Y146.897 E.02938
G1 X130.279 Y129.5 E.91713
G1 X129.632 Y129.5 E.02412
G1 X146.899 Y146.767 E.91025
G1 X146.133 Y146.647 E.0289
G1 X128.985 Y129.5 E.90397
G1 X128.338 Y129.5 E.02412
G1 X145.376 Y146.538 E.89819
G1 X144.62 Y146.428 E.0285
G1 X127.691 Y129.5 E.8924
G1 X127.044 Y129.5 E.02412
G1 X143.863 Y146.318 E.88662
G1 X143.112 Y146.214 E.02828
G1 X126.397 Y129.5 E.88112
G1 X125.75 Y129.5 E.02412
G1 X142.374 Y146.124 E.87636
G1 X141.637 Y146.033 E.02769
G1 X125.104 Y129.5 E.8716
G1 X124.457 Y129.5 E.02412
G1 X140.9 Y145.943 E.86684
G1 X140.163 Y145.853 E.02769
G1 X123.81 Y129.5 E.86208
G1 X123.163 Y129.5 E.02412
G1 X139.436 Y145.773 E.85787
G1 X138.717 Y145.701 E.02693
G1 X122.516 Y129.5 E.85408
G1 X121.869 Y129.5 E.02412
G1 X137.998 Y145.629 E.8503
G1 X137.28 Y145.558 E.02693
G1 X121.222 Y129.5 E.84651
G1 X120.575 Y129.5 E.02412
M73 P4 R33
G1 X136.561 Y145.486 E.84272
G1 X135.859 Y145.431 E.02623
G1 X119.928 Y129.5 E.83984
G1 X119.281 Y129.5 E.02412
