; HEADER_BLOCK_START
; generated by OrcaSlicer 2.1.1 on 2024-07-28 at 07:53:13
; total layer number: 75
; filament_density: 1.24
; filament_diameter: 1.75
; max_z_height: 15.00
; HEADER_BLOCK_END

; THUMBNAIL_BLOCK_START

;
; THUMBNAIL_BLOCK_END

; THUMBNAIL_BLOCK_START

;
; THUMBNAIL_BLOCK_END

; external perimeters extrusion width = 0.42mm
; perimeters extrusion width = 0.45mm
; infill extrusion width = 0.45mm
; solid infill extrusion width = 0.45mm
; top infill extrusion width = 0.42mm
; first layer extrusion width = 0.50mm

; external perimeters extrusion width = 0.42mm
; perimeters extrusion width = 0.45mm
; infill extrusion width = 0.45mm
; solid infill extrusion width = 0.45mm
; top infill extrusion width = 0.42mm
; first layer extrusion width = 0.50mm

; external perimeters extrusion width = 0.42mm
; perimeters extrusion width = 0.45mm
; infill extrusion width = 0.45mm
; solid infill extrusion width = 0.45mm
; top infill extrusion width = 0.42mm
; first layer extrusion width = 0.50mm

; external perimeters extrusion width = 0.42mm
; perimeters extrusion width = 0.45mm
; infill extrusion width = 0.45mm
; solid infill extrusion width = 0.45mm
; top infill extrusion width = 0.42mm
; first layer extrusion width = 0.50mm

; EXECUTABLE_BLOCK_START
EXCLUDE_OBJECT_DEFINE NAME=support_bobine_sup.step_id_0_copy_0 CENTER=110,135.3 POLYGON=[[50,122.8],[170,122.8],[170,142.8],[169.994,143.038],[169.977,143.275],[169.949,143.512],[169.91,143.746],[169.859,143.979],[169.797,144.209],[169.725,144.435],[169.642,144.658],[169.548,144.877],[169.444,145.091],[169.33,145.3],[169.206,145.503],[169.073,145.7],[168.93,145.891],[168.779,146.074],[168.619,146.25],[168.45,146.419],[168.274,146.579],[168.091,146.73],[167.9,146.873],[167.703,147.006],[167.5,147.13],[167.291,147.244],[167.077,147.348],[166.858,147.442],[166.635,147.525],[166.409,147.597],[166.179,147.659],[165.946,147.71],[165.712,147.749],[165.475,147.777],[165.238,147.794],[165,147.8],[55,147.8],[54.7621,147.794],[54.5247,147.777],[54.2884,147.749],[54.0537,147.71],[53.8212,147.659],[53.5913,147.597],[53.3647,147.525],[53.1417,147.442],[52.9229,147.348],[52.7089,147.244],[52.5,147.13],[52.2968,147.006],[52.0997,146.873],[51.9092,146.73],[51.7257,146.579],[51.5496,146.419],[51.3813,146.25],[51.2212,146.074],[51.0697,145.891],[50.9271,145.7],[50.7937,145.503],[50.6699,145.3],[50.5558,145.091],[50.4518,144.877],[50.3582,144.658],[50.275,144.435],[50.2025,144.209],[50.1409,143.979],[50.0904,143.746],[50.0509,143.512],[50.0226,143.275],[50.0057,143.038],[50,142.8],[50,122.8]]
EXCLUDE_OBJECT_DEFINE NAME=support_bobine_sup.step_id_1_copy_0 CENTER=110,108.3 POLYGON=[[50,95.8],[170,95.8],[170,115.8],[169.994,116.038],[169.977,116.275],[169.949,116.512],[169.91,116.746],[169.859,116.979],[169.797,117.209],[169.725,117.435],[169.642,117.658],[169.548,117.877],[169.444,118.091],[169.33,118.3],[169.206,118.503],[169.073,118.7],[168.93,118.891],[168.779,119.074],[168.619,119.25],[168.45,119.419],[168.274,119.579],[168.091,119.73],[167.9,119.873],[167.703,120.006],[167.5,120.13],[167.291,120.244],[167.077,120.348],[166.858,120.442],[166.635,120.525],[166.409,120.597],[166.179,120.659],[165.946,120.71],[165.712,120.749],[165.475,120.777],[165.238,120.794],[165,120.8],[55,120.8],[54.7621,120.794],[54.5247,120.777],[54.2884,120.749],[54.0537,120.71],[53.8212,120.659],[53.5913,120.597],[53.3647,120.525],[53.1417,120.442],[52.9229,120.348],[52.7089,120.244],[52.5,120.13],[52.2968,120.006],[52.0997,119.873],[51.9092,119.73],[51.7257,119.579],[51.5496,119.419],[51.3813,119.25],[51.2212,119.074],[51.0697,118.891],[50.9271,118.7],[50.7937,118.503],[50.6699,118.3],[50.5558,118.091],[50.4518,117.877],[50.3582,117.658],[50.275,117.435],[50.2025,117.209],[50.1409,116.979],[50.0904,116.746],[50.0509,116.512],[50.0226,116.275],[50.0057,116.038],[50,115.8],[50,95.8]]
EXCLUDE_OBJECT_DEFINE NAME=support_bobine_inf.step_id_2_copy_0 CENTER=112.365,88.9 POLYGON=[[77.3654,84],[146.965,84],[147.014,84.0029],[147.023,84.0042],[147.062,84.0118],[147.08,84.0168],[147.113,84.0283],[147.136,84.0381],[147.163,84.0522],[147.189,84.068],[147.21,84.0837],[147.237,84.1067],[147.254,84.1226],[147.281,84.1538],[147.292,84.1684],[147.317,84.2087],[147.323,84.2203],[147.344,84.2701],[147.346,84.2773],[147.36,84.3341],[147.361,84.3379],[147.365,84.4],[147.365,93.4],[147.361,93.4621],[147.346,93.5227],[147.323,93.5796],[147.292,93.6316],[147.254,93.6774],[147.21,93.7163],[147.163,93.7477],[147.113,93.7717],[147.062,93.7882],[147.014,93.797],[146.965,93.8],[77.3654,93.8],[77.3654,84]]
EXCLUDE_OBJECT_DEFINE NAME=support_bobine_inf.step_id_3_copy_0 CENTER=113.115,77.1 POLYGON=[[78.1149,72.2],[147.715,72.2],[147.763,72.2029],[147.773,72.2042],[147.811,72.2118],[147.83,72.2168],[147.863,72.2283],[147.885,72.2381],[147.913,72.2522],[147.938,72.268],[147.96,72.2837],[147.987,72.3067],[148.003,72.3226],[148.03,72.3538],[148.041,72.3684],[148.066,72.4087],[148.072,72.4203],[148.093,72.4701],[148.096,72.4773],[148.109,72.5341],[148.11,72.5379],[148.115,72.6],[148.115,81.6],[148.11,81.6621],[148.096,81.7227],[148.072,81.7796],[148.041,81.8316],[148.003,81.8774],[147.96,81.9163],[147.913,81.9477],[147.863,81.9717],[147.811,81.9882],[147.763,81.997],[147.715,82],[78.1149,82],[78.1149,72.2]]
M73 P0 R70
;TYPE:Custom
M220 S100
G90 ; use absolute coordinates
M83 ; extruder relative mode
M104 S150 ; set temporary nozzle temp to prevent oozing during homing
M140 S55 ; set final bed temp
G4 S30 ; allow partial nozzle warmup
G28 ; home all axis and restore leveling
BED_MESH_CALIBRATE PROFILE=adaptive ADAPTIVE=1 ADAPTIVE_MARGIN=0
G1 Z25 F240
G1 X10.0 Y30 F3000
M104 S210 ; set final nozzle temp
M190 S55 ; wait for bed temp to stabilize
M109 S210 ; wait for nozzle temp to stabilize
G1 Z0.28 F240
G92 E0 ; Move Z Axis up
G1 Z2.0 F5000 ; Move to start position
G1 X5 Y30 Z0.28 F300 ; Draw the first line
G1 X5 Y200 Z0.28 F1500 E15 ; Move to side a little
G1 X5.4 Y200 Z0.28 F5000.0 ; Draw the second line
G1 X5.4 Y50 Z0.28 F1500.0 E30 ; Reset Extruder
G92 E0 ; Move Z Axis up
G1 Z2.0 F3000
M117 Start Printing..
G90
G21
M83 ; use relative distances for extrusion
; filament start gcode
M106 S0
;LAYER_CHANGE
;Z:0.2
;HEIGHT:0.2
;BEFORE_LAYER_CHANGE
;0.2
G92 E0

G1 E-.5 F1800
;_SET_FAN_SPEED_CHANGING_LAYER
SET_VELOCITY_LIMIT ACCEL=1000
SET_VELOCITY_LIMIT SQUARE_CORNER_VELOCITY=7
; printing object support bobine sup.step id:0 copy 0
EXCLUDE_OBJECT_START NAME=support_bobine_sup.step_id_0_copy_0
G1 Z.2 F24000
G1 X169.065 Y160.303
G1 Z.2
G1 E.5 F1800
;TYPE:Inner wall
;WIDTH:0.499999
G1 X168.975 Y160.44 E.0061
G1 X168.657 Y161.063 E.02604
G1 X168.406 Y161.92 E.03327
G1 X168.33 Y162.484 E.02118
G1 X168.338 Y163.216 E.02729
G1 X168.414 Y163.732 E.01941
G1 X168.55 Y164.251 E.01997
G1 X168.847 Y164.954 E.02843
G1 X169.414 Y165.807 E.03815
G1 X169.952 Y166.35 E.02847
G1 X170.683 Y166.864 E.03329
G1 X171.04 Y167.039 E.01482
G1 X164.977 Y167.043 E.22584
G1 X162.093 Y166.139 E.11258
G1 X159.913 Y165.499 E.0846
G1 X158.187 Y165.016 E.06678
G1 X154.701 Y164.108 E.13417
G1 X151.612 Y163.376 E.11822
G1 X148.132 Y162.632 E.13255
G1 X144.97 Y162.029 E.1199
G1 X141.497 Y161.447 E.13115
G1 X138.274 Y160.979 E.1213
G1 X134.817 Y160.556 E.12974
G1 X131.538 Y160.228 E.12272
G1 X128.103 Y159.961 E.12834
G1 X124.776 Y159.776 E.12411
G1 X121.37 Y159.663 E.12694
G1 X118 Y159.626 E.12552
G1 X114.63 Y159.663 E.12552
G1 X111.226 Y159.776 E.12687
G1 X109.242 Y159.877 E.074
G1 X106.552 Y160.056 E.10038
G1 X103.866 Y160.282 E.10043
G1 X101.183 Y160.556 E.10042
G1 X98.507 Y160.877 E.10042
G1 X95.836 Y161.245 E.10042
G1 X93.173 Y161.66 E.10039
G1 X91.03 Y162.029 E.08098
G1 X89.19 Y162.372 E.0697
G1 X86.548 Y162.904 E.10038
G1 X83.915 Y163.484 E.10042
G1 X81.287 Y164.111 E.10064
G1 X78.676 Y164.783 E.10042
G1 X76.078 Y165.501 E.10038
G1 X73.897 Y166.142 E.08466
G1 X71.013 Y167.043 E.11255
G1 X64.982 Y167.041 E.22462
G1 X65.762 Y166.575 E.03384
G1 X66.421 Y165.992 E.03276
G1 X66.972 Y165.27 E.03384
G1 X67.368 Y164.476 E.03305
G1 X67.631 Y163.464 E.03896
G1 X67.673 Y162.571 E.03329
G1 X67.63 Y162.192 E.01419
G1 X67.544 Y161.686 E.01914
G1 X67.189 Y160.715 E.03848
G1 X66.726 Y159.971 E.03264
G1 X66.107 Y159.301 E.03397
G1 X65.4 Y158.784 E.03263
G1 X64.576 Y158.394 E.03397
G1 X63.749 Y158.18 E.0318
G1 X63.109 Y158.123 E.02395
G1 X62.068 Y158.215 E.03894
G1 X61.083 Y158.531 E.0385
G1 X60.321 Y158.964 E.03265
G1 X59.628 Y159.556 E.03396
G1 X59.082 Y160.242 E.03265
G1 X58.757 Y160.845 E.02549
G1 X58.757 Y143.557 E.64389
G1 X62.237 Y143.557 E.12963
G1 X62.788 Y143.543 E.0205
G1 X62.355 Y143.792 E.0186
G1 X62.218 Y144.204 E.01615
G1 X62.228 Y146.015 E.06747
G1 X62.355 Y146.308 E.01189
G1 X62.64 Y146.529 E.01344
G1 X62.904 Y146.582 E.01002
G1 X72.695 Y146.582 E.3647
G1 X73.301 Y146.551 E.02262
G1 X73.571 Y146.392 E.01164
G1 X73.73 Y146.159 E.01051
G1 X73.782 Y145.896 E.00997
G1 X73.782 Y144.204 E.06305
G1 X73.645 Y143.792 E.01615
G1 X73.096 Y143.538 E.02252
G1 X73.762 Y143.557 E.02482
G1 X162.237 Y143.557 E3.29535
G1 X162.788 Y143.543 E.0205
G1 X162.355 Y143.792 E.0186
G1 X162.218 Y144.204 E.01615
G1 X162.218 Y145.896 E.06305
G1 X162.27 Y146.159 E.00997
G1 X162.394 Y146.355 E.00861
G1 X162.619 Y146.52 E.01041
G1 X162.904 Y146.582 E.01086
G1 X173.096 Y146.582 E.37965
G1 X173.36 Y146.529 E.01002
G1 X173.645 Y146.308 E.01344
G1 X173.745 Y146.119 E.00797
G1 X173.782 Y145.896 E.0084
G1 X173.782 Y144.204 E.06305
G1 X173.645 Y143.792 E.01615
G1 X173.096 Y143.538 E.02252
G1 X173.763 Y143.557 E.02482
G1 X177.243 Y143.557 E.12963
G1 X177.243 Y160.83 E.64333
G1 X177.189 Y160.715 E.0047
G1 X176.726 Y159.971 E.03264
G1 X176.107 Y159.301 E.03397
G1 X175.4 Y158.784 E.03263
G1 X174.576 Y158.394 E.03397
G1 X173.749 Y158.18 E.0318
G1 X173.109 Y158.123 E.02395
G1 X172.068 Y158.215 E.03894
G1 X171.083 Y158.531 E.0385
G1 X170.321 Y158.964 E.03265
G1 X169.628 Y159.556 E.03396
G1 X169.264 Y160.001 E.02141
G1 X169.087 Y160.27 E.01197
G1 E-.5
;WIPE_START
G1 F12000
G1 X168.975 Y160.44
G1 X168.657 Y161.063
G1 X168.406 Y161.92
G1 X168.379 Y162.122
;WIPE_END
G1 Z.4 F24000
G1 X58.3 Y143.1 Z.4
G1 Z.2
G1 E.5 F1800
;TYPE:Outer wall
G1 X177.7 Y143.1 E4.44719
G1 X177.7 Y160.844 E.6609
;WIDTH:0.53082
M73 P1 R70
G1 X177.685 Y161.341 E.01975
;WIDTH:0.56164
G1 X177.669 Y161.837 E.021
G1 X177.69 Y162.799 E.04065
;WIDTH:0.518702
G1 X177.619 Y163.605 E.03138
;WIDTH:0.520567
G1 X177.493 Y164.137 E.02128
G1 X177.26 Y164.764 E.02603
;WIDTH:0.514679
G1 X176.917 Y165.381 E.02715
;WIDTH:0.50903
G1 X176.344 Y166.082 E.03437
;WIDTH:0.503556
G1 X175.746 Y166.588 E.02941
;WIDTH:0.518193
G1 X175.325 Y166.872 E.01966
G1 X174.728 Y167.161 E.0257
;WIDTH:0.514207
G1 X174.03 Y167.374 E.028
;WIDTH:0.508092
G1 X173.132 Y167.49 E.03432
;WIDTH:0.536218
G1 X172.296 Y167.477 E.03363
G1 X171.514 Y167.496 E.03144
;WIDTH:0.499999
G1 X164.907 Y167.5 E.24608
G1 X161.964 Y166.578 E.11489
G1 X159.793 Y165.94 E.08426
G1 X158.068 Y165.457 E.06673
G1 X154.595 Y164.553 E.13365
G1 X151.512 Y163.822 E.11803
G1 X148.042 Y163.08 E.13217
G1 X144.889 Y162.479 E.11952
G1 X141.427 Y161.898 E.13077
G1 X138.214 Y161.432 E.12092
G1 X134.766 Y161.01 E.12936
G1 X131.498 Y160.683 E.12234
G1 X128.073 Y160.417 E.12796
G1 X124.756 Y160.233 E.12374
G1 X121.36 Y160.12 E.12656
M73 P1 R69
G1 X118 Y160.083 E.12515
G1 X114.64 Y160.12 E.12515
G1 X111.245 Y160.233 E.12653
G1 X109.267 Y160.334 E.07378
G1 X106.587 Y160.512 E.10003
G1 X103.908 Y160.737 E.10012
G1 X101.234 Y161.01 E.10012
G1 X98.565 Y161.33 E.10012
G1 X95.902 Y161.697 E.10012
G1 X93.245 Y162.112 E.10017
G1 X91.109 Y162.48 E.08073
G1 X89.275 Y162.821 E.06947
G1 X86.642 Y163.352 E.10004
G1 X84.017 Y163.929 E.10012
G1 X81.401 Y164.554 E.10019
G1 X78.797 Y165.224 E.10012
G1 X76.21 Y165.939 E.09997
G1 X74.036 Y166.578 E.0844
G1 X71.084 Y167.5 E.11521
G1 X64.85 Y167.5 E.23218
;WIDTH:0.533839
G1 X64.428 Y167.483 E.0169
;WIDTH:0.567679
G1 X64.006 Y167.466 E.01806
G1 X63.504 Y167.479 E.02148
;WIDTH:0.540882
G1 X63.001 Y167.492 E.02038
;WIDTH:0.514085
G1 X62.253 Y167.43 E.02883
;WIDTH:0.516318
G1 X61.662 Y167.295 E.02337
G1 X61.036 Y167.06 E.02581
;WIDTH:0.518485
G1 X60.451 Y166.735 E.02594
G1 X59.747 Y166.18 E.03474
;WIDTH:0.512383
G1 X59.301 Y165.688 E.02541
;WIDTH:0.51792
G1 X58.951 Y165.164 E.0244
G1 X58.792 Y164.847 E.01372
;WIDTH:0.504355
G1 X58.517 Y164.17 E.02745
;WIDTH:0.510228
G1 X58.389 Y163.671 E.01961
G1 X58.333 Y163.138 E.02042
;WIDTH:0.5152
G1 X58.308 Y162.484 E.02521
;WIDTH:0.533023
G1 X58.3 Y161.077 E.05618
;WIDTH:0.499999
G1 X58.3 Y143.14 E.66808
G1 E-.5
;WIPE_START
G1 F12000
G1 X60.3 Y143.139
;WIPE_END
G1 Z.4 F24000
G1 X169.445 Y160.554 Z.4
G1 Z.2
G1 E.5 F1800
G1 X169.617 Y160.291 E.01173
G1 X169.981 Y159.846 E.02141
G1 X170.613 Y159.316 E.0307
G1 X171.303 Y158.932 E.02943
G1 X172.201 Y158.653 E.03502
G1 X173.142 Y158.579 E.03515
G1 X173.701 Y158.635 E.02091
G1 X174.457 Y158.835 E.02914
G1 X175.199 Y159.195 E.0307
G1 X175.832 Y159.667 E.02942
G1 X176.386 Y160.277 E.03071
G1 X176.798 Y160.951 E.02942
;WIDTH:0.546043
G1 X177.134 Y161.829 E.03853
G1 X177.222 Y162.505 E.02795
;WIDTH:0.515778
G1 X177.181 Y163.424 E.03544
;WIDTH:0.520567
G1 X177.039 Y163.99 E.0227
G1 X176.844 Y164.542 E.02281
;WIDTH:0.514679
G1 X176.57 Y165.062 E.02256
;WIDTH:0.515715
G1 X176.181 Y165.571 E.02472
;WIDTH:0.517228
G1 X175.761 Y165.985 E.02278
G1 X175.43 Y166.253 E.01646
;WIDTH:0.504074
G1 X174.754 Y166.645 E.02938
;WIDTH:0.509077
G1 X174.007 Y166.905 E.03003
G1 X173.191 Y167.024 E.03133
;WIDTH:0.529346
G1 X172.401 Y166.994 E.03135
G1 X171.6 Y166.785 E.03279
;WIDTH:0.499999
G1 X170.984 Y166.512 E.0251
G1 X170.215 Y165.976 E.03491
G1 X169.743 Y165.49 E.02523
G1 X169.231 Y164.706 E.03491
G1 X168.974 Y164.08 E.02519
G1 X168.848 Y163.547 E.02041
G1 X168.787 Y163.117 E.01618
G1 X168.787 Y162.484 E.02358
G1 X168.844 Y162.048 E.01636
G1 X169.095 Y161.191 E.03327
G1 X169.378 Y160.658 E.02247
G1 X169.423 Y160.588 E.00311
G1 E-.5
;WIPE_START
G1 F12000
G1 X169.617 Y160.291
G1 X169.981 Y159.846
G1 X170.613 Y159.316
G1 X170.828 Y159.197
;WIPE_END
G1 Z.4 F24000
G1 X162.721 Y144.066 Z.4
G1 Z.2
G1 E.5 F1800
G1 X162.904 Y143.975 E.00761
G1 X173.096 Y143.975 E.37965
G1 X173.279 Y144.066 E.00761
G1 X173.325 Y144.204 E.00538
G1 X173.325 Y145.896 E.06305
G1 X173.279 Y146.034 E.00538
G1 X173.132 Y146.125 E.00647
G1 X162.832 Y146.114 E.38362
G1 X162.706 Y146.012 E.00602
G1 X162.675 Y145.896 E.00446
G1 X162.675 Y144.204 E.06305
G1 X162.708 Y144.104 E.00389
G1 X162.788 Y143.543 F24000
;TYPE:Inner wall
;WIDTH:0.470936
G1 F1800
G1 X162.904 Y143.538 E.00405
;WIDTH:0.460842
G1 X173.096 Y143.538 E.34712
G1 E-.5
;WIPE_START
G1 F12000
G1 X171.096 Y143.538
;WIPE_END
G1 Z.4 F24000
G1 X62.675 Y144.204 Z.4
G1 Z.2
G1 E.5 F1800
;TYPE:Outer wall
;WIDTH:0.499999
G1 X62.721 Y144.066 E.00538
G1 X62.904 Y143.975 E.00761
G1 X73.096 Y143.975 E.37965
G1 X73.279 Y144.066 E.00761
G1 X73.325 Y144.204 E.00538
G1 X73.325 Y145.896 E.06305
G1 X73.254 Y146.062 E.00669
G1 X73.096 Y146.125 E.00634
G1 X62.904 Y146.125 E.37965
G1 X62.766 Y146.079 E.00538
G1 X62.678 Y145.936 E.00626
G1 X62.675 Y144.244 E.06304
G1 X62.788 Y143.543 F24000
;TYPE:Inner wall
;WIDTH:0.470936
G1 F1800
G1 X62.904 Y143.538 E.00405
;WIDTH:0.460842
G1 X73.096 Y143.538 E.34712
G1 E-.5
;WIPE_START
G1 F12000
G1 X71.096 Y143.538
;WIPE_END
G1 Z.4 F24000
G1 X65.919 Y165.833 Z.4
G1 Z.2
G1 E.5 F1800
;TYPE:Outer wall
;WIDTH:0.499999
G1 X65.465 Y166.228 E.02243
G1 X64.753 Y166.643 E.03069
;WIDTH:0.527479
G1 X64.384 Y166.785 E.01561
;WIDTH:0.554959
G1 X64.015 Y166.927 E.0165
G1 X63.191 Y167.026 E.0346
;WIDTH:0.512806
G1 X62.401 Y166.984 E.0303
;WIDTH:0.516318
G1 X61.802 Y166.844 E.02374
G1 X61.246 Y166.638 E.02288
;WIDTH:0.518485
G1 X60.735 Y166.353 E.02266
G1 X60.215 Y165.977 E.02488
;WIDTH:0.505367
G1 X59.741 Y165.492 E.02553
;WIDTH:0.51792
G1 X59.347 Y164.902 E.02749
G1 X59.003 Y164.166 E.03145
;WIDTH:0.511506
G1 X58.862 Y163.666 E.01982
;WIDTH:0.507244
G1 X58.791 Y163.15 E.01972
;WIDTH:0.5152
G1 X58.78 Y162.484 E.02564
;WIDTH:0.533023
G1 X58.829 Y162.043 E.01768
G1 X59.095 Y161.191 E.03568
;WIDTH:0.499999
