; HEADER_BLOCK_START
; generated by OrcaSlicer 2.1.1 on 2024-07-27 at 17:44:17
; total layer number: 75
; filament_density: 1.24
; filament_diameter: 1.75
; max_z_height: 15.00
; HEADER_BLOCK_END

; THUMBNAIL_BLOCK_START

;
; THUMBNAIL_BLOCK_END

; THUMBNAIL_BLOCK_START

;
; THUMBNAIL_BLOCK_END

; external perimeters extrusion width = 0.42mm
; perimeters extrusion width = 0.45mm
; infill extrusion width = 0.45mm
; solid infill extrusion width = 0.45mm
; top infill extrusion width = 0.42mm
; first layer extrusion width = 0.50mm

; EXECUTABLE_BLOCK_START
EXCLUDE_OBJECT_DEFINE NAME=Support_bobine.stl_id_0_copy_0 CENTER=115,115 POLYGON=[[40,102.5],[190,102.5],[190,122.5],[189.973,123.023],[189.891,123.54],[189.755,124.045],[189.568,124.534],[189.33,125],[189.045,125.439],[188.716,125.846],[188.346,126.216],[187.939,126.545],[187.5,126.83],[187.034,127.068],[186.545,127.255],[186.04,127.391],[185.523,127.473],[185,127.5],[45,127.5],[44.4774,127.473],[43.9604,127.391],[43.4549,127.255],[42.9663,127.068],[42.5,126.83],[42.0611,126.545],[41.6544,126.216],[41.2843,125.846],[40.9549,125.439],[40.6699,125],[40.4323,124.534],[40.2447,124.045],[40.1093,123.54],[40.0274,123.023],[40,122.5],[40,102.5]]
M73 P0 R34
;TYPE:Custom
M220 S100
G90 ; use absolute coordinates
M83 ; extruder relative mode
M104 S150 ; set temporary nozzle temp to prevent oozing during homing
M140 S55 ; set final bed temp
G4 S30 ; allow partial nozzle warmup
G28 ; home all axis and restore leveling
BED_MESH_CALIBRATE PROFILE=adaptive ADAPTIVE=1 ADAPTIVE_MARGIN=0
G1 Z25 F240
G1 X10.0 Y30 F3000
M104 S210 ; set final nozzle temp
M190 S55 ; wait for bed temp to stabilize
M109 S210 ; wait for nozzle temp to stabilize
G1 Z0.28 F240
G92 E0 ; Move Z Axis up
G1 Z2.0 F5000 ; Move to start position
G1 X5 Y30 Z0.28 F300 ; Draw the first line
G1 X5 Y200 Z0.28 F1500 E15 ; Move to side a little
G1 X5.4 Y200 Z0.28 F5000.0 ; Draw the second line
M73 P1 R34
G1 X5.4 Y50 Z0.28 F1500.0 E30 ; Reset Extruder
G92 E0 ; Move Z Axis up
G1 Z2.0 F3000
M117 Start Printing..
G90
G21
M83 ; use relative distances for extrusion
; filament start gcode
M106 S0
;LAYER_CHANGE
;Z:0.2
;HEIGHT:0.2
;BEFORE_LAYER_CHANGE
;0.2
G92 E0

G1 E-.5 F1800
;_SET_FAN_SPEED_CHANGING_LAYER
SET_VELOCITY_LIMIT ACCEL=1000
SET_VELOCITY_LIMIT SQUARE_CORNER_VELOCITY=7
; printing object Support bobine.stl id:0 copy 0
EXCLUDE_OBJECT_START NAME=Support_bobine.stl_id_0_copy_0
G1 Z.2 F24000
G1 X48.757 Y123.257
G1 Z.2
G1 E.5 F1800
;TYPE:Inner wall
;WIDTH:0.499999
G1 X197.243 Y123.257 E5.53053
G1 X197.243 Y142.384 E.7124
G1 X197.219 Y142.921 E.02001
G1 X197.14 Y143.416 E.0187
G1 X196.948 Y144.037 E.02419
G1 X196.736 Y144.498 E.01889
G1 X196.451 Y144.963 E.02033
G1 X196.127 Y145.364 E.01919
G1 X195.701 Y145.764 E.02178
G1 X195.263 Y146.081 E.02014
G1 X194.757 Y146.359 E.02149
G1 X194.276 Y146.544 E.01919
G1 X193.742 Y146.671 E.02045
G1 X192.98 Y146.743 E.02851
G1 X179.472 Y146.743 E.50311
G1 X177.933 Y145.995 E.06376
G1 X175.41 Y144.836 E.10339
G1 X172.877 Y143.738 E.10285
G1 X170.313 Y142.691 E.10312
G1 X167.728 Y141.7 E.10312
G1 X165.122 Y140.765 E.10312
G1 X162.497 Y139.887 E.10312
G1 X159.853 Y139.065 E.10312
G1 X157.192 Y138.3 E.10312
G1 X154.515 Y137.592 E.10312
G1 X151.824 Y136.942 E.10312
G1 X149.119 Y136.351 E.10312
G1 X146.403 Y135.818 E.10312
G1 X143.675 Y135.343 E.10312
G1 X140.938 Y134.927 E.10312
G1 X138.191 Y134.571 E.10316
G1 X134.981 Y134.234 E.12022
G1 X132.681 Y134.035 E.08597
G1 X129.918 Y133.856 E.10312
G1 X127.152 Y133.737 E.10312
G1 X124.389 Y133.678 E.10294
G1 X121.611 Y133.678 E.10348
G1 X118.848 Y133.737 E.10294
M73 P1 R33
G1 X116.081 Y133.856 E.10316
G1 X112.86 Y134.075 E.12023
G1 X110.56 Y134.273 E.08597
G1 X107.808 Y134.571 E.10312
G1 X105.062 Y134.927 E.10312
G1 X102.324 Y135.343 E.10316
G1 X99.111 Y135.913 E.12154
G1 X96.881 Y136.351 E.08465
G1 X94.176 Y136.942 E.10312
G1 X91.485 Y137.592 E.10312
G1 X88.808 Y138.3 E.10312
G1 X86.147 Y139.065 E.10312
G1 X83.503 Y139.887 E.10312
G1 X80.878 Y140.765 E.10312
G1 X78.272 Y141.7 E.10312
G1 X75.687 Y142.691 E.10312
G1 X73.123 Y143.738 E.10312
G1 X70.583 Y144.839 E.10312
G1 X68.061 Y145.998 E.10339
G1 X66.528 Y146.743 E.06348
G1 X53 Y146.742 E.50387
G1 X52.326 Y146.681 E.02519
G1 X51.829 Y146.572 E.01897
G1 X51.308 Y146.388 E.02056
G1 X50.849 Y146.154 E.01919
G1 X50.366 Y145.817 E.02195
G1 X49.972 Y145.462 E.01975
G1 X49.591 Y145.021 E.02172
G1 X49.31 Y144.589 E.01919
G1 X49.078 Y144.103 E.02007
G1 X48.904 Y143.581 E.02047
G1 X48.791 Y143.006 E.02183
G1 X48.757 Y142.48 E.01963
G1 X48.757 Y123.297 E.7145
G1 X48.3 Y122.8 F24000
;TYPE:Outer wall
G1 F1800
G1 X197.7 Y122.8 E5.56457
G1 X197.7 Y142.011 E.71555
M73 P2 R33
G1 X197.69 Y142.678 E.02484
G1 X197.606 Y143.418 E.02774
G1 X197.47 Y143.952 E.02053
G1 X197.266 Y144.465 E.02054
G1 X197.002 Y144.955 E.02073
G1 X196.53 Y145.598 E.02972
G1 X196.145 Y145.992 E.02053
G1 X195.712 Y146.335 E.02054
G1 X195.283 Y146.604 E.01886
G1 X194.626 Y146.903 E.02692
G1 X194.11 Y147.061 E.0201
G1 X193.55 Y147.164 E.02119
G1 X192.992 Y147.2 E.02083
G1 X179.367 Y147.2 E.50747
G1 X177.737 Y146.408 E.06749
G1 X175.228 Y145.256 E.10284
G1 X172.699 Y144.159 E.10266
G1 X170.145 Y143.116 E.10275
G1 X167.569 Y142.129 E.10276
G1 X164.973 Y141.197 E.10276
G1 X162.356 Y140.322 E.10275
G1 X159.722 Y139.502 E.10276
G1 X157.071 Y138.74 E.10275
G1 X154.403 Y138.035 E.10275
G1 X151.722 Y137.388 E.10275
G1 X149.027 Y136.798 E.10275
G1 X146.319 Y136.267 E.10276
G1 X143.601 Y135.794 E.10275
G1 X140.874 Y135.38 E.10275
G1 X138.138 Y135.025 E.10277
G1 X134.937 Y134.689 E.11986
G1 X132.647 Y134.491 E.08563
G1 X129.894 Y134.313 E.10276
G1 X127.138 Y134.194 E.10275
G1 X124.384 Y134.135 E.10258
G1 X121.616 Y134.135 E.10311
G1 X118.862 Y134.194 E.10257
G1 X116.106 Y134.313 E.10277
G1 X112.895 Y134.53 E.11986
G1 X110.605 Y134.728 E.08563
G1 X107.862 Y135.025 E.10275
G1 X105.126 Y135.38 E.10275
G1 X102.398 Y135.794 E.10277
G1 X99.195 Y136.362 E.12117
G1 X96.973 Y136.798 E.08432
G1 X94.278 Y137.388 E.10275
G1 X91.597 Y138.035 E.10275
G1 X88.929 Y138.74 E.10276
G1 X86.278 Y139.502 E.10275
G1 X83.644 Y140.322 E.10276
G1 X81.028 Y141.197 E.10275
G1 X78.431 Y142.129 E.10275
G1 X75.855 Y143.116 E.10276
G1 X73.301 Y144.159 E.10275
G1 X70.77 Y145.257 E.10276
G1 X68.26 Y146.409 E.10284
G1 X66.633 Y147.2 E.0674
G1 X52.976 Y147.198 E.50867
G1 X52.253 Y147.133 E.02702
G1 X51.605 Y146.985 E.02475
G1 X51.088 Y146.793 E.02053
G1 X50.6 Y146.537 E.02053
G1 X50.078 Y146.173 E.02373
G1 X49.55 Y145.687 E.02673
G1 X49.198 Y145.262 E.02053
G1 X48.903 Y144.797 E.02054
G1 X48.651 Y144.267 E.02185
G1 X48.43 Y143.579 E.02692
G1 X48.335 Y143.05 E.02
G1 X48.3 Y142.492 E.02082
G1 X48.3 Y122.84 E.73197
G1 E-.5
;WIPE_START
G1 F12000
G1 X50.3 Y122.839
;WIPE_END
G1 Z.4 F24000
G1 X192.142 Y139.755 Z.4
G1 Z.2
G1 E.5 F1800
;TYPE:Inner wall
G1 X192.212 Y139.729 E.00278
G1 X192.692 Y139.636 E.0182
G1 X193.168 Y139.625 E.01775
G1 X193.663 Y139.697 E.01863
G1 X194.128 Y139.849 E.01821
G1 X194.559 Y140.078 E.0182
G1 X194.946 Y140.377 E.0182
G1 X195.277 Y140.736 E.0182
G1 X195.543 Y141.146 E.0182
G1 X195.735 Y141.595 E.0182
G1 X195.848 Y142.071 E.0182
G1 X195.88 Y142.558 E.0182
G1 X195.822 Y143.068 E.01912
G1 X195.628 Y143.666 E.0234
G1 X195.486 Y143.955 E.01201
G1 X195.152 Y144.409 E.02098
G1 X194.868 Y144.692 E.01494
G1 X194.461 Y144.983 E.01863
G1 X193.899 Y145.231 E.02285
G1 X193.55 Y145.328 E.01351
G1 X192.991 Y145.377 E.02089
G1 X192.577 Y145.349 E.01548
G1 X192.101 Y145.237 E.0182
G1 X191.755 Y145.098 E.01388
G1 X191.241 Y144.781 E.02251
G1 X190.881 Y144.451 E.0182
G1 X190.581 Y144.065 E.0182
G1 X190.352 Y143.633 E.0182
G1 X190.198 Y143.169 E.0182
G1 X190.125 Y142.686 E.0182
G1 X190.135 Y142.198 E.0182
G1 X190.228 Y141.718 E.0182
G1 X190.4 Y141.261 E.0182
G1 X190.64 Y140.849 E.01775
G1 X190.961 Y140.465 E.01863
G1 X191.334 Y140.15 E.0182
G1 X191.839 Y139.869 E.02153
G1 X192.105 Y139.769 E.01056
G1 X192.3 Y140.18 F24000
;TYPE:Outer wall
G1 F1800
G1 X192.309 Y140.176 E.00036
G1 X192.711 Y140.093 E.01532
G1 X193.112 Y140.079 E.01494
G1 X193.53 Y140.134 E.01568
G1 X193.922 Y140.258 E.01532
G1 X194.288 Y140.446 E.01532
G1 X194.616 Y140.693 E.01532
G1 X194.899 Y140.992 E.01532
G1 X195.126 Y141.334 E.01532
G1 X195.292 Y141.711 E.01532
G1 X195.393 Y142.109 E.01532
G1 X195.425 Y142.519 E.01532
G1 X195.38 Y142.953 E.01624
G1 X195.211 Y143.477 E.02051
G1 X194.935 Y143.954 E.02051
G1 X194.594 Y144.326 E.01879
G1 X194.255 Y144.575 E.01568
G1 X193.766 Y144.794 E.01997
G1 X193.227 Y144.908 E.0205
G1 X192.711 Y144.907 E.01922
G1 X192.272 Y144.813 E.01676
G1 X191.926 Y144.674 E.01388
G1 X191.543 Y144.438 E.01676
G1 X191.236 Y144.164 E.01532
G1 X190.98 Y143.842 E.01532
G1 X190.783 Y143.481 E.01532
G1 X190.649 Y143.092 E.01532
G1 X190.583 Y142.686 E.01532
G1 X190.586 Y142.275 E.01532
G1 X190.659 Y141.87 E.01532
G1 X190.799 Y141.484 E.01532
G1 X190.997 Y141.135 E.01494
G1 X191.263 Y140.809 E.01568
G1 X191.574 Y140.539 E.01532
G1 X192.01 Y140.293 E.01865
G1 X192.262 Y140.194 E.0101
G1 E-.5
;WIPE_START
G1 F12000
G1 X192.309 Y140.176
G1 X192.711 Y140.093
G1 X193.112 Y140.079
G1 X193.53 Y140.134
G1 X193.922 Y140.258
G1 X194.194 Y140.397
;WIPE_END
G1 Z.4 F24000
G1 X51.276 Y140.199 Z.4
G1 Z.2
G1 E.5 F1800
;TYPE:Inner wall
G1 X51.334 Y140.15 E.00283
G1 X51.755 Y139.902 E.0182
G1 X52.212 Y139.729 E.0182
G1 X52.692 Y139.636 E.0182
G1 X53.168 Y139.625 E.01775
G1 X53.663 Y139.697 E.01863
G1 X54.128 Y139.849 E.01821
G1 X54.559 Y140.078 E.0182
G1 X54.946 Y140.377 E.0182
G1 X55.277 Y140.736 E.0182
G1 X55.543 Y141.146 E.0182
G1 X55.73 Y141.584 E.01775
G1 X55.848 Y142.07 E.01863
G1 X55.88 Y142.558 E.01821
G1 X55.829 Y143.044 E.0182
G1 X55.696 Y143.514 E.0182
G1 X55.486 Y143.955 E.0182
G1 X55.204 Y144.354 E.0182
G1 X54.868 Y144.692 E.01776
G1 X54.461 Y144.983 E.01863
G1 X54.02 Y145.194 E.01821
G1 X53.55 Y145.328 E.0182
G1 X53.064 Y145.38 E.0182
G1 X52.577 Y145.349 E.0182
G1 X52.101 Y145.237 E.0182
G1 X51.579 Y145.001 E.02136
G1 X51.241 Y144.781 E.01501
G1 X50.881 Y144.451 E.0182
G1 X50.514 Y143.943 E.02332
G1 X50.352 Y143.633 E.01302
G1 X50.191 Y143.125 E.01988
G1 X50.125 Y142.686 E.01651
G1 X50.125 Y142.314 E.01388
G1 X50.228 Y141.718 E.02251
G1 X50.395 Y141.272 E.01775
G1 X50.646 Y140.839 E.01863
G1 X50.961 Y140.465 E.0182
G1 X51.246 Y140.225 E.01388
G1 X51.567 Y140.545 F24000
;TYPE:Outer wall
G1 F1800
G1 X51.574 Y140.539 E.00032
G1 X51.926 Y140.326 E.01532
G1 X52.309 Y140.176 E.01532
G1 X52.711 Y140.093 E.01532
G1 X53.112 Y140.079 E.01494
G1 X53.53 Y140.134 E.01568
G1 X53.922 Y140.258 E.01532
G1 X54.288 Y140.446 E.01532
G1 X54.616 Y140.693 E.01532
G1 X54.899 Y140.992 E.01532
G1 X55.126 Y141.334 E.01532
G1 X55.288 Y141.701 E.01494
G1 X55.393 Y142.109 E.01568
G1 X55.425 Y142.519 E.01532
G1 X55.386 Y142.929 E.01532
G1 X55.28 Y143.326 E.01532
G1 X55.107 Y143.699 E.01532
G1 X54.874 Y144.038 E.01532
G1 X54.594 Y144.326 E.01494
G1 X54.255 Y144.575 E.01568
G1 X53.886 Y144.757 E.01533
G1 X53.492 Y144.874 E.01532
G1 X53.084 Y144.923 E.01532
G1 X52.49 Y144.863 E.02224
G1 X51.977 Y144.694 E.02009
G1 X51.543 Y144.438 E.01879
G1 X51.236 Y144.164 E.01532
G1 X50.913 Y143.718 E.0205
G1 X50.69 Y143.22 E.02033
G1 X50.586 Y142.725 E.01884
G1 X50.583 Y142.314 E.01532
G1 X50.659 Y141.87 E.01675
G1 X50.795 Y141.493 E.01494
G1 X51.002 Y141.126 E.01568
G1 X51.263 Y140.808 E.01532
G1 X51.537 Y140.571 E.0135
G1 E-.5
;WIPE_START
G1 F12000
G1 X51.574 Y140.539
G1 X51.926 Y140.326
G1 X52.309 Y140.176
G1 X52.711 Y140.093
G1 X53.112 Y140.079
G1 X53.426 Y140.12
;WIPE_END
G1 Z.4 F24000
G1 X196.18 Y123.394
G1 Z.4
G1 Z.2
G1 E.5 F1800
;TYPE:Bottom surface
;WIDTH:0.501012
G1 F3600
G1 X196.9 Y124.115 E.03803
G1 X196.9 Y124.762 E.02418
G1 X195.738 Y123.6 E.06137
G1 X195.09 Y123.6 E.02418
G1 X196.9 Y125.41 E.09557
G1 X196.9 Y126.058 E.02418
G1 X194.442 Y123.6 E.12977
G1 X193.794 Y123.6 E.02418
G1 X196.9 Y126.706 E.16397
G1 X196.9 Y127.354 E.02418
G1 X193.146 Y123.6 E.19817
G1 X192.498 Y123.6 E.02418
G1 X196.9 Y128.002 E.23237
G1 X196.9 Y128.65 E.02418
G1 X191.85 Y123.6 E.26657
G1 X191.203 Y123.6 E.02418
G1 X196.9 Y129.297 E.30077
G1 X196.9 Y129.945 E.02418
G1 X190.555 Y123.6 E.33497
G1 X189.907 Y123.6 E.02418
G1 X196.9 Y130.593 E.36917
G1 X196.9 Y131.241 E.02418
G1 X189.259 Y123.6 E.40337
G1 X188.611 Y123.6 E.02418
G1 X196.9 Y131.889 E.43757
G1 X196.9 Y132.537 E.02418
G1 X187.963 Y123.6 E.47177
G1 X187.316 Y123.6 E.02418
G1 X196.9 Y133.184 E.50597
G1 X196.9 Y133.832 E.02418
G1 X186.668 Y123.6 E.54017
G1 X186.02 Y123.6 E.02418
G1 X196.9 Y134.48 E.57437
G1 X196.9 Y135.128 E.02418
G1 X185.372 Y123.6 E.60857
G1 X184.724 Y123.6 E.02418
G1 X196.9 Y135.776 E.64277
G1 X196.9 Y136.424 E.02418
G1 X184.076 Y123.6 E.67697
G1 X183.429 Y123.6 E.02418
G1 X196.9 Y137.071 E.71117
G1 X196.9 Y137.719 E.02418
G1 X182.781 Y123.6 E.74537
G1 X182.133 Y123.6 E.02418
G1 X196.9 Y138.367 E.77957
G1 X196.9 Y139.015 E.02418
M73 P3 R33
G1 X181.485 Y123.6 E.81377
G1 X180.837 Y123.6 E.02418
G1 X196.9 Y139.663 E.84797
G1 X196.9 Y140.311 E.02418
G1 X180.189 Y123.6 E.88217
G1 X179.542 Y123.6 E.02418
G1 X196.9 Y140.958 E.91637
G1 X196.9 Y141.606 E.02418
G1 X178.894 Y123.6 E.95057
G1 X178.246 Y123.6 E.02418
G1 X194.126 Y139.48 E.83833
G1 X194.279 Y139.542 E.00615
G1 X194.758 Y139.798 E.02028
G1 X195.189 Y140.134 E.02041
G1 X195.558 Y140.538 E.02041
G1 X195.852 Y140.999 E.02041
G1 X196.004 Y141.358 E.01457
G1 X197.106 Y142.46 E.05816
G1 X195.962 Y141.964 F24000
G1 F3600
G1 X196.878 Y142.879 E.04835
G1 X196.875 Y142.919 E.00148
G1 X196.781 Y143.431 E.01943
G1 X196.194 Y142.844 E.03099
G1 X196.181 Y143.033 E.00707
G1 X196.089 Y143.386 E.01364
G1 X196.624 Y143.922 E.02829
G1 X196.419 Y144.365 E.01822
G1 X195.912 Y143.858 E.02676
G1 X195.798 Y144.104 E.01013
G1 X195.679 Y144.272 E.0077
G1 X196.171 Y144.765 E.02599
G1 X195.897 Y145.109 E.01642
G1 X195.882 Y145.123 E.00078
G1 X195.402 Y144.643 E.02536
G1 X195.073 Y144.962 E.0171
G1 X195.553 Y145.442 E.02536
G1 X195.186 Y145.723 E.01725
G1 X194.697 Y145.234 E.02581
G1 X194.276 Y145.46 E.01786
G1 X194.778 Y145.962 E.02651
G1 X194.564 Y146.07 E.00894
G1 X194.328 Y146.16 E.00943
G1 X193.786 Y145.618 E.02862
G1 X193.674 Y145.655 E.0044
G1 X193.231 Y145.711 E.01666
G1 X193.828 Y146.309 E.03153
G1 X193.408 Y146.377 E.01592
G1 X193.257 Y146.385 E.00563
G1 X192.294 Y145.422 E.05085
G1 E-.5 F1800
;WIPE_START
G1 F12000
G1 X193.257 Y146.385
G1 X193.408 Y146.377
G1 X193.828 Y146.309
G1 X193.785 Y146.266
;WIPE_END
G1 Z.4 F24000
G1 X193.53 Y139.532 Z.4
G1 Z.2
G1 E.5 F1800
G1 F3600
G1 X177.598 Y123.6 E.84105
G1 X176.95 Y123.6 E.02418
G1 X192.648 Y139.298 E.82871
G1 X192.108 Y139.406 E.02056
G1 X176.302 Y123.6 E.83439
G1 X175.654 Y123.6 E.02418
G1 X191.638 Y139.583 E.84378
G1 X191.547 Y139.62 E.00366
G1 X191.225 Y139.818 E.01411
G1 X175.007 Y123.6 E.85619
G1 X174.359 Y123.6 E.02418
G1 X190.864 Y140.105 E.87131
G1 X190.616 Y140.331 E.01251
G1 X190.54 Y140.429 E.00464
G1 X173.711 Y123.6 E.8884
G1 X173.063 Y123.6 E.02418
G1 X190.265 Y140.802 E.90809
G1 X190.096 Y141.101 E.01281
G1 X190.047 Y141.231 E.00522
G1 X172.415 Y123.6 E.93077
G1 X171.767 Y123.6 E.02418
G1 X189.881 Y141.714 E.95625
G1 X189.796 Y142.147 E.01646
G1 X189.793 Y142.273 E.00473
G1 X171.12 Y123.6 E.98578
G1 X170.472 Y123.6 E.02418
G1 X190.063 Y143.191 E1.03424
G1 E-.5 F1800
;WIPE_START
G1 F12000
G1 X188.649 Y141.777
;WIPE_END
G1 Z.4 F24000
G1 X192.83 Y146.606 Z.4
G1 Z.2
G1 E.5 F1800
G1 F3600
G1 X169.824 Y123.6 E1.2145
G1 X169.176 Y123.6 E.02418
G1 X191.976 Y146.4 E1.20364
G1 X191.328 Y146.4 E.02418
G1 X168.528 Y123.6 E1.20364
G1 X167.88 Y123.6 E.02418
G1 X190.681 Y146.4 E1.20364
G1 X190.033 Y146.4 E.02418
G1 X167.233 Y123.6 E1.20364
G1 X166.585 Y123.6 E.02418
G1 X189.385 Y146.4 E1.20364
G1 X188.737 Y146.4 E.02418
G1 X165.937 Y123.6 E1.20364
G1 X165.289 Y123.6 E.02418
G1 X188.089 Y146.4 E1.20364
G1 X187.441 Y146.4 E.02418
G1 X164.641 Y123.6 E1.20364
G1 X163.993 Y123.6 E.02418
G1 X186.794 Y146.4 E1.20364
G1 X186.146 Y146.4 E.02418
G1 X163.346 Y123.6 E1.20364
G1 X162.698 Y123.6 E.02418
G1 X185.498 Y146.4 E1.20364
G1 X184.85 Y146.4 E.02418
G1 X162.05 Y123.6 E1.20364
