; HEADER_BLOCK_START
; generated by OrcaSlicer 2.1.1 on 2024-07-17 at 19:33:07
; total layer number: 250
; filament_density: 1.24
; filament_diameter: 1.75
; max_z_height: 50.00
; HEADER_BLOCK_END

; THUMBNAIL_BLOCK_START

;
; THUMBNAIL_BLOCK_END

; THUMBNAIL_BLOCK_START

;
; THUMBNAIL_BLOCK_END

; external perimeters extrusion width = 0.42mm
; perimeters extrusion width = 0.45mm
; infill extrusion width = 0.45mm
; solid infill extrusion width = 0.45mm
; top infill extrusion width = 0.42mm
; first layer extrusion width = 0.50mm

; EXECUTABLE_BLOCK_START
EXCLUDE_OBJECT_DEFINE NAME=temperature_tower.stl_id_0_copy_0 CENTER=115,115 POLYGON=[[92.7562,110],[132.785,110],[132.995,110.006],[133.145,110.016],[133.154,110.016],[133.208,110.021],[133.251,110.025],[133.285,110.029],[133.336,110.035],[133.473,110.053],[133.503,110.057],[133.535,110.062],[133.627,110.078],[133.792,110.11],[133.857,110.124],[134.04,110.17],[134.133,110.195],[134.309,110.25],[134.361,110.267],[134.444,110.296],[134.511,110.321],[134.55,110.336],[134.663,110.381],[134.684,110.389],[134.752,110.418],[134.762,110.423],[134.785,110.433],[134.943,110.507],[134.987,110.529],[135.246,110.668],[135.375,110.745],[135.517,110.836],[135.746,110.998],[136.063,111.257],[136.334,111.516],[136.508,111.704],[136.566,111.772],[136.708,111.947],[136.76,112.017],[136.877,112.18],[136.916,112.238],[137.009,112.383],[137.036,112.427],[137.11,112.555],[137.125,112.582],[137.185,112.694],[137.19,112.704],[137.23,112.783],[137.244,112.811],[137.242,117.192],[137.237,117.204],[137.22,117.237],[137.197,117.282],[137.166,117.342],[137.124,117.42],[137.074,117.508],[137.021,117.597],[136.943,117.72],[136.895,117.794],[136.777,117.962],[136.744,118.006],[136.575,118.218],[136.565,118.231],[136.353,118.465],[136.334,118.484],[136.055,118.75],[135.877,118.9],[135.738,119.008],[135.382,119.25],[135.369,119.258],[135.135,119.394],[134.939,119.495],[134.891,119.518],[134.785,119.567],[134.762,119.577],[134.752,119.582],[134.684,119.611],[134.663,119.619],[134.55,119.664],[134.519,119.676],[134.458,119.699],[134.444,119.704],[134.361,119.733],[134.32,119.746],[134.273,119.762],[134.112,119.811],[134.04,119.83],[133.857,119.876],[133.792,119.89],[133.627,119.922],[133.535,119.938],[133.503,119.943],[133.473,119.947],[133.336,119.965],[133.285,119.971],[133.251,119.975],[133.208,119.979],[133.154,119.984],[133.145,119.984],[132.995,119.994],[132.785,120],[92.7562,120],[92.7562,110]]
M73 P0 R62
;TYPE:Custom
M220 S100
G90 ; use absolute coordinates
M83 ; extruder relative mode
M104 S150 ; set temporary nozzle temp to prevent oozing during homing
M140 S95 ; set final bed temp
G4 S30 ; allow partial nozzle warmup
G28 ; home all axis and restore leveling
BED_MESH_CALIBRATE PROFILE=adaptive ADAPTIVE=1 ADAPTIVE_MARGIN=0
G1 Z25 F240
G1 X10.0 Y30 F3000
M104 S275 ; set final nozzle temp
M190 S95 ; wait for bed temp to stabilize
M109 S275 ; wait for nozzle temp to stabilize
G1 Z0.28 F240
G92 E0 ; Move Z Axis up
G1 Z2.0 F5000 ; Move to start position
G1 X5 Y30 Z0.28 F300 ; Draw the first line
G1 X5 Y200 Z0.28 F1500 E15 ; Move to side a little
G1 X5.4 Y200 Z0.28 F5000.0 ; Draw the second line
G1 X5.4 Y50 Z0.28 F1500.0 E30 ; Reset Extruder
G92 E0 ; Move Z Axis up
G1 Z2.0 F3000
M117 Start Printing..
G90
G21
M83 ; use relative distances for extrusion
; filament start gcode
M106 S0
;LAYER_CHANGE
;Z:0.2
;HEIGHT:0.2
;BEFORE_LAYER_CHANGE
;0.2
G92 E0

G1 E-1.5 F1800
;_SET_FAN_SPEED_CHANGING_LAYER
M104 S275 ; set nozzle temperature
SET_VELOCITY_LIMIT ACCEL=500
SET_VELOCITY_LIMIT SQUARE_CORNER_VELOCITY=7
; printing object temperature_tower.stl id:0 copy 0
EXCLUDE_OBJECT_START NAME=temperature_tower.stl_id_0_copy_0
G1 Z.2 F18000
G1 X107.732 Y126.933
G1 Z.2
G1 E1.5 F1800
;TYPE:Brim
;WIDTH:0.5
G1 X108.258 Y126.565 E.02195
G1 X108.833 Y126.28 E.02195
G1 X109.443 Y126.082 E.02195
G1 X110.079 Y125.976 E.02206
G1 X110.477 Y125.958 E.01363
G1 X140.78 Y125.958 E1.03653
G1 X141.315 Y125.976 E.0183
G1 X141.867 Y126.028 E.01896
G1 X142.279 Y126.093 E.01427
G1 X142.904 Y126.26 E.02213
G1 X143.493 Y126.515 E.02195
G1 X144.037 Y126.855 E.02195
G1 X144.526 Y127.27 E.02195
G1 X144.948 Y127.754 E.02195
G1 X145.295 Y128.294 E.02195
G1 X145.558 Y128.879 E.02195
G1 X145.731 Y129.494 E.02185
G1 X145.819 Y130.372 E.03019
G1 X145.819 Y139.631 E.31669
G1 X145.771 Y140.279 E.02224
G1 X145.63 Y140.905 E.02195
G1 X145.398 Y141.504 E.02195
G1 X145.08 Y142.061 E.02195
G1 X144.684 Y142.566 E.02195
G1 X144.217 Y143.007 E.02195
G1 X143.691 Y143.374 E.02195
G1 X143.12 Y143.658 E.02181
G1 X142.189 Y143.923 E.03313
G1 X141.451 Y144.014 E.02541
G1 X140.779 Y144.042 E.02301
G1 X110.481 Y144.042 E1.03639
G1 X109.832 Y143.994 E.02224
G1 X109.206 Y143.853 E.02195
G1 X108.608 Y143.621 E.02195
G1 X108.05 Y143.303 E.02195
G1 X107.545 Y142.907 E.02195
G1 X107.105 Y142.441 E.02195
G1 X106.738 Y141.914 E.02195
G1 X106.452 Y141.34 E.02195
G1 X106.254 Y140.729 E.02195
G1 X106.148 Y140.093 E.02206
G1 X106.13 Y139.695 E.01363
G1 X106.13 Y130.308 E.32107
G1 X106.178 Y129.66 E.02224
G1 X106.319 Y129.034 E.02195
G1 X106.551 Y128.436 E.02195
G1 X106.869 Y127.878 E.02195
G1 X107.265 Y127.373 E.02195
G1 X107.703 Y126.96 E.02058
G1 X108.017 Y127.294 F18000
G1 F1800
G1 X108.029 Y127.282 E.00059
G1 X108.483 Y126.965 E.01894
G1 X108.997 Y126.709 E.01963
G1 X109.562 Y126.526 E.02032
G1 X110.119 Y126.433 E.01934
G1 X110.491 Y126.415 E.01272
G1 X140.77 Y126.415 E1.03572
G1 X141.29 Y126.433 E.01779
G1 X141.814 Y126.482 E.01801
G1 X142.191 Y126.543 E.01306
G1 X142.743 Y126.691 E.01957
G1 X143.27 Y126.917 E.01963
G1 X143.758 Y127.219 E.01963
G1 X144.197 Y127.59 E.01963
G1 X144.587 Y128.037 E.02032
G1 X144.886 Y128.503 E.01894
G1 X145.123 Y129.026 E.01963
G1 X145.281 Y129.591 E.02007
G1 X145.362 Y130.402 E.02787
G1 X145.362 Y139.609 E.31492
G1 X145.315 Y140.222 E.02102
G1 X145.188 Y140.781 E.01963
G1 X144.988 Y141.297 E.01894
G1 X144.694 Y141.813 E.02032
G1 X144.352 Y142.249 E.01894
G1 X143.935 Y142.644 E.01963
G1 X143.466 Y142.974 E.01963
G1 X142.966 Y143.224 E.01913
G1 X142.087 Y143.475 E.03127
G1 X141.419 Y143.558 E.02301
G1 X140.767 Y143.585 E.02233
G1 X110.492 Y143.585 E1.03556
G1 X109.91 Y143.542 E.01998
G1 X109.35 Y143.417 E.01963
G1 X108.814 Y143.211 E.01963
G1 X108.315 Y142.928 E.01963
G1 X107.862 Y142.575 E.01963
G1 X107.467 Y142.159 E.01963
G1 X107.138 Y141.689 E.01963
G1 X106.881 Y141.176 E.01963
G1 X106.698 Y140.61 E.02032
G1 X106.605 Y140.053 E.01934
G1 X106.587 Y139.681 E.01272
G1 X106.587 Y130.33 E.31985
G1 X106.63 Y129.738 E.02033
G1 X106.761 Y129.158 E.02032
G1 X106.97 Y128.624 E.01963
G1 X107.255 Y128.126 E.01963
G1 X107.611 Y127.675 E.01963
G1 X107.987 Y127.322 E.01767
G1 X108.3 Y127.655 F18000
G1 F1800
G1 X108.311 Y127.645 E.00048
G1 X108.709 Y127.365 E.01666
G1 X109.161 Y127.138 E.0173
G1 X109.68 Y126.969 E.01868
G1 X110.16 Y126.889 E.01664
G1 X110.505 Y126.872 E.01181
G1 X140.76 Y126.872 E1.03488
G1 X141.264 Y126.89 E.01727
G1 X141.751 Y126.936 E.01674
G1 X142.102 Y126.992 E.01214
G1 X142.602 Y127.128 E.01773
G1 X143.049 Y127.32 E.01665
G1 X143.48 Y127.585 E.01731
G1 X143.882 Y127.924 E.01799
G1 X144.226 Y128.321 E.01797
G1 X144.488 Y128.731 E.01663
G1 X144.688 Y129.174 E.01661
G1 X144.832 Y129.688 E.01828
G1 X144.905 Y130.432 E.02555
G1 X144.905 Y139.586 E.31314
G1 X144.86 Y140.163 E.01979
G1 X144.752 Y140.637 E.01664
G1 X144.577 Y141.091 E.01663
G1 X144.307 Y141.566 E.01869
G1 X144.005 Y141.947 E.01663
G1 X143.653 Y142.282 E.01664
M73 P0 R61
G1 X143.239 Y142.574 E.01731
G1 X142.81 Y142.79 E.01642
G1 X141.985 Y143.027 E.02938
G1 X141.376 Y143.102 E.02098
G1 X140.755 Y143.128 E.02128
G1 X110.504 Y143.127 E1.03473
M73 P1 R61
G1 X109.987 Y143.089 E.01775
G1 X109.492 Y142.98 E.01732
G1 X109.019 Y142.8 E.01731
G1 X108.578 Y142.552 E.01731
G1 X108.178 Y142.242 E.01731
G1 X107.829 Y141.876 E.01731
G1 X107.537 Y141.462 E.01731
G1 X107.31 Y141.011 E.01728
G1 X107.141 Y140.492 E.01868
G1 X107.061 Y140.012 E.01664
G1 X107.044 Y139.667 E.01181
G1 X107.044 Y130.352 E.31862
G1 X107.083 Y129.815 E.01841
G1 X107.203 Y129.283 E.01867
G1 X107.389 Y128.813 E.01728
G1 X107.641 Y128.374 E.01731
G1 X107.956 Y127.978 E.01731
G1 X108.271 Y127.682 E.01479
G1 X108.584 Y128.017 F18000
G1 F1800
G1 X108.608 Y127.995 E.00112
G1 X108.954 Y127.754 E.01441
G1 X109.345 Y127.558 E.01497
G1 X109.799 Y127.413 E.0163
G1 X110.202 Y127.346 E.01396
G1 X110.52 Y127.329 E.01091
G1 X140.749 Y127.329 E1.03401
G1 X141.242 Y127.347 E.01688
G1 X142.012 Y127.442 E.02653
G1 X142.461 Y127.564 E.0159
G1 X142.847 Y127.732 E.0144
G1 X143.203 Y127.951 E.0143
G1 X143.552 Y128.244 E.01559
G1 X143.865 Y128.604 E.01631
G1 X144.079 Y128.941 E.01367
G1 X144.253 Y129.321 E.01427
G1 X144.382 Y129.785 E.01648
G1 X144.448 Y130.461 E.02324
G1 X144.448 Y139.563 E.31135
G1 X144.408 Y140.084 E.01786
G1 X144.316 Y140.494 E.01438
G1 X144.167 Y140.885 E.01431
G1 X143.92 Y141.318 E.01703
G1 X143.66 Y141.645 E.01431
G1 X143.369 Y141.921 E.01372
G1 X143.011 Y142.176 E.01501
G1 X142.655 Y142.357 E.0137
G1 X141.882 Y142.579 E.02748
G1 X141.333 Y142.646 E.01894
G1 X140.742 Y142.671 E.02023
G1 X110.516 Y142.67 E1.0339
G1 X110.063 Y142.636 E.01555
G1 X109.633 Y142.543 E.01503
G1 X109.223 Y142.389 E.01499
G1 X108.841 Y142.175 E.01499
G1 X108.494 Y141.908 E.01499
G1 X108.19 Y141.592 E.01499
G1 X107.925 Y141.217 E.01568
G1 X107.73 Y140.827 E.01493
G1 X107.585 Y140.373 E.0163
G1 X107.518 Y139.97 E.01396
G1 X107.501 Y139.652 E.01091
G1 X107.501 Y130.374 E.31737
G1 X107.536 Y129.893 E.0165
G1 X107.645 Y129.408 E.01701
G1 X107.806 Y129.003 E.01491
G1 X108.027 Y128.624 E.01499
G1 X108.301 Y128.282 E.015
G1 X108.555 Y128.044 E.0119
G1 X108.866 Y128.38 F18000
G1 F1800
G1 X108.904 Y128.345 E.00176
G1 X109.197 Y128.143 E.01216
G1 X109.528 Y127.98 E.01265
G1 X109.917 Y127.857 E.01395
G1 X110.244 Y127.802 E.01134
G1 X110.536 Y127.786 E.01
G1 X140.739 Y127.786 E1.03312
G1 X141.212 Y127.803 E.0162
G1 X141.933 Y127.894 E.02486
G1 X142.318 Y128 E.01365
G1 X142.626 Y128.134 E.0115
G1 X142.926 Y128.317 E.01201
G1 X143.237 Y128.579 E.01392
G1 X143.503 Y128.887 E.0139
G1 X143.681 Y129.169 E.0114
G1 X143.817 Y129.468 E.01126
G1 X143.932 Y129.881 E.01465
G1 X143.991 Y130.49 E.02093
G1 X143.991 Y139.54 E.30958
G1 X143.955 Y140.006 E.01598
G1 X143.879 Y140.352 E.01213
G1 X143.756 Y140.68 E.01196
G1 X143.534 Y141.069 E.01533
G1 X143.328 Y141.328 E.01133
G1 X143.085 Y141.561 E.01151
G1 X142.782 Y141.778 E.01273
G1 X142.498 Y141.924 E.01094
G1 X141.78 Y142.131 E.02555
G1 X141.29 Y142.191 E.01688
G1 X140.73 Y142.214 E.01919
G1 X110.528 Y142.212 E1.03307
G1 X110.119 Y142.181 E.01403
G1 X109.754 Y142.1 E.0128
G1 X109.407 Y141.968 E.01267
G1 X109.085 Y141.786 E.01267
G1 X108.792 Y141.559 E.01267
G1 X108.537 Y141.291 E.01265
G1 X108.314 Y140.973 E.0133
G1 X108.152 Y140.644 E.01254
G1 X108.029 Y140.255 E.01394
G1 X107.974 Y139.928 E.01134
G1 X107.958 Y139.636 E.01
G1 X107.958 Y130.395 E.31611
G1 X107.988 Y129.97 E.01457
G1 X108.087 Y129.534 E.01531
G1 X108.224 Y129.195 E.01249
G1 X108.411 Y128.875 E.01267
G1 X108.644 Y128.586 E.0127
G1 X108.837 Y128.408 E.00899
G1 X109.143 Y128.762 F18000
G1 F1800
G1 X109.25 Y128.67 E.00483
G1 X109.591 Y128.471 E.01351
G1 X110.111 Y128.297 E.01875
G1 X110.449 Y128.247 E.01168
G1 X140.769 Y128.243 E1.03715
G1 X141.426 Y128.279 E.02248
G1 X141.779 Y128.33 E.01219
G1 X142.063 Y128.403 E.01004
G1 X142.622 Y128.676 E.02128
G1 X142.725 Y128.746 E.00427
G1 X142.921 Y128.916 E.00888
G1 X143.108 Y129.134 E.00983
G1 X143.251 Y129.369 E.0094
G1 X143.4 Y129.705 E.01258
G1 X143.514 Y130.199 E.01736
G1 X143.534 Y139.595 E.32138
G1 X143.436 Y140.204 E.0211
G1 X143.401 Y140.318 E.00407
G1 X143.246 Y140.657 E.01274
G1 X143.027 Y140.967 E.013
G1 X142.809 Y141.18 E.01041
G1 X142.465 Y141.418 E.01431
G1 X142.204 Y141.544 E.00993
G1 X141.775 Y141.669 E.01529
G1 X141.317 Y141.731 E.01581
G1 X140.853 Y141.755 E.01586
G1 X110.517 Y141.757 E1.03767
G1 X109.795 Y141.626 E.02511
G1 X109.559 Y141.526 E.00877
G1 X109.364 Y141.417 E.00764
G1 X108.973 Y141.082 E.0176
G1 X108.898 Y140.997 E.00389
G1 X108.733 Y140.751 E.01014
G1 X108.583 Y140.442 E.01176
G1 X108.465 Y140.047 E.01409
G1 X108.425 Y139.81 E.00823
G1 X108.415 Y130.348 E.32363
G1 X108.508 Y129.773 E.01995
G1 X108.611 Y129.466 E.01106
G1 X108.759 Y129.186 E.01082
G1 X108.996 Y128.89 E.01299
G1 X109.113 Y128.789 E.00529
G1 X109.397 Y129.139 F18000
G1 F1800
G1 X109.544 Y129.02 E.00648
G1 X109.823 Y128.864 E.01093
G1 X110.253 Y128.731 E.01539
G1 X110.438 Y128.704 E.0064
G1 X140.773 Y128.7 E1.03763
G1 X141.362 Y128.732 E.02015
G1 X141.658 Y128.771 E.01022
G1 X141.963 Y128.849 E.01077
G1 X142.418 Y129.085 E.01755
G1 X142.628 Y129.267 E.0095
G1 X142.758 Y129.428 E.00706
G1 X142.83 Y129.546 E.00473
G1 X142.988 Y129.902 E.01333
G1 X143.069 Y130.302 E.01397
G1 X143.077 Y139.606 E.31825
G1 X142.984 Y140.132 E.01825
G1 X142.87 Y140.398 E.00991
G1 X142.715 Y140.632 E.00958
G1 X142.481 Y140.862 E.01123
G1 X142.208 Y141.04 E.01115
G1 X142.008 Y141.131 E.00752
G1 X141.646 Y141.23 E.01285
G1 X141.258 Y141.278 E.01338
G1 X140.828 Y141.299 E.01471
G1 X110.505 Y141.3 E1.03722
G1 X109.978 Y141.207 E.01831
G1 X109.789 Y141.131 E.00695
G1 X109.576 Y141.011 E.00836
G1 X109.275 Y140.739 E.01389
G1 X109.148 Y140.56 E.00752
G1 X108.989 Y140.232 E.01246
G1 X108.904 Y139.921 E.01104
G1 X108.876 Y139.734 E.00647
G1 X108.872 Y130.337 E.32142
G1 X108.96 Y129.843 E.01715
G1 X109.043 Y129.614 E.00836
G1 X109.162 Y129.402 E.0083
G1 X109.352 Y129.176 E.01009
G1 X109.366 Y129.164 E.00065
G1 X109.696 Y129.476 F18000
G1 F1800
G1 X109.822 Y129.382 E.00538
G1 X110.049 Y129.261 E.00878
G1 X110.38 Y129.17 E.01175
G1 X110.495 Y129.157 E.00397
G1 X140.777 Y129.157 E1.0358
G1 X141.297 Y129.184 E.01779
G1 X141.606 Y129.225 E.01068
G1 X141.847 Y129.292 E.00856
G1 X142.128 Y129.437 E.01081
G1 X142.265 Y129.546 E.00599
G1 X142.408 Y129.722 E.00778
G1 X142.573 Y130.095 E.01395
G1 X142.62 Y130.385 E.01003
G1 X142.62 Y139.616 E.31577
G1 X142.563 Y139.956 E.01176
G1 X142.481 Y140.159 E.00751
G1 X142.39 Y140.312 E.00608
G1 X142.234 Y140.477 E.00778
G1 X142.01 Y140.629 E.00922
G1 X141.886 Y140.691 E.00477
G1 X141.601 Y140.775 E.01017
G1 X141.197 Y140.824 E.0139
G1 X140.805 Y140.842 E.01345
G1 X110.495 Y140.843 E1.03676
G1 X110.156 Y140.786 E.01176
G1 X109.952 Y140.704 E.00751
G1 X109.8 Y140.613 E.00605
G1 X109.648 Y140.476 E.00701
G1 X109.554 Y140.35 E.00538
G1 X109.433 Y140.123 E.00878
G1 X109.342 Y139.792 E.01175
G1 X109.329 Y139.677 E.00397
G1 X109.329 Y130.325 E.31988
G1 X109.41 Y129.925 E.01397
G1 X109.468 Y129.78 E.00533
G1 X109.559 Y129.628 E.00606
G1 X109.669 Y129.506 E.00564
G1 X109.958 Y129.851 F18000
G1 F1800
G1 X110.104 Y129.742 E.00619
G1 X110.258 Y129.667 E.00587
G1 X110.488 Y129.614 E.00806
G1 X140.781 Y129.614 E1.03619
G1 X141.231 Y129.637 E.01544
G1 X141.556 Y129.68 E.01119
G1 X141.723 Y129.731 E.00599
G1 X141.833 Y129.787 E.00422
G1 X141.992 Y129.913 E.00696
G1 X142.124 Y130.176 E.01006
G1 X142.162 Y130.374 E.00689
G1 X142.162 Y139.628 E.31653
G1 X142.134 Y139.799 E.00594
G1 X142.093 Y139.916 E.00423
G1 X141.989 Y140.091 E.00696
G1 X141.746 Y140.256 E.01006
G1 X141.554 Y140.321 E.00693
G1 X141.182 Y140.368 E.01283
G1 X140.781 Y140.386 E.01374
G1 X110.483 Y140.386 E1.03634
G1 X110.312 Y140.357 E.00594
G1 X110.195 Y140.317 E.00423
G1 X110.023 Y140.214 E.00688
G1 X109.915 Y140.068 E.00619
G1 X109.839 Y139.914 E.00587
G1 X109.786 Y139.684 E.00806
G1 X109.786 Y130.311 E.32061
G1 X109.855 Y130.023 E.01013
G1 X109.938 Y129.885 E.00551
G1 X110.292 Y130.159 F18000
G1 F1800
G1 X110.472 Y130.071 E.00684
G1 X140.784 Y130.071 E1.03684
G1 X141.166 Y130.089 E.01308
G1 X141.507 Y130.134 E.01177
G1 X141.641 Y130.201 E.0051
G1 X141.705 Y130.361 E.00589
G1 X141.705 Y139.639 E.31738
G1 X141.657 Y139.78 E.0051
G1 X141.507 Y139.866 E.00589
G1 X141.166 Y139.911 E.01177
G1 X140.784 Y139.929 E.01308
G1 X110.472 Y139.929 E1.03684
G1 X110.331 Y139.88 E.0051
G1 X110.244 Y139.7 E.00684
G1 X110.244 Y130.3 E.32153
G1 X110.279 Y130.197 E.00373
G1 E-1.5
;WIPE_START
G1 F12000
G1 X110.472 Y130.071
G1 X112.242 Y130.071
;WIPE_END
G1 Z.4 F18000
