; HEADER_BLOCK_START
; generated by OrcaSlicer 2.2.0 on 2024-12-02 at 18:36:33
; total layer number: 200
; filament_density: 1.27
; filament_diameter: 1.75
; max_z_height: 40.05
; HEADER_BLOCK_END

; THUMBNAIL_BLOCK_START

;
; THUMBNAIL_BLOCK_END

; THUMBNAIL_BLOCK_START

;
; THUMBNAIL_BLOCK_END

; external perimeters extrusion width = 0.42mm
; perimeters extrusion width = 0.45mm
; infill extrusion width = 0.45mm
; solid infill extrusion width = 0.45mm
; top infill extrusion width = 0.42mm
; first layer extrusion width = 0.50mm

; EXECUTABLE_BLOCK_START
EXCLUDE_OBJECT_DEFINE NAME=temperature_tower.stl_id_0_copy_0 CENTER=115,115 POLYGON=[[92.7562,110],[132.785,110],[132.995,110.006],[133.145,110.016],[133.154,110.016],[133.208,110.021],[133.251,110.025],[133.285,110.029],[133.336,110.035],[133.473,110.053],[133.503,110.057],[133.535,110.062],[133.627,110.078],[133.792,110.11],[133.857,110.124],[134.04,110.17],[134.133,110.195],[134.309,110.25],[134.361,110.267],[134.444,110.296],[134.511,110.321],[134.55,110.336],[134.663,110.381],[134.684,110.389],[134.752,110.418],[134.762,110.423],[134.785,110.433],[134.943,110.507],[134.987,110.529],[135.246,110.668],[135.375,110.745],[135.517,110.836],[135.746,110.998],[136.063,111.257],[136.334,111.516],[136.508,111.704],[136.566,111.772],[136.708,111.947],[136.76,112.017],[136.877,112.18],[136.916,112.238],[137.009,112.383],[137.036,112.427],[137.11,112.555],[137.125,112.582],[137.185,112.694],[137.19,112.704],[137.23,112.783],[137.244,112.811],[137.242,117.192],[137.237,117.204],[137.22,117.237],[137.197,117.282],[137.166,117.342],[137.124,117.42],[137.074,117.508],[137.021,117.597],[136.943,117.72],[136.895,117.794],[136.777,117.962],[136.744,118.006],[136.575,118.218],[136.565,118.231],[136.353,118.465],[136.334,118.484],[136.055,118.75],[135.877,118.9],[135.738,119.008],[135.382,119.25],[135.369,119.258],[135.135,119.394],[134.939,119.495],[134.891,119.518],[134.785,119.567],[134.762,119.577],[134.752,119.582],[134.684,119.611],[134.663,119.619],[134.55,119.664],[134.519,119.676],[134.458,119.699],[134.444,119.704],[134.361,119.733],[134.32,119.746],[134.273,119.762],[134.112,119.811],[134.04,119.83],[133.857,119.876],[133.792,119.89],[133.627,119.922],[133.535,119.938],[133.503,119.943],[133.473,119.947],[133.336,119.965],[133.285,119.971],[133.251,119.975],[133.208,119.979],[133.154,119.984],[133.145,119.984],[132.995,119.994],[132.785,120],[92.7562,120],[92.7562,110]]
M73 P0 R29
;TYPE:Custom
M220 S100
G90 ; use absolute coordinates
M83 ; extruder relative mode
M104 S150 ; set temporary nozzle temp to prevent oozing during homing
M140 S65 ; set final bed temp
G4 S30 ; allow partial nozzle warmup
G28 ; home all axis and restore leveling
BED_MESH_CALIBRATE
G1 Z25 F240
G1 X10.0 Y30 F3000
M104 S250 ; set final nozzle temp
M190 S65 ; wait for bed temp to stabilize
M109 S250 ; wait for nozzle temp to stabilize
G1 Z0.28 F240
G92 E0 ; Move Z Axis up
LINE_PURGE
G92 E0 ; Move Z Axis up
G1 Z2.0 F3000
M117 Start Printing..
G90
G21
M83 ; use relative distances for extrusion
; filament start gcode
M106 S0
;LAYER_CHANGE
;Z:0.25
;HEIGHT:0.25
;BEFORE_LAYER_CHANGE
;0.25
G92 E0

G1 E-.5 F1800
TIMELAPSE_TAKE_FRAME
;_SET_FAN_SPEED_CHANGING_LAYER
M104 S250 ; set nozzle temperature
SET_VELOCITY_LIMIT ACCEL=1000
SET_VELOCITY_LIMIT SQUARE_CORNER_VELOCITY=7
; printing object temperature_tower.stl id:0 copy 0
EXCLUDE_OBJECT_START NAME=temperature_tower.stl_id_0_copy_0
G1 Z.45 F24000
G1 X107.427 Y127.293
G1 Z.45
G1 Z.25
G1 E.5 F1800
;TYPE:Brim
;WIDTH:0.5
G1 F3000
G1 X107.788 Y126.958 E.02168
G1 X108.312 Y126.602 E.02795
G1 X108.883 Y126.327 E.02795
G1 X109.486 Y126.142 E.02777
G1 X110.441 Y126.035 E.04238
G1 X140.903 Y126.036 E1.34254
G1 X141.634 Y126.079 E.03226
G1 X142.181 Y126.153 E.02436
G1 X142.911 Y126.34 E.03321
G1 X143.491 Y126.593 E.02789
G1 X144.028 Y126.931 E.02795
G1 X144.509 Y127.345 E.02795
G1 X144.922 Y127.825 E.02795
G1 X145.259 Y128.363 E.02795
G1 X145.513 Y128.944 E.02795
G1 X145.676 Y129.555 E.02786
G1 X145.75 Y130.352 E.03528
G1 X145.75 Y139.65 E.40982
G1 X145.702 Y140.291 E.02832
G1 X145.561 Y140.909 E.02795
G1 X145.329 Y141.5 E.02795
G1 X145.012 Y142.049 E.02795
G1 X144.616 Y142.544 E.02795
G1 X144.151 Y142.975 E.02795
G1 X143.627 Y143.332 E.02795
G1 X143.058 Y143.605 E.0278
G1 X142.181 Y143.847 E.04011
G1 X141.443 Y143.938 E.03274
G1 X140.779 Y143.965 E.02929
G1 X110.437 Y143.965 E1.33728
G1 X109.796 Y143.917 E.02832
G1 X109.178 Y143.776 E.02795
G1 X108.588 Y143.544 E.02795
G1 X108.039 Y143.227 E.02795
G1 X107.543 Y142.831 E.02795
G1 X107.112 Y142.366 E.02795
G1 X106.755 Y141.842 E.02795
G1 X106.481 Y141.27 E.02795
G1 X106.296 Y140.668 E.02777
G1 X106.188 Y139.713 E.04238
G1 X106.188 Y130.283 E.41557
G1 X106.237 Y129.643 E.02832
G1 X106.378 Y129.024 E.02795
G1 X106.61 Y128.434 E.02795
G1 X106.927 Y127.885 E.02795
G1 X107.323 Y127.389 E.02795
G1 X107.398 Y127.32 E.00451
G1 X107.7 Y127.648 F24000
G1 F3000
G1 X108.075 Y127.303 E.02245
G1 X108.527 Y126.995 E.02411
G1 X109.038 Y126.748 E.02499
G1 X109.589 Y126.579 E.02543
G1 X110.474 Y126.481 E.03921
G1 X140.886 Y126.483 E1.34036
G1 X141.586 Y126.524 E.03089
G1 X142.088 Y126.591 E.02235
G1 X142.755 Y126.761 E.03034
G1 X143.273 Y126.985 E.02486
G1 X143.754 Y127.285 E.02499
G1 X144.185 Y127.654 E.02499
G1 X144.567 Y128.1 E.02587
G1 X144.868 Y128.581 E.02499
G1 X145.086 Y129.082 E.02411
G1 X145.236 Y129.645 E.02566
G1 X145.304 Y130.379 E.03248
G1 X145.304 Y139.629 E.40767
G1 X145.257 Y140.234 E.02676
G1 X145.129 Y140.787 E.02499
G1 X144.929 Y141.296 E.02411
G1 X144.636 Y141.804 E.02587
G1 X144.281 Y142.246 E.02499
G1 X143.879 Y142.618 E.02411
G1 X143.411 Y142.939 E.02499
G1 X142.912 Y143.18 E.02446
G1 X142.084 Y143.409 E.03785
G1 X141.412 Y143.492 E.02983
G1 X140.768 Y143.519 E.02844
G1 X110.449 Y143.519 E1.33624
G1 X109.873 Y143.475 E.02544
M73 P1 R29
M73 P1 R29
G1 X109.32 Y143.351 E.02499
G1 X108.792 Y143.145 E.02499
G1 X108.3 Y142.862 E.02499
G1 X107.856 Y142.51 E.02499
G1 X107.469 Y142.095 E.02499
G1 X107.149 Y141.627 E.02499
G1 X106.902 Y141.116 E.02499
G1 X106.733 Y140.564 E.02543
G1 X106.635 Y139.68 E.03921
G1 X106.635 Y130.305 E.41319
G1 X106.678 Y129.719 E.02588
G1 X106.803 Y129.166 E.02499
G1 X107.009 Y128.638 E.02499
G1 X107.303 Y128.13 E.02587
G1 X107.658 Y127.687 E.02499
G1 X107.671 Y127.675 E.00078
G1 X107.992 Y127.986 F24000
G1 F3000
G1 X108.346 Y127.66 E.02119
G1 X108.743 Y127.388 E.02121
G1 X109.192 Y127.169 E.022
G1 X109.692 Y127.017 E.02307
G1 X110.506 Y126.927 E.03606
G1 X140.869 Y126.929 E1.33819
G1 X141.538 Y126.968 E.02953
G1 X141.996 Y127.029 E.02035
G1 X142.6 Y127.182 E.0275
G1 X143.056 Y127.377 E.02183
G1 X143.48 Y127.641 E.02203
G1 X143.875 Y127.979 E.0229
G1 X144.212 Y128.373 E.02286
G1 X144.466 Y128.781 E.02116
G1 X144.659 Y129.22 E.02117
G1 X144.796 Y129.735 E.02345
G1 X144.857 Y130.405 E.02969
G1 X144.857 Y139.606 E.40551
G1 X144.812 Y140.176 E.02519
G1 X144.704 Y140.644 E.02118
G1 X144.53 Y141.092 E.02118
G1 X144.26 Y141.559 E.02378
G1 X143.959 Y141.934 E.02116
G1 X143.607 Y142.262 E.02121
G1 X143.195 Y142.546 E.02206
G1 X142.765 Y142.756 E.0211
G1 X141.987 Y142.971 E.03558
G1 X141.37 Y143.047 E.02739
G1 X140.755 Y143.073 E.02711
G1 X110.461 Y143.072 E1.33518
G1 X109.949 Y143.034 E.0226
G1 X109.461 Y142.925 E.02206
G1 X108.994 Y142.745 E.02204
G1 X108.56 Y142.497 E.02204
G1 X108.167 Y142.187 E.02204
G1 X107.825 Y141.822 E.02204
G1 X107.542 Y141.41 E.02204
G1 X107.323 Y140.962 E.02199
G1 X107.171 Y140.461 E.02307
G1 X107.081 Y139.648 E.03606
G1 X107.081 Y130.327 E.41082
G1 X107.12 Y129.795 E.02348
G1 X107.229 Y129.307 E.02205
G1 X107.409 Y128.841 E.022
G1 X107.679 Y128.374 E.02376
G1 X107.967 Y128.017 E.02024
G1 X108.315 Y128.3 F24000
G1 F3000
G1 X108.326 Y128.285 E.00081
G1 X108.633 Y128.005 E.01831
G1 X108.977 Y127.771 E.01834
G1 X109.346 Y127.591 E.01809
G1 X109.795 Y127.455 E.02068
G1 X110.538 Y127.374 E.03292
G1 X140.852 Y127.375 E1.33605
G1 X141.49 Y127.412 E.02818
G1 X141.903 Y127.467 E.01836
G1 X142.447 Y127.604 E.02469
G1 X142.84 Y127.77 E.01881
G1 X143.207 Y127.997 E.01903
G1 X143.55 Y128.289 E.01985
G1 X143.856 Y128.646 E.02075
G1 X144.065 Y128.981 E.0174
G1 X144.233 Y129.359 E.0182
G1 X144.356 Y129.824 E.02121
G1 X144.411 Y130.432 E.02691
G1 X144.411 Y139.584 E.40333
G1 X144.371 Y140.098 E.02275
G1 X144.279 Y140.503 E.01831
G1 X144.13 Y140.889 E.01822
G1 X143.884 Y141.314 E.02166
G1 X143.624 Y141.636 E.01821
G1 X143.319 Y141.919 E.01834
G1 X142.978 Y142.154 E.01826
G1 X142.617 Y142.331 E.01771
G1 X141.89 Y142.533 E.03328
G1 X141.328 Y142.602 E.02494
G1 X140.743 Y142.626 E.02579
G1 X110.472 Y142.625 E1.33414
G1 X110.024 Y142.592 E.0198
G1 X109.6 Y142.499 E.01914
G1 X109.196 Y142.344 E.01908
G1 X108.819 Y142.131 E.01908
G1 X108.478 Y141.864 E.01908
G1 X108.181 Y141.549 E.01908
G1 X107.934 Y141.193 E.01908
G1 X107.745 Y140.808 E.01892
G1 X107.609 Y140.359 E.02068
G1 X107.528 Y139.616 E.03292
G1 X107.528 Y130.348 E.40847
G1 X107.562 Y129.87 E.02111
G1 X107.655 Y129.446 E.01913
G1 X107.809 Y129.044 E.01898
G1 X108.054 Y128.62 E.02161
G1 X108.289 Y128.331 E.01642
G1 X108.636 Y128.614 F24000
G1 F3000
G1 X108.659 Y128.586 E.00164
G1 X108.918 Y128.35 E.01544
G1 X109.21 Y128.154 E.0155
G1 X109.52 Y128.005 E.01515
G1 X109.897 Y127.893 E.01735
G1 X110.569 Y127.82 E.02979
G1 X140.835 Y127.822 E1.33392
G1 X141.443 Y127.857 E.02684
G1 X141.812 Y127.905 E.01638
G1 X142.294 Y128.025 E.02191
G1 X142.625 Y128.164 E.01581
G1 X142.935 Y128.353 E.01603
G1 X143.241 Y128.614 E.01769
G1 X143.501 Y128.92 E.01769
G1 X143.674 Y129.2 E.01451
G1 X143.806 Y129.498 E.01437
G1 X143.916 Y129.913 E.01894
G1 X143.965 Y130.458 E.02412
G1 X143.965 Y139.561 E.40118
G1 X143.929 Y140.021 E.02034
G1 X143.853 Y140.363 E.01545
G1 X143.73 Y140.686 E.01522
G1 X143.508 Y141.069 E.0195
G1 X143.29 Y141.337 E.01522
G1 X143.046 Y141.563 E.01466
G1 X142.759 Y141.762 E.0154
G1 X142.469 Y141.907 E.01432
G1 X141.792 Y142.096 E.03094
G1 X141.286 Y142.157 E.02247
G1 X140.731 Y142.18 E.02448
G1 X110.494 Y142.179 E1.33265
G1 X110.099 Y142.15 E.01748
G1 X109.738 Y142.072 E.01625
G1 X109.396 Y141.943 E.01613
G1 X109.077 Y141.764 E.01613
G1 X108.788 Y141.539 E.01613
G1 X108.535 Y141.274 E.01613
G1 X108.325 Y140.974 E.01613
G1 X108.158 Y140.633 E.01675
G1 X108.046 Y140.257 E.0173
G1 X107.974 Y139.585 E.0298
G1 X107.974 Y130.369 E.40615
G1 X108.004 Y129.944 E.01878
G1 X108.082 Y129.584 E.01622
G1 X108.209 Y129.247 E.01591
G1 X108.43 Y128.866 E.0194
G1 X108.61 Y128.645 E.01255
G1 X108.963 Y128.93 F24000
G1 F3000
G1 X108.995 Y128.89 E.00227
G1 X109.324 Y128.625 E.01861
G1 X109.673 Y128.439 E.01744
G1 X109.988 Y128.339 E.01459
G1 X110.477 Y128.266 E.02176
G1 X140.77 Y128.266 E1.3351
G1 X141.426 Y128.303 E.02895
G1 X141.743 Y128.346 E.01413
G1 X142.092 Y128.433 E.01585
G1 X142.642 Y128.706 E.02706
G1 X142.742 Y128.775 E.00534
G1 X142.997 Y129.013 E.01538
G1 X143.219 Y129.325 E.0169
G1 X143.39 Y129.706 E.01839
G1 X143.5 Y130.188 E.0218
G1 X143.518 Y139.615 E.41547
G1 X143.42 Y140.217 E.02687
G1 X143.386 Y140.329 E.00519
G1 X143.231 Y140.662 E.01619
G1 X143.01 Y140.968 E.01662
G1 X142.685 Y141.259 E.01925
G1 X142.388 Y141.439 E.01531
G1 X142.14 Y141.548 E.01193
G1 X141.73 Y141.655 E.01868
G1 X141.277 Y141.711 E.0201
G1 X140.854 Y141.732 E.01865
G1 X110.474 Y141.734 E1.33898
G1 X109.76 Y141.603 E.03197
G1 X109.527 Y141.503 E.01117
G1 X109.335 Y141.393 E.00976
G1 X108.955 Y141.064 E.02214
G1 X108.882 Y140.981 E.0049
G1 X108.729 Y140.751 E.01215
G1 X108.559 Y140.397 E.01733
G1 X108.494 Y140.176 E.01016
G1 X108.44 Y139.885 E.01304
G1 X108.42 Y130.323 E.42142
G1 X108.513 Y129.754 E.0254
G1 X108.616 Y129.451 E.01408
G1 X108.764 Y129.176 E.01381
G1 X108.937 Y128.961 E.01215
G1 X109.275 Y129.249 F24000
G1 F3000
G1 X109.342 Y129.171 E.00451
G1 X109.6 Y128.976 E.01425
M73 P1 R28
M73 P1 R28
G1 X109.882 Y128.834 E.01392
G1 X110.052 Y128.781 E.00784
G1 X110.467 Y128.713 E.01855
G1 X140.774 Y128.713 E1.3357
G1 X141.361 Y128.745 E.02591
G1 X141.691 Y128.789 E.01469
G1 X141.992 Y128.868 E.01371
G1 X142.441 Y129.104 E.02234
G1 X142.645 Y129.285 E.01203
G1 X142.77 Y129.442 E.00885
G1 X142.839 Y129.557 E.00591
G1 X142.985 Y129.895 E.01621
G1 X143.065 Y130.288 E.01768
G1 X143.072 Y139.626 E.41157
G1 X142.98 Y140.145 E.02324
G1 X142.865 Y140.408 E.01262
G1 X142.713 Y140.636 E.0121
G1 X142.463 Y140.871 E.01512
G1 X142.148 Y141.063 E.01624
G1 X142.029 Y141.116 E.00574
G1 X141.683 Y141.212 E.01584
G1 X141.26 Y141.265 E.01878
G1 X140.829 Y141.286 E.01901
G1 X110.461 Y141.287 E1.3384
G1 X109.941 Y141.194 E.02331
G1 X109.755 Y141.118 E.00885
G1 X109.544 Y140.999 E.01067
G1 X109.252 Y140.731 E.01747
G1 X109.131 Y140.557 E.00937
G1 X108.987 Y140.272 E.01404
G1 X108.934 Y140.101 E.00791
G1 X108.876 Y139.791 E.01388
G1 X108.867 Y130.312 E.4178
G1 X108.954 Y129.824 E.02183
G1 X109.037 Y129.597 E.01064
G1 X109.156 Y129.389 E.01059
G1 X109.249 Y129.279 E.00634
G1 X109.575 Y129.577 F24000
G1 F3000
G1 X109.678 Y129.464 E.00671
G1 X109.799 Y129.375 E.00666
G1 X110.023 Y129.257 E.01116
G1 X110.127 Y129.22 E.00484
G1 X110.456 Y129.159 E.01477
G1 X140.777 Y129.159 E1.33634
G1 X141.296 Y129.186 E.02287
G1 X141.639 Y129.233 E.01529
G1 X141.877 Y129.299 E.01089
G1 X142.153 Y129.445 E.01376
G1 X142.288 Y129.554 E.00765
G1 X142.426 Y129.727 E.00974
G1 X142.582 Y130.086 E.01722
G1 X142.626 Y130.365 E.01244
G1 X142.626 Y139.636 E.40863
G1 X142.569 Y139.971 E.01498
G1 X142.487 Y140.172 E.00956
G1 X142.395 Y140.323 E.00777
G1 X142.243 Y140.483 E.00974
G1 X141.909 Y140.686 E.01724
G1 X141.634 Y140.768 E.01262
G1 X141.243 Y140.819 E.0174
G1 X140.804 Y140.84 E.01938
G1 X110.451 Y140.841 E1.33772
G1 X110.116 Y140.784 E.01498
G1 X109.916 Y140.702 E.00956
G1 X109.766 Y140.611 E.00773
G1 X109.618 Y140.476 E.00882
G1 X109.529 Y140.355 E.00665
G1 X109.41 Y140.131 E.01116
G1 X109.374 Y140.027 E.00484
G1 X109.313 Y139.698 E.01477
G1 X109.313 Y130.3 E.41419
G1 X109.393 Y129.904 E.01778
G1 X109.452 Y129.762 E.00678
G1 X109.543 Y129.612 E.00774
G1 X109.548 Y129.606 E.00034
G1 X109.928 Y129.836 F24000
G1 F3000
G1 X109.931 Y129.832 E.00024
G1 X110.072 Y129.728 E.00768
G1 X110.221 Y129.656 E.00733
G1 X110.444 Y129.605 E.01006
G1 X140.781 Y129.605 E1.33704
G1 X141.23 Y129.628 E.01984
G1 X141.589 Y129.676 E.01594
G1 X141.754 Y129.728 E.00762
G1 X141.862 Y129.784 E.00537
G1 X142.019 Y129.91 E.00887
G1 X142.143 Y130.164 E.01242
G1 X142.179 Y130.354 E.00855
G1 X142.179 Y139.647 E.40959
G1 X142.151 Y139.817 E.00756
G1 X142.11 Y139.932 E.00538
G1 X142.006 Y140.104 E.00887
G1 X141.772 Y140.261 E.01242
G1 X141.588 Y140.324 E.00859
G1 X141.18 Y140.377 E.01811
G1 X140.781 Y140.395 E.0176
G1 X110.44 Y140.395 E1.33722
G1 X110.271 Y140.366 E.00756
G1 X110.156 Y140.326 E.00538
G1 X109.985 Y140.223 E.00877
G1 X109.882 Y140.082 E.00768
G1 X109.81 Y139.932 E.00733
G1 X109.759 Y139.71 E.01006
G1 X109.759 Y130.286 E.41533
G1 X109.828 Y130.002 E.0129
G1 X109.908 Y129.871 E.00676
G1 X110.254 Y130.136 F24000
G1 F3000
G1 X110.429 Y130.052 E.00854
G1 X140.784 Y130.052 E1.33785
G1 X141.165 Y130.069 E.0168
G1 X141.54 Y130.12 E.01669
G1 X141.671 Y130.187 E.00649
G1 X141.733 Y130.341 E.00731
G1 X141.733 Y139.659 E.41065
G1 X141.684 Y139.798 E.00649
G1 X141.54 Y139.88 E.00731
G1 X141.165 Y139.931 E.01669
G1 X140.784 Y139.948 E.0168
G1 X110.429 Y139.948 E1.33785
G1 X110.29 Y139.9 E.00649
G1 X110.206 Y139.725 E.00854
G1 X110.206 Y130.275 E.41649
G1 X110.241 Y130.174 E.00473
G1 E-.5 F1800
;WIPE_START
G1 F12000
G1 X110.429 Y130.052
G1 X112.205 Y130.052
;WIPE_END
G1 Z.45 F24000
G1 X140.763 Y138.979 Z.45
G1 Z.25
G1 E.5 F1800
;TYPE:Inner wall
;WIDTH:0.499999
G1 F3000
G1 X111.175 Y138.979 E1.30404
G1 X111.175 Y131.021 E.3507
M73 P2 R28
M73 P2 R28
G1 X140.763 Y131.025 E1.30404
G1 X140.763 Y138.939 E.34878
G1 X141.21 Y139.388 F24000
;TYPE:Outer wall
G1 F3000
G1 X140.773 Y139.425 E.0193
G1 X110.729 Y139.425 E1.32415
G1 X110.729 Y130.575 E.39004
G1 X140.883 Y130.579 E1.32897
G1 X141.21 Y130.609 E.01448
G1 X141.21 Y139.348 E.38516
G1 E-.5 F1800
;WIPE_START
G1 F12000
G1 X140.773 Y139.425
G1 X139.216 Y139.425
;WIPE_END
TIMELAPSE_TAKE_FRAME
