; HEADER_BLOCK_START
; generated by OrcaSlicer 2.2.0 on 2024-11-16 at 13:34:17
; total layer number: 30
; filament_density: 1.27
; filament_diameter: 1.75
; max_z_height: 6.00
; HEADER_BLOCK_END

; THUMBNAIL_BLOCK_START

;
; THUMBNAIL_BLOCK_END

; THUMBNAIL_BLOCK_START

;
; THUMBNAIL_BLOCK_END

; external perimeters extrusion width = 0.42mm
; perimeters extrusion width = 0.45mm
; infill extrusion width = 0.45mm
; solid infill extrusion width = 0.45mm
; top infill extrusion width = 0.42mm
; first layer extrusion width = 0.50mm

; external perimeters extrusion width = 0.42mm
; perimeters extrusion width = 0.45mm
; infill extrusion width = 0.45mm
; solid infill extrusion width = 0.45mm
; top infill extrusion width = 0.42mm
; first layer extrusion width = 0.50mm

; EXECUTABLE_BLOCK_START
EXCLUDE_OBJECT_DEFINE NAME=TOMTOM.stl_1_id_0_copy_0 CENTER=124.5,115 POLYGON=[[103.5,86.5],[135.5,86.5],[135.843,86.5118],[135.857,86.5127],[136.185,86.5471],[136.212,86.5509],[136.523,86.6057],[136.563,86.6143],[136.856,86.6874],[136.909,86.7025],[137.183,86.7918],[137.247,86.8153],[137.502,86.9184],[137.577,86.9518],[137.812,87.0666],[137.896,87.1116],[138.111,87.2357],[138.203,87.2937],[138.397,87.4249],[138.496,87.4973],[138.67,87.6333],[138.774,87.7213],[138.928,87.8599],[139.036,87.9645],[139.17,88.1037],[139.279,88.2257],[139.394,88.3635],[139.503,88.5036],[139.6,88.6381],[139.706,88.7968],[139.787,88.9262],[139.888,89.1038],[139.953,89.2264],[145.302,99.6322],[145.388,99.8394],[145.45,100.055],[145.487,100.276],[145.5,100.5],[145.5,129.5],[145.487,129.724],[145.45,129.945],[145.388,130.161],[145.302,130.368],[139.953,140.774],[139.888,140.896],[139.787,141.074],[139.706,141.203],[139.6,141.362],[139.503,141.496],[139.394,141.636],[139.279,141.774],[139.17,141.896],[139.036,142.036],[138.928,142.14],[138.774,142.279],[138.67,142.367],[138.496,142.503],[138.397,142.575],[138.203,142.706],[138.111,142.764],[137.896,142.888],[137.812,142.933],[137.577,143.048],[137.502,143.082],[137.247,143.185],[137.183,143.208],[136.909,143.297],[136.856,143.313],[136.563,143.386],[136.523,143.394],[136.212,143.449],[136.185,143.453],[135.857,143.487],[135.843,143.488],[135.5,143.5],[103.5,143.5],[103.5,86.5]]
EXCLUDE_OBJECT_DEFINE NAME=TOMTOM.stl_2_id_1_copy_0 CENTER=93,115 POLYGON=[[84.5,138.3],[84.5,91.2],[93.5,86.5],[96.5,86.5],[96.8567,86.5127],[97.2116,86.5509],[97.5628,86.6143],[97.9087,86.7025],[98.2473,86.8153],[98.5771,86.9518],[98.8962,87.1116],[99.2032,87.2937],[99.4964,87.4973],[99.7743,87.7213],[100.036,87.9645],[100.279,88.2257],[100.503,88.5036],[100.706,88.7968],[100.888,89.1038],[101.048,89.4229],[101.185,89.7527],[101.297,90.0913],[101.386,90.4372],[101.449,90.7884],[101.487,91.1433],[101.5,91.5],[101.5,138.5],[101.487,138.857],[101.449,139.212],[101.386,139.563],[101.297,139.909],[101.185,140.247],[101.048,140.577],[100.888,140.896],[100.706,141.203],[100.503,141.496],[100.279,141.774],[100.036,142.036],[99.7743,142.279],[99.4964,142.503],[99.2032,142.706],[98.8962,142.888],[98.5771,143.048],[98.2473,143.185],[97.9087,143.297],[97.5628,143.386],[97.2116,143.449],[96.8567,143.487],[96.5,143.5],[93.5,143.5],[84.5,138.8],[84.5,138.3]]
M73 P0 R24
;TYPE:Custom
M220 S100
G90 ; use absolute coordinates
M83 ; extruder relative mode
M104 S150 ; set temporary nozzle temp to prevent oozing during homing
M140 S70 ; set final bed temp
G4 S30 ; allow partial nozzle warmup
G28 ; home all axis and restore leveling
BED_MESH_CALIBRATE PROFILE=adaptive ADAPTIVE=1 ADAPTIVE_MARGIN=0
G1 Z25 F240
G1 X10.0 Y30 F3000
M104 S245 ; set final nozzle temp
M190 S70 ; wait for bed temp to stabilize
M109 S245 ; wait for nozzle temp to stabilize
G1 Z0.28 F240
G92 E0 ; Move Z Axis up
G1 Z2.0 F5000 ; Move to start position
G1 X5 Y30 Z0.28 F300 ; Draw the first line
G1 X5 Y200 Z0.28 F1500 E15 ; Move to side a little
G1 X5.4 Y200 Z0.28 F5000.0 ; Draw the second line
M73 P1 R24
M73 P1 R24
G1 X5.4 Y50 Z0.28 F1500.0 E30 ; Reset Extruder
G92 E0 ; Move Z Axis up
G1 Z2.0 F3000
M117 Start Printing..
G90
G21
M83 ; use relative distances for extrusion
; filament start gcode
M106 S0
;LAYER_CHANGE
;Z:0.2
;HEIGHT:0.2
;BEFORE_LAYER_CHANGE
;0.2
G92 E0

G1 E-.5 F1800
;_SET_FAN_SPEED_CHANGING_LAYER
SET_VELOCITY_LIMIT ACCEL=1000
SET_VELOCITY_LIMIT SQUARE_CORNER_VELOCITY=7
; printing object TOMTOM.stl_1 id:0 copy 0
EXCLUDE_OBJECT_START NAME=TOMTOM.stl_1_id_0_copy_0
G1 Z.4 F24000
G1 X148.331 Y119.233
G1 Z.4
G1 Z.2
G1 E.5 F1800
;TYPE:Inner wall
;WIDTH:0.499999
G1 F3000
G1 X148.429 Y119.257 E.00364
G1 X151.46 Y119.257 E.10944
G1 X151.906 Y119.338 E.0164
G1 X152.272 Y119.532 E.01494
G1 X152.541 Y119.845 E.01491
G1 X152.707 Y120.224 E.01494
G1 X152.743 Y120.617 E.01423
G1 X152.743 Y149.46 E1.0414
G1 X152.665 Y149.898 E.01607
G1 X152.479 Y150.255 E.01455
G1 X152.141 Y150.557 E.01636
G1 X151.798 Y150.694 E.01336
G1 X151.383 Y150.743 E.01506
G1 X148.295 Y150.743 E.1115
G1 X147.978 Y150.912 E.013
G1 X147.803 Y151.149 E.01062
G1 X147.743 Y151.429 E.01033
G1 X147.743 Y158.474 E.25437
G1 X147.696 Y159.116 E.02326
G1 X147.571 Y159.69 E.02122
G1 X147.36 Y160.257 E.02182
M73 P2 R24
M73 P2 R24
G1 X147.071 Y160.787 E.02181
G1 X146.71 Y161.271 E.02179
G1 X146.272 Y161.709 E.02238
G1 X145.789 Y162.07 E.02178
G1 X145.258 Y162.359 E.02182
G1 X144.708 Y162.565 E.02122
G1 X144.102 Y162.698 E.0224
G1 X143.474 Y162.743 E.02271
G1 X112.257 Y162.743 E1.12713
G1 X112.257 Y107.257 E2.00336
G1 X143.802 Y107.27 E1.13897
G1 X144.4 Y107.355 E.0218
M73 P2 R23
M73 P2 R23
G1 X144.979 Y107.525 E.02181
G1 X145.529 Y107.776 E.02181
G1 X146.037 Y108.102 E.02181
G1 X146.494 Y108.496 E.02178
G1 X146.9 Y108.965 E.02238
G1 X147.225 Y109.473 E.02178
G1 X147.476 Y110.023 E.02182
G1 X147.641 Y110.587 E.02122
G1 X147.731 Y111.201 E.02242
G1 X147.752 Y118.681 E.27007
G1 X147.871 Y118.97 E.01128
G1 X148.114 Y119.18 E.01161
G1 X148.292 Y119.224 E.00663
G1 X148.429 Y118.8 F24000
;TYPE:Outer wall
G1 F3000
G1 X151.383 Y118.8 E.10669
G1 X151.878 Y118.844 E.01793
G1 X152.237 Y118.97 E.01373
G1 X152.559 Y119.172 E.01373
G1 X152.828 Y119.441 E.01372
G1 X153.033 Y119.771 E.01404
G1 X153.156 Y120.122 E.01343
G1 X153.2 Y120.617 E.01793
G1 X153.2 Y149.383 E1.03865
G1 X153.156 Y149.878 E.01793
G1 X153.03 Y150.237 E.01373
G1 X152.832 Y150.553 E.01347
G1 X152.398 Y150.941 E.02102
G1 X152.061 Y151.103 E.0135
G1 X151.492 Y151.2 E.02085
G1 X148.429 Y151.2 E.11059
G1 X148.263 Y151.271 E.0065
G1 X148.2 Y151.429 E.00613
G1 X148.2 Y158.49 E.25497
G1 X148.149 Y159.182 E.02504
G1 X148.01 Y159.819 E.02356
G1 X147.777 Y160.447 E.02416
G1 X147.457 Y161.035 E.02416
G1 X147.057 Y161.571 E.02416
G1 X146.572 Y162.056 E.02476
G1 X146.036 Y162.456 E.02415
G1 X145.449 Y162.776 E.02417
G1 X144.837 Y163.005 E.02356
G1 X144.167 Y163.152 E.02477
G1 X143.491 Y163.2 E.0245
G1 X111.8 Y163.2 E1.14422
G1 X111.8 Y106.8 E2.03637
G1 X143.835 Y106.813 E1.15665
G1 X144.497 Y106.908 E.02415
G1 X145.139 Y107.096 E.02416
G1 X145.748 Y107.373 E.02416
G1 X146.312 Y107.735 E.02416
G1 X146.818 Y108.172 E.02415
G1 X147.267 Y108.69 E.02476
G1 X147.628 Y109.254 E.02415
G1 X147.905 Y109.863 E.02417
G1 X148.089 Y110.489 E.02356
G1 X148.188 Y111.168 E.02477
G1 X148.2 Y118.566 E.26711
G1 X148.268 Y118.734 E.00655
G1 X148.392 Y118.785 E.00483
G1 E-.5 F1800
;WIPE_START
G1 F12000
G1 X150.392 Y118.795
;WIPE_END
G1 Z.4 F24000
G1 X137.668 Y120.865 Z.4
G1 Z.2
G1 E.5 F1800
;TYPE:Inner wall
G1 F3000
G1 X137.653 Y120.98 E.00416
G1 X137.441 Y121.699 E.02708
G1 X137.113 Y122.387 E.02753
G1 X136.686 Y123.005 E.02712
G1 X136.158 Y123.555 E.02754
G1 X135.559 Y124.008 E.02711
G1 X134.995 Y124.31 E.02311
G1 X134.176 Y124.608 E.03146
G1 X133.436 Y124.735 E.02712
G1 X132.673 Y124.744 E.02753
G1 X131.93 Y124.634 E.02711
G1 X131.203 Y124.403 E.02754
G1 X130.533 Y124.065 E.0271
G1 X129.924 Y123.627 E.02708
G1 X129.384 Y123.089 E.02753
G1 X128.943 Y122.481 E.02712
G1 X128.599 Y121.8 E.02753
G1 X128.37 Y121.085 E.02711
G1 X128.251 Y120.235 E.031
G1 X128.263 Y119.581 E.02361
G1 X128.388 Y118.841 E.02712
G1 X128.633 Y118.119 E.02753
G1 X128.983 Y117.454 E.02711
G1 X129.442 Y116.845 E.02752
G1 X129.983 Y116.324 E.02712
G1 X130.609 Y115.89 E.02754
G1 X131.275 Y115.569 E.02667
G1 X132.003 Y115.35 E.02747
G1 X132.761 Y115.251 E.02758
G1 X133.251 Y115.251 E.01769
G1 X133.877 Y115.326 E.02277
G1 X134.611 Y115.526 E.02747
G1 X135.307 Y115.842 E.02758
G1 X135.933 Y116.257 E.02711
G1 X136.485 Y116.765 E.0271
G1 X136.957 Y117.363 E.02751
G1 X137.323 Y118.019 E.02712
G1 X137.584 Y118.735 E.02753
G1 X137.726 Y119.473 E.02711
G1 X137.749 Y120.235 E.02755
G1 X137.673 Y120.825 E.02149
G1 X137.215 Y120.814 F24000
;TYPE:Outer wall
G1 F3000
G1 X137.201 Y120.916 E.00373
G1 X137.004 Y121.565 E.02448
G1 X136.703 Y122.185 E.02491
G1 X136.313 Y122.741 E.02449
G1 X135.832 Y123.235 E.02492
G1 X135.288 Y123.64 E.02449
G1 X134.784 Y123.904 E.02051
G1 X134.032 Y124.174 E.02884
G1 X133.363 Y124.284 E.0245
G1 X132.673 Y124.287 E.02491
G1 X132.003 Y124.182 E.02449
G1 X131.347 Y123.969 E.02492
G1 X130.743 Y123.659 E.02449
G1 X130.196 Y123.259 E.02448
G1 X129.711 Y122.768 E.02492
G1 X129.316 Y122.217 E.0245
G1 X129.009 Y121.599 E.02491
G1 X128.807 Y120.951 E.02449
G1 X128.71 Y120.28 E.02448
G1 X128.72 Y119.59 E.02492
G1 X128.838 Y118.922 E.0245
G1 X129.064 Y118.27 E.02491
G1 X129.385 Y117.672 E.02449
G1 X129.804 Y117.125 E.0249
G1 X130.296 Y116.657 E.0245
G1 X130.866 Y116.268 E.02491
G1 X131.468 Y115.983 E.02407
G1 X132.13 Y115.79 E.02489
G1 X132.815 Y115.705 E.02493
G1 X133.196 Y115.705 E.01377
G1 X133.823 Y115.78 E.02277
G1 X134.487 Y115.966 E.02489
G1 X135.113 Y116.256 E.02493
G1 X135.676 Y116.635 E.02449
G1 X136.172 Y117.098 E.0245
G1 X136.595 Y117.642 E.0249
G1 X136.921 Y118.237 E.02449
G1 X137.153 Y118.887 E.02491
G1 X137.276 Y119.554 E.02449
G1 X137.292 Y120.244 E.02492
G1 X137.22 Y120.774 E.01931
G1 E-.5 F1800
;WIPE_START
G1 F12000
G1 X137.201 Y120.916
G1 X137.004 Y121.565
G1 X136.703 Y122.185
G1 X136.422 Y122.585
;WIPE_END
G1 Z.4 F24000
G1 X136.686 Y140.605 Z.4
G1 Z.2
G1 E.5 F1800
;TYPE:Inner wall
G1 F3000
G1 X136.619 Y140.691 E.00393
G1 X136.33 Y140.838 E.01171
G1 X135.762 Y140.857 E.02052
G1 X120.829 Y140.857 E.5392
G1 X120.579 Y140.81 E.00918
G1 X120.354 Y140.666 E.00963
G1 X120.182 Y140.399 E.01149
G1 X120.143 Y140.171 E.00833
G1 X120.143 Y129.829 E.37344
G1 X120.182 Y129.601 E.00833
G1 X120.354 Y129.334 E.01149
G1 X120.579 Y129.19 E.00963
G1 X120.829 Y129.143 E.00918
G1 X136.171 Y129.143 E.55397
G1 X136.492 Y129.223 E.01194
G1 X136.726 Y129.425 E.01116
G1 X136.857 Y129.734 E.01213
G1 X136.857 Y140.171 E.37684
G1 X136.784 Y140.479 E.01143
G1 X136.711 Y140.574 E.00431
G1 X136.335 Y140.331 F24000
;TYPE:Outer wall
G1 F3000
G1 X136.171 Y140.4 E.00641
G1 X120.829 Y140.4 E.55397
G1 X120.67 Y140.336 E.00616
G1 X120.6 Y140.171 E.00647
G1 X120.6 Y129.829 E.37344
G1 X120.67 Y129.664 E.00648
G1 X120.829 Y129.6 E.00615
G1 X136.171 Y129.6 E.55397
G1 X136.333 Y129.666 E.00629
G1 X136.4 Y129.829 E.00634
G1 X136.4 Y140.171 E.37344
G1 X136.35 Y140.294 E.00478
G1 E-.5 F1800
;WIPE_START
G1 F12000
G1 X136.171 Y140.4
G1 X134.379 Y140.4
;WIPE_END
G1 Z.4 F24000
G1 X133.947 Y154.647 Z.4
G1 Z.2
G1 E.5 F1800
;TYPE:Inner wall
G1 F3000
G1 X133.436 Y154.735 E.01874
G1 X132.673 Y154.744 E.02753
G1 X131.93 Y154.634 E.02711
G1 X131.203 Y154.403 E.02754
G1 X130.533 Y154.065 E.0271
G1 X129.924 Y153.627 E.02708
G1 X129.384 Y153.089 E.02753
G1 X128.943 Y152.481 E.02712
G1 X128.599 Y151.8 E.02753
G1 X128.37 Y151.085 E.02711
G1 X128.257 Y150.344 E.02708
G1 X128.263 Y149.581 E.02753
G1 X128.388 Y148.841 E.02712
G1 X128.633 Y148.119 E.02753
G1 X128.983 Y147.454 E.02711
G1 X129.442 Y146.845 E.02752
G1 X129.983 Y146.324 E.02712
G1 X130.609 Y145.89 E.02754
G1 X131.275 Y145.569 E.02667
G1 X132.003 Y145.35 E.02747
G1 X132.761 Y145.251 E.02758
G1 X133.251 Y145.251 E.01769
G1 X133.877 Y145.326 E.02277
G1 X134.611 Y145.526 E.02747
G1 X135.085 Y145.738 E.01876
G1 X135.402 Y145.896 E.01275
G1 X135.933 Y146.257 E.02319
G1 X136.485 Y146.765 E.0271
G1 X136.957 Y147.363 E.02751
G1 X137.323 Y148.019 E.02712
G1 X137.584 Y148.735 E.02753
G1 X137.726 Y149.473 E.02711
G1 X137.749 Y150.235 E.02755
G1 X137.653 Y150.979 E.0271
G1 X137.441 Y151.699 E.02708
G1 X137.113 Y152.387 E.02753
G1 X136.686 Y153.005 E.02712
G1 X136.158 Y153.555 E.02754
G1 X135.559 Y154.008 E.02711
G1 X134.897 Y154.361 E.02708
G1 X134.176 Y154.608 E.02753
G1 X133.986 Y154.64 E.00693
G1 X133.863 Y154.202 F24000
;TYPE:Outer wall
G1 F3000
G1 X133.363 Y154.284 E.0183
G1 X132.673 Y154.287 E.02491
G1 X132.003 Y154.182 E.02449
G1 X131.347 Y153.969 E.02492
G1 X130.743 Y153.659 E.02449
G1 X130.196 Y153.259 E.02448
G1 X129.711 Y152.768 E.02492
G1 X129.316 Y152.217 E.0245
G1 X129.009 Y151.599 E.02491
G1 X128.807 Y150.951 E.02449
G1 X128.71 Y150.28 E.02448
G1 X128.72 Y149.59 E.02492
G1 X128.838 Y148.922 E.0245
G1 X129.064 Y148.27 E.02491
G1 X129.385 Y147.672 E.02449
G1 X129.804 Y147.125 E.0249
G1 X130.296 Y146.657 E.0245
G1 X130.866 Y146.268 E.02491
G1 X131.468 Y145.983 E.02407
G1 X132.13 Y145.79 E.02489
G1 X132.815 Y145.705 E.02493
G1 X133.196 Y145.705 E.01377
G1 X133.823 Y145.78 E.02277
G1 X134.487 Y145.966 E.02489
G1 X135.113 Y146.256 E.02493
G1 X135.676 Y146.635 E.02449
G1 X136.172 Y147.098 E.0245
G1 X136.595 Y147.642 E.0249
G1 X136.921 Y148.237 E.02449
G1 X137.153 Y148.887 E.02491
G1 X137.276 Y149.554 E.02449
G1 X137.292 Y150.244 E.02492
G1 X137.201 Y150.916 E.02448
G1 X137.004 Y151.565 E.02448
G1 X136.703 Y152.185 E.02491
G1 X136.313 Y152.741 E.02449
G1 X135.832 Y153.235 E.02492
G1 X135.288 Y153.64 E.02449
G1 X134.687 Y153.955 E.02448
G1 X134.032 Y154.174 E.02491
G1 X133.903 Y154.195 E.00475
G1 E-.5 F1800
;WIPE_START
G1 F12000
G1 X133.363 Y154.284
G1 X132.673 Y154.287
G1 X132.003 Y154.182
G1 X131.922 Y154.156
;WIPE_END
G1 Z.4 F24000
G1 X144.351 Y107.487
G1 Z.4
G1 Z.2
G1 E.5 F1800
;TYPE:Bottom surface
;WIDTH:0.500942
G1 F5894.914
G1 X147.215 Y110.351 E.14653
G1 X147.306 Y110.66 E.01166
G1 X147.379 Y111.162 E.01837
G1 X143.837 Y107.621 E.1812
G1 X143.181 Y107.612 E.02376
G1 X147.389 Y111.82 E.21532
G1 X147.39 Y112.469 E.02348
G1 X142.533 Y107.612 E.24853
G1 X141.885 Y107.612 E.02344
G1 X147.391 Y113.118 E.28174
G1 X147.392 Y113.767 E.02348
M73 P3 R23
M73 P3 R23
G1 X141.237 Y107.611 E.31495
G1 X140.589 Y107.611 E.02344
G1 X147.393 Y114.416 E.34816
G1 X147.394 Y115.064 E.02348
G1 X139.941 Y107.611 E.38137
G1 X139.293 Y107.611 E.02344
G1 X147.395 Y115.713 E.41459
G1 X147.396 Y116.362 E.02348
G1 X138.645 Y107.61 E.4478
G1 X137.997 Y107.61 E.02344
G1 X147.398 Y117.011 E.48101
G1 X147.399 Y117.66 E.02348
G1 X137.349 Y107.61 E.51422
G1 X136.701 Y107.61 E.02344
G1 X147.606 Y118.515 E.55797
G1 E-.5 F1800
;WIPE_START
G1 F12000
G1 X146.192 Y117.1
;WIPE_END
G1 Z.4 F24000
G1 X151.075 Y119.393 Z.4
G1 Z.2
G1 E.5 F1800
G1 F5894.914
G1 X152.4 Y120.718 E.06779
G1 X152.4 Y121.366 E.02344
G1 X150.632 Y119.598 E.09048
G1 X149.982 Y119.596 E.0235
G1 X152.4 Y122.014 E.12371
G1 X152.4 Y122.661 E.02344
G1 X149.333 Y119.594 E.15695
G1 X148.683 Y119.592 E.0235
G1 X152.4 Y123.309 E.19019
G1 X152.4 Y123.957 E.02344
G1 X136.053 Y107.609 E.83644
G1 X135.405 Y107.609 E.02344
G1 X152.4 Y124.605 E.8696
G1 X152.4 Y125.252 E.02344
G1 X134.757 Y107.609 E.90276
G1 X134.109 Y107.609 E.02344
G1 X152.4 Y125.9 E.93591
G1 X152.4 Y126.548 E.02344
G1 X133.461 Y107.608 E.96907
G1 X132.813 Y107.608 E.02344
G1 X152.4 Y127.196 E1.00222
G1 X152.4 Y127.843 E.02344
G1 X132.165 Y107.608 E1.03538
G1 X131.517 Y107.608 E.02344
G1 X152.4 Y128.491 E1.06853
G1 X152.4 Y129.139 E.02344
G1 X130.869 Y107.607 E1.10169
G1 X130.221 Y107.607 E.02344
G1 X152.4 Y129.786 E1.13485
G1 X152.4 Y130.434 E.02344
G1 X129.573 Y107.607 E1.168
G1 X128.925 Y107.607 E.02344
G1 X152.4 Y131.082 E1.20116
G1 X152.4 Y131.73 E.02344
G1 X128.277 Y107.606 E1.23431
G1 X127.629 Y107.606 E.02344
G1 X152.4 Y132.377 E1.26747
G1 X152.4 Y133.025 E.02344
G1 X137.856 Y118.481 E.7442
G1 X137.91 Y118.629 E.00571
G1 X138.041 Y119.314 E.02523
G1 X152.4 Y133.673 E.73471
G1 X152.4 Y134.321 E.02344
G1 X138.085 Y120.005 E.73246
G1 X138.091 Y120.312 E.0111
G1 X138.045 Y120.614 E.01103
G1 X152.4 Y134.968 E.73449
