; HEADER_BLOCK_START
; generated by OrcaSlicer 2.1.1 on 2024-08-26 at 16:51:31
; total layer number: 95
; filament_density: 1.24
; filament_diameter: 1.75
; max_z_height: 19.00
; HEADER_BLOCK_END

; THUMBNAIL_BLOCK_START

;
; THUMBNAIL_BLOCK_END

; THUMBNAIL_BLOCK_START

;
; THUMBNAIL_BLOCK_END

; external perimeters extrusion width = 0.42mm
; perimeters extrusion width = 0.45mm
; infill extrusion width = 0.45mm
; solid infill extrusion width = 0.45mm
; top infill extrusion width = 0.42mm
; support material extrusion width = 0.42mm
; first layer extrusion width = 0.50mm

; EXECUTABLE_BLOCK_START
EXCLUDE_OBJECT_DEFINE NAME=Tomtom_rebelle_v7.stl_id_0_copy_0 CENTER=115,115.197 POLYGON=[[90,105.697],[90.0024,105.648],[90.0076,105.61],[90.0096,105.599],[90.0215,105.552],[90.0302,105.526],[90.0381,105.506],[90.059,105.461],[90.067,105.447],[90.0843,105.419],[90.1135,105.38],[90.117,105.376],[90.1464,105.343],[90.1786,105.314],[90.2222,105.281],[90.25,105.264],[90.3087,105.235],[90.329,105.227],[90.4025,105.207],[90.4132,105.205],[90.43,105.202],[90.5,105.197],[139.5,105.197],[139.57,105.202],[139.587,105.205],[139.598,105.207],[139.671,105.227],[139.691,105.235],[139.75,105.264],[139.778,105.281],[139.821,105.314],[139.854,105.343],[139.883,105.376],[139.887,105.38],[139.916,105.419],[139.933,105.447],[139.941,105.461],[139.962,105.506],[139.97,105.526],[139.978,105.552],[139.99,105.599],[139.992,105.61],[139.998,105.648],[140,105.697],[140,124.697],[139.992,124.784],[139.97,124.868],[139.933,124.947],[139.912,124.978],[139.883,125.018],[139.821,125.08],[139.777,125.111],[139.75,125.13],[139.671,125.167],[139.587,125.189],[139.5,125.197],[90.5,125.197],[90.4132,125.189],[90.4025,125.187],[90.329,125.167],[90.3087,125.159],[90.25,125.13],[90.2222,125.113],[90.1786,125.08],[90.1464,125.051],[90.117,125.018],[90.1135,125.014],[90.0843,124.975],[90.067,124.947],[90.059,124.933],[90.0381,124.888],[90.0302,124.868],[90.0215,124.842],[90.0096,124.795],[90.0076,124.784],[90.0024,124.746],[90,124.697],[90,105.697]]
M73 P0 R80
;TYPE:Custom
M220 S100
G90 ; use absolute coordinates
M83 ; extruder relative mode
M104 S150 ; set temporary nozzle temp to prevent oozing during homing
M140 S80 ; set final bed temp
G4 S30 ; allow partial nozzle warmup
G28 ; home all axis and restore leveling
BED_MESH_CALIBRATE PROFILE=adaptive ADAPTIVE=1 ADAPTIVE_MARGIN=0
G1 Z25 F240
G1 X10.0 Y30 F3000
M104 S253 ; set final nozzle temp
M190 S80 ; wait for bed temp to stabilize
M109 S253 ; wait for nozzle temp to stabilize
G1 Z0.28 F240
G92 E0 ; Move Z Axis up
G1 Z2.0 F5000 ; Move to start position
G1 X5 Y30 Z0.28 F300 ; Draw the first line
G1 X5 Y200 Z0.28 F1500 E15 ; Move to side a little
G1 X5.4 Y200 Z0.28 F5000.0 ; Draw the second line
M73 P0 R79
G1 X5.4 Y50 Z0.28 F1500.0 E30 ; Reset Extruder
G92 E0 ; Move Z Axis up
G1 Z2.0 F3000
M117 Start Printing..
G90
G21
M83 ; use relative distances for extrusion
; filament start gcode
M106 S0
;LAYER_CHANGE
;Z:0.2
;HEIGHT:0.2
;BEFORE_LAYER_CHANGE
;0.2
G92 E0

G1 E-1.5 F1800
;_SET_FAN_SPEED_CHANGING_LAYER
SET_VELOCITY_LIMIT ACCEL=500
SET_VELOCITY_LIMIT SQUARE_CORNER_VELOCITY=7
G1 Z.2 F18000
G1 X96.507 Y122.927
G1 Z.2
G1 E1.5 F1800
;TYPE:Skirt
;WIDTH:0.5
G1 F3000
G1 X97.097 Y122.586 E.02331
G1 X97.659 Y122.39 E.02035
G1 X98.5 Y122.283 E.029
G1 X147.754 Y122.294 E1.68477
G1 X148.341 Y122.39 E.02035
G1 X148.903 Y122.586 E.02035
G1 X149.493 Y122.927 E.02331
G1 X149.944 Y123.315 E.02035
G1 X150.32 Y123.776 E.02035
G1 X150.611 Y124.294 E.02035
G1 X150.807 Y124.856 E.02035
G1 X150.903 Y125.443 E.02035
G1 X150.895 Y145.038 E.67025
G1 X150.611 Y146.1 E.0376
G1 X150.27 Y146.69 E.02331
G1 X149.493 Y147.467 E.0376
G1 X148.903 Y147.808 E.02331
G1 X148.341 Y148.004 E.02035
G1 X147.5 Y148.111 E.029
G1 X98.5 Y148.111 E1.67608
G1 X97.575 Y147.982 E.03196
G1 X96.578 Y147.517 E.0376
G1 X96.056 Y147.079 E.02331
G1 X95.68 Y146.618 E.02035
G1 X95.389 Y146.1 E.02035
G1 X95.193 Y145.538 E.02035
G1 X95.086 Y144.697 E.029
G1 X95.097 Y125.443 E.6586
G1 X95.215 Y124.772 E.02331
G1 X95.7 Y123.747 E.03879
G1 X96.479 Y122.955 E.03798
G1 X96.769 Y123.301 F18000
G1 F3000
G1 X97.291 Y123 E.02059
G1 X97.777 Y122.831 E.01762
G1 X98.5 Y122.74 E.02492
G1 X147.714 Y122.749 E1.6834
G1 X148.709 Y123 E.03511
G1 X149.231 Y123.301 E.02059
G1 X149.62 Y123.638 E.01762
G1 X150.197 Y124.488 E.03511
G1 X150.366 Y124.974 E.01762
G1 X150.457 Y125.697 E.02492
G1 X150.448 Y144.911 E.65723
G1 X150.343 Y145.504 E.02059
G1 X149.908 Y146.41 E.03439
G1 X149.231 Y147.093 E.03288
G1 X148.709 Y147.394 E.02059
G1 X148.223 Y147.563 E.01762
G1 X147.5 Y147.654 E.02492
G1 X98.5 Y147.654 E1.67608
G1 X97.693 Y147.54 E.02788
G1 X96.841 Y147.143 E.03217
G1 X96.38 Y146.756 E.02059
G1 X95.803 Y145.906 E.03511
G1 X95.634 Y145.42 E.01762
G1 X95.543 Y144.697 E.02492
G1 X95.552 Y125.483 E.65723
G1 X95.657 Y124.89 E.02059
G1 X96.075 Y124.009 E.03336
G1 X96.741 Y123.33 E.03255
; printing object Tomtom rebelle v7.stl id:0 copy 0
G1 E-1.5 F1800
;WIPE_START
G1 F3000
G1 X97.291 Y123
G1 X97.777 Y122.831
G1 X98.5 Y122.74
G1 X98.616 Y122.74
;WIPE_END
EXCLUDE_OBJECT_START NAME=Tomtom_rebelle_v7.stl_id_0_copy_0
G1 Z.4 F18000
G1 X106.998 Y131.784 Z.4
G1 Z.2
G1 E1.5 F1800
;TYPE:Support
G1 X108.955 Y135.22 E.13528
G1 X106.957 Y138.634 E.13528
G1 X103.002 Y138.61 E.13528
G1 X101.045 Y135.174 E.13528
G1 X103.043 Y131.76 E.13528
G1 X106.929 Y131.783 E.13293
G1 X108.272 Y135.98 F18000
G1 F1800
G1 X108.272 Y134.853 E.03857
G1 X107.764 Y133.961 E.0351
G1 X107.764 Y136.441 E.08482
G1 X107.256 Y137.308 E.03439
G1 X107.256 Y133.069 E.14501
G1 X106.758 Y132.194 E.03445
G1 X106.748 Y138.176 E.20463
G1 X106.722 Y138.221 E.00178
G1 X106.24 Y138.218 E.01648
G1 X106.24 Y132.191 E.20617
G1 X105.733 Y132.188 E.01737
G1 X105.733 Y138.215 E.20617
G1 X105.225 Y138.212 E.01737
G1 X105.225 Y132.185 E.20617
G1 X104.717 Y132.182 E.01737
G1 X104.717 Y138.209 E.20617
G1 X104.209 Y138.206 E.01737
G1 X104.209 Y132.179 E.20617
G1 X103.701 Y132.176 E.01737
G1 X103.701 Y138.203 E.20617
G1 X103.242 Y138.2 E.01569
G1 X103.193 Y138.114 E.00339
G1 X103.193 Y132.318 E.19827
G1 X102.685 Y133.186 E.03439
G1 X102.685 Y137.222 E.13808
G1 X102.177 Y136.331 E.0351
G1 X102.177 Y134.053 E.07789
G1 X101.67 Y134.921 E.03439
G1 X101.67 Y135.854 E.03192
G1 E-1.5
;WIPE_START
G1 X101.67 Y134.921
G1 X102.177 Y134.053
G1 X102.177 Y134.115
;WIPE_END
G1 Z.4 F18000
G1 X144.955 Y135.174 Z.4
G1 Z.2
G1 E1.5 F1800
G1 X142.998 Y138.61 E.13528
G1 X139.043 Y138.634 E.13528
G1 X137.045 Y135.22 E.13528
G1 X139.002 Y131.784 E.13528
G1 X142.957 Y131.76 E.13528
G1 X144.92 Y135.114 E.13293
G1 X144.33 Y135.854 F18000
G1 F1800
G1 X144.33 Y134.921 E.03192
G1 X143.823 Y134.053 E.03439
G1 X143.823 Y136.331 E.07789
G1 X143.315 Y137.222 E.0351
G1 X143.315 Y133.186 E.13808
G1 X142.807 Y132.318 E.03439
G1 X142.807 Y138.114 E.19827
G1 X142.758 Y138.2 E.00339
G1 X142.299 Y138.203 E.01569
G1 X142.299 Y132.176 E.20617
G1 X141.791 Y132.179 E.01737
G1 X141.791 Y138.206 E.20617
G1 X141.283 Y138.209 E.01737
G1 X141.283 Y132.182 E.20617
G1 X140.775 Y132.185 E.01737
G1 X140.775 Y138.212 E.20617
G1 X140.267 Y138.215 E.01737
G1 X140.267 Y132.188 E.20617
G1 X139.76 Y132.191 E.01737
G1 X139.76 Y138.218 E.20617
G1 X139.278 Y138.221 E.01648
G1 X139.252 Y138.176 E.00178
G1 X139.242 Y132.194 E.20463
G1 X138.744 Y133.069 E.03445
G1 X138.744 Y137.308 E.14501
G1 X138.236 Y136.441 E.03439
G1 X138.236 Y133.961 E.08482
G1 X137.728 Y134.853 E.0351
G1 X137.728 Y135.98 E.03857
G1 E-1.5
;WIPE_START
G1 F12000
G1 X137.728 Y134.853
G1 X138.16 Y134.094
;WIPE_END
G1 Z.4 F18000
G1 X135.259 Y136.665 Z.4
G1 Z.2
G1 E1.5 F1800
;TYPE:Inner wall
;WIDTH:0.499999
G1 X137.278 Y140.115 E.13677
G1 X137.499 Y140.409 E.01257
G1 X137.815 Y140.666 E.01393
G1 X138.216 Y140.845 E.01502
G1 X138.669 Y140.907 E.01562
G1 X143.598 Y140.878 E.1686
G1 X144.117 Y140.704 E.01875
G1 X144.473 Y140.456 E.01484
G1 X144.779 Y140.071 E.01682
G1 X146.127 Y137.706 E.09311
G1 X146.126 Y143.314 E.19182
G1 X99.874 Y143.323 E1.5821
G1 X99.873 Y137.706 E.19213
M73 P1 R79
G1 X101.221 Y140.071 E.09311
G1 X101.528 Y140.457 E.01687
G1 X101.885 Y140.705 E.01488
G1 X102.228 Y140.833 E.01251
G1 X102.601 Y140.879 E.01287
G1 X107.551 Y140.908 E.16931
G1 X108.185 Y140.666 E.0232
G1 X108.501 Y140.409 E.01394
G1 X108.722 Y140.115 E.01257
G1 X111.111 Y136.033 E.1618
G1 X111.263 Y135.682 E.01308
G1 X111.33 Y135.22 E.01597
G1 X111.264 Y134.772 E.01548
G1 X111.12 Y134.433 E.0126
G1 X108.779 Y130.323 E.1618
G1 X108.563 Y130.027 E.01254
G1 X108.25 Y129.766 E.01392
G1 X107.851 Y129.583 E.01503
G1 X107.399 Y129.515 E.01565
G1 X102.456 Y129.486 E.16906
G1 X101.907 Y129.675 E.01987
G1 X101.57 Y129.915 E.01416
G1 X101.278 Y130.279 E.01594
G1 X99.873 Y132.679 E.09516
G1 X99.873 Y127.07 E.19187
G1 X146.127 Y127.072 E1.58214
G1 X146.127 Y132.679 E.1918
G1 X144.722 Y130.279 E.09516
G1 X144.43 Y129.915 E.01593
G1 X144.094 Y129.675 E.01415
G1 X143.73 Y129.535 E.01333
G1 X143.341 Y129.487 E.01341
G1 X138.601 Y129.515 E.16213
G1 X138.149 Y129.583 E.01565
G1 X137.75 Y129.766 E.01503
G1 X137.437 Y130.027 E.01392
G1 X137.221 Y130.323 E.01254
G1 X134.88 Y134.433 E.1618
G1 X134.736 Y134.772 E.0126
G1 X134.67 Y135.22 E.01548
G1 X134.737 Y135.682 E.01597
G1 X134.889 Y136.033 E.01309
G1 X135.239 Y136.63 E.02366
G1 X135.653 Y136.434 F18000
G1 F1800
G1 X137.673 Y139.885 E.13677
G1 X137.831 Y140.094 E.00898
G1 X138.056 Y140.278 E.00995
G1 X138.343 Y140.405 E.01073
G1 X138.666 Y140.45 E.01115
G1 X143.538 Y140.421 E.16666
G1 X143.909 Y140.297 E.01339
G1 X144.164 Y140.12 E.0106
G1 X144.382 Y139.845 E.01201
G1 X146.584 Y135.979 E.15216
G1 X146.583 Y143.771 E.2665
G1 X99.417 Y143.78 E1.61337
G1 X99.416 Y135.979 E.26682
G1 X101.618 Y139.845 E.15216
G1 X101.837 Y140.121 E.01205
G1 X102.092 Y140.298 E.01063
G1 X102.337 Y140.389 E.00894
G1 X102.604 Y140.422 E.00919
G1 X107.491 Y140.451 E.16717
G1 X107.944 Y140.278 E.01657
G1 X108.169 Y140.094 E.00995
G1 X108.327 Y139.885 E.00898
G1 X110.716 Y135.802 E.1618
G1 X110.854 Y135.434 E.01345
G1 X110.853 Y135.015 E.01431
G1 X110.723 Y134.66 E.01296
G1 X108.382 Y130.549 E.1618
G1 X108.227 Y130.338 E.00896
G1 X108.004 Y130.152 E.00994
G1 X107.719 Y130.021 E.01073
G1 X107.396 Y129.972 E.01118
G1 X102.514 Y129.943 E.16699
G1 X102.122 Y130.078 E.01419
G1 X101.881 Y130.25 E.01011
G1 X101.673 Y130.509 E.01139
G1 X99.416 Y134.365 E.15282
G1 X99.416 Y126.613 E.26517
G1 X146.584 Y126.615 E1.61341
G1 X146.584 Y134.365 E.2651
G1 X144.327 Y130.509 E.15282
G1 X144.119 Y130.25 E.01138
G1 X143.878 Y130.078 E.01011
G1 X143.619 Y129.978 E.00952
G1 X143.334 Y129.944 E.00981
G1 X138.455 Y129.973 E.16689
G1 X137.996 Y130.152 E.01687
G1 X137.773 Y130.338 E.00994
G1 X137.618 Y130.549 E.00895
G1 X135.277 Y134.66 E.1618
G1 X135.147 Y135.015 E.01296
G1 X135.146 Y135.434 E.01431
G1 X135.284 Y135.802 E.01345
G1 X135.633 Y136.399 E.02366
G1 E-1.5
;WIPE_START
G1 F12000
G1 X136.643 Y138.125
;WIPE_END
G1 Z.4 F18000
G1 X136.444 Y144.23 Z.4
G1 Z.2
G1 E1.5 F1800
G1 X98.96 Y144.237 E1.28218
G1 X98.959 Y140.428 E.1303
;WIDTH:0.509102
G1 X98.964 Y135.698 E.16502
;WIDTH:0.546541
G1 X98.983 Y135.433 E.00998
;WIDTH:0.583979
G1 X99.001 Y135.169 E.01073
G1 X98.98 Y134.898 E.01099
;WIDTH:0.541989
G1 X98.959 Y134.628 E.01014
;WIDTH:0.499999
G1 X98.959 Y126.156 E.28978
G1 X147.041 Y126.158 E1.64468
G1 X147.041 Y134.628 E.28971
;WIDTH:0.541989
G1 X147.02 Y134.898 E.01014
;WIDTH:0.583979
G1 X146.999 Y135.169 E.01099
G1 X147.017 Y135.433 E.01073
;WIDTH:0.546541
G1 X147.036 Y135.698 E.00998
;WIDTH:0.509102
G1 X147.041 Y140.428 E.16502
;WIDTH:0.499999
G1 X147.04 Y144.228 E.12997
G1 X136.484 Y144.23 E.36109
G1 E-1.5
;WIPE_START
G1 F12000
G1 X134.484 Y144.23
;WIPE_END
G1 Z.4 F18000
G1 X99.166 Y144.694 Z.4
G1 Z.2
G1 E1.5 F1800
;TYPE:Outer wall
G1 X98.565 Y144.694 E.02055
G1 X98.502 Y144.648 E.00265
G1 X98.502 Y125.761 E.64607
G1 X98.548 Y125.699 E.00264
G1 X147.453 Y125.701 E1.67282
G1 X147.498 Y125.737 E.00198
G1 X147.498 Y144.685 E.64811
G1 X99.206 Y144.694 E1.65184
G1 E-1.5
;WIPE_START
G1 F12000
G1 X98.565 Y144.694
G1 X98.502 Y144.648
G1 X98.502 Y143.367
;WIPE_END
G1 Z.4 F18000
G1 X136.048 Y136.203 Z.4
G1 Z.2
G1 E1.5 F1800
;TYPE:Inner wall
G1 X135.678 Y135.571 E.02503
G1 X135.587 Y135.284 E.01031
G1 X135.596 Y135.099 E.00633
G1 X135.674 Y134.886 E.00778
G1 X138.015 Y130.775 E.1618
G1 X138.242 Y130.537 E.01126
G1 X138.517 Y130.43 E.01012
G1 X143.337 Y130.401 E.16485
G1 X143.663 Y130.482 E.01151
G1 X143.808 Y130.585 E.00606
G1 X143.933 Y130.74 E.00683
G1 X146.322 Y134.823 E.1618
;WIDTH:0.541989
G1 X146.39 Y134.996 E.00695
;WIDTH:0.583979
G1 X146.458 Y135.169 E.00753
G1 X146.454 Y135.234 E.00265
;WIDTH:0.546541
G1 X146.45 Y135.3 E.00246
;WIDTH:0.509102
G1 X143.985 Y139.619 E.1735
;WIDTH:0.499999
G1 X143.854 Y139.784 E.00721
G1 X143.518 Y139.964 E.01305
G1 X138.663 Y139.993 E.16606
G1 X138.469 Y139.966 E.00669
G1 X138.13 Y139.76 E.0136
G1 X136.068 Y136.237 E.13961
G1 X136.442 Y135.972 F18000
;TYPE:Outer wall
G1 F1800
G1 X136.073 Y135.34 E.02503
G1 X136.05 Y135.15 E.00658
G1 X138.412 Y131.002 E.16328
G1 X138.557 Y130.886 E.00632
G1 X143.339 Y130.858 E.16361
G1 X143.511 Y130.925 E.0063
G1 X145.927 Y135.054 E.16363
G1 X145.959 Y135.229 E.0061
G1 X143.588 Y139.393 E.16389
G1 X143.436 Y139.508 E.00653
G1 X138.661 Y139.536 E.16334
G1 X138.484 Y139.461 E.00656
G1 X136.463 Y136.007 E.1369
G1 E-1.5
;WIPE_START
G1 F12000
G1 X136.073 Y135.34
G1 X136.05 Y135.15
G1 X136.563 Y134.249
;WIPE_END
G1 Z.4 F18000
G1 X108.088 Y139.388 Z.4
G1 Z.2
G1 E1.5 F1800
;TYPE:Inner wall
G1 X107.933 Y139.654 E.01054
G1 X107.702 Y139.89 E.01128
G1 X107.431 Y139.994 E.00994
G1 X102.607 Y139.965 E.16502
G1 X102.3 Y139.89 E.0108
G1 X102.147 Y139.784 E.00638
G1 X102.015 Y139.619 E.00723
;WIDTH:0.509102
G1 X99.67 Y135.511 E.16502
;WIDTH:0.550322
G1 X99.61 Y135.403 E.00468
;WIDTH:0.591542
G1 X99.55 Y135.295 E.00506
G1 X99.542 Y135.169 E.0052
;WIDTH:0.583979
G1 X99.61 Y134.996 E.00753
;WIDTH:0.541989
G1 X99.678 Y134.823 E.00695
;WIDTH:0.499999
G1 X102.067 Y130.74 E.1618
G1 X102.192 Y130.584 E.00683
G1 X102.532 Y130.4 E.01321
G1 X107.393 Y130.429 E.16629
G1 X107.587 Y130.458 E.00671
G1 X107.924 Y130.669 E.01359
G1 X110.326 Y134.886 E.166
G1 X110.413 Y135.163 E.00995
G1 X110.382 Y135.468 E.01046
G1 X108.108 Y139.353 E.15399
G1 X107.694 Y139.157 F18000
;TYPE:Outer wall
G1 F1800
G1 X107.538 Y139.423 E.01054
G1 X107.392 Y139.536 E.00632
G1 X102.609 Y139.508 E.1636
G1 X102.44 Y139.441 E.00623
G1 X100.071 Y135.282 E.16372
G1 X100.041 Y135.169 E.004
G1 X100.073 Y135.054 E.00409
G1 X102.462 Y130.971 E.1618
G1 X102.613 Y130.858 E.00646
G1 X107.391 Y130.886 E.16342
G1 X107.566 Y130.963 E.00656
G1 X109.929 Y135.112 E.1633
G1 X109.95 Y135.301 E.00652
G1 X107.714 Y139.122 E.15145
G1 E-1.5
;WIPE_START
G1 F12000
G1 X107.538 Y139.423
G1 X107.392 Y139.536
G1 X105.925 Y139.528
;WIPE_END
G1 Z.4 F18000
G1 X145.99 Y128.143
G1 Z.4
M73 P1 R78
G1 Z.2
G1 E1.5 F1800
;TYPE:Bottom surface
;WIDTH:0.504746
G1 F2400
G1 X145.261 Y127.415 E.0356
G1 X144.608 Y127.415 E.02257
G1 X145.784 Y128.591 E.05747
G1 X145.784 Y129.244 E.02257
G1 X143.955 Y127.415 E.08939
G1 X143.302 Y127.415 E.02257
G1 X145.784 Y129.897 E.12131
G1 X145.784 Y130.55 E.02257
G1 X142.649 Y127.415 E.15324
G1 X141.996 Y127.415 E.02257
G1 X143.778 Y129.197 E.08712
G1 X144.256 Y129.372 E.01758
G1 X144.665 Y129.664 E.01739
G1 X145.013 Y130.098 E.01923
G1 X145.485 Y130.904 E.03227
G1 X145.99 Y131.409 E.02468
G1 E-1.5 F1800
;WIPE_START
G1 F12000
G1 X145.485 Y130.904
G1 X145.013 Y130.098
G1 X144.793 Y129.823
;WIPE_END
G1 Z.4 F18000
G1 X143.278 Y129.35 Z.4
G1 Z.2
G1 E1.5 F1800
G1 F2400
G1 X141.342 Y127.415 E.09459
G1 X140.689 Y127.415 E.02257
G1 X142.424 Y129.149 E.08479
G1 X141.775 Y129.153 E.02244
G1 X140.036 Y127.415 E.08498
G1 X139.383 Y127.415 E.02257
G1 X141.125 Y129.157 E.08516
G1 X140.476 Y129.161 E.02244
G1 X138.73 Y127.415 E.08535
G1 X138.077 Y127.415 E.02257
G1 X139.827 Y129.165 E.08554
G1 X139.178 Y129.169 E.02244
G1 X137.424 Y127.415 E.08573
G1 X136.77 Y127.415 E.02257
G1 X138.533 Y129.178 E.08617
G1 X138.276 Y129.201 E.00892
G1 X137.986 Y129.283 E.01044
G1 X136.117 Y127.415 E.09132
