; HEADER_BLOCK_START
; generated by OrcaSlicer 2.2.0 on 2024-11-20 at 14:57:54
; total layer number: 57
; filament_density: 1.27
; filament_diameter: 1.75
; max_z_height: 9.00
; HEADER_BLOCK_END

; THUMBNAIL_BLOCK_START

;
; THUMBNAIL_BLOCK_END

; THUMBNAIL_BLOCK_START

;
; THUMBNAIL_BLOCK_END

; external perimeters extrusion width = 0.42mm
; perimeters extrusion width = 0.45mm
; infill extrusion width = 0.45mm
; solid infill extrusion width = 0.45mm
; top infill extrusion width = 0.42mm
; support material extrusion width = 0.42mm
; first layer extrusion width = 0.50mm

; EXECUTABLE_BLOCK_START
EXCLUDE_OBJECT_DEFINE NAME=Voyants.stl_id_0_copy_0 CENTER=115,115 POLYGON=[[91.0013,115],[91.004,114.846],[91.012,114.69],[91.0252,114.538],[91.0442,114.381],[91.0674,114.232],[91.0975,114.075],[91.1306,113.929],[91.1719,113.773],[91.2143,113.632],[91.2668,113.477],[91.3182,113.341],[91.382,113.189],[91.4418,113.058],[91.5168,112.909],[91.5845,112.784],[91.6705,112.639],[91.7457,112.521],[91.8426,112.38],[91.9246,112.269],[99.0013,103],[131.001,103],[138.078,112.269],[138.248,112.508],[138.257,112.521],[138.411,112.772],[138.418,112.784],[138.556,113.048],[138.561,113.058],[138.681,113.332],[138.684,113.341],[138.786,113.624],[138.788,113.632],[138.871,113.923],[138.872,113.929],[138.934,114.227],[138.935,114.232],[138.977,114.535],[138.977,114.538],[138.999,114.845],[138.999,114.846],[138.999,115.154],[138.999,115.155],[138.977,115.462],[138.977,115.465],[138.935,115.768],[138.934,115.773],[138.872,116.071],[138.871,116.077],[138.788,116.368],[138.786,116.376],[138.684,116.659],[138.681,116.668],[138.561,116.942],[138.556,116.952],[138.418,117.216],[138.411,117.228],[138.257,117.479],[138.248,117.492],[138.078,117.731],[131.001,127],[99.0013,127],[91.9246,117.731],[91.8426,117.62],[91.7457,117.479],[91.6705,117.361],[91.5845,117.216],[91.5168,117.091],[91.4418,116.942],[91.382,116.811],[91.3182,116.659],[91.2668,116.523],[91.2143,116.368],[91.1719,116.227],[91.1306,116.071],[91.0975,115.925],[91.0674,115.768],[91.0442,115.619],[91.0252,115.462],[91.012,115.31],[91.004,115.154],[91.0013,115]]
M73 P0 R16
;TYPE:Custom
M220 S100
G90 ; use absolute coordinates
M83 ; extruder relative mode
M104 S150 ; set temporary nozzle temp to prevent oozing during homing
M140 S70 ; set final bed temp
G4 S30 ; allow partial nozzle warmup
G28 ; home all axis and restore leveling
BED_MESH_CALIBRATE PROFILE=adaptive ADAPTIVE=1 ADAPTIVE_MARGIN=0
G1 Z25 F240
G1 X10.0 Y30 F3000
M104 S245 ; set final nozzle temp
M190 S70 ; wait for bed temp to stabilize
M109 S245 ; wait for nozzle temp to stabilize
G1 Z0.28 F240
G92 E0 ; Move Z Axis up
G1 Z2.0 F5000 ; Move to start position
M73 P1 R16
M73 P1 R16
G1 X5 Y30 Z0.28 F300 ; Draw the first line
G1 X5 Y200 Z0.28 F1500 E15 ; Move to side a little
G1 X5.4 Y200 Z0.28 F5000.0 ; Draw the second line
M73 P2 R16
M73 P2 R16
G1 X5.4 Y50 Z0.28 F1500.0 E30 ; Reset Extruder
G92 E0 ; Move Z Axis up
G1 Z2.0 F3000
M117 Start Printing..
G90
G21
M83 ; use relative distances for extrusion
; filament start gcode
M106 S0
;LAYER_CHANGE
;Z:0.2
;HEIGHT:0.2
;BEFORE_LAYER_CHANGE
;0.2
G92 E0

G1 E-.5 F1800
;_SET_FAN_SPEED_CHANGING_LAYER
SET_VELOCITY_LIMIT ACCEL=1000
SET_VELOCITY_LIMIT SQUARE_CORNER_VELOCITY=7
; printing object Voyants.stl id:0 copy 0
EXCLUDE_OBJECT_START NAME=Voyants.stl_id_0_copy_0
G1 Z.4 F24000
G1 X147.251 Y130.922
G1 Z.4
G1 Z.2
G1 E.5 F1800
;TYPE:Support
;WIDTH:0.5
G1 X146.47 Y131.801 E.04245
G1 X146.063 Y131.35 E.0219
G1 X145.809 Y131.118 E.01243
G1 X145.533 Y130.899 E.01274
G1 X144.94 Y130.521 E.02538
G1 X144.625 Y130.363 E.01274
G1 X144.293 Y130.225 E.01298
G1 X143.626 Y130.026 E.02512
G1 X143.28 Y129.96 E.01274
G1 X142.923 Y129.918 E.01298
G1 X142.227 Y129.907 E.02512
G1 X141.876 Y129.938 E.01274
G1 X141.521 Y129.995 E.01298
G1 X140.868 Y130.168 E.02438
G1 X140.219 Y130.439 E.0254
G1 X139.891 Y130.618 E.01349
G1 X139.314 Y131.019 E.02538
G1 X138.804 Y131.487 E.02497
G1 X138.361 Y132.022 E.0251
G1 X138.154 Y132.333 E.01349
G1 X137.829 Y132.957 E.02538
G1 X137.597 Y133.6 E.02467
G1 X137.511 Y133.949 E.01301
G1 X137.448 Y134.308 E.01315
G1 X137.413 Y134.658 E.01271
G1 X137.401 Y135.01 E.01271
G1 X137.448 Y135.691 E.02464
G1 X137.508 Y136.039 E.01274
G1 X137.595 Y136.392 E.01315
G1 X137.706 Y136.735 E.01301
G1 X137.977 Y137.354 E.02438
G1 X138.154 Y137.667 E.01297
G1 X138.361 Y137.978 E.01349
G1 X138.576 Y138.256 E.01271
G1 X139.046 Y138.751 E.02464
G1 X139.314 Y138.981 E.01274
G1 X139.613 Y139.203 E.01346
G1 X140.219 Y139.561 E.0254
G1 X140.539 Y139.707 E.01272
G1 X141.185 Y139.927 E.02464
G1 X141.529 Y140.006 E.01274
G1 X141.869 Y140.06 E.01242
G1 X142.227 Y140.093 E.01297
G1 X142.579 Y140.099 E.01274
G1 X143.28 Y140.04 E.02538
G1 X143.647 Y139.97 E.01348
G1 X144.3 Y139.772 E.02464
G1 X144.644 Y139.628 E.01348
G1 X145.243 Y139.3 E.02464
G1 X145.55 Y139.088 E.01349
G1 X146.063 Y138.65 E.02438
G1 X146.47 Y138.199 E.02192
G1 X147.251 Y139.078 E.04245
G1 X139.867 Y148.75 E.43934
G1 X106.136 Y148.75 E1.2179
M73 P3 R15
M73 P3 R15
G1 X98.756 Y139.083 E.43912
G1 X99.536 Y138.205 E.04242
G1 X99.793 Y138.501 E.01413
G1 X100.049 Y138.754 E.013
G1 X100.317 Y138.983 E.01273
G1 X100.599 Y139.193 E.01271
G1 X100.888 Y139.38 E.01242
G1 X101.203 Y139.553 E.013
G1 X101.845 Y139.823 E.02513
G1 X102.189 Y139.928 E.01299
G1 X102.532 Y140.007 E.01272
G1 X102.872 Y140.061 E.01242
G1 X103.231 Y140.093 E.013
G1 X103.583 Y140.099 E.01272
G1 X103.947 Y140.08 E.01316
G1 X104.305 Y140.036 E.01301
G1 X104.65 Y139.969 E.0127
G1 X105.304 Y139.771 E.02466
G1 X105.936 Y139.481 E.02513
G1 X106.264 Y139.287 E.01375
G1 X106.553 Y139.086 E.01272
G1 X106.828 Y138.866 E.0127
G1 X107.314 Y138.387 E.02466
G1 X107.552 Y138.099 E.01347
G1 X107.936 Y137.519 E.02511
G1 X108.236 Y136.896 E.02496
G1 X108.359 Y136.553 E.01317
G1 X108.457 Y136.206 E.01301
G1 X108.572 Y135.541 E.02437
G1 X108.598 Y135.182 E.013
G1 X108.598 Y134.81 E.01346
G1 X108.528 Y134.138 E.02436
G1 X108.455 Y133.786 E.01301
G1 X108.355 Y133.435 E.01317
G1 X108.236 Y133.104 E.01272
G1 X107.94 Y132.488 E.02466
G1 X107.744 Y132.17 E.01346
G1 X107.534 Y131.878 E.013
G1 X107.087 Y131.373 E.02437
G1 X106.822 Y131.129 E.01301
G1 X106.537 Y130.902 E.01317
G1 X106.247 Y130.702 E.01271
G1 X105.943 Y130.523 E.01273
G1 X105.621 Y130.362 E.013
G1 X104.99 Y130.122 E.02436
G1 X104.65 Y130.031 E.01272
G1 X104.297 Y129.962 E.01301
G1 X103.955 Y129.92 E.01243
G1 X103.604 Y129.901 E.0127
G1 X103.243 Y129.907 E.01301
G1 X102.553 Y129.989 E.02511
G1 X102.189 Y130.072 E.01348
G1 X101.542 Y130.291 E.02466
G1 X101.204 Y130.447 E.01345
G1 X100.609 Y130.799 E.02496
G1 X100.316 Y131.017 E.01316
G1 X99.813 Y131.478 E.02466
G1 X99.533 Y131.799 E.01536
G1 X98.74 Y130.937 E.04228
G1 X106.136 Y121.25 E.44005
G1 X139.867 Y121.25 E1.2179
G1 X147.21 Y130.868 E.43689
G1 E-.5
;WIPE_START
G1 X145.996 Y129.278
;WIPE_END
G1 Z.4 F24000
G1 X130.917 Y139.629 Z.4
G1 Z.2
G1 E.5 F1800
G1 X130.688 Y139.663 E.00835
G1 X130.473 Y139.733 E.00817
G1 X130.265 Y139.84 E.00843
G1 X130 Y140.06 E.01243
G1 X129.857 Y140.24 E.0083
G1 X129.745 Y140.445 E.00846
G1 X129.647 Y140.771 E.01228
G1 X129.628 Y140.998 E.00824
G1 X129.647 Y141.229 E.00836
G1 X129.704 Y141.452 E.0083
G1 X129.798 Y141.662 E.0083
G1 X130 Y141.94 E.01243
G1 X130.265 Y142.16 E.01243
G1 X130.473 Y142.268 E.00846
G1 X130.801 Y142.359 E.01227
G1 X131.03 Y142.373 E.0083
G1 X131.314 Y142.336 E.01034
G1 X131.586 Y142.243 E.01039
G1 X131.877 Y142.058 E.01243
G1 X132.041 Y141.898 E.0083
G1 X132.176 Y141.711 E.0083
G1 X132.278 Y141.506 E.0083
G1 X132.346 Y141.281 E.00845
G1 X132.374 Y140.943 E.01228
G1 X132.345 Y140.715 E.0083
G1 X132.277 Y140.491 E.00846
G1 X132.113 Y140.193 E.01228
G1 X131.962 Y140.019 E.0083
G1 X131.782 Y139.87 E.00845
G1 X131.48 Y139.713 E.01227
G1 X131.259 Y139.651 E.0083
G1 X130.985 Y139.628 E.00991
G1 X114.917 Y139.629 F24000
G1 F1800
G1 X114.688 Y139.663 E.00836
G1 X114.469 Y139.734 E.0083
G1 X114.266 Y139.84 E.0083
G1 X114.001 Y140.059 E.01237
G1 X113.857 Y140.24 E.00836
G1 X113.747 Y140.441 E.0083
G1 X113.671 Y140.658 E.0083
G1 X113.628 Y141 E.01243
G1 X113.647 Y141.229 E.0083
G1 X113.747 Y141.559 E.01243
G1 X113.925 Y141.853 E.01243
G1 X114.082 Y142.021 E.0083
G1 X114.265 Y142.16 E.0083
G1 X114.577 Y142.306 E.01243
G1 X114.801 Y142.359 E.0083
G1 X115.03 Y142.373 E.0083
G1 X115.259 Y142.349 E.0083
G1 X115.585 Y142.243 E.01237
G1 X115.785 Y142.128 E.00836
G1 X116.041 Y141.898 E.01243
G1 X116.176 Y141.712 E.0083
G1 X116.316 Y141.397 E.01243
G1 X116.364 Y141.172 E.0083
G1 X116.374 Y140.943 E.0083
G1 X116.345 Y140.715 E.0083
G1 X116.233 Y140.392 E.01234
G1 X116.113 Y140.193 E.00839
G1 X115.962 Y140.019 E.0083
G1 X115.787 Y139.873 E.00824
G1 X115.48 Y139.713 E.01249
G1 X115.259 Y139.651 E.0083
G1 X114.985 Y139.628 E.0099
G1 E-.5
;WIPE_START
G1 X115.259 Y139.651
G1 X115.48 Y139.713
G1 X115.787 Y139.873
G1 X115.962 Y140.019
G1 X116.113 Y140.193
G1 X116.233 Y140.392
G1 X116.345 Y140.715
G1 X116.36 Y140.831
;WIPE_END
G1 Z.4 F24000
G1 X122.915 Y127.629 Z.4
G1 Z.2
G1 E.5 F1800
G1 X122.688 Y127.663 E.0083
G1 X122.471 Y127.733 E.00824
G1 X122.265 Y127.84 E.00836
G1 X122 Y128.06 E.01243
G1 X121.799 Y128.337 E.01237
G1 X121.704 Y128.548 E.00836
G1 X121.647 Y128.771 E.0083
G1 X121.628 Y129 E.00831
G1 X121.671 Y129.342 E.01243
G1 X121.747 Y129.559 E.0083
G1 X121.86 Y129.763 E.00845
G1 X122 Y129.94 E.00815
G1 X122.171 Y130.094 E.0083
G1 X122.469 Y130.266 E.01243
G1 X122.688 Y130.337 E.0083
G1 X123.028 Y130.373 E.01237
G1 X123.259 Y130.349 E.00836
G1 X123.48 Y130.287 E.0083
G1 X123.692 Y130.187 E.00845
G1 X123.962 Y129.981 E.01227
G1 X124.112 Y129.807 E.00831
G1 X124.278 Y129.506 E.01243
G1 X124.364 Y129.172 E.01243
G1 X124.374 Y128.943 E.0083
G1 X124.345 Y128.714 E.0083
G1 X124.278 Y128.494 E.0083
G1 X124.113 Y128.193 E.01243
G1 X123.962 Y128.019 E.0083
G1 X123.785 Y127.872 E.0083
G1 X123.48 Y127.713 E.01243
G1 X123.259 Y127.651 E.0083
G1 X122.984 Y127.628 E.00997
G1 X136.99 Y134.983 F24000
G1 F1800
G1 X137.004 Y135.389 E.01467
G1 X137.045 Y135.776 E.01405
G1 X137.111 Y136.151 E.01375
G1 X137.201 Y136.511 E.01341
G1 X137.321 Y136.881 E.01405
G1 X137.463 Y137.235 E.01375
G1 X137.625 Y137.569 E.01341
G1 X137.819 Y137.906 E.01405
G1 X138.03 Y138.223 E.01375
G1 X138.263 Y138.524 E.01374
G1 X138.511 Y138.801 E.01341
G1 X138.789 Y139.073 E.01405
G1 X139.079 Y139.32 E.01375
G1 X139.669 Y139.728 E.02591
G1 X140.008 Y139.915 E.01399
G1 X140.354 Y140.076 E.01378
G1 X140.702 Y140.209 E.01344
G1 X141.072 Y140.323 E.01399
G1 X141.444 Y140.409 E.01378
G1 X141.812 Y140.468 E.01344
G1 X142.198 Y140.503 E.01399
G1 X142.579 Y140.511 E.01378
G1 X142.951 Y140.493 E.01344
G1 X143.336 Y140.448 E.01399
G1 X143.711 Y140.377 E.01378
G1 X144.104 Y140.273 E.01468
G1 X144.472 Y140.147 E.01405
G1 X145.124 Y139.847 E.02592
G1 X145.458 Y139.651 E.01399
G1 X145.801 Y139.414 E.01504
G1 X146.098 Y139.176 E.01374
G1 X146.471 Y138.819 E.01864
G1 X146.718 Y139.098 E.01346
G1 X139.663 Y148.339 E.41976
G1 X106.339 Y148.339 E1.20321
G1 X99.288 Y139.103 E.41952
G1 X99.535 Y138.826 E.01342
G1 X100.055 Y139.301 E.02542
G1 X100.388 Y139.548 E.01498
G1 X101.012 Y139.917 E.02619
G1 X101.358 Y140.078 E.01376
G1 X101.738 Y140.222 E.01469
G1 X102.111 Y140.333 E.01404
G1 X102.815 Y140.468 E.0259
G1 X103.202 Y140.503 E.01402
G1 X103.583 Y140.511 E.01376
G1 X103.99 Y140.49 E.01469
G1 X104.376 Y140.442 E.01404
G1 X105.075 Y140.282 E.0259
G1 X105.443 Y140.158 E.01402
G1 X105.795 Y140.012 E.01376
G1 X106.158 Y139.829 E.01469
G1 X106.492 Y139.629 E.01404
G1 X106.804 Y139.412 E.01375
G1 X107.349 Y138.946 E.02589
G1 X107.618 Y138.665 E.01402
G1 X107.882 Y138.344 E.01502
G1 X108.279 Y137.747 E.02589
G1 X108.461 Y137.403 E.01402
G1 X108.615 Y137.055 E.01375
G1 X108.753 Y136.672 E.01469
G1 X108.858 Y136.298 E.01404
G1 X108.981 Y135.591 E.0259
G1 X109.009 Y135.204 E.01403
G1 X109.009 Y134.788 E.015
G1 X108.934 Y134.075 E.02589
G1 X108.856 Y133.694 E.01404
G1 X108.745 Y133.303 E.01469
G1 X108.615 Y132.945 E.01375
G1 X108.458 Y132.589 E.01403
G1 X108.284 Y132.261 E.01343
G1 X108.083 Y131.937 E.01375
G1 X107.877 Y131.649 E.01277
G1 X107.641 Y131.361 E.01345
G1 X107.38 Y131.085 E.01372
G1 X107.068 Y130.798 E.0153
G1 X106.776 Y130.567 E.01343
G1 X106.463 Y130.352 E.01373
M73 P4 R15
M73 P4 R15
G1 X106.135 Y130.158 E.01376
G1 X105.819 Y130 E.01277
G1 X105.476 Y129.854 E.01345
G1 X105.116 Y129.731 E.01371
G1 X104.714 Y129.624 E.01502
G1 X103.998 Y129.511 E.0262
G1 X103.583 Y129.489 E.015
G1 X102.858 Y129.526 E.0262
G1 X102.483 Y129.584 E.01371
G1 X102.111 Y129.667 E.01375
G1 X101.738 Y129.778 E.01404
G1 X101.39 Y129.909 E.01345
G1 X101.044 Y130.067 E.01372
G1 X100.709 Y130.248 E.01375
G1 X100.381 Y130.457 E.01404
G1 X100.082 Y130.678 E.01345
G1 X99.792 Y130.924 E.01372
G1 X99.526 Y131.183 E.01343
G1 X99.276 Y130.913 E.0133
G1 X106.339 Y121.661 E.42024
G1 X139.663 Y121.661 E1.20321
G1 X146.718 Y130.902 E.41977
G1 X146.471 Y131.181 E.01346
G1 X146.098 Y130.824 E.01863
G1 X145.801 Y130.585 E.01375
G1 X145.481 Y130.364 E.01404
G1 X145.131 Y130.157 E.01468
G1 X144.79 Y129.986 E.01378
G1 X144.113 Y129.729 E.02616
G1 X143.711 Y129.623 E.015
G1 X143.336 Y129.552 E.01378
G1 X142.951 Y129.507 E.01399
G1 X142.579 Y129.489 E.01344
G1 X142.199 Y129.497 E.01374
G1 X141.819 Y129.531 E.01378
G1 X141.436 Y129.593 E.01399
G1 X141.074 Y129.677 E.01344
G1 X140.709 Y129.788 E.01378
G1 X140.378 Y129.914 E.01276
G1 X140.04 Y130.069 E.01341
G1 X139.706 Y130.25 E.01375
G1 X139.378 Y130.459 E.01405
G1 X139.052 Y130.702 E.01467
G1 X138.762 Y130.951 E.01378
G1 X138.487 Y131.224 E.01399
G1 X138.241 Y131.503 E.01344
G1 X138.01 Y131.805 E.01374
G1 X137.8 Y132.124 E.01378
G1 X137.463 Y132.765 E.02616
G1 X137.321 Y133.118 E.01374
G1 X137.203 Y133.481 E.01375
G1 X137.11 Y133.858 E.01405
G1 X137.045 Y134.224 E.01341
G1 X137.004 Y134.602 E.01374
G1 X136.99 Y134.983 E.01374
G1 X136.482 Y134.974 F24000
G1 F1800
G1 X136.494 Y135.381 E.0147
G1 X136.536 Y135.801 E.01524
G1 X136.616 Y136.264 E.01696
G1 X136.715 Y136.657 E.01465
G1 X136.846 Y137.061 E.01533
G1 X136.981 Y137.399 E.01313
G1 X137.156 Y137.767 E.0147
G1 X137.391 Y138.18 E.01718
G1 X137.623 Y138.526 E.01503
G1 X137.878 Y138.854 E.015
G1 X138.148 Y139.157 E.01466
G1 X138.452 Y139.453 E.01533
G1 X138.769 Y139.723 E.01503
G1 X139.061 Y139.939 E.01311
G1 X139.402 Y140.16 E.0147
G1 X139.772 Y140.365 E.01524
G1 X140.198 Y140.561 E.01696
G1 X140.578 Y140.704 E.01466
G1 X140.933 Y140.811 E.01339
G1 X141.391 Y140.916 E.01696
G1 X141.793 Y140.977 E.01466
G1 X142.216 Y141.013 E.01533
G1 X142.579 Y141.019 E.01313
G1 X142.986 Y141 E.0147
G1 X143.405 Y140.951 E.01524
G1 X143.816 Y140.874 E.01507
G1 X144.457 Y140.69 E.0241
G1 X144.654 Y140.965 E.01222
G1 X139.412 Y147.831 E.3119
G1 X106.59 Y147.831 E1.18507
G1 X101.349 Y140.965 E.31187
G1 X101.538 Y140.692 E.01201
G1 X101.938 Y140.813 E.01509
G1 X102.344 Y140.907 E.01503
G1 X102.798 Y140.978 E.01658
G1 X103.167 Y141.01 E.0134
G1 X103.584 Y141.019 E.01503
G1 X103.99 Y140.999 E.01469
G1 X104.411 Y140.95 E.01529
G1 X104.87 Y140.862 E.0169
G1 X105.264 Y140.755 E.01471
G1 X105.615 Y140.636 E.0134
G1 X105.999 Y140.476 E.01503
G1 X106.409 Y140.27 E.01658
G1 X106.774 Y140.052 E.01532
G1 X107.073 Y139.845 E.01312
G1 X107.398 Y139.588 E.01499
G1 X107.736 Y139.277 E.01658
G1 X107.992 Y139.008 E.0134
G1 X108.258 Y138.688 E.01504
G1 X108.53 Y138.308 E.01686
G1 X108.742 Y137.96 E.01471
G1 X108.915 Y137.632 E.0134
G1 X109.103 Y137.203 E.0169
G1 X109.239 Y136.819 E.01471
G1 X109.34 Y136.462 E.0134
G1 X109.427 Y136.055 E.01503
G1 X109.485 Y135.652 E.01468
G1 X109.516 Y135.23 E.0153
G1 X109.518 Y134.814 E.01503
G1 X109.491 Y134.408 E.01467
G1 X109.436 Y133.997 E.01498
G1 X109.351 Y133.581 E.01532
G1 X109.242 Y133.189 E.01471
G1 X109.103 Y132.798 E.01498
G1 X108.934 Y132.408 E.01532
G1 X108.746 Y132.047 E.01471
G1 X108.53 Y131.693 E.01498
G1 X108.253 Y131.305 E.01721
G1 X107.992 Y130.992 E.01469
G1 X107.705 Y130.692 E.01503
G1 X107.431 Y130.441 E.0134
G1 X107.114 Y130.185 E.01471
G1 X106.774 Y129.948 E.01497
G1 X106.417 Y129.734 E.01501
G1 X106.039 Y129.542 E.01532
