; HEADER_BLOCK_START
; generated by OrcaSlicer 2.1.1 on 2024-07-11 at 12:09:49
; total layer number: 10
; filament_density: 1.24
; filament_diameter: 1.75
; max_z_height: 2.00
; HEADER_BLOCK_END

; THUMBNAIL_BLOCK_START

;
; THUMBNAIL_BLOCK_END

; THUMBNAIL_BLOCK_START

;
; THUMBNAIL_BLOCK_END

; external perimeters extrusion width = 0.42mm
; perimeters extrusion width = 0.45mm
; infill extrusion width = 0.45mm
; solid infill extrusion width = 0.45mm
; top infill extrusion width = 0.42mm
; first layer extrusion width = 0.50mm

; external perimeters extrusion width = 0.42mm
; perimeters extrusion width = 0.45mm
; infill extrusion width = 0.45mm
; solid infill extrusion width = 0.45mm
; top infill extrusion width = 0.42mm
; first layer extrusion width = 0.50mm

; EXECUTABLE_BLOCK_START
EXCLUDE_OBJECT_DEFINE NAME=VW_Logo_Mini.stl_id_0_copy_0 CENTER=119.945,119.945 POLYGON=[[111.445,119.946],[111.45,119.66],[111.464,119.375],[111.488,119.09],[111.522,118.806],[111.565,118.524],[111.617,118.243],[111.679,117.965],[111.75,117.688],[111.831,117.414],[111.92,117.143],[112.019,116.875],[112.127,116.61],[112.243,116.349],[112.368,116.093],[112.502,115.84],[112.644,115.593],[112.794,115.35],[112.953,115.112],[113.119,114.88],[113.293,114.653],[113.474,114.433],[113.663,114.219],[113.859,114.011],[114.062,113.81],[114.271,113.615],[114.487,113.428],[114.709,113.249],[114.937,113.077],[115.171,112.912],[115.41,112.756],[115.654,112.607],[115.903,112.467],[116.156,112.336],[116.414,112.213],[116.676,112.098],[116.941,111.993],[117.21,111.897],[117.482,111.809],[117.756,111.731],[118.034,111.662],[118.313,111.603],[118.594,111.552],[118.877,111.512],[119.161,111.481],[119.445,111.459],[119.731,111.447],[120.016,111.445],[120.302,111.452],[120.587,111.469],[120.871,111.495],[121.155,111.531],[121.437,111.576],[121.717,111.631],[121.995,111.695],[122.271,111.769],[122.545,111.851],[122.815,111.943],[123.082,112.044],[123.346,112.154],[123.606,112.273],[123.861,112.4],[124.113,112.536],[124.359,112.68],[124.601,112.832],[124.837,112.993],[125.068,113.161],[125.293,113.337],[125.512,113.52],[125.724,113.711],[125.931,113.908],[126.13,114.113],[126.322,114.324],[126.508,114.541],[126.685,114.765],[126.856,114.994],[127.018,115.229],[127.172,115.469],[127.319,115.715],[127.457,115.965],[127.586,116.219],[127.707,116.478],[127.819,116.741],[127.922,117.007],[128.016,117.277],[128.101,117.549],[128.177,117.825],[128.244,118.102],[128.301,118.382],[128.349,118.664],[128.387,118.947],[128.416,119.231],[128.435,119.516],[128.445,119.801],[128.445,120.087],[128.435,120.372],[128.416,120.657],[128.387,120.941],[128.349,121.225],[128.301,121.506],[128.244,121.786],[128.177,122.064],[128.102,122.339],[128.017,122.612],[127.922,122.881],[127.819,123.148],[127.707,123.41],[127.586,123.669],[127.457,123.924],[127.319,124.174],[127.173,124.419],[127.018,124.659],[126.856,124.894],[126.686,125.124],[126.508,125.347],[126.323,125.565],[126.13,125.776],[125.931,125.98],[125.725,126.178],[125.512,126.369],[125.293,126.552],[125.068,126.728],[124.838,126.896],[124.601,127.057],[124.36,127.209],[124.113,127.353],[123.862,127.489],[123.606,127.616],[123.347,127.735],[123.083,127.845],[122.816,127.946],[122.545,128.038],[122.272,128.121],[121.996,128.194],[121.718,128.258],[121.438,128.313],[121.156,128.359],[120.872,128.395],[120.588,128.421],[120.303,128.438],[120.017,128.445],[119.732,128.443],[119.446,128.431],[119.162,128.409],[118.878,128.378],[118.595,128.337],[118.314,128.287],[118.034,128.228],[117.757,128.159],[117.483,128.081],[117.211,127.993],[116.942,127.897],[116.676,127.792],[116.415,127.677],[116.157,127.554],[115.903,127.423],[115.654,127.283],[115.41,127.135],[115.171,126.978],[114.938,126.814],[114.71,126.642],[114.488,126.462],[114.272,126.275],[114.063,126.081],[113.86,125.88],[113.664,125.672],[113.475,125.458],[113.293,125.237],[113.119,125.011],[112.953,124.779],[112.795,124.541],[112.644,124.298],[112.502,124.051],[112.368,123.798],[112.243,123.542],[112.127,123.281],[112.019,123.016],[111.921,122.748],[111.831,122.477],[111.75,122.203],[111.679,121.926],[111.617,121.648],[111.565,121.367],[111.522,121.085],[111.488,120.801],[111.464,120.516],[111.45,120.231],[111.445,119.946]]
EXCLUDE_OBJECT_DEFINE NAME=license_plate_Mini.stl_id_1_copy_0 CENTER=109.516,109.516 POLYGON=[[101.555,112.207],[101.556,112.08],[101.556,112.076],[101.564,111.994],[101.571,111.927],[101.595,111.794],[101.605,111.754],[101.626,111.679],[101.644,111.62],[101.649,111.605],[101.678,111.528],[101.706,111.467],[101.742,111.39],[101.749,111.378],[101.802,111.286],[101.818,111.258],[101.831,111.238],[101.844,111.219],[101.885,111.163],[101.922,111.112],[101.936,111.097],[102.025,110.997],[102.041,110.98],[110.975,102.046],[110.976,102.045],[111.08,101.951],[111.161,101.886],[111.203,101.854],[111.227,101.839],[111.353,101.763],[111.38,101.747],[111.438,101.72],[111.523,101.681],[111.533,101.677],[111.563,101.666],[111.655,101.634],[111.664,101.631],[111.794,101.595],[111.836,101.587],[111.977,101.565],[112.033,101.559],[112.099,101.556],[112.162,101.555],[112.187,101.555],[112.311,101.562],[112.358,101.566],[112.365,101.567],[112.493,101.587],[112.516,101.593],[112.682,101.637],[112.69,101.64],[112.822,101.688],[112.857,101.703],[112.866,101.708],[112.99,101.771],[113,101.776],[113.026,101.791],[113.113,101.846],[113.138,101.863],[113.211,101.915],[113.231,101.932],[113.345,102.032],[113.368,102.055],[114.582,103.269],[116.436,105.122],[116.977,105.664],[116.995,105.682],[117.042,105.733],[117.054,105.746],[117.13,105.84],[117.172,105.901],[117.215,105.964],[117.233,105.993],[117.302,106.118],[117.316,106.149],[117.328,106.175],[117.344,106.211],[117.396,106.355],[117.407,106.387],[117.418,106.43],[117.441,106.525],[117.465,106.675],[117.469,106.71],[117.476,106.836],[117.477,106.862],[117.471,106.996],[117.47,107.006],[117.463,107.074],[117.452,107.15],[117.436,107.236],[117.409,107.339],[117.407,107.347],[117.4,107.37],[117.346,107.519],[117.33,107.557],[117.311,107.597],[117.26,107.693],[117.21,107.773],[117.17,107.837],[117.166,107.843],[117.161,107.849],[117.113,107.915],[117.053,107.985],[117.004,108.037],[108.063,116.979],[108.037,117.004],[107.948,117.083],[107.917,117.11],[107.894,117.127],[107.79,117.202],[107.779,117.209],[107.752,117.226],[107.655,117.281],[107.634,117.292],[107.543,117.335],[107.489,117.358],[107.42,117.384],[107.396,117.392],[107.282,117.424],[107.251,117.432],[107.142,117.454],[107.123,117.457],[107.08,117.463],[106.995,117.472],[106.977,117.473],[106.904,117.476],[106.858,117.477],[106.819,117.476],[106.772,117.474],[106.72,117.47],[106.623,117.458],[106.58,117.452],[106.482,117.432],[106.445,117.422],[106.326,117.387],[106.299,117.378],[106.23,117.352],[106.213,117.345],[106.109,117.296],[106.082,117.284],[106.073,117.278],[105.961,117.214],[105.959,117.213],[105.947,117.205],[105.861,117.145],[105.831,117.125],[105.74,117.049],[105.732,117.042],[105.682,116.996],[105.658,116.972],[104.947,116.262],[102.058,113.372],[102.032,113.346],[101.991,113.302],[101.9,113.191],[101.815,113.067],[101.775,113.001],[101.75,112.953],[101.696,112.842],[101.687,112.821],[101.638,112.687],[101.609,112.585],[101.591,112.513],[101.588,112.494],[101.567,112.374],[101.562,112.304],[101.556,112.222],[101.555,112.207]]
M73 P0 R2
;TYPE:Custom
M220 S100
G90 ; use absolute coordinates
M83 ; extruder relative mode
M104 S150 ; set temporary nozzle temp to prevent oozing during homing
M140 S55 ; set final bed temp
G4 S30 ; allow partial nozzle warmup
G28 ; home all axis and restore leveling
BED_MESH_CALIBRATE PROFILE=adaptive ADAPTIVE=1 ADAPTIVE_MARGIN=0
G1 Z25 F240
G1 X10.0 Y30 F3000
M104 S210 ; set final nozzle temp
M190 S55 ; wait for bed temp to stabilize
M109 S210 ; wait for nozzle temp to stabilize
M73 P3 R2
G1 Z0.28 F240
G92 E0 ; Move Z Axis up
M73 P4 R2
G1 Z2.0 F5000 ; Move to start position
M73 P8 R2
G1 X5 Y30 Z0.28 F300 ; Draw the first line
G1 X5 Y200 Z0.28 F1500 E15 ; Move to side a little
G1 X5.4 Y200 Z0.28 F5000.0 ; Draw the second line
M73 P13 R2
G1 X5.4 Y50 Z0.28 F1500.0 E30 ; Reset Extruder
G92 E0 ; Move Z Axis up
G1 Z2.0 F3000
M117 Start Printing..
G90
G21
M83 ; use relative distances for extrusion
; filament start gcode
M106 S0
;LAYER_CHANGE
;Z:0.2
;HEIGHT:0.2
;BEFORE_LAYER_CHANGE
;0.2
G92 E0

M73 P16 R2
G1 E-.5 F1800
;_SET_FAN_SPEED_CHANGING_LAYER
SET_VELOCITY_LIMIT ACCEL=1000
SET_VELOCITY_LIMIT SQUARE_CORNER_VELOCITY=7
; printing object VW_Logo_Mini.stl id:0 copy 0
EXCLUDE_OBJECT_START NAME=VW_Logo_Mini.stl_id_0_copy_0
G1 Z.2 F24000
G1 X132.236 Y146.899
M73 P17 R2
G1 Z.2
G1 E.5 F1800
;TYPE:Outer wall
;WIDTH:0.641488
G1 X132.148 Y146.974 E.00577
;WIDTH:0.599736
G1 X132.06 Y147.05 E.00537
;WIDTH:0.557984
G1 X131.972 Y147.126 E.00497
;WIDTH:0.516232
G1 X131.884 Y147.201 E.00457
;WIDTH:0.47448
G1 X131.796 Y147.277 E.00416
;WIDTH:0.432728
G1 X131.452 Y147.441 E.01236
;WIDTH:0.43214
G1 X130.924 Y147.671 E.01862
;WIDTH:0.437348
G1 X130.202 Y147.912 E.02497
G1 X129.572 Y148.061 E.02125
;WIDTH:0.43047
G1 X129.004 Y148.152 E.01854
;WIDTH:0.43108
G1 X128.424 Y148.21 E.0188
;WIDTH:0.431507
G1 X127.564 Y148.217 E.02781
;WIDTH:0.465753
G1 X127.18 Y148.16 E.01363
;WIDTH:0.499999
G1 X126.444 Y148.056 E.02825
;WIDTH:0.462697
G1 X126.092 Y148.008 E.01241
;WIDTH:0.436513
G1 X125.269 Y147.782 E.02794
G1 X124.496 Y147.475 E.0272
;WIDTH:0.438891
G1 X123.757 Y147.088 E.02748
G1 X123.059 Y146.63 E.02747
;WIDTH:0.43851
G1 X122.644 Y146.3 E.01747
;WIDTH:0.429339
G1 X122.177 Y145.879 E.02018
;WIDTH:0.429049
G1 X121.586 Y145.24 E.02795
;WIDTH:0.431253
G1 X121.221 Y144.774 E.01913
;WIDTH:0.436405
G1 X120.827 Y144.178 E.02337
G1 X120.455 Y143.478 E.02592
;WIDTH:0.434971
G1 X120.22 Y142.931 E.01943
G1 X119.957 Y142.133 E.02738
;WIDTH:0.4339
G1 X119.773 Y141.281 E.02833
;WIDTH:0.432875
G1 X119.704 Y140.713 E.01857
;WIDTH:0.429991
G1 X119.672 Y140.115 E.01928
;WIDTH:0.428861
G1 X119.7 Y139.245 E.02794
;WIDTH:0.430444
G1 X119.77 Y138.649 E.01931
G1 X119.954 Y137.791 E.02828
;WIDTH:0.429873
G1 X120.224 Y136.964 E.02801
;WIDTH:0.432765
G1 X120.455 Y136.414 E.01932
G1 X120.874 Y135.646 E.02837
;WIDTH:0.428883
G1 X121.369 Y134.922 E.02816
M73 P18 R2
G1 X121.914 Y134.279 E.02703
;WIDTH:0.430327
G1 X122.359 Y133.837 E.02022
G1 X123.009 Y133.301 E.02714
;WIDTH:0.434242
G1 X123.534 Y132.935 E.02082
G1 X124.262 Y132.526 E.02715
;WIDTH:0.437762
G1 X125.028 Y132.195 E.0274
G1 X125.61 Y132.004 E.02013
;WIDTH:0.430206
G1 X126.22 Y131.852 E.02022
;WIDTH:0.428835
G1 X127.079 Y131.715 E.02794
;WIDTH:0.430197
G1 X127.67 Y131.672 E.01906
;WIDTH:0.433642
G1 X128.26 Y131.668 E.01919
;WIDTH:0.434064
G1 X128.855 Y131.712 E.01938
G1 X129.713 Y131.854 E.02831
;WIDTH:0.433028
G1 X130.267 Y132 E.01857
;WIDTH:0.429908
G1 X130.808 Y132.18 E.01835
;WIDTH:0.429198
G1 X131.634 Y132.537 E.02889
;WIDTH:0.430504
G1 X132.155 Y132.817 E.01907
;WIDTH:0.43645
G1 X132.719 Y133.177 E.0219
G1 X133.376 Y133.691 E.0273
;WIDTH:0.436079
G1 X133.978 Y134.27 E.02729
;WIDTH:0.439288
G1 X134.342 Y134.686 E.01822
;WIDTH:0.440402
G1 X134.839 Y135.36 E.0277
;WIDTH:0.470201
G1 X134.968 Y135.614 E.01009
;WIDTH:0.499999
G1 X135.298 Y136.212 E.02598
;WIDTH:0.465692
G1 X135.501 Y136.557 E.01406
;WIDTH:0.431385
G1 X135.721 Y137.112 E.01929
;WIDTH:0.432893
G1 X135.905 Y137.658 E.01866
G1 X136.036 Y138.198 E.01802
;WIDTH:0.429766
G1 X136.135 Y138.755 E.01821
;WIDTH:0.434557
G1 X136.203 Y139.336 E.01904
;WIDTH:0.437402
G1 X136.225 Y140.093 E.02486
G1 X136.177 Y140.835 E.02439
;WIDTH:0.474528
G1 X136.14 Y140.942 E.00407
;WIDTH:0.516078
G1 X136.102 Y141.049 E.00446
;WIDTH:0.557628
G1 X136.065 Y141.156 E.00485
;WIDTH:0.599178
G1 X136.027 Y141.263 E.00524
;WIDTH:0.640728
G1 X135.99 Y141.37 E.00563
G1 X135.996 Y141.458 E.00442
;WIDTH:0.598247
G1 X136.003 Y141.547 E.0041
;WIDTH:0.555765
G1 X136.009 Y141.636 E.00379
;WIDTH:0.513283
G1 X136.016 Y141.724 E.00347
;WIDTH:0.470801
G1 X135.962 Y142.004 E.01015
;WIDTH:0.432601
G1 X135.787 Y142.606 E.02032
G1 X135.474 Y143.392 E.0274
;WIDTH:0.432353
G1 X135.086 Y144.136 E.02717
;WIDTH:0.432125
G1 X134.789 Y144.6 E.01783
;WIDTH:0.430132
G1 X134.447 Y145.064 E.01858
;WIDTH:0.428854
G1 X133.891 Y145.701 E.02712
;WIDTH:0.432064
G1 X133.283 Y146.275 E.02705
G1 X132.816 Y146.636 E.0191
;WIDTH:0.4753
G1 X132.642 Y146.733 E.00717
;WIDTH:0.522561
G1 X132.468 Y146.831 E.00795
;WIDTH:0.562204
G1 X132.391 Y146.853 E.00348
;WIDTH:0.601846
G1 X132.313 Y146.876 E.00375
;WIDTH:0.641488
G1 X132.274 Y146.888 E.00202
G1 E-.5
;WIPE_START
G1 F12000
G1 X132.148 Y146.974
G1 X132.06 Y147.05
G1 X131.972 Y147.126
G1 X131.884 Y147.201
G1 X131.796 Y147.277
G1 X131.452 Y147.441
G1 X130.924 Y147.671
G1 X130.52 Y147.806
;WIPE_END
G1 Z.4 F24000
G1 X128.977 Y140.646 Z.4
G1 Z.2
G1 E.5 F1800
;WIDTH:0.610473
G1 X129.045 Y140.578 E.00456
;WIDTH:0.639793
G1 X129.114 Y140.51 E.0048
G1 X129.258 Y140.495 E.0072
;WIDTH:0.598551
G1 X129.403 Y140.48 E.0067
;WIDTH:0.560284
G1 X134.469 Y141.367 E.22126
;WIDTH:0.609357
G1 X135.469 Y141.567 E.04801
;WIDTH:0.640728
M73 P19 R2
G1 X135.55 Y141.582 E.00413
G1 X135.564 Y141.628 E.00239
;WIDTH:0.598247
G1 X135.578 Y141.674 E.00222
;WIDTH:0.555765
G1 X135.592 Y141.72 E.00205
;WIDTH:0.513283
G1 X135.605 Y141.766 E.00188
;WIDTH:0.470801
G1 X135.437 Y142.426 E.02425
;WIDTH:0.434614
G1 X135.147 Y143.17 E.02599
;WIDTH:0.434867
G1 X134.786 Y143.878 E.0259
G1 X134.477 Y144.371 E.01894
;WIDTH:0.4298
G1 X134.16 Y144.805 E.0173
;WIDTH:0.438739
G1 X133.303 Y145.73 E.0415
G1 X132.914 Y146.073 E.01709
;WIDTH:0.435742
G1 X132.549 Y146.351 E.01497
;WIDTH:0.472956
G1 X132.494 Y146.363 E.00201
;WIDTH:0.515089
G1 X132.439 Y146.374 E.00221
;WIDTH:0.557222
G1 X132.384 Y146.386 E.0024
;WIDTH:0.599355
G1 X132.329 Y146.397 E.0026
;WIDTH:0.641488
G1 X132.274 Y146.409 E.0028
G1 X132.116 Y146.161 E.01462
;WIDTH:0.61063
G1 X131.958 Y145.914 E.01387
;WIDTH:0.579771
G1 X131.423 Y145.07 E.04462
;WIDTH:0.558943
G1 X128.978 Y141.097 E.20014
;WIDTH:0.598649
G1 X128.939 Y140.962 E.00651
;WIDTH:0.639517
G1 X128.901 Y140.826 E.00699
G1 X128.939 Y140.736 E.00486
;WIDTH:0.610335
G1 X128.961 Y140.683 E.00273
G1 E-.5
;WIPE_START
G1 F12000
G1 X129.045 Y140.578
G1 X129.114 Y140.51
G1 X129.258 Y140.495
G1 X129.403 Y140.48
G1 X130.859 Y140.735
;WIPE_END
G1 Z.4 F24000
G1 X127.733 Y139.093 Z.4
G1 Z.2
G1 E.5 F1800
;WIDTH:0.551411
G1 X125.729 Y135.911 E.159
G1 X125.645 Y135.673 E.01065
;WIDTH:0.527611
G1 X125.679 Y135.463 E.00856
;WIDTH:0.51394
G1 X125.835 Y135.353 E.00747
;WIDTH:0.539099
G1 X126.111 Y135.307 E.01156
;WIDTH:0.539707
G1 X132.693 Y136.182 E.27426
;WIDTH:0.548042
G1 X133.669 Y136.308 E.04136
;WIDTH:0.572051
G1 X134.216 Y136.378 E.02426
G1 X134.61 Y136.468 E.01778
;WIDTH:0.536025
G1 X135.004 Y136.558 E.01657
;WIDTH:0.499999
G1 X135.073 Y136.631 E.00379
;WIDTH:0.465636
G1 X135.141 Y136.703 E.00351
;WIDTH:0.431273
G1 X135.351 Y137.223 E.0181
;WIDTH:0.43401
G1 X135.519 Y137.727 E.01726
G1 X135.654 Y138.264 E.01803
;WIDTH:0.42948
G1 X135.751 Y138.798 E.01744
;WIDTH:0.43264
G1 X135.814 Y139.337 E.01758
G1 X135.835 Y139.879 E.01759
;WIDTH:0.43009
G1 X135.797 Y140.738 E.02767
;WIDTH:0.472218
G1 X135.768 Y140.795 E.0023
;WIDTH:0.514346
G1 X135.738 Y140.852 E.00253
;WIDTH:0.556473
G1 X135.709 Y140.91 E.00275
;WIDTH:0.598601
G1 X135.679 Y140.967 E.00298
;WIDTH:0.640728
G1 X135.649 Y141.024 E.00321
G1 X135.096 Y140.94 E.02784
;WIDTH:0.600506
G1 X134.542 Y140.855 E.02597
;WIDTH:0.560284
G1 X129.491 Y139.973 E.22057
;WIDTH:0.598551
M73 P20 R2
G1 X129.178 Y139.939 E.01457
;WIDTH:0.639793
G1 X128.864 Y139.906 E.01566
G1 X128.698 Y140.125 E.01365
;WIDTH:0.610473
G1 X128.531 Y140.344 E.01298
;WIDTH:0.610335
G1 X128.389 Y140.579 E.01297
;WIDTH:0.639517
G1 X128.247 Y140.814 E.01363
G1 X128.393 Y141.091 E.0155
;WIDTH:0.598649
G1 X128.539 Y141.367 E.01444
;WIDTH:0.558905
G1 X130.979 Y145.333 E.19976
;WIDTH:0.563443
G1 X131.251 Y145.787 E.02292
;WIDTH:0.609509
G1 X131.746 Y146.63 E.04605
;WIDTH:0.641488
G1 X131.793 Y146.706 E.00447
G1 X131.751 Y146.755 E.00317
;WIDTH:0.599847
G1 X131.71 Y146.803 E.00295
;WIDTH:0.558206
