; HEADER_BLOCK_START
; generated by OrcaSlicer 2.0.0 on 2024-06-02 at 19:28:16
; total layer number: 100
; filament_density: 1.24
; filament_diameter: 1.75
; max_z_height: 20.00
; HEADER_BLOCK_END

; THUMBNAIL_BLOCK_START

;
; THUMBNAIL_BLOCK_END

; THUMBNAIL_BLOCK_START

;
; THUMBNAIL_BLOCK_END

; external perimeters extrusion width = 0.40mm
; perimeters extrusion width = 0.42mm
; infill extrusion width = 0.45mm
; solid infill extrusion width = 0.42mm
; top infill extrusion width = 0.40mm
; first layer extrusion width = 0.50mm

; EXECUTABLE_BLOCK_START
EXCLUDE_OBJECT_DEFINE NAME=xyzCalibration_cube_REMIX.stl_id_0_copy_0 CENTER=115,115 POLYGON=[[104.997,125],[104.997,115],[104.997,105],[104.997,105],[122.161,105],[124.997,105],[125.003,110.852],[125.003,119.148],[124.997,125],[109.997,125],[104.997,125],[104.997,125]]
M73 P0 R17
;TYPE:Custom
M220 S100
G90 ; use absolute coordinates
M83 ; extruder relative mode
M104 S150 ; set temporary nozzle temp to prevent oozing during homing
M140 S55 ; set final bed temp
G4 S30 ; allow partial nozzle warmup
G28 ; home all axis and restore leveling
BED_MESH_CALIBRATE PROFILE=adaptive ADAPTIVE=1 ADAPTIVE_MARGIN=0
G1 Z25 F240
G1 X10.0 Y30 F3000
M104 S210 ; set final nozzle temp
M190 S55 ; wait for bed temp to stabilize
M109 S210 ; wait for nozzle temp to stabilize
G1 Z0.28 F240
G92 E0 ; Move Z Axis up
G1 Z2.0 F5000 ; Move to start position
M73 P1 R16
G1 X5 Y30 Z0.28 F300 ; Draw the first line
G1 X5 Y200 Z0.28 F1500 E15 ; Move to side a little
G1 X5.4 Y200 Z0.28 F5000.0 ; Draw the second line
M73 P2 R16
G1 X5.4 Y50 Z0.28 F1500.0 E30 ; Reset Extruder
G92 E0 ; Move Z Axis up
G1 Z2.0 F3000
M117 Start Printing..
G90
G21
M83 ; use relative distances for extrusion
; filament start gcode
M106 S0
;LAYER_CHANGE
;Z:0.2
;HEIGHT:0.2
;BEFORE_LAYER_CHANGE
;0.2
G92 E0

G1 E-.5 F2400
;_SET_FAN_SPEED_CHANGING_LAYER
SET_VELOCITY_LIMIT ACCEL=500 ACCEL_TO_DECEL=250
SET_VELOCITY_LIMIT SQUARE_CORNER_VELOCITY=7
; printing object xyzCalibration_cube_REMIX.stl id:0 copy 0
EXCLUDE_OBJECT_START NAME=xyzCalibration_cube_REMIX.stl_id_0_copy_0
G1 Z.2 F18000
G1 X132.29 Y144.293
G1 Z.2
G1 E.5 F2400
;TYPE:Inner wall
;WIDTH:0.499999
G1 F1800
G1 X113.705 Y144.293 E.69225
G1 X113.705 Y125.707 E.69225
G1 X132.29 Y125.707 E.69225
G1 X132.29 Y144.253 E.69076
G1 X132.747 Y144.75 F18000
;TYPE:Outer wall
M73 P3 R16
G1 F1800
G1 X113.247 Y144.75 E.7263
G1 X113.247 Y125.25 E.7263
G1 X132.747 Y125.25 E.7263
G1 X132.747 Y144.71 E.72481
G1 E-.35 F2400
;WIPE_START
G1 F1800
G1 X131.747 Y144.712 E-.15
;WIPE_END
G1 Z.4 F18000
G1 X131.215 Y125.844
G1 Z.4
G1 Z.2
G1 E.5 F2400
;TYPE:Bottom surface
;WIDTH:0.506511
G1 F3600
G1 X131.948 Y126.576 E.03911
G1 X131.948 Y127.232 E.02477
G1 X130.766 Y126.05 E.06315
G1 X130.11 Y126.05 E.02477
G1 X131.948 Y127.888 E.09818
G1 X131.948 Y128.543 E.02477
G1 X129.454 Y126.05 E.1332
G1 X128.799 Y126.05 E.02477
G1 X131.948 Y129.199 E.16823
G1 X131.948 Y129.854 E.02477
G1 X128.143 Y126.05 E.20325
G1 X127.487 Y126.05 E.02477
G1 X131.948 Y130.51 E.23828
G1 X131.948 Y131.166 E.02477
G1 X126.832 Y126.05 E.27331
G1 X126.176 Y126.05 E.02477
G1 X131.948 Y131.821 E.30833
G1 X131.948 Y132.477 E.02477
G1 X125.521 Y126.05 E.34336
G1 X124.865 Y126.05 E.02477
G1 X131.948 Y133.132 E.37838
G1 X131.948 Y133.788 E.02477
G1 X124.209 Y126.05 E.41341
G1 X123.554 Y126.05 E.02477
G1 X131.948 Y134.444 E.44843
G1 X131.948 Y135.099 E.02477
G1 X122.898 Y126.05 E.48346
G1 X122.243 Y126.05 E.02477
G1 X131.948 Y135.755 E.51849
G1 X131.948 Y136.411 E.02477
G1 X121.587 Y126.05 E.55351
G1 X120.931 Y126.05 E.02477
G1 X131.948 Y137.066 E.58854
G1 X131.948 Y137.722 E.02477
G1 X120.276 Y126.05 E.62356
G1 X119.62 Y126.05 E.02477
G1 X131.948 Y138.377 E.65859
G1 X131.948 Y139.033 E.02477
G1 X118.964 Y126.05 E.69362
G1 X118.309 Y126.05 E.02477
G1 X131.948 Y139.689 E.72864
G1 X131.948 Y140.344 E.02477
G1 X117.653 Y126.05 E.76367
G1 X116.998 Y126.05 E.02477
G1 X131.948 Y141 E.79869
G1 X131.948 Y141.655 E.02477
M73 P4 R16
G1 X116.342 Y126.05 E.83372
G1 X115.686 Y126.05 E.02477
G1 X131.948 Y142.311 E.86875
G1 X131.948 Y142.967 E.02477
G1 X115.031 Y126.05 E.90377
G1 X114.375 Y126.05 E.02477
G1 X131.948 Y143.622 E.9388
G1 X131.948 Y143.95 E.01238
G1 X131.62 Y143.95 E.01238
G1 X114.047 Y126.378 E.93879
G1 X114.047 Y127.033 E.02477
G1 X130.964 Y143.95 E.90377
G1 X130.309 Y143.95 E.02477
G1 X114.047 Y127.689 E.86874
G1 X114.047 Y128.345 E.02477
G1 X129.653 Y143.95 E.83372
G1 X128.997 Y143.95 E.02477
G1 X114.047 Y129 E.79869
G1 X114.047 Y129.656 E.02477
G1 X128.342 Y143.95 E.76366
G1 X127.686 Y143.95 E.02477
G1 X114.047 Y130.311 E.72864
G1 X114.047 Y130.967 E.02477
G1 X127.03 Y143.95 E.69361
G1 X126.375 Y143.95 E.02477
G1 X114.047 Y131.623 E.65859
G1 X114.047 Y132.278 E.02477
G1 X125.719 Y143.95 E.62356
G1 X125.064 Y143.95 E.02477
G1 X114.047 Y132.934 E.58853
G1 X114.047 Y133.59 E.02477
G1 X124.408 Y143.95 E.55351
G1 X123.752 Y143.95 E.02477
G1 X114.047 Y134.245 E.51848
G1 X114.047 Y134.901 E.02477
G1 X123.097 Y143.95 E.48346
G1 X122.441 Y143.95 E.02477
G1 X114.047 Y135.556 E.44843
G1 X114.047 Y136.212 E.02477
G1 X121.785 Y143.95 E.41341
G1 X121.13 Y143.95 E.02477
G1 X114.047 Y136.868 E.37838
G1 X114.047 Y137.523 E.02477
G1 X120.474 Y143.95 E.34335
G1 X119.819 Y143.95 E.02477
G1 X114.047 Y138.179 E.30833
G1 X114.047 Y138.834 E.02477
G1 X119.163 Y143.95 E.2733
M73 P5 R16
G1 X118.507 Y143.95 E.02477
G1 X114.047 Y139.49 E.23828
G1 X114.047 Y140.146 E.02477
G1 X117.852 Y143.95 E.20325
G1 X117.196 Y143.95 E.02477
G1 X114.047 Y140.801 E.16822
G1 X114.047 Y141.457 E.02477
G1 X116.541 Y143.95 E.1332
G1 X115.885 Y143.95 E.02477
G1 X114.047 Y142.113 E.09817
G1 X114.047 Y142.768 E.02477
G1 X115.229 Y143.95 E.06315
G1 X114.574 Y143.95 E.02477
G1 X113.842 Y143.218 E.03911
; stop printing object xyzCalibration_cube_REMIX.stl id:0 copy 0
M106 S255
;LAYER_CHANGE
;Z:0.4
;HEIGHT:0.2
;BEFORE_LAYER_CHANGE
;0.4
G92 E0

G1 E-.35 F2400
;WIPE_START
G1 F3600
G1 X114.549 Y143.925 E-.15
;WIPE_END
EXCLUDE_OBJECT_END NAME=xyzCalibration_cube_REMIX.stl_id_0_copy_0
;_SET_FAN_SPEED_CHANGING_LAYER
SET_VELOCITY_LIMIT ACCEL=5000 ACCEL_TO_DECEL=2500
M104 S205 ; set nozzle temperature
M140 S55 ; set bed temperature
; printing object xyzCalibration_cube_REMIX.stl id:0 copy 0
SET_VELOCITY_LIMIT SQUARE_CORNER_VELOCITY=8
EXCLUDE_OBJECT_START NAME=xyzCalibration_cube_REMIX.stl_id_0_copy_0
G1 Z.4 F18000
G1 X132.43 Y144.433 Z.4
G1 E.5 F2400
SET_VELOCITY_LIMIT SQUARE_CORNER_VELOCITY=7
;TYPE:Inner wall
;WIDTH:0.419999
G1 F3600
G1 X113.565 Y144.433 E.57969
G1 X113.565 Y125.567 E.57969
G1 X132.43 Y125.567 E.57969
G1 X132.43 Y144.393 E.57846
SET_VELOCITY_LIMIT SQUARE_CORNER_VELOCITY=8
G1 X132.797 Y144.8 F18000
SET_VELOCITY_LIMIT ACCEL=2000 ACCEL_TO_DECEL=1000
;TYPE:Outer wall
;WIDTH:0.399999
G1 F3600
G1 X113.197 Y144.8 E.57031
G1 X113.197 Y125.2 E.57031
G1 X132.797 Y125.2 E.57031
G1 X132.797 Y144.76 E.56915
G1 E-.35 F2400
;WIPE_START
G1 F3600
G1 X131.797 Y144.762 E-.15
;WIPE_END
SET_VELOCITY_LIMIT ACCEL=5000 ACCEL_TO_DECEL=2500
G1 Z.6 F18000
G1 X131.315 Y144.32
G1 Z.6
G1 Z.4
G1 E.5 F2400
;TYPE:Internal solid infill
;WIDTH:0.421124
G1 F6000
G1 X132.148 Y143.487 E.03628
G1 X132.148 Y142.953 E.01648
G1 X130.95 Y144.15 E.05219
G1 X130.415 Y144.15 E.01648
G1 X132.148 Y142.418 E.07551
G1 X132.148 Y141.883 E.01648
G1 X129.88 Y144.15 E.09882
G1 X129.345 Y144.15 E.01648
G1 X132.148 Y141.348 E.12213
G1 X132.148 Y140.813 E.01648
G1 X128.811 Y144.15 E.14544
G1 X128.276 Y144.15 E.01648
G1 X132.148 Y140.278 E.16875
G1 X132.148 Y139.743 E.01648
G1 X127.741 Y144.15 E.19206
G1 X127.206 Y144.15 E.01648
G1 X132.148 Y139.209 E.21538
G1 X132.148 Y138.674 E.01648
G1 X126.671 Y144.15 E.23869
G1 X126.136 Y144.15 E.01648
G1 X132.148 Y138.139 E.262
G1 X132.148 Y137.604 E.01648
G1 X125.601 Y144.15 E.28531
G1 X125.067 Y144.15 E.01648
G1 X132.148 Y137.069 E.30862
G1 X132.148 Y136.534 E.01648
G1 X124.532 Y144.15 E.33193
G1 X123.997 Y144.15 E.01648
G1 X132.148 Y135.999 E.35524
G1 X132.148 Y135.465 E.01648
G1 X123.462 Y144.15 E.37856
G1 X122.927 Y144.15 E.01648
G1 X132.148 Y134.93 E.40187
G1 X132.148 Y134.395 E.01648
G1 X122.392 Y144.15 E.42518
G1 X121.857 Y144.15 E.01648
G1 X132.148 Y133.86 E.44849
G1 X132.148 Y133.325 E.01648
G1 X121.323 Y144.15 E.4718
G1 X120.788 Y144.15 E.01648
G1 X132.148 Y132.79 E.49511
G1 X132.148 Y132.255 E.01648
G1 X120.253 Y144.15 E.51843
G1 X119.718 Y144.15 E.01648
G1 X132.148 Y131.72 E.54174
G1 X132.148 Y131.186 E.01648
G1 X119.183 Y144.15 E.56505
G1 X118.648 Y144.15 E.01648
G1 X132.148 Y130.651 E.58836
G1 X132.148 Y130.116 E.01648
G1 X118.113 Y144.15 E.61167
G1 X117.579 Y144.15 E.01648
G1 X132.148 Y129.581 E.63498
G1 X132.148 Y129.046 E.01648
G1 X117.044 Y144.15 E.6583
G1 X116.509 Y144.15 E.01648
G1 X132.148 Y128.511 E.68161
G1 X132.148 Y127.976 E.01648
G1 X115.974 Y144.15 E.70492
G1 X115.439 Y144.15 E.01648
G1 X132.148 Y127.442 E.72823
G1 X132.148 Y126.907 E.01648
G1 X114.904 Y144.15 E.75154
G1 X114.369 Y144.15 E.01648
G1 X132.148 Y126.372 E.77485
G1 X132.148 Y125.85 E.01609
G1 X113.847 Y144.137 E.79732
G1 X113.847 Y143.602 E.01648
G1 X131.6 Y125.85 E.77373
M73 P6 R16
G1 X131.065 Y125.85 E.01648
G1 X113.847 Y143.068 E.75042
G1 X113.847 Y142.533 E.01648
G1 X130.53 Y125.85 E.72711
G1 X129.995 Y125.85 E.01648
G1 X113.847 Y141.998 E.7038
G1 X113.847 Y141.463 E.01648
G1 X129.46 Y125.85 E.68049
G1 X128.926 Y125.85 E.01648
G1 X113.847 Y140.928 E.65717
G1 X113.847 Y140.393 E.01648
G1 X128.391 Y125.85 E.63386
G1 X127.856 Y125.85 E.01648
G1 X113.847 Y139.858 E.61055
G1 X113.847 Y139.323 E.01648
G1 X127.321 Y125.85 E.58724
G1 X126.786 Y125.85 E.01648
G1 X113.847 Y138.789 E.56393
G1 X113.847 Y138.254 E.01648
G1 X126.251 Y125.85 E.54062
G1 X125.716 Y125.85 E.01648
G1 X113.847 Y137.719 E.5173
G1 X113.847 Y137.184 E.01648
G1 X125.182 Y125.85 E.49399
G1 X124.647 Y125.85 E.01648
G1 X113.847 Y136.649 E.47068
G1 X113.847 Y136.114 E.01648
G1 X124.112 Y125.85 E.44737
G1 X123.577 Y125.85 E.01648
G1 X113.847 Y135.579 E.42406
G1 X113.847 Y135.045 E.01648
G1 X123.042 Y125.85 E.40075
G1 X122.507 Y125.85 E.01648
G1 X113.847 Y134.51 E.37743
G1 X113.847 Y133.975 E.01648
G1 X121.972 Y125.85 E.35412
G1 X121.437 Y125.85 E.01648
G1 X113.847 Y133.44 E.33081
G1 X113.847 Y132.905 E.01648
G1 X120.903 Y125.85 E.3075
G1 X120.368 Y125.85 E.01648
G1 X113.847 Y132.37 E.28419
G1 X113.847 Y131.835 E.01648
G1 X119.833 Y125.85 E.26088
G1 X119.298 Y125.85 E.01648
G1 X113.847 Y131.301 E.23756
G1 X113.847 Y130.766 E.01648
G1 X118.763 Y125.85 E.21425
G1 X118.228 Y125.85 E.01648
G1 X113.847 Y130.231 E.19094
G1 X113.847 Y129.696 E.01648
G1 X117.693 Y125.85 E.16763
G1 X117.159 Y125.85 E.01648
G1 X113.847 Y129.161 E.14432
G1 X113.847 Y128.626 E.01648
G1 X116.624 Y125.85 E.12101
G1 X116.089 Y125.85 E.01648
G1 X113.847 Y128.091 E.0977
G1 X113.847 Y127.557 E.01648
G1 X115.554 Y125.85 E.07438
G1 X115.019 Y125.85 E.01648
G1 X113.847 Y127.022 E.05107
G1 X113.847 Y126.487 E.01648
G1 X114.654 Y125.68 E.03516
G1 X113.955 Y125.896 F18000
;WIDTH:0.401052
G1 F6000
G1 X113.887 Y125.935 E.00226
G1 X113.957 Y125.969 E.00227
G1 X132.079 Y144.017 F18000
;WIDTH:0.416098
G1 F6000
G1 X132.009 Y144.058 E.00246
G1 X132.082 Y144.092 E.00247
; stop printing object xyzCalibration_cube_REMIX.stl id:0 copy 0
;LAYER_CHANGE
;Z:0.6
;HEIGHT:0.2
;BEFORE_LAYER_CHANGE
;0.6
G92 E0

G1 E-.43526 F2400
;WIPE_START
G1 F6000
G1 X132.009 Y144.058 E-.03243
G1 X132.079 Y144.017 E-.03232
;WIPE_END
EXCLUDE_OBJECT_END NAME=xyzCalibration_cube_REMIX.stl_id_0_copy_0
;_SET_FAN_SPEED_CHANGING_LAYER
; printing object xyzCalibration_cube_REMIX.stl id:0 copy 0
EXCLUDE_OBJECT_START NAME=xyzCalibration_cube_REMIX.stl_id_0_copy_0
G1 Z.6 F18000
G1 X132.43 Y144.433 Z.6
G1 Z.6
G1 E.5 F2400
SET_VELOCITY_LIMIT SQUARE_CORNER_VELOCITY=7
;TYPE:Inner wall
;WIDTH:0.419999
G1 F3600
G1 X113.565 Y144.433 E.57969
G1 X113.565 Y125.567 E.57969
G1 X132.43 Y125.567 E.57969
G1 X132.43 Y144.393 E.57846
SET_VELOCITY_LIMIT SQUARE_CORNER_VELOCITY=8
G1 X132.797 Y144.8 F18000
SET_VELOCITY_LIMIT ACCEL=2000 ACCEL_TO_DECEL=1000
;TYPE:Outer wall
;WIDTH:0.399999
G1 F3600
G1 X113.197 Y144.8 E.57031
G1 X113.197 Y125.2 E.57031
G1 X132.797 Y125.2 E.57031
G1 X132.797 Y144.76 E.56915
G1 E-.35 F2400
;WIPE_START
G1 F3600
G1 X131.797 Y144.762 E-.15
;WIPE_END
SET_VELOCITY_LIMIT ACCEL=5000 ACCEL_TO_DECEL=2500
G1 Z.8 F18000
G1 X113.955 Y144.027
G1 Z.8
G1 Z.6
G1 E.5 F2400
;TYPE:Internal solid infill
;WIDTH:0.401052
G1 F6000
G1 X113.887 Y144.065 E.00226
G1 X113.957 Y144.1 E.00227
G1 X131.315 Y125.68 F18000
;WIDTH:0.421124
G1 F6000
G1 X132.148 Y126.513 E.03628
G1 X132.148 Y127.047 E.01648
G1 X130.95 Y125.85 E.05219
G1 X130.415 Y125.85 E.01648
G1 X132.148 Y127.582 E.07551
G1 X132.148 Y128.117 E.01648
G1 X129.88 Y125.85 E.09882
G1 X129.345 Y125.85 E.01648
G1 X132.148 Y128.652 E.12213
G1 X132.148 Y129.187 E.01648
G1 X128.811 Y125.85 E.14544
G1 X128.276 Y125.85 E.01648
G1 X132.148 Y129.722 E.16875
G1 X132.148 Y130.257 E.01648
G1 X127.741 Y125.85 E.19206
G1 X127.206 Y125.85 E.01648
G1 X132.148 Y130.791 E.21537
G1 X132.148 Y131.326 E.01648
G1 X126.671 Y125.85 E.23869
G1 X126.136 Y125.85 E.01648
G1 X132.148 Y131.861 E.262
G1 X132.148 Y132.396 E.01648
G1 X125.601 Y125.85 E.28531
G1 X125.067 Y125.85 E.01648
G1 X132.148 Y132.931 E.30862
G1 X132.148 Y133.466 E.01648
G1 X124.532 Y125.85 E.33193
G1 X123.997 Y125.85 E.01648
M73 P6 R15
G1 X132.148 Y134.001 E.35524
G1 X132.148 Y134.535 E.01648
G1 X123.462 Y125.85 E.37856
G1 X122.927 Y125.85 E.01648
M73 P7 R15
G1 X132.148 Y135.07 E.40187
G1 X132.148 Y135.605 E.01648
G1 X122.392 Y125.85 E.42518
G1 X121.857 Y125.85 E.01648
G1 X132.148 Y136.14 E.44849
G1 X132.148 Y136.675 E.01648
G1 X121.323 Y125.85 E.4718
G1 X120.788 Y125.85 E.01648
G1 X132.148 Y137.21 E.49511
G1 X132.148 Y137.745 E.01648
G1 X120.253 Y125.85 E.51843
G1 X119.718 Y125.85 E.01648
G1 X132.148 Y138.28 E.54174
G1 X132.148 Y138.814 E.01648
G1 X119.183 Y125.85 E.56505
G1 X118.648 Y125.85 E.01648
G1 X132.148 Y139.349 E.58836
G1 X132.148 Y139.884 E.01648
G1 X118.113 Y125.85 E.61167
G1 X117.579 Y125.85 E.01648
G1 X132.148 Y140.419 E.63498
G1 X132.148 Y140.954 E.01648
G1 X117.044 Y125.85 E.6583
G1 X116.509 Y125.85 E.01648
G1 X132.148 Y141.489 E.68161
G1 X132.148 Y142.024 E.01648
G1 X115.974 Y125.85 E.70492
G1 X115.439 Y125.85 E.01648
G1 X132.148 Y142.558 E.72823
G1 X132.148 Y143.093 E.01648
G1 X114.904 Y125.85 E.75154
G1 X114.369 Y125.85 E.01648
G1 X132.148 Y143.628 E.77485
G1 X132.148 Y144.15 E.01609
G1 X113.847 Y125.863 E.79732
G1 X113.847 Y126.398 E.01648
G1 X131.6 Y144.15 E.77373
G1 X131.065 Y144.15 E.01648
G1 X113.847 Y126.932 E.75042
G1 X113.847 Y127.467 E.01648
G1 X130.53 Y144.15 E.72711
G1 X129.995 Y144.15 E.01648
G1 X113.847 Y128.002 E.7038
G1 X113.847 Y128.537 E.01648
G1 X129.46 Y144.15 E.68049
G1 X128.926 Y144.15 E.01648
G1 X113.847 Y129.072 E.65717
G1 X113.847 Y129.607 E.01648
G1 X128.391 Y144.15 E.63386
G1 X127.856 Y144.15 E.01648
G1 X113.847 Y130.142 E.61055
G1 X113.847 Y130.677 E.01648
G1 X127.321 Y144.15 E.58724
G1 X126.786 Y144.15 E.01648
G1 X113.847 Y131.211 E.56393
G1 X113.847 Y131.746 E.01648
G1 X126.251 Y144.15 E.54062
G1 X125.716 Y144.15 E.01648
G1 X113.847 Y132.281 E.5173
G1 X113.847 Y132.816 E.01648
G1 X125.182 Y144.15 E.49399
G1 X124.647 Y144.15 E.01648
G1 X113.847 Y133.351 E.47068
G1 X113.847 Y133.886 E.01648
G1 X124.112 Y144.15 E.44737
G1 X123.577 Y144.15 E.01648
G1 X113.847 Y134.421 E.42406
G1 X113.847 Y134.955 E.01648
G1 X123.042 Y144.15 E.40075
G1 X122.507 Y144.15 E.01648
G1 X113.847 Y135.49 E.37743
G1 X113.847 Y136.025 E.01648
G1 X121.972 Y144.15 E.35412
G1 X121.437 Y144.15 E.01648
G1 X113.847 Y136.56 E.33081
G1 X113.847 Y137.095 E.01648
G1 X120.903 Y144.15 E.3075
G1 X120.368 Y144.15 E.01648
G1 X113.847 Y137.63 E.28419
G1 X113.847 Y138.165 E.01648
G1 X119.833 Y144.15 E.26088
G1 X119.298 Y144.15 E.01648
G1 X113.847 Y138.699 E.23756
G1 X113.847 Y139.234 E.01648
G1 X118.763 Y144.15 E.21425
G1 X118.228 Y144.15 E.01648
G1 X113.847 Y139.769 E.19094
G1 X113.847 Y140.304 E.01648
G1 X117.693 Y144.15 E.16763
G1 X117.159 Y144.15 E.01648
G1 X113.847 Y140.839 E.14432
G1 X113.847 Y141.374 E.01648
G1 X116.624 Y144.15 E.12101
